AlexandreBanks6/ExpertPlaybackApp/resources/Motions/PC1/Data_PC1_29.csv
Task Time,PC1 Time,PC2 Time,Gaze Calib,s_T_psm1,Tx,Ty,Tz,R00,R01,R02,R10,R11,R12,R20,R21,R22,s_T_psm3,Tx,Ty,Tz,R00,R01,R02,R10,R11,R12,R20,R21,R22,cart_T_ecm,Tx,Ty,Tz,R00,R01,R02,R10,R11,R12,R20,R21,R22,ecm_T_psm1,Tx,Ty,Tz,R00,R01,R02,R10,R11,R12,R20,R21,R22,ecm_T_psm3,Tx,Ty,Tz,R00,R01,R02,R10,R11,R12,R20,R21,R22,psm1_joints,q1,q2,q3,q4,q5,q6,jaw,psm3_joints,q1,q2,q3,q4,q5,q6,jaw,ecm_joints,q1,q2,q3,q4,ecmi_T_ecm,Tx,Ty,Tz,R00,R01,R02,R10,R11,R12,R20,R21,R22,Sample #,Task Duration (s),Collisions (binary),Collisions (increments),Cumulative Collision Time (s)
""
lci_T_si,,,,,-0.06886932,0.020752084,0.27512208,0.9954985,0.03986373,0.08598621,0.08549342,-0.76930076,-0.63314074,0.04090991,0.6376419,-0.76924586
rci_T_si,,,,,-0.07899528,0.025557153,0.2850184,0.9954069,0.02111666,0.093376406,0.076827765,-0.7581446,-0.6475448,0.057118837,0.6517445,-0.7562847
ecm_T_lc,,,,,-4.4061628e-05,-0.00034663224,-0.01840835,-0.99912,0.030754527,0.028518902,-0.031987965,-0.99852574,-0.043852776,0.027128186,-0.04472645,0.9986309
ecm_T_rc,,,,,-0.0043358393,0.01870579,-0.007592615,-0.99555075,-0.052743673,-0.078081585,0.04863213,-0.9973746,0.053654674,-0.08070653,0.04961868,0.9955021
cart_T_ecmi,,,,,0.08864471,1.3406557,0.47494707,0.99604553,0.0027576487,-0.08880159,-0.05387383,-0.7760416,-0.6283765,-0.07064658,0.6306757,-0.77282417
ecmac_T_ecmrep_psm1,,,,,0.08626859,-0.2052861,-0.33370098,0.999004,0.025128257,0.036871605,-0.023534218,0.9987958,-0.04304718,-0.037908904,0.04213656,0.9983924
ecmac_T_ecmrep_psm3,,,,,-0.16209933,-0.49188918,-0.56672233,0.99379694,-0.09876928,0.05111077,0.087427974,0.9779163,0.18983154,-0.068731576,-0.18418549,0.98048544
""
0,10:49:14.247980,NaN,0,,0.028349118,0.04993818,0.074795425,-0.8671221,-0.36987013,-0.33360922,-0.4915449,0.74369526,0.45310155,0.08051479,0.5568785,-0.8266823,,0.14067319,-0.044962175,0.07083276,-0.74314517,-0.6174793,0.25778762,-0.44482777,0.74369776,0.49904084,-0.49986362,0.2561887,-0.8273474,,0.08859776,1.3406581,0.47494057,0.9960486,0.0028024097,-0.08876535,-0.053816378,-0.77604145,-0.6283816,-0.07064658,0.6306757,-0.77282417,,-0.07266099,0.2788335,-0.089131005,0.88155967,0.2837974,0.37724206,-0.24622457,0.95823187,-0.14548239,-0.4027729,0.035365142,0.91461647,,0.05515107,0.44406408,-0.3831928,0.8665761,0.45701677,-0.20045352,-0.4980137,0.7661447,-0.40620762,-0.032067284,0.4518384,0.8915233,,0.8183548344829487,-0.08605441241748371,0.15336277361,0.637038048305985,0.1186004817964023,0.30416851620138563,0.8702971843634397,,-0.6228924654363263,-0.6848365058204811,0.12736827024000003,1.4489575094780633,0.2273631356096929,0.7896814080471868,0.8676836793052914,,-0.06956664232292899,-0.10007281598622488,0.10184858632,-0.034016912529394594,,-4.6435744e-05,-5.9604645e-06,7.6293945e-06,1.0,4.4576824e-05,3.637001e-05,-4.45731e-05,1.0,4.082918e-06,-3.6381185e-05,-4.053116e-06,0.99999994,NaN,NaN,NaN,NaN,NaN
0.016187045999686234,10:49:14.266001,NaN,0,,0.028349118,0.04993818,0.074795425,-0.8671221,-0.36987013,-0.33360922,-0.4915449,0.74369526,0.45310155,0.08051479,0.5568785,-0.8266823,,0.14067319,-0.044962175,0.07083276,-0.74314517,-0.6174793,0.25778762,-0.44482777,0.74369776,0.49904084,-0.49986362,0.2561887,-0.8273474,,0.08859776,1.3406581,0.47494057,0.9960486,0.0028024097,-0.08876535,-0.053816378,-0.77604145,-0.6283816,-0.07064658,0.6306757,-0.77282417,,-0.07266099,0.2788335,-0.089131005,0.88155967,0.2837974,0.37724206,-0.24622457,0.95823187,-0.14548239,-0.4027729,0.035365142,0.91461647,,0.05515107,0.44406408,-0.3831928,0.8665761,0.45701677,-0.20045352,-0.4980137,0.7661447,-0.40620762,-0.032067284,0.4518384,0.8915233,,0.8183548344829487,-0.08605441241748371,0.15336277361,0.637038048305985,0.1186004817964023,0.30416851620138563,0.8702971843634397,,-0.6228924654363263,-0.6848365058204811,0.12736827024000003,1.4489575094780633,0.2273631356096929,0.7896814080471868,0.8676836793052914,,-0.06956664232292899,-0.10007281598622488,0.10184858632,-0.034016912529394594,,-4.6435744e-05,-5.9604645e-06,7.6293945e-06,1.0,4.4576824e-05,3.637001e-05,-4.45731e-05,1.0,4.082918e-06,-3.6381185e-05,-4.053116e-06,0.99999994,6,0.018,0,0,0.0
0.033827360999566736,10:49:14.281769,NaN,0,,0.028349118,0.04993818,0.074795425,-0.8671221,-0.36987013,-0.33360922,-0.4915449,0.74369526,0.45310155,0.08051479,0.5568785,-0.8266823,,0.14067319,-0.044962175,0.07083276,-0.74314517,-0.6174793,0.25778762,-0.44482777,0.74369776,0.49904084,-0.49986362,0.2561887,-0.8273474,,0.08859776,1.3406581,0.47494057,0.9960486,0.0028024097,-0.08876535,-0.053816378,-0.77604145,-0.6283816,-0.07064658,0.6306757,-0.77282417,,-0.07266099,0.2788335,-0.089131005,0.88155967,0.2837974,0.37724206,-0.24622457,0.95823187,-0.14548239,-0.4027729,0.035365142,0.91461647,,0.05515107,0.44406408,-0.3831928,0.8665761,0.45701677,-0.20045352,-0.4980137,0.7661447,-0.40620762,-0.032067284,0.4518384,0.8915233,,0.8183548344829487,-0.08605441241748371,0.15336277361,0.637038048305985,0.1186004817964023,0.30416851620138563,0.8702971843634397,,-0.6228924654363263,-0.6848365058204811,0.12736827024000003,1.4489575094780633,0.2273631356096929,0.7896814080471868,0.8676836793052914,,-0.06956664232292899,-0.10007281598622488,0.10184858632,-0.034016912529394594,,-4.6435744e-05,-5.9604645e-06,7.6293945e-06,1.0,4.4576824e-05,3.637001e-05,-4.45731e-05,1.0,4.082918e-06,-3.6381185e-05,-4.053116e-06,0.99999994,10,0.03,0,0,0.0
0.049977087999650394,10:49:14.299593,NaN,0,,0.028349118,0.04993818,0.074795425,-0.8671221,-0.36987013,-0.33360922,-0.4915449,0.74369526,0.45310155,0.08051479,0.5568785,-0.8266823,,0.14067319,-0.044962175,0.07083276,-0.74314517,-0.6174793,0.25778762,-0.44482777,0.74369776,0.49904084,-0.49986362,0.2561887,-0.8273474,,0.08859776,1.3406581,0.47494057,0.9960486,0.0028024097,-0.08876535,-0.053816378,-0.77604145,-0.6283816,-0.07064658,0.6306757,-0.77282417,,-0.07266099,0.2788335,-0.089131005,0.88155967,0.2837974,0.37724206,-0.24622457,0.95823187,-0.14548239,-0.4027729,0.035365142,0.91461647,,0.05515107,0.44406408,-0.3831928,0.8665761,0.45701677,-0.20045352,-0.4980137,0.7661447,-0.40620762,-0.032067284,0.4518384,0.8915233,,0.8183548344829487,-0.08605441241748371,0.15336277361,0.637038048305985,0.1186004817964023,0.30416851620138563,0.8702971843634397,,-0.6228924654363263,-0.6848365058204811,0.12736827024000003,1.4489575094780633,0.2273631356096929,0.7896814080471868,0.8676836793052914,,-0.06956664232292899,-0.10007281598622488,0.10184858632,-0.034016912529394594,,-4.6435744e-05,-5.9604645e-06,7.6293945e-06,1.0,4.4576824e-05,3.637001e-05,-4.45731e-05,1.0,4.082918e-06,-3.6381185e-05,-4.053116e-06,0.99999994,17,0.051,0,0,0.0
0.06697715500013146,10:49:14.316077,NaN,0,,0.028349588,0.049939208,0.074795425,-0.86712366,-0.36986974,-0.33360565,-0.49154314,0.74369246,0.45310792,0.08050901,0.55688244,-0.8266803,,0.14067307,-0.04496131,0.0708324,-0.7431449,-0.61748093,0.2577844,-0.44482636,0.7436943,0.49904725,-0.49986503,0.25619516,-0.82734454,,0.08859776,1.3406581,0.47494057,0.9960486,0.0028024097,-0.08876535,-0.053816378,-0.77604145,-0.6283816,-0.07064658,0.6306757,-0.77282417,,-0.072661504,0.27883428,-0.08913035,0.8815616,0.28379688,0.377238,-0.24622674,0.9582322,-0.14547652,-0.4027674,0.03536043,0.9146191,,0.05515113,0.44406435,-0.38319194,0.8665759,0.4570178,-0.20045175,-0.49801403,0.76614803,-0.40620095,-0.032065354,0.45183176,0.8915267,,0.8183548344829487,-0.08604668968460949,0.15336277361,0.637038048305985,0.1186004817964023,0.30416851620138563,0.8702971843634397,,-0.6228924654363263,-0.6848287830876069,0.12736827024000003,1.4489575094780633,0.2273631356096929,0.7896814080471868,0.8676836793052914,,-0.06956664232292899,-0.10007281598622488,0.10184858632,-0.034016912529394594,,-4.6435744e-05,-5.9604645e-06,7.6293945e-06,1.0,4.4576824e-05,3.637001e-05,-4.45731e-05,1.0,4.082918e-06,-3.6381185e-05,-4.053116e-06,0.99999994,21,0.063,0,0,0.0
0.08428544300022622,10:49:14.332903,NaN,0,,0.028349118,0.04993818,0.074795425,-0.8671221,-0.36987013,-0.33360922,-0.4915449,0.74369526,0.45310155,0.08051479,0.5568785,-0.8266823,,0.14067307,-0.04496131,0.0708324,-0.7431449,-0.61748093,0.2577844,-0.44482636,0.7436943,0.49904725,-0.49986503,0.25619516,-0.82734454,,0.08859776,1.3406581,0.47494057,0.9960486,0.0028024097,-0.08876535,-0.053816378,-0.77604145,-0.6283816,-0.07064658,0.6306757,-0.77282417,,-0.07266099,0.2788335,-0.089131005,0.88155967,0.2837974,0.37724206,-0.24622457,0.95823187,-0.14548239,-0.4027729,0.035365142,0.91461647,,0.05515113,0.44406435,-0.38319194,0.8665759,0.4570178,-0.20045175,-0.49801403,0.76614803,-0.40620095,-0.032065354,0.45183176,0.8915267,,0.8183548344829487,-0.08605441241748371,0.15336277361,0.637038048305985,0.1186004817964023,0.30416851620138563,0.8702971843634397,,-0.6228924654363263,-0.6848287830876069,0.12736827024000003,1.4489575094780633,0.2273631356096929,0.7896814080471868,0.8676836793052914,,-0.06956664232292899,-0.10007281598622488,0.10184858632,-0.034016912529394594,,-4.6435744e-05,-5.9604645e-06,7.6293945e-06,1.0,4.4576824e-05,3.637001e-05,-4.45731e-05,1.0,4.082918e-06,-3.6381185e-05,-4.053116e-06,0.99999994,29,0.087,0,0,0.0
0.10109858899977553,10:49:14.351685,NaN,0,,0.028349118,0.04993818,0.074795425,-0.8671221,-0.36987013,-0.33360922,-0.4915449,0.74369526,0.45310155,0.08051479,0.5568785,-0.8266823,,0.14067319,-0.044962175,0.07083276,-0.74314517,-0.6174793,0.25778762,-0.44482777,0.74369776,0.49904084,-0.49986362,0.2561887,-0.8273474,,0.08859776,1.3406581,0.47494057,0.9960486,0.0028024097,-0.08876535,-0.053816378,-0.77604145,-0.6283816,-0.07064658,0.6306757,-0.77282417,,-0.07266099,0.2788335,-0.089131005,0.88155967,0.2837974,0.37724206,-0.24622457,0.95823187,-0.14548239,-0.4027729,0.035365142,0.91461647,,0.05515107,0.44406408,-0.3831928,0.8665761,0.45701677,-0.20045352,-0.4980137,0.7661447,-0.40620762,-0.032067284,0.4518384,0.8915233,,0.8183548344829487,-0.08605441241748371,0.15336277361,0.637038048305985,0.1186004817964023,0.30416851620138563,0.8702971843634397,,-0.6228924654363263,-0.6848365058204811,0.12736827024000003,1.4489575094780633,0.2273631356096929,0.7896814080471868,0.8676836793052914,,-0.06956664232292899,-0.10007281598622488,0.10184858632,-0.034016912529394594,,-4.6435744e-05,-5.9604645e-06,7.6293945e-06,1.0,4.4576824e-05,3.637001e-05,-4.45731e-05,1.0,4.082918e-06,-3.6381185e-05,-4.053116e-06,0.99999994,36,0.108,0,0,0.0
0.11989361799987819,10:49:14.373605,NaN,0,,0.028350102,0.049937747,0.07479501,-0.86712307,-0.36987343,-0.33360317,-0.491544,0.74369735,0.4530991,0.08051038,0.5568735,-0.82668614,,0.14067319,-0.044962175,0.07083276,-0.74314517,-0.6174793,0.25778762,-0.44482777,0.74369776,0.49904084,-0.49986362,0.2561887,-0.8273474,,0.08859776,1.3406581,0.47494057,0.9960486,0.0028024097,-0.08876535,-0.053816378,-0.77604145,-0.6283816,-0.07064658,0.6306757,-0.77282417,,-0.07266191,0.27883285,-0.08913095,0.8815609,0.28380102,0.3772365,-0.24622658,0.9582306,-0.14548728,-0.40276897,0.03537025,0.914618,,0.05515107,0.44406408,-0.3831928,0.8665761,0.45701677,-0.20045352,-0.4980137,0.7661447,-0.40620762,-0.032067284,0.4518384,0.8915233,,0.8183471117500744,-0.08605441241748371,0.15336277361,0.637038048305985,0.1186004817964023,0.30416851620138563,0.8702971843634397,,-0.6228924654363263,-0.6848365058204811,0.12736827024000003,1.4489575094780633,0.2273631356096929,0.7896814080471868,0.8676836793052914,,-0.06956664232292899,-0.10007281598622488,0.10184858632,-0.034016912529394594,,-4.6435744e-05,-5.9604645e-06,7.6293945e-06,1.0,4.4576824e-05,3.637001e-05,-4.45731e-05,1.0,4.082918e-06,-3.6381185e-05,-4.053116e-06,0.99999994,44,0.132,0,0,0.0
0.14177257400024246,10:49:14.408977,NaN,0,,0.028349118,0.04993818,0.074795425,-0.8671221,-0.36987013,-0.33360922,-0.4915449,0.74369526,0.45310155,0.08051479,0.5568785,-0.8266823,,0.14067447,-0.044961758,0.070833296,-0.74314004,-0.6174799,0.2578009,-0.44482177,0.7436987,0.49904475,-0.49987638,0.2561847,-0.82734084,,0.08859776,1.3406581,0.47494057,0.9960486,0.0028024097,-0.08876535,-0.053816378,-0.77604145,-0.6283816,-0.07064658,0.6306757,-0.77282417,,-0.07266099,0.2788335,-0.089131005,0.88155967,0.2837974,0.37724206,-0.24622457,0.95823187,-0.14548239,-0.4027729,0.035365142,0.91461647,,0.055149682,0.44406447,-0.38319287,0.86657214,0.45701775,-0.20046808,-0.49802125,0.76614225,-0.40620297,-0.0320549,0.45184156,0.8915221,,0.8183548344829487,-0.08605441241748371,0.15336277361,0.637038048305985,0.1186004817964023,0.30416851620138563,0.8702971843634397,,-0.6229079109020748,-0.6848365058204811,0.12736827024000003,1.4489575094780633,0.2273631356096929,0.7896814080471868,0.8676836793052914,,-0.06956664232292899,-0.10007281598622488,0.10184858632,-0.034016912529394594,,-4.6435744e-05,-5.9604645e-06,7.6293945e-06,1.0,4.4576824e-05,3.637001e-05,-4.45731e-05,1.0,4.082918e-06,-3.6381185e-05,-4.053116e-06,0.99999994,59,0.177,0,0,0.0
0.17713743100011925,10:49:14.436636,NaN,0,,0.028349118,0.04993818,0.074795425,-0.8671221,-0.36987013,-0.33360922,-0.4915449,0.74369526,0.45310155,0.08051479,0.5568785,-0.8266823,,0.1406737,-0.044961102,0.0708327,-0.7431424,-0.6174812,0.25779104,-0.44482338,0.7436947,0.4990492,-0.49987146,0.2561932,-0.82734126,,0.08859776,1.3406581,0.47494057,0.9960486,0.0028024097,-0.08876535,-0.053816378,-0.77604145,-0.6283816,-0.07064658,0.6306757,-0.77282417,,-0.07266099,0.2788335,-0.089131005,0.88155967,0.2837974,0.37724206,-0.24622457,0.95823187,-0.14548239,-0.4027729,0.035365142,0.91461647,,0.055150438,0.44406456,-0.38319194,0.866574,0.4570183,-0.20045903,-0.49801782,0.7661468,-0.40619862,-0.03205916,0.45183334,0.89152616,,0.8183548344829487,-0.08605441241748371,0.15336277361,0.637038048305985,0.1186004817964023,0.30416851620138563,0.8702971843634397,,-0.6229001881692005,-0.6848287830876069,0.12736827024000003,1.4489575094780633,0.2273631356096929,0.7896814080471868,0.8676836793052914,,-0.06956664232292899,-0.10007281598622488,0.10184858632,-0.034016912529394594,,-4.6435744e-05,-5.9604645e-06,7.6293945e-06,1.0,4.4576824e-05,3.637001e-05,-4.45731e-05,1.0,4.082918e-06,-3.6381185e-05,-4.053116e-06,0.99999994,63,0.19,0,0,0.0
0.20484327699978166,10:49:14.458676,NaN,0,,0.028349118,0.04993818,0.074795425,-0.8671221,-0.36987013,-0.33360922,-0.4915449,0.74369526,0.45310155,0.08051479,0.5568785,-0.8266823,,0.14067319,-0.044962175,0.07083276,-0.74314517,-0.6174793,0.25778762,-0.44482777,0.74369776,0.49904084,-0.49986362,0.2561887,-0.8273474,,0.08859776,1.3406581,0.47494057,0.9960486,0.0028024097,-0.08876535,-0.053816378,-0.77604145,-0.6283816,-0.07064658,0.6306757,-0.77282417,,-0.07266099,0.2788335,-0.089131005,0.88155967,0.2837974,0.37724206,-0.24622457,0.95823187,-0.14548239,-0.4027729,0.035365142,0.91461647,,0.05515107,0.44406408,-0.3831928,0.8665761,0.45701677,-0.20045352,-0.4980137,0.7661447,-0.40620762,-0.032067284,0.4518384,0.8915233,,0.8183548344829487,-0.08605441241748371,0.15336277361,0.637038048305985,0.1186004817964023,0.30416851620138563,0.8702971843634397,,-0.6228924654363263,-0.6848365058204811,0.12736827024000003,1.4489575094780633,0.2273631356096929,0.7896814080471868,0.8676836793052914,,-0.06956664232292899,-0.10007281598622488,0.10184858632,-0.034016912529394594,,-4.6435744e-05,-5.9604645e-06,7.6293945e-06,1.0,4.4576824e-05,3.637001e-05,-4.45731e-05,1.0,4.082918e-06,-3.6381185e-05,-4.053116e-06,0.99999994,71,0.214,0,0,0.0
0.22687231199961388,10:49:14.474461,NaN,0,,0.028350102,0.049937747,0.07479501,-0.86712307,-0.36987343,-0.33360317,-0.491544,0.74369735,0.4530991,0.08051038,0.5568735,-0.82668614,,0.14067319,-0.044962175,0.07083276,-0.74314517,-0.6174793,0.25778762,-0.44482777,0.74369776,0.49904084,-0.49986362,0.2561887,-0.8273474,,0.08859776,1.3406581,0.47494057,0.9960486,0.0028024097,-0.08876535,-0.053816378,-0.77604145,-0.6283816,-0.07064658,0.6306757,-0.77282417,,-0.07266191,0.27883285,-0.08913095,0.8815609,0.28380102,0.3772365,-0.24622658,0.9582306,-0.14548728,-0.40276897,0.03537025,0.914618,,0.05515107,0.44406408,-0.3831928,0.8665761,0.45701677,-0.20045352,-0.4980137,0.7661447,-0.40620762,-0.032067284,0.4518384,0.8915233,,0.8183471117500744,-0.08605441241748371,0.15336277361,0.637038048305985,0.1186004817964023,0.30416851620138563,0.8702971843634397,,-0.6228924654363263,-0.6848365058204811,0.12736827024000003,1.4489575094780633,0.2273631356096929,0.7896814080471868,0.8676836793052914,,-0.06956664232292899,-0.10007281598622488,0.10184858632,-0.034016912529394594,,-4.6435744e-05,-5.9604645e-06,7.6293945e-06,1.0,4.4576824e-05,3.637001e-05,-4.45731e-05,1.0,4.082918e-06,-3.6381185e-05,-4.053116e-06,0.99999994,75,0.227,0,0,0.0
0.24256671799957985,10:49:14.498125,NaN,0,,0.028349118,0.04993818,0.074795425,-0.8671221,-0.36987013,-0.33360922,-0.4915449,0.74369526,0.45310155,0.08051479,0.5568785,-0.8266823,,0.14067319,-0.044962175,0.07083276,-0.74314517,-0.6174793,0.25778762,-0.44482777,0.74369776,0.49904084,-0.49986362,0.2561887,-0.8273474,,0.08859776,1.3406581,0.47494057,0.9960486,0.0028024097,-0.08876535,-0.053816378,-0.77604145,-0.6283816,-0.07064658,0.6306757,-0.77282417,,-0.07266099,0.2788335,-0.089131005,0.88155967,0.2837974,0.37724206,-0.24622457,0.95823187,-0.14548239,-0.4027729,0.035365142,0.91461647,,0.05515107,0.44406408,-0.3831928,0.8665761,0.45701677,-0.20045352,-0.4980137,0.7661447,-0.40620762,-0.032067284,0.4518384,0.8915233,,0.8183548344829487,-0.08605441241748371,0.15336277361,0.637038048305985,0.1186004817964023,0.30416851620138563,0.8702971843634397,,-0.6228924654363263,-0.6848365058204811,0.12736827024000003,1.4489575094780633,0.2273631356096929,0.7896814080471868,0.8676836793052914,,-0.06956664232292899,-0.10007281598622488,0.10184858632,-0.034016912529394594,,-4.6435744e-05,-5.9604645e-06,7.6293945e-06,1.0,4.4576824e-05,3.637001e-05,-4.45731e-05,1.0,4.082918e-06,-3.6381185e-05,-4.053116e-06,0.99999994,83,0.25,0,0,0.0
0.26590474899967376,10:49:14.516015,NaN,0,,0.02835107,0.049937345,0.07479465,-0.86712396,-0.3698768,-0.3335971,-0.4915431,0.74369943,0.45309657,0.08050601,0.5568685,-0.82668996,,0.14067319,-0.044962175,0.07083276,-0.74314517,-0.6174793,0.25778762,-0.44482777,0.74369776,0.49904084,-0.49986362,0.2561887,-0.8273474,,0.08859776,1.3406581,0.47494057,0.9960486,0.0028024097,-0.08876535,-0.053816378,-0.77604145,-0.6283816,-0.07064658,0.6306757,-0.77282417,,-0.07266282,0.2788322,-0.0891309,0.8815621,0.28380466,0.37723088,-0.24622859,0.95822936,-0.14549217,-0.40276507,0.03537536,0.9146195,,0.05515107,0.44406408,-0.3831928,0.8665761,0.45701677,-0.20045352,-0.4980137,0.7661447,-0.40620762,-0.032067284,0.4518384,0.8915233,,0.8183393890172002,-0.08605441241748371,0.15336277361,0.637038048305985,0.1186004817964023,0.30416851620138563,0.8702971843634397,,-0.6228924654363263,-0.6848365058204811,0.12736827024000003,1.4489575094780633,0.2273631356096929,0.7896814080471868,0.8676836793052914,,-0.06956664232292899,-0.10007281598622488,0.10184858632,-0.034016912529394594,,-4.6435744e-05,-5.9604645e-06,7.6293945e-06,1.0,4.4576824e-05,3.637001e-05,-4.45731e-05,1.0,4.082918e-06,-3.6381185e-05,-4.053116e-06,0.99999994,90,0.272,0,0,0.0
0.28421040000012,10:49:14.535667,NaN,0,,0.02835107,0.049937345,0.07479465,-0.86712396,-0.3698768,-0.3335971,-0.4915431,0.74369943,0.45309657,0.08050601,0.5568685,-0.82668996,,0.14067307,-0.04496131,0.0708324,-0.7431449,-0.61748093,0.2577844,-0.44482636,0.7436943,0.49904725,-0.49986503,0.25619516,-0.82734454,,0.08859776,1.3406581,0.47494057,0.9960486,0.0028024097,-0.08876535,-0.053816378,-0.77604145,-0.6283816,-0.07064658,0.6306757,-0.77282417,,-0.07266282,0.2788322,-0.0891309,0.8815621,0.28380466,0.37723088,-0.24622859,0.95822936,-0.14549217,-0.40276507,0.03537536,0.9146195,,0.05515113,0.44406435,-0.38319194,0.8665759,0.4570178,-0.20045175,-0.49801403,0.76614803,-0.40620095,-0.032065354,0.45183176,0.8915267,,0.8183393890172002,-0.08605441241748371,0.15336277361,0.637038048305985,0.1186004817964023,0.30416851620138563,0.8702971843634397,,-0.6228924654363263,-0.6848287830876069,0.12736827024000003,1.4489575094780633,0.2273631356096929,0.7896814080471868,0.8676836793052914,,-0.06956664232292899,-0.10007281598622488,0.10184858632,-0.034016912529394594,,-4.6435744e-05,-5.9604645e-06,7.6293945e-06,1.0,4.4576824e-05,3.637001e-05,-4.45731e-05,1.0,4.082918e-06,-3.6381185e-05,-4.053116e-06,0.99999994,94,0.284,0,0,0.0
0.303872489999776,10:49:14.552683,NaN,0,,0.02835107,0.049937345,0.07479465,-0.86712396,-0.3698768,-0.3335971,-0.4915431,0.74369943,0.45309657,0.08050601,0.5568685,-0.82668996,,0.14067134,-0.044963308,0.07083151,-0.7433145,-0.61739254,0.25750703,-0.4447794,0.74367285,0.499121,-0.4996547,0.25647008,-0.8273864,,0.08859776,1.3406581,0.47494057,0.9960486,0.0028024097,-0.08876535,-0.053816378,-0.77604145,-0.6283816,-0.07064658,0.6306757,-0.77282417,,-0.07266282,0.2788322,-0.0891309,0.8815621,0.28380466,0.37723088,-0.24622859,0.95822936,-0.14549217,-0.40276507,0.03537536,0.9146195,,0.05515323,0.44406283,-0.3831929,0.8667033,0.4568932,-0.20018497,-0.49778685,0.76633185,-0.40613267,-0.032151133,0.45164594,0.8916178,,0.8183393890172002,-0.08605441241748371,0.15336277361,0.637038048305985,0.1186004817964023,0.30416851620138563,0.8702971843634397,,-0.6228924654363263,-0.6848365058204811,0.12736827024000003,1.4489575094780633,0.22708986261016204,0.7899042438545796,0.8676836793052914,,-0.06956664232292899,-0.10007281598622488,0.10184858632,-0.034016912529394594,,-4.6435744e-05,-5.9604645e-06,7.6293945e-06,1.0,4.4576824e-05,3.637001e-05,-4.45731e-05,1.0,4.082918e-06,-3.6381185e-05,-4.053116e-06,0.99999994,102,0.308,0,0,0.0
0.32086966799943184,10:49:14.570623,NaN,0,,0.02835107,0.049937345,0.07479465,-0.86712396,-0.3698768,-0.3335971,-0.4915431,0.74369943,0.45309657,0.08050601,0.5568685,-0.82668996,,0.14067134,-0.044963308,0.07083151,-0.7433145,-0.61739254,0.25750703,-0.4447794,0.74367285,0.499121,-0.4996547,0.25647008,-0.8273864,,0.08859776,1.3406581,0.47494057,0.9960486,0.0028024097,-0.08876535,-0.053816378,-0.77604145,-0.6283816,-0.07064658,0.6306757,-0.77282417,,-0.07266282,0.2788322,-0.0891309,0.8815621,0.28380466,0.37723088,-0.24622859,0.95822936,-0.14549217,-0.40276507,0.03537536,0.9146195,,0.05515323,0.44406283,-0.3831929,0.8667033,0.4568932,-0.20018497,-0.49778685,0.76633185,-0.40613267,-0.032151133,0.45164594,0.8916178,,0.8183393890172002,-0.08605441241748371,0.15336277361,0.637038048305985,0.1186004817964023,0.30416851620138563,0.8702971843634397,,-0.6228924654363263,-0.6848365058204811,0.12736827024000003,1.4489575094780633,0.22708986261016204,0.7899042438545796,0.8676836793052914,,-0.06956664232292899,-0.10007281598622488,0.10184858632,-0.034016912529394594,,-4.6435744e-05,-5.9604645e-06,7.6293945e-06,1.0,4.4576824e-05,3.637001e-05,-4.45731e-05,1.0,4.082918e-06,-3.6381185e-05,-4.053116e-06,0.99999994,109,0.329,0,0,0.0
0.33883214199977374,10:49:14.595519,NaN,0,,0.028350102,0.049937747,0.07479501,-0.86712307,-0.36987343,-0.33360317,-0.491544,0.74369735,0.4530991,0.08051038,0.5568735,-0.82668614,,0.14067134,-0.044963308,0.07083151,-0.7433145,-0.6173715,0.25755748,-0.4447794,0.7437137,0.4990602,-0.4996547,0.2564025,-0.82740736,,0.08859776,1.3406581,0.47494057,0.9960486,0.0028024097,-0.08876535,-0.053816378,-0.77604145,-0.6283816,-0.07064658,0.6306757,-0.77282417,,-0.07266191,0.27883285,-0.08913095,0.8815609,0.28380102,0.3772365,-0.24622658,0.9582306,-0.14548728,-0.40276897,0.03537025,0.914618,,0.05515323,0.44406283,-0.3831929,0.8667033,0.45687687,-0.2002223,-0.49778685,0.7662987,-0.40619525,-0.032151133,0.45171878,0.8915809,,0.8183471117500744,-0.08605441241748371,0.15336277361,0.637038048305985,0.1186004817964023,0.30416851620138563,0.8702971843634397,,-0.6228924654363263,-0.6848365058204811,0.12736827024000003,1.4489575094780633,0.22708986261016204,0.7898225651144389,0.8675203352391571,,-0.06956664232292899,-0.10007281598622488,0.10184858632,-0.034016912529394594,,-4.6435744e-05,-5.9604645e-06,7.6293945e-06,1.0,4.4576824e-05,3.637001e-05,-4.45731e-05,1.0,4.082918e-06,-3.6381185e-05,-4.053116e-06,0.99999994,120,0.362,0,0,0.0
0.3637203399994178,10:49:14.627711,NaN,0,,0.028350102,0.049937747,0.07479501,-0.86712307,-0.36987343,-0.33360317,-0.491544,0.74369735,0.4530991,0.08051038,0.5568735,-0.82668614,,0.14067122,-0.044962443,0.07083115,-0.7433143,-0.617352,0.2576047,-0.44477805,0.74375093,0.49900582,-0.4996561,0.25634134,-0.8274254,,0.08859776,1.3406581,0.47494057,0.9960486,0.0028024097,-0.08876535,-0.053816378,-0.77604145,-0.6283816,-0.07064658,0.6306757,-0.77282417,,-0.07266191,0.27883285,-0.08913095,0.8815609,0.28380102,0.3772365,-0.24622658,0.9582306,-0.14548728,-0.40276897,0.03537025,0.914618,,0.055153284,0.4440631,-0.383192,0.86670315,0.45686153,-0.20025784,-0.49778718,0.7662688,-0.4062512,-0.032149203,0.45178497,0.8915474,,0.8183471117500744,-0.08605441241748371,0.15336277361,0.637038048305985,0.1186004817964023,0.30416851620138563,0.8702971843634397,,-0.6228924654363263,-0.6848287830876069,0.12736827024000003,1.4489575094780633,0.22708986261016204,0.7897408863742985,0.8673569911730229,,-0.06956664232292899,-0.10007281598622488,0.10184858632,-0.034016912529394594,,-4.6435744e-05,-5.9604645e-06,7.6293945e-06,1.0,4.4576824e-05,3.637001e-05,-4.45731e-05,1.0,4.082918e-06,-3.6381185e-05,-4.053116e-06,0.99999994,124,0.374,0,0,0.0
0.39590947099986806,10:49:14.639898,NaN,0,,0.028349588,0.049939208,0.074795425,-0.86712366,-0.36986974,-0.33360565,-0.49154314,0.74369246,0.45310792,0.08050901,0.55688244,-0.8266803,,0.14067122,-0.044962443,0.07083115,-0.7433143,-0.617352,0.2576047,-0.44477805,0.74375093,0.49900582,-0.4996561,0.25634134,-0.8274254,,0.08859776,1.3406581,0.47494057,0.9960486,0.0028024097,-0.08876535,-0.053816378,-0.77604145,-0.6283816,-0.07064658,0.6306757,-0.77282417,,-0.072661504,0.27883428,-0.08913035,0.8815616,0.28379688,0.377238,-0.24622674,0.9582322,-0.14547652,-0.4027674,0.03536043,0.9146191,,0.055153284,0.4440631,-0.383192,0.86670315,0.45686153,-0.20025784,-0.49778718,0.7662688,-0.4062512,-0.032149203,0.45178497,0.8915474,,0.8183548344829487,-0.08604668968460949,0.15336277361,0.637038048305985,0.1186004817964023,0.30416851620138563,0.8702971843634397,,-0.6228924654363263,-0.6848287830876069,0.12736827024000003,1.4489575094780633,0.22708986261016204,0.7897408863742985,0.8673569911730229,,-0.06956664232292899,-0.10007281598622488,0.10184858632,-0.034016912529394594,,-4.6435744e-05,-5.9604645e-06,7.6293945e-06,1.0,4.4576824e-05,3.637001e-05,-4.45731e-05,1.0,4.082918e-06,-3.6381185e-05,-4.053116e-06,0.99999994,131,0.394,0,0,0.0
0.4080917789997329,10:49:14.662796,NaN,0,,0.028349118,0.04993818,0.074795425,-0.8671221,-0.36987013,-0.33360922,-0.4915449,0.74369526,0.45310155,0.08051479,0.5568785,-0.8266823,,0.14067262,-0.04496292,0.0708321,-0.74330944,-0.61735106,0.2576212,-0.44477344,0.74375534,0.49900338,-0.49966753,0.25633094,-0.8274217,,0.08859776,1.3406581,0.47494057,0.9960486,0.0028024097,-0.08876535,-0.053816378,-0.77604145,-0.6283816,-0.07064658,0.6306757,-0.77282417,,-0.07266099,0.2788335,-0.089131005,0.88155967,0.2837974,0.37724206,-0.24622457,0.95823187,-0.14548239,-0.4027729,0.035365142,0.91461647,,0.05515184,0.44406325,-0.38319296,0.8666994,0.4568615,-0.20027417,-0.4977944,0.76626307,-0.4062532,-0.032138746,0.45179477,0.8915428,,0.8183548344829487,-0.08605441241748371,0.15336277361,0.637038048305985,0.1186004817964023,0.30416851620138563,0.8702971843634397,,-0.6229079109020748,-0.6848365058204811,0.12736827024000003,1.4489575094780633,0.22708986261016204,0.7897408863742985,0.8673569911730229,,-0.06956664232292899,-0.10007281598622488,0.10184858632,-0.034016912529394594,,-4.6435744e-05,-5.9604645e-06,7.6293945e-06,1.0,4.4576824e-05,3.637001e-05,-4.45731e-05,1.0,4.082918e-06,-3.6381185e-05,-4.053116e-06,0.99999994,142,0.427,0,0,0.0
0.4309818140000061,10:49:14.692734,NaN,0,,0.028349118,0.04993818,0.074795425,-0.8671221,-0.36987013,-0.33360922,-0.4915449,0.74369526,0.45310155,0.08051479,0.5568785,-0.8266823,,0.14067249,-0.044962026,0.070831746,-0.7433093,-0.61735255,0.25761795,-0.44477206,0.7437519,0.4990098,-0.49966893,0.25633734,-0.8274189,,0.08859776,1.3406581,0.47494057,0.9960486,0.0028024097,-0.08876535,-0.053816378,-0.77604145,-0.6283816,-0.07064658,0.6306757,-0.77282417,,-0.07266099,0.2788335,-0.089131005,0.88155967,0.2837974,0.37724206,-0.24622457,0.95823187,-0.14548239,-0.4027729,0.035365142,0.91461647,,0.0551519,0.4440635,-0.38319206,0.8666993,0.4568625,-0.20027238,-0.49779475,0.76626635,-0.40624654,-0.032136817,0.45178813,0.89154625,,0.8183548344829487,-0.08605441241748371,0.15336277361,0.637038048305985,0.1186004817964023,0.30416851620138563,0.8702971843634397,,-0.6229079109020748,-0.6848287830876069,0.12736827024000003,1.4489575094780633,0.22708986261016204,0.7897408863742985,0.8673569911730229,,-0.06956664232292899,-0.10007281598622488,0.10184858632,-0.034016912529394594,,-4.6435744e-05,-5.9604645e-06,7.6293945e-06,1.0,4.4576824e-05,3.637001e-05,-4.45731e-05,1.0,4.082918e-06,-3.6381185e-05,-4.053116e-06,0.99999994,153,0.46,0,0,0.0
0.4608869280000363,10:49:14.720566,NaN,0,,0.028349118,0.04993818,0.074795425,-0.8671221,-0.36987013,-0.33360922,-0.4915449,0.74369526,0.45310155,0.08051479,0.5568785,-0.8266823,,0.14067262,-0.04496292,0.0708321,-0.74330944,-0.61735106,0.2576212,-0.44477344,0.74375534,0.49900338,-0.49966753,0.25633094,-0.8274217,,0.08859776,1.3406581,0.47494057,0.9960486,0.0028024097,-0.08876535,-0.053816378,-0.77604145,-0.6283816,-0.07064658,0.6306757,-0.77282417,,-0.07266099,0.2788335,-0.089131005,0.88155967,0.2837974,0.37724206,-0.24622457,0.95823187,-0.14548239,-0.4027729,0.035365142,0.91461647,,0.05515184,0.44406325,-0.38319296,0.8666994,0.4568615,-0.20027417,-0.4977944,0.76626307,-0.4062532,-0.032138746,0.45179477,0.8915428,,0.8183548344829487,-0.08605441241748371,0.15336277361,0.637038048305985,0.1186004817964023,0.30416851620138563,0.8702971843634397,,-0.6229079109020748,-0.6848365058204811,0.12736827024000003,1.4489575094780633,0.22708986261016204,0.7897408863742985,0.8673569911730229,,-0.06956664232292899,-0.10007281598622488,0.10184858632,-0.034016912529394594,,-4.6435744e-05,-5.9604645e-06,7.6293945e-06,1.0,4.4576824e-05,3.637001e-05,-4.45731e-05,1.0,4.082918e-06,-3.6381185e-05,-4.053116e-06,0.99999994,157,0.472,0,0,0.0
0.48877113300022756,10:49:14.741549,NaN,0,,0.028349118,0.04993818,0.074795425,-0.8671221,-0.36987013,-0.33360922,-0.4915449,0.74369526,0.45310155,0.08051479,0.5568785,-0.8266823,,0.14067262,-0.04496292,0.0708321,-0.74330944,-0.61735106,0.2576212,-0.44477344,0.74375534,0.49900338,-0.49966753,0.25633094,-0.8274217,,0.08859776,1.3406581,0.47494057,0.9960486,0.0028024097,-0.08876535,-0.053816378,-0.77604145,-0.6283816,-0.07064658,0.6306757,-0.77282417,,-0.07266099,0.2788335,-0.089131005,0.88155967,0.2837974,0.37724206,-0.24622457,0.95823187,-0.14548239,-0.4027729,0.035365142,0.91461647,,0.05515184,0.44406325,-0.38319296,0.8666994,0.4568615,-0.20027417,-0.4977944,0.76626307,-0.4062532,-0.032138746,0.45179477,0.8915428,,0.8183548344829487,-0.08605441241748371,0.15336277361,0.637038048305985,0.1186004817964023,0.30416851620138563,0.8702971843634397,,-0.6229079109020748,-0.6848365058204811,0.12736827024000003,1.4489575094780633,0.22708986261016204,0.7897408863742985,0.8673569911730229,,-0.06956664232292899,-0.10007281598622488,0.10184858632,-0.034016912529394594,,-4.6435744e-05,-5.9604645e-06,7.6293945e-06,1.0,4.4576824e-05,3.637001e-05,-4.45731e-05,1.0,4.082918e-06,-3.6381185e-05,-4.053116e-06,0.99999994,164,0.493,0,0,0.0
0.5097274829995513,10:49:14.753934,NaN,0,,0.028349118,0.04993818,0.074795425,-0.8671221,-0.36987013,-0.33360922,-0.4915449,0.74369526,0.45310155,0.08051479,0.5568785,-0.8266823,,0.14067249,-0.044962026,0.070831746,-0.7433093,-0.61735255,0.25761795,-0.44477206,0.7437519,0.4990098,-0.49966893,0.25633734,-0.8274189,,0.08859776,1.3406581,0.47494057,0.9960486,0.0028024097,-0.08876535,-0.053816378,-0.77604145,-0.6283816,-0.07064658,0.6306757,-0.77282417,,-0.07266099,0.2788335,-0.089131005,0.88155967,0.2837974,0.37724206,-0.24622457,0.95823187,-0.14548239,-0.4027729,0.035365142,0.91461647,,0.0551519,0.4440635,-0.38319206,0.8666993,0.4568625,-0.20027238,-0.49779475,0.76626635,-0.40624654,-0.032136817,0.45178813,0.89154625,,0.8183548344829487,-0.08605441241748371,0.15336277361,0.637038048305985,0.1186004817964023,0.30416851620138563,0.8702971843634397,,-0.6229079109020748,-0.6848287830876069,0.12736827024000003,1.4489575094780633,0.22708986261016204,0.7897408863742985,0.8673569911730229,,-0.06956664232292899,-0.10007281598622488,0.10184858632,-0.034016912529394594,,-4.6435744e-05,-5.9604645e-06,7.6293945e-06,1.0,4.4576824e-05,3.637001e-05,-4.45731e-05,1.0,4.082918e-06,-3.6381185e-05,-4.053116e-06,0.99999994,168,0.505,0,0,0.0
0.5221428839995497,10:49:14.769925,NaN,0,,0.028349118,0.04993818,0.074795425,-0.8671221,-0.36987013,-0.33360922,-0.4915449,0.74369526,0.45310155,0.08051479,0.5568785,-0.8266823,,0.14067262,-0.04496292,0.0708321,-0.74330944,-0.61735106,0.2576212,-0.44477344,0.74375534,0.49900338,-0.49966753,0.25633094,-0.8274217,,0.08859776,1.3406581,0.47494057,0.9960486,0.0028024097,-0.08876535,-0.053816378,-0.77604145,-0.6283816,-0.07064658,0.6306757,-0.77282417,,-0.07266099,0.2788335,-0.089131005,0.88155967,0.2837974,0.37724206,-0.24622457,0.95823187,-0.14548239,-0.4027729,0.035365142,0.91461647,,0.05515184,0.44406325,-0.38319296,0.8666994,0.4568615,-0.20027417,-0.4977944,0.76626307,-0.4062532,-0.032138746,0.45179477,0.8915428,,0.8183548344829487,-0.08605441241748371,0.15336277361,0.637038048305985,0.1186004817964023,0.30416851620138563,0.8702971843634397,,-0.6229079109020748,-0.6848365058204811,0.12736827024000003,1.4489575094780633,0.22708986261016204,0.7897408863742985,0.8673569911730229,,-0.06956664232292899,-0.10007281598622488,0.10184858632,-0.034016912529394594,,-4.6435744e-05,-5.9604645e-06,7.6293945e-06,1.0,4.4576824e-05,3.637001e-05,-4.45731e-05,1.0,4.082918e-06,-3.6381185e-05,-4.053116e-06,0.99999994,175,0.526,0,0,0.0
0.5381320709993815,10:49:14.786128,NaN,0,,0.028349118,0.04993818,0.074795425,-0.8671221,-0.36987013,-0.33360922,-0.4915449,0.74369526,0.45310155,0.08051479,0.5568785,-0.8266823,,0.14067262,-0.04496292,0.0708321,-0.74330944,-0.61735106,0.2576212,-0.44477344,0.74375534,0.49900338,-0.49966753,0.25633094,-0.8274217,,0.08859776,1.3406581,0.47494057,0.9960486,0.0028024097,-0.08876535,-0.053816378,-0.77604145,-0.6283816,-0.07064658,0.6306757,-0.77282417,,-0.07266099,0.2788335,-0.089131005,0.88155967,0.2837974,0.37724206,-0.24622457,0.95823187,-0.14548239,-0.4027729,0.035365142,0.91461647,,0.05515184,0.44406325,-0.38319296,0.8666994,0.4568615,-0.20027417,-0.4977944,0.76626307,-0.4062532,-0.032138746,0.45179477,0.8915428,,0.8183548344829487,-0.08605441241748371,0.15336277361,0.637038048305985,0.1186004817964023,0.30416851620138563,0.8702971843634397,,-0.6229079109020748,-0.6848365058204811,0.12736827024000003,1.4489575094780633,0.22708986261016204,0.7897408863742985,0.8673569911730229,,-0.06956664232292899,-0.10007281598622488,0.10184858632,-0.034016912529394594,,-4.6435744e-05,-5.9604645e-06,7.6293945e-06,1.0,4.4576824e-05,3.637001e-05,-4.45731e-05,1.0,4.082918e-06,-3.6381185e-05,-4.053116e-06,0.99999994,186,0.558,0,0,0.0
0.5543372080001063,10:49:14.819367,NaN,0,,0.028349118,0.04993818,0.074795425,-0.8671221,-0.36987013,-0.33360922,-0.4915449,0.74369526,0.45310155,0.08051479,0.5568785,-0.8266823,,0.14067198,-0.0449631,0.070831746,-0.74331194,-0.61735076,0.25761455,-0.4447764,0.7437548,0.49900144,-0.4996611,0.25633293,-0.827425,,0.08859776,1.3406581,0.47494057,0.9960486,0.0028024097,-0.08876535,-0.053816378,-0.77604145,-0.6283816,-0.07064658,0.6306757,-0.77282417,,-0.07266099,0.2788335,-0.089131005,0.88155967,0.2837974,0.37724206,-0.24622457,0.95823187,-0.14548239,-0.4027729,0.035365142,0.91461647,,0.05515253,0.44406304,-0.38319293,0.8667013,0.456861,-0.20026688,-0.4977906,0.76626426,-0.4062555,-0.03214494,0.45179316,0.8915434,,0.8183548344829487,-0.08605441241748371,0.15336277361,0.637038048305985,0.1186004817964023,0.30416851620138563,0.8702971843634397,,-0.6229001881692005,-0.6848365058204811,0.12736827024000003,1.4489575094780633,0.22708986261016204,0.7897408863742985,0.8673569911730229,,-0.06956664232292899,-0.10007281598622488,0.10184858632,-0.034016912529394594,,-4.6435744e-05,-5.9604645e-06,7.6293945e-06,1.0,4.4576824e-05,3.637001e-05,-4.45731e-05,1.0,4.082918e-06,-3.6381185e-05,-4.053116e-06,0.99999994,190,0.571,0,0,0.0
0.5869611620000796,10:49:14.839151,NaN,0,,0.028349118,0.04993818,0.074795425,-0.8671221,-0.36987013,-0.33360922,-0.4915449,0.74369526,0.45310155,0.08051479,0.5568785,-0.8266823,,0.14067122,-0.044962443,0.07083115,-0.7433143,-0.617352,0.2576047,-0.44477805,0.74375093,0.49900582,-0.4996561,0.25634134,-0.8274254,,0.08859776,1.3406581,0.47494057,0.9960486,0.0028024097,-0.08876535,-0.053816378,-0.77604145,-0.6283816,-0.07064658,0.6306757,-0.77282417,,-0.07266099,0.2788335,-0.089131005,0.88155967,0.2837974,0.37724206,-0.24622457,0.95823187,-0.14548239,-0.4027729,0.035365142,0.91461647,,0.055153284,0.4440631,-0.383192,0.86670315,0.45686153,-0.20025784,-0.49778718,0.7662688,-0.4062512,-0.032149203,0.45178497,0.8915474,,0.8183548344829487,-0.08605441241748371,0.15336277361,0.637038048305985,0.1186004817964023,0.30416851620138563,0.8702971843634397,,-0.6228924654363263,-0.6848287830876069,0.12736827024000003,1.4489575094780633,0.22708986261016204,0.7897408863742985,0.8673569911730229,,-0.06956664232292899,-0.10007281598622488,0.10184858632,-0.034016912529394594,,-4.6435744e-05,-5.9604645e-06,7.6293945e-06,1.0,4.4576824e-05,3.637001e-05,-4.45731e-05,1.0,4.082918e-06,-3.6381185e-05,-4.053116e-06,0.99999994,197,0.591,0,0,0.0
0.6073340209995877,10:49:14.853012,NaN,0,,0.028349118,0.04993818,0.074795425,-0.8671221,-0.36987013,-0.33360922,-0.4915449,0.74369526,0.45310155,0.08051479,0.5568785,-0.8266823,,0.14067122,-0.044962443,0.07083115,-0.7433143,-0.617352,0.2576047,-0.44477805,0.74375093,0.49900582,-0.4996561,0.25634134,-0.8274254,,0.08859776,1.3406581,0.47494057,0.9960486,0.0028024097,-0.08876535,-0.053816378,-0.77604145,-0.6283816,-0.07064658,0.6306757,-0.77282417,,-0.07266099,0.2788335,-0.089131005,0.88155967,0.2837974,0.37724206,-0.24622457,0.95823187,-0.14548239,-0.4027729,0.035365142,0.91461647,,0.055153284,0.4440631,-0.383192,0.86670315,0.45686153,-0.20025784,-0.49778718,0.7662688,-0.4062512,-0.032149203,0.45178497,0.8915474,,0.8183548344829487,-0.08605441241748371,0.15336277361,0.637038048305985,0.1186004817964023,0.30416851620138563,0.8702971843634397,,-0.6228924654363263,-0.6848287830876069,0.12736827024000003,1.4489575094780633,0.22708986261016204,0.7897408863742985,0.8673569911730229,,-0.06956664232292899,-0.10007281598622488,0.10184858632,-0.034016912529394594,,-4.6435744e-05,-5.9604645e-06,7.6293945e-06,1.0,4.4576824e-05,3.637001e-05,-4.45731e-05,1.0,4.082918e-06,-3.6381185e-05,-4.053116e-06,0.99999994,201,0.603,0,0,0.0
0.6212112240000351,10:49:14.873197,NaN,0,,0.028349118,0.04993818,0.074795425,-0.8671221,-0.36987013,-0.33360922,-0.4915449,0.74369526,0.45310155,0.08051479,0.5568785,-0.8266823,,0.14067122,-0.044962443,0.07083115,-0.7433143,-0.617352,0.2576047,-0.44477805,0.74375093,0.49900582,-0.4996561,0.25634134,-0.8274254,,0.08859776,1.3406581,0.47494057,0.9960486,0.0028024097,-0.08876535,-0.053816378,-0.77604145,-0.6283816,-0.07064658,0.6306757,-0.77282417,,-0.07266099,0.2788335,-0.089131005,0.88155967,0.2837974,0.37724206,-0.24622457,0.95823187,-0.14548239,-0.4027729,0.035365142,0.91461647,,0.055153284,0.4440631,-0.383192,0.86670315,0.45686153,-0.20025784,-0.49778718,0.7662688,-0.4062512,-0.032149203,0.45178497,0.8915474,,0.8183548344829487,-0.08605441241748371,0.15336277361,0.637038048305985,0.1186004817964023,0.30416851620138563,0.8702971843634397,,-0.6228924654363263,-0.6848287830876069,0.12736827024000003,1.4489575094780633,0.22708986261016204,0.7897408863742985,0.8673569911730229,,-0.06956664232292899,-0.10007281598622488,0.10184858632,-0.034016912529394594,,-4.6435744e-05,-5.9604645e-06,7.6293945e-06,1.0,4.4576824e-05,3.637001e-05,-4.45731e-05,1.0,4.082918e-06,-3.6381185e-05,-4.053116e-06,0.99999994,208,0.624,0,0,0.0
0.6414044709999871,10:49:14.886468,NaN,0,,0.028349118,0.04993818,0.074795425,-0.8671221,-0.36987013,-0.33360922,-0.4915449,0.74369526,0.45310155,0.08051479,0.5568785,-0.8266823,,0.14067134,-0.044963308,0.07083151,-0.7433145,-0.61735046,0.25760788,-0.4447794,0.7437544,0.49899948,-0.4996547,0.2563349,-0.8274282,,0.08859776,1.3406581,0.47494057,0.9960486,0.0028024097,-0.08876535,-0.053816378,-0.77604145,-0.6283816,-0.07064658,0.6306757,-0.77282417,,-0.07266099,0.2788335,-0.089131005,0.88155967,0.2837974,0.37724206,-0.24622457,0.95823187,-0.14548239,-0.4027729,0.035365142,0.91461647,,0.05515323,0.44406283,-0.3831929,0.8667033,0.4568605,-0.20025961,-0.49778685,0.7662655,-0.40625784,-0.032151133,0.45179158,0.891544,,0.8183548344829487,-0.08605441241748371,0.15336277361,0.637038048305985,0.1186004817964023,0.30416851620138563,0.8702971843634397,,-0.6228924654363263,-0.6848365058204811,0.12736827024000003,1.4489575094780633,0.22708986261016204,0.7897408863742985,0.8673569911730229,,-0.06956664232292899,-0.10007281598622488,0.10184858632,-0.034016912529394594,,-4.6435744e-05,-5.9604645e-06,7.6293945e-06,1.0,4.4576824e-05,3.637001e-05,-4.45731e-05,1.0,4.082918e-06,-3.6381185e-05,-4.053116e-06,0.99999994,212,0.636,0,0,0.0
0.6546773669997492,10:49:14.907251,NaN,0,,0.028349118,0.04993818,0.074795425,-0.8671221,-0.36987013,-0.33360922,-0.4915449,0.74369526,0.45310155,0.08051479,0.5568785,-0.8266823,,0.14067122,-0.044962443,0.07083115,-0.7433143,-0.617352,0.2576047,-0.44477805,0.74375093,0.49900582,-0.4996561,0.25634134,-0.8274254,,0.08859776,1.3406581,0.47494057,0.9960486,0.0028024097,-0.08876535,-0.053816378,-0.77604145,-0.6283816,-0.07064658,0.6306757,-0.77282417,,-0.07266099,0.2788335,-0.089131005,0.88155967,0.2837974,0.37724206,-0.24622457,0.95823187,-0.14548239,-0.4027729,0.035365142,0.91461647,,0.055153284,0.4440631,-0.383192,0.86670315,0.45686153,-0.20025784,-0.49778718,0.7662688,-0.4062512,-0.032149203,0.45178497,0.8915474,,0.8183548344829487,-0.08605441241748371,0.15336277361,0.637038048305985,0.1186004817964023,0.30416851620138563,0.8702971843634397,,-0.6228924654363263,-0.6848287830876069,0.12736827024000003,1.4489575094780633,0.22708986261016204,0.7897408863742985,0.8673569911730229,,-0.06956664232292899,-0.10007281598622488,0.10184858632,-0.034016912529394594,,-4.6435744e-05,-5.9604645e-06,7.6293945e-06,1.0,4.4576824e-05,3.637001e-05,-4.45731e-05,1.0,4.082918e-06,-3.6381185e-05,-4.053116e-06,0.99999994,223,0.669,0,0,0.0
0.6754335309997259,10:49:14.934437,NaN,0,,0.028349118,0.04993818,0.074795425,-0.8671221,-0.36987013,-0.33360922,-0.4915449,0.74369526,0.45310155,0.08051479,0.5568785,-0.8266823,,0.14067134,-0.044963308,0.07083151,-0.7433145,-0.61735046,0.25760788,-0.4447794,0.7437544,0.49899948,-0.4996547,0.2563349,-0.8274282,,0.08859776,1.3406581,0.47494057,0.9960486,0.0028024097,-0.08876535,-0.053816378,-0.77604145,-0.6283816,-0.07064658,0.6306757,-0.77282417,,-0.07266099,0.2788335,-0.089131005,0.88155967,0.2837974,0.37724206,-0.24622457,0.95823187,-0.14548239,-0.4027729,0.035365142,0.91461647,,0.05515323,0.44406283,-0.3831929,0.8667033,0.4568605,-0.20025961,-0.49778685,0.7662655,-0.40625784,-0.032151133,0.45179158,0.891544,,0.8183548344829487,-0.08605441241748371,0.15336277361,0.637038048305985,0.1186004817964023,0.30416851620138563,0.8702971843634397,,-0.6228924654363263,-0.6848365058204811,0.12736827024000003,1.4489575094780633,0.22708986261016204,0.7897408863742985,0.8673569911730229,,-0.06956664232292899,-0.10007281598622488,0.10184858632,-0.034016912529394594,,-4.6435744e-05,-5.9604645e-06,7.6293945e-06,1.0,4.4576824e-05,3.637001e-05,-4.45731e-05,1.0,4.082918e-06,-3.6381185e-05,-4.053116e-06,0.99999994,234,0.702,0,0,0.0
0.7026466440001968,10:49:14.967193,NaN,0,,0.028349118,0.04993818,0.074795425,-0.8671221,-0.36987013,-0.33360922,-0.4915449,0.74369526,0.45310155,0.08051479,0.5568785,-0.8266823,,0.14067134,-0.044963308,0.07083151,-0.7433145,-0.61735046,0.25760788,-0.4447794,0.7437544,0.49899948,-0.4996547,0.2563349,-0.8274282,,0.08859776,1.3406581,0.47494057,0.9960486,0.0028024097,-0.08876535,-0.053816378,-0.77604145,-0.6283816,-0.07064658,0.6306757,-0.77282417,,-0.07266099,0.2788335,-0.089131005,0.88155967,0.2837974,0.37724206,-0.24622457,0.95823187,-0.14548239,-0.4027729,0.035365142,0.91461647,,0.05515323,0.44406283,-0.3831929,0.8667033,0.4568605,-0.20025961,-0.49778685,0.7662655,-0.40625784,-0.032151133,0.45179158,0.891544,,0.8183548344829487,-0.08605441241748371,0.15336277361,0.637038048305985,0.1186004817964023,0.30416851620138563,0.8702971843634397,,-0.6228924654363263,-0.6848365058204811,0.12736827024000003,1.4489575094780633,0.22708986261016204,0.7897408863742985,0.8673569911730229,,-0.06956664232292899,-0.10007281598622488,0.10184858632,-0.034016912529394594,,-4.6435744e-05,-5.9604645e-06,7.6293945e-06,1.0,4.4576824e-05,3.637001e-05,-4.45731e-05,1.0,4.082918e-06,-3.6381185e-05,-4.053116e-06,0.99999994,245,0.734,0,0,0.0
0.7353891049997401,10:49:14.999844,NaN,0,,0.028349118,0.04993818,0.074795425,-0.8671221,-0.36987013,-0.33360922,-0.4915449,0.74369526,0.45310155,0.08051479,0.5568785,-0.8266823,,0.14067134,-0.044963308,0.07083151,-0.7433145,-0.61735046,0.25760788,-0.4447794,0.7437544,0.49899948,-0.4996547,0.2563349,-0.8274282,,0.08859776,1.3406581,0.47494057,0.9960486,0.0028024097,-0.08876535,-0.053816378,-0.77604145,-0.6283816,-0.07064658,0.6306757,-0.77282417,,-0.07266099,0.2788335,-0.089131005,0.88155967,0.2837974,0.37724206,-0.24622457,0.95823187,-0.14548239,-0.4027729,0.035365142,0.91461647,,0.05515323,0.44406283,-0.3831929,0.8667033,0.4568605,-0.20025961,-0.49778685,0.7662655,-0.40625784,-0.032151133,0.45179158,0.891544,,0.8183548344829487,-0.08605441241748371,0.15336277361,0.637038048305985,0.1186004817964023,0.30416851620138563,0.8702971843634397,,-0.6228924654363263,-0.6848365058204811,0.12736827024000003,1.4489575094780633,0.22708986261016204,0.7897408863742985,0.8673569911730229,,-0.06956664232292899,-0.10007281598622488,0.10184858632,-0.034016912529394594,,-4.6435744e-05,-5.9604645e-06,7.6293945e-06,1.0,4.4576824e-05,3.637001e-05,-4.45731e-05,1.0,4.082918e-06,-3.6381185e-05,-4.053116e-06,0.99999994,256,0.767,0,0,0.0
0.7680539339999086,10:49:15.032344,NaN,0,,0.028349118,0.04993818,0.074795425,-0.8671221,-0.36987013,-0.33360922,-0.4915449,0.74369526,0.45310155,0.08051479,0.5568785,-0.8266823,,0.14067134,-0.044963308,0.07083151,-0.7433145,-0.61735046,0.25760788,-0.4447794,0.7437544,0.49899948,-0.4996547,0.2563349,-0.8274282,,0.08859776,1.3406581,0.47494057,0.9960486,0.0028024097,-0.08876535,-0.053816378,-0.77604145,-0.6283816,-0.07064658,0.6306757,-0.77282417,,-0.07266099,0.2788335,-0.089131005,0.88155967,0.2837974,0.37724206,-0.24622457,0.95823187,-0.14548239,-0.4027729,0.035365142,0.91461647,,0.05515323,0.44406283,-0.3831929,0.8667033,0.4568605,-0.20025961,-0.49778685,0.7662655,-0.40625784,-0.032151133,0.45179158,0.891544,,0.8183548344829487,-0.08605441241748371,0.15336277361,0.637038048305985,0.1186004817964023,0.30416851620138563,0.8702971843634397,,-0.6228924654363263,-0.6848365058204811,0.12736827024000003,1.4489575094780633,0.22708986261016204,0.7897408863742985,0.8673569911730229,,-0.06956664232292899,-0.10007281598622488,0.10184858632,-0.034016912529394594,,-4.6435744e-05,-5.9604645e-06,7.6293945e-06,1.0,4.4576824e-05,3.637001e-05,-4.45731e-05,1.0,4.082918e-06,-3.6381185e-05,-4.053116e-06,0.99999994,267,0.8,0,0,0.0
0.8005209929997363,10:49:15.066349,NaN,0,,0.028349118,0.04993818,0.074795425,-0.8671221,-0.36987013,-0.33360922,-0.4915449,0.74369526,0.45310155,0.08051479,0.5568785,-0.8266823,,0.14067122,-0.044962443,0.07083115,-0.7433143,-0.617352,0.2576047,-0.44477805,0.74375093,0.49900582,-0.4996561,0.25634134,-0.8274254,,0.08859776,1.3406581,0.47494057,0.9960486,0.0028024097,-0.08876535,-0.053816378,-0.77604145,-0.6283816,-0.07064658,0.6306757,-0.77282417,,-0.07266099,0.2788335,-0.089131005,0.88155967,0.2837974,0.37724206,-0.24622457,0.95823187,-0.14548239,-0.4027729,0.035365142,0.91461647,,0.055153284,0.4440631,-0.383192,0.86670315,0.45686153,-0.20025784,-0.49778718,0.7662688,-0.4062512,-0.032149203,0.45178497,0.8915474,,0.8183548344829487,-0.08605441241748371,0.15336277361,0.637038048305985,0.1186004817964023,0.30416851620138563,0.8702971843634397,,-0.6228924654363263,-0.6848287830876069,0.12736827024000003,1.4489575094780633,0.22708986261016204,0.7897408863742985,0.8673569911730229,,-0.06956664232292899,-0.10007281598622488,0.10184858632,-0.034016912529394594,,-4.6435744e-05,-5.9604645e-06,7.6293945e-06,1.0,4.4576824e-05,3.637001e-05,-4.45731e-05,1.0,4.082918e-06,-3.6381185e-05,-4.053116e-06,0.99999994,278,0.833,0,0,0.0
0.8344786090001435,10:49:15.099949,NaN,0,,0.028309692,0.0499392,0.074807525,-0.8671282,-0.3698379,-0.3336292,-0.49152923,0.7437029,0.453106,0.08054513,0.55688965,-0.82667196,,0.14070857,-0.044939972,0.070809096,-0.7432874,-0.6174175,0.25752527,-0.44484517,0.7436852,0.49904406,-0.49963647,0.2563744,-0.82742715,,0.08867657,1.3406535,0.47494665,0.99604386,0.0027334772,-0.088821165,-0.053904854,-0.7760417,-0.62837374,-0.07064658,0.6306757,-0.77282417,,-0.07268697,0.27884266,-0.08912974,0.8815229,0.2838318,0.37730208,-0.24625576,0.9582226,-0.14549072,-0.40283427,0.035340596,0.9145904,,0.05504751,0.44403774,-0.38315874,0.86664766,0.45700812,-0.20016345,-0.49787658,0.76624095,-0.40619424,-0.03226063,0.45168397,0.8915945,,0.8183548344829487,-0.08605441241748371,0.15336277361,0.637038048305985,0.1186004817964023,0.30416851620138563,0.8702971843634397,,-0.6228924654363263,-0.6848365058204811,0.12736827024000003,1.4489575094780633,0.22708986261016204,0.7897408863742985,0.8673569911730229,,-0.06956664232292899,-0.10007281598622488,0.10184858632,-0.034016912529394594,,3.1881034e-05,1.4305115e-06,-1.1920929e-06,1.0,-2.40691e-05,-1.963973e-05,2.4072826e-05,1.0,-2.1457672e-06,1.963973e-05,2.2053719e-06,0.99999994,289,0.865,0,0,0.0
0.8681547010000941,10:49:15.130458,NaN,0,,0.028309692,0.0499392,0.074807525,-0.8671282,-0.3698379,-0.3336292,-0.49152923,0.7437029,0.453106,0.08054513,0.55688965,-0.82667196,,0.14070857,-0.044939972,0.070809096,-0.7432874,-0.6174175,0.25752527,-0.44484517,0.7436852,0.49904406,-0.49963647,0.2563744,-0.82742715,,0.08867657,1.3406535,0.47494665,0.99604386,0.0027334772,-0.088821165,-0.053904854,-0.7760417,-0.62837374,-0.07064658,0.6306757,-0.77282417,,-0.07268697,0.27884266,-0.08912974,0.8815229,0.2838318,0.37730208,-0.24625576,0.9582226,-0.14549072,-0.40283427,0.035340596,0.9145904,,0.05504751,0.44403774,-0.38315874,0.86664766,0.45700812,-0.20016345,-0.49787658,0.76624095,-0.40619424,-0.03226063,0.45168397,0.8915945,,0.8183548344829487,-0.08605441241748371,0.15336277361,0.637038048305985,0.1186004817964023,0.30416851620138563,0.8702971843634397,,-0.6228924654363263,-0.6848365058204811,0.12736827024000003,1.4489575094780633,0.22708986261016204,0.7897408863742985,0.8673569911730229,,-0.06956664232292899,-0.10007281598622488,0.10184858632,-0.034016912529394594,,3.1881034e-05,1.4305115e-06,-1.1920929e-06,1.0,-2.40691e-05,-1.963973e-05,2.4072826e-05,1.0,-2.1457672e-06,1.963973e-05,2.2053719e-06,0.99999994,300,0.898,0,0,0.0
0.8986115070001688,10:49:15.162750,NaN,0,,0.028310154,0.049940243,0.074807554,-0.86712974,-0.36983755,-0.33362558,-0.49152747,0.74370015,0.45311233,0.080539376,0.5568936,-0.8266698,,0.14070843,-0.04493911,0.07080874,-0.7432872,-0.61741906,0.25752205,-0.44484383,0.74368167,0.4990505,-0.4996378,0.2563808,-0.8274243,,0.08867657,1.3406535,0.47494665,0.99604386,0.0027334772,-0.088821165,-0.053904854,-0.7760417,-0.62837374,-0.07064658,0.6306757,-0.77282417,,-0.072687484,0.27884343,-0.089129075,0.8815248,0.28383127,0.377298,-0.24625793,0.9582229,-0.14548485,-0.40282875,0.035335883,0.914593,,0.055047568,0.444038,-0.38315785,0.86664754,0.45700914,-0.20016167,-0.4978769,0.76624423,-0.40618756,-0.0322587,0.45167732,0.891598,,0.8183548344829487,-0.08604668968460949,0.15336277361,0.637038048305985,0.1186004817964023,0.30416851620138563,0.8702971843634397,,-0.6228924654363263,-0.6848287830876069,0.12736827024000003,1.4489575094780633,0.22708986261016204,0.7897408863742985,0.8673569911730229,,-0.06956664232292899,-0.10007281598622488,0.10184858632,-0.034016912529394594,,3.1881034e-05,1.4305115e-06,-1.1920929e-06,1.0,-2.40691e-05,-1.963973e-05,2.4072826e-05,1.0,-2.1457672e-06,1.963973e-05,2.2053719e-06,0.99999994,304,0.911,0,0,0.0
0.9309585129994957,10:49:15.176945,NaN,0,,0.028310154,0.049940243,0.074807554,-0.86712974,-0.36983755,-0.33362558,-0.49152747,0.74370015,0.45311233,0.080539376,0.5568936,-0.8266698,,0.14070857,-0.044939972,0.070809096,-0.7432874,-0.6174175,0.25752527,-0.44484517,0.7436852,0.49904406,-0.49963647,0.2563744,-0.82742715,,0.08867657,1.3406535,0.47494665,0.99604386,0.0027334772,-0.088821165,-0.053904854,-0.7760417,-0.62837374,-0.07064658,0.6306757,-0.77282417,,-0.072687484,0.27884343,-0.089129075,0.8815248,0.28383127,0.377298,-0.24625793,0.9582229,-0.14548485,-0.40282875,0.035335883,0.914593,,0.05504751,0.44403774,-0.38315874,0.86664766,0.45700812,-0.20016345,-0.49787658,0.76624095,-0.40619424,-0.03226063,0.45168397,0.8915945,,0.8183548344829487,-0.08604668968460949,0.15336277361,0.637038048305985,0.1186004817964023,0.30416851620138563,0.8702971843634397,,-0.6228924654363263,-0.6848365058204811,0.12736827024000003,1.4489575094780633,0.22708986261016204,0.7897408863742985,0.8673569911730229,,-0.06956664232292899,-0.10007281598622488,0.10184858632,-0.034016912529394594,,3.1881034e-05,1.4305115e-06,-1.1920929e-06,1.0,-2.40691e-05,-1.963973e-05,2.4072826e-05,1.0,-2.1457672e-06,1.963973e-05,2.2053719e-06,0.99999994,311,0.931,0,0,0.0
0.9451466310001706,10:49:15.199081,NaN,0,,0.028309692,0.0499392,0.074807525,-0.8671282,-0.3698379,-0.3336292,-0.49152923,0.7437029,0.453106,0.08054513,0.55688965,-0.82667196,,0.14070857,-0.044939972,0.070809096,-0.7432874,-0.6174175,0.25752527,-0.44484517,0.7436852,0.49904406,-0.49963647,0.2563744,-0.82742715,,0.08867657,1.3406535,0.47494665,0.99604386,0.0027334772,-0.088821165,-0.053904854,-0.7760417,-0.62837374,-0.07064658,0.6306757,-0.77282417,,-0.07268697,0.27884266,-0.08912974,0.8815229,0.2838318,0.37730208,-0.24625576,0.9582226,-0.14549072,-0.40283427,0.035340596,0.9145904,,0.05504751,0.44403774,-0.38315874,0.86664766,0.45700812,-0.20016345,-0.49787658,0.76624095,-0.40619424,-0.03226063,0.45168397,0.8915945,,0.8183548344829487,-0.08605441241748371,0.15336277361,0.637038048305985,0.1186004817964023,0.30416851620138563,0.8702971843634397,,-0.6228924654363263,-0.6848365058204811,0.12736827024000003,1.4489575094780633,0.22708986261016204,0.7897408863742985,0.8673569911730229,,-0.06956664232292899,-0.10007281598622488,0.10184858632,-0.034016912529394594,,3.1881034e-05,1.4305115e-06,-1.1920929e-06,1.0,-2.40691e-05,-1.963973e-05,2.4072826e-05,1.0,-2.1457672e-06,1.963973e-05,2.2053719e-06,0.99999994,322,0.964,0,0,0.0
0.9672611309997592,10:49:15.231032,NaN,0,,0.028309692,0.0499392,0.074807525,-0.8671282,-0.3698379,-0.3336292,-0.49152923,0.7437029,0.453106,0.08054513,0.55688965,-0.82667196,,0.14070857,-0.044939972,0.070809096,-0.7432874,-0.6174175,0.25752527,-0.44484517,0.7436852,0.49904406,-0.49963647,0.2563744,-0.82742715,,0.08867657,1.3406535,0.47494665,0.99604386,0.0027334772,-0.088821165,-0.053904854,-0.7760417,-0.62837374,-0.07064658,0.6306757,-0.77282417,,-0.07268697,0.27884266,-0.08912974,0.8815229,0.2838318,0.37730208,-0.24625576,0.9582226,-0.14549072,-0.40283427,0.035340596,0.9145904,,0.05504751,0.44403774,-0.38315874,0.86664766,0.45700812,-0.20016345,-0.49787658,0.76624095,-0.40619424,-0.03226063,0.45168397,0.8915945,,0.8183548344829487,-0.08605441241748371,0.15336277361,0.637038048305985,0.1186004817964023,0.30416851620138563,0.8702971843634397,,-0.6228924654363263,-0.6848365058204811,0.12736827024000003,1.4489575094780633,0.22708986261016204,0.7897408863742985,0.8673569911730229,,-0.06956664232292899,-0.10007281598622488,0.10184858632,-0.034016912529394594,,3.1881034e-05,1.4305115e-06,-1.1920929e-06,1.0,-2.40691e-05,-1.963973e-05,2.4072826e-05,1.0,-2.1457672e-06,1.963973e-05,2.2053719e-06,0.99999994,333,0.997,0,0,0.0
0.9992286569995485,10:49:15.256648,NaN,0,,0.028309692,0.0499392,0.074807525,-0.8671282,-0.3698379,-0.3336292,-0.49152923,0.7437029,0.453106,0.08054513,0.55688965,-0.82667196,,0.14070843,-0.04493911,0.07080874,-0.7432872,-0.61741906,0.25752205,-0.44484383,0.74368167,0.4990505,-0.4996378,0.2563808,-0.8274243,,0.08867657,1.3406535,0.47494665,0.99604386,0.0027334772,-0.088821165,-0.053904854,-0.7760417,-0.62837374,-0.07064658,0.6306757,-0.77282417,,-0.07268697,0.27884266,-0.08912974,0.8815229,0.2838318,0.37730208,-0.24625576,0.9582226,-0.14549072,-0.40283427,0.035340596,0.9145904,,0.055047568,0.444038,-0.38315785,0.86664754,0.45700914,-0.20016167,-0.4978769,0.76624423,-0.40618756,-0.0322587,0.45167732,0.891598,,0.8183548344829487,-0.08605441241748371,0.15336277361,0.637038048305985,0.1186004817964023,0.30416851620138563,0.8702971843634397,,-0.6228924654363263,-0.6848287830876069,0.12736827024000003,1.4489575094780633,0.22708986261016204,0.7897408863742985,0.8673569911730229,,-0.06956664232292899,-0.10007281598622488,0.10184858632,-0.034016912529394594,,3.1881034e-05,1.4305115e-06,-1.1920929e-06,1.0,-2.40691e-05,-1.963973e-05,2.4072826e-05,1.0,-2.1457672e-06,1.963973e-05,2.2053719e-06,0.99999994,350,1.049,0,0,0.0
1.0248305029999756,10:49:15.313638,NaN,0,,0.028309692,0.0499392,0.074807525,-0.8671282,-0.3698379,-0.3336292,-0.49152923,0.7437029,0.453106,0.08054513,0.55688965,-0.82667196,,0.14070843,-0.04493911,0.07080874,-0.7432872,-0.61741906,0.25752205,-0.44484383,0.74368167,0.4990505,-0.4996378,0.2563808,-0.8274243,,0.08867657,1.3406535,0.47494665,0.99604386,0.0027334772,-0.088821165,-0.053904854,-0.7760417,-0.62837374,-0.07064658,0.6306757,-0.77282417,,-0.07268697,0.27884266,-0.08912974,0.8815229,0.2838318,0.37730208,-0.24625576,0.9582226,-0.14549072,-0.40283427,0.035340596,0.9145904,,0.055047568,0.444038,-0.38315785,0.86664754,0.45700914,-0.20016167,-0.4978769,0.76624423,-0.40618756,-0.0322587,0.45167732,0.891598,,0.8183548344829487,-0.08605441241748371,0.15336277361,0.637038048305985,0.1186004817964023,0.30416851620138563,0.8702971843634397,,-0.6228924654363263,-0.6848287830876069,0.12736827024000003,1.4489575094780633,0.22708986261016204,0.7897408863742985,0.8673569911730229,,-0.06956664232292899,-0.10007281598622488,0.10184858632,-0.034016912529394594,,3.1881034e-05,1.4305115e-06,-1.1920929e-06,1.0,-2.40691e-05,-1.963973e-05,2.4072826e-05,1.0,-2.1457672e-06,1.963973e-05,2.2053719e-06,0.99999994,354,1.061,0,0,0.0
1.081847399000253,10:49:15.331111,NaN,0,,0.028310154,0.049940243,0.074807554,-0.86712974,-0.36983755,-0.33362558,-0.49152747,0.74370015,0.45311233,0.080539376,0.5568936,-0.8266698,,0.14070857,-0.044939972,0.070809096,-0.7432874,-0.6174175,0.25752527,-0.44484517,0.7436852,0.49904406,-0.49963647,0.2563744,-0.82742715,,0.08867657,1.3406535,0.47494665,0.99604386,0.0027334772,-0.088821165,-0.053904854,-0.7760417,-0.62837374,-0.07064658,0.6306757,-0.77282417,,-0.072687484,0.27884343,-0.089129075,0.8815248,0.28383127,0.377298,-0.24625793,0.9582229,-0.14548485,-0.40282875,0.035335883,0.914593,,0.05504751,0.44403774,-0.38315874,0.86664766,0.45700812,-0.20016345,-0.49787658,0.76624095,-0.40619424,-0.03226063,0.45168397,0.8915945,,0.8183548344829487,-0.08604668968460949,0.15336277361,0.637038048305985,0.1186004817964023,0.30416851620138563,0.8702971843634397,,-0.6228924654363263,-0.6848365058204811,0.12736827024000003,1.4489575094780633,0.22708986261016204,0.7897408863742985,0.8673569911730229,,-0.06956664232292899,-0.10007281598622488,0.10184858632,-0.034016912529394594,,3.1881034e-05,1.4305115e-06,-1.1920929e-06,1.0,-2.40691e-05,-1.963973e-05,2.4072826e-05,1.0,-2.1457672e-06,1.963973e-05,2.2053719e-06,0.99999994,362,1.087,0,0,0.0
1.0993196449999232,10:49:15.351675,NaN,0,,0.028309692,0.0499392,0.074807525,-0.8671282,-0.3698379,-0.3336292,-0.49152923,0.7437029,0.453106,0.08054513,0.55688965,-0.82667196,,0.14070857,-0.044939972,0.070809096,-0.7432874,-0.6174175,0.25752527,-0.44484517,0.7436852,0.49904406,-0.49963647,0.2563744,-0.82742715,,0.08867657,1.3406535,0.47494665,0.99604386,0.0027334772,-0.088821165,-0.053904854,-0.7760417,-0.62837374,-0.07064658,0.6306757,-0.77282417,,-0.07268697,0.27884266,-0.08912974,0.8815229,0.2838318,0.37730208,-0.24625576,0.9582226,-0.14549072,-0.40283427,0.035340596,0.9145904,,0.05504751,0.44403774,-0.38315874,0.86664766,0.45700812,-0.20016345,-0.49787658,0.76624095,-0.40619424,-0.03226063,0.45168397,0.8915945,,0.8183548344829487,-0.08605441241748371,0.15336277361,0.637038048305985,0.1186004817964023,0.30416851620138563,0.8702971843634397,,-0.6228924654363263,-0.6848365058204811,0.12736827024000003,1.4489575094780633,0.22708986261016204,0.7897408863742985,0.8673569911730229,,-0.06956664232292899,-0.10007281598622488,0.10184858632,-0.034016912529394594,,3.1881034e-05,1.4305115e-06,-1.1920929e-06,1.0,-2.40691e-05,-1.963973e-05,2.4072826e-05,1.0,-2.1457672e-06,1.963973e-05,2.2053719e-06,0.99999994,370,1.111,0,0,0.0
1.1198688630001925,10:49:15.377327,NaN,0,,0.028309692,0.0499392,0.074807525,-0.8671282,-0.3698379,-0.3336292,-0.49152923,0.7437029,0.453106,0.08054513,0.55688965,-0.82667196,,0.14070843,-0.04493911,0.07080874,-0.7432872,-0.61741906,0.25752205,-0.44484383,0.74368167,0.4990505,-0.4996378,0.2563808,-0.8274243,,0.08867657,1.3406535,0.47494665,0.99604386,0.0027334772,-0.088821165,-0.053904854,-0.7760417,-0.62837374,-0.07064658,0.6306757,-0.77282417,,-0.07268697,0.27884266,-0.08912974,0.8815229,0.2838318,0.37730208,-0.24625576,0.9582226,-0.14549072,-0.40283427,0.035340596,0.9145904,,0.055047568,0.444038,-0.38315785,0.86664754,0.45700914,-0.20016167,-0.4978769,0.76624423,-0.40618756,-0.0322587,0.45167732,0.891598,,0.8183548344829487,-0.08605441241748371,0.15336277361,0.637038048305985,0.1186004817964023,0.30416851620138563,0.8702971843634397,,-0.6228924654363263,-0.6848287830876069,0.12736827024000003,1.4489575094780633,0.22708986261016204,0.7897408863742985,0.8673569911730229,,-0.06956664232292899,-0.10007281598622488,0.10184858632,-0.034016912529394594,,3.1881034e-05,1.4305115e-06,-1.1920929e-06,1.0,-2.40691e-05,-1.963973e-05,2.4072826e-05,1.0,-2.1457672e-06,1.963973e-05,2.2053719e-06,0.99999994,378,1.136,0,0,0.0
1.1455209139994622,10:49:15.402207,NaN,0,,0.028309692,0.0499392,0.074807525,-0.8671282,-0.3698379,-0.3336292,-0.49152923,0.7437029,0.453106,0.08054513,0.55688965,-0.82667196,,0.14070843,-0.04493911,0.07080874,-0.7432872,-0.61741906,0.25752205,-0.44484383,0.74368167,0.4990505,-0.4996378,0.2563808,-0.8274243,,0.08867657,1.3406535,0.47494665,0.99604386,0.0027334772,-0.088821165,-0.053904854,-0.7760417,-0.62837374,-0.07064658,0.6306757,-0.77282417,,-0.07268697,0.27884266,-0.08912974,0.8815229,0.2838318,0.37730208,-0.24625576,0.9582226,-0.14549072,-0.40283427,0.035340596,0.9145904,,0.055047568,0.444038,-0.38315785,0.86664754,0.45700914,-0.20016167,-0.4978769,0.76624423,-0.40618756,-0.0322587,0.45167732,0.891598,,0.8183548344829487,-0.08605441241748371,0.15336277361,0.637038048305985,0.1186004817964023,0.30416851620138563,0.8702971843634397,,-0.6228924654363263,-0.6848287830876069,0.12736827024000003,1.4489575094780633,0.22708986261016204,0.7897408863742985,0.8673569911730229,,-0.06956664232292899,-0.10007281598622488,0.10184858632,-0.034016912529394594,,3.1881034e-05,1.4305115e-06,-1.1920929e-06,1.0,-2.40691e-05,-1.963973e-05,2.4072826e-05,1.0,-2.1457672e-06,1.963973e-05,2.2053719e-06,0.99999994,386,1.16,0,0,0.0
1.1704102510002485,10:49:15.420706,NaN,0,,0.028310154,0.049940243,0.074807554,-0.86712974,-0.36983755,-0.33362558,-0.49152747,0.74370015,0.45311233,0.080539376,0.5568936,-0.8266698,,0.14070857,-0.044939972,0.070809096,-0.7432874,-0.6174175,0.25752527,-0.44484517,0.7436852,0.49904406,-0.49963647,0.2563744,-0.82742715,,0.08867657,1.3406535,0.47494665,0.99604386,0.0027334772,-0.088821165,-0.053904854,-0.7760417,-0.62837374,-0.07064658,0.6306757,-0.77282417,,-0.072687484,0.27884343,-0.089129075,0.8815248,0.28383127,0.377298,-0.24625793,0.9582229,-0.14548485,-0.40282875,0.035335883,0.914593,,0.05504751,0.44403774,-0.38315874,0.86664766,0.45700812,-0.20016345,-0.49787658,0.76624095,-0.40619424,-0.03226063,0.45168397,0.8915945,,0.8183548344829487,-0.08604668968460949,0.15336277361,0.637038048305985,0.1186004817964023,0.30416851620138563,0.8702971843634397,,-0.6228924654363263,-0.6848365058204811,0.12736827024000003,1.4489575094780633,0.22708986261016204,0.7897408863742985,0.8673569911730229,,-0.06956664232292899,-0.10007281598622488,0.10184858632,-0.034016912529394594,,3.1881034e-05,1.4305115e-06,-1.1920929e-06,1.0,-2.40691e-05,-1.963973e-05,2.4072826e-05,1.0,-2.1457672e-06,1.963973e-05,2.2053719e-06,0.99999994,390,1.173,0,0,0.0
1.18891003599947,10:49:15.444931,NaN,0,,0.028309692,0.0499392,0.074807525,-0.8671282,-0.3698379,-0.3336292,-0.49152923,0.7437029,0.453106,0.08054513,0.55688965,-0.82667196,,0.14070857,-0.044939972,0.070809096,-0.7432874,-0.6174175,0.25752527,-0.44484517,0.7436852,0.49904406,-0.49963647,0.2563744,-0.82742715,,0.08867657,1.3406535,0.47494665,0.99604386,0.0027334772,-0.088821165,-0.053904854,-0.7760417,-0.62837374,-0.07064658,0.6306757,-0.77282417,,-0.07268697,0.27884266,-0.08912974,0.8815229,0.2838318,0.37730208,-0.24625576,0.9582226,-0.14549072,-0.40283427,0.035340596,0.9145904,,0.05504751,0.44403774,-0.38315874,0.86664766,0.45700812,-0.20016345,-0.49787658,0.76624095,-0.40619424,-0.03226063,0.45168397,0.8915945,,0.8183548344829487,-0.08605441241748371,0.15336277361,0.637038048305985,0.1186004817964023,0.30416851620138563,0.8702971843634397,,-0.6228924654363263,-0.6848365058204811,0.12736827024000003,1.4489575094780633,0.22708986261016204,0.7897408863742985,0.8673569911730229,,-0.06956664232292899,-0.10007281598622488,0.10184858632,-0.034016912529394594,,3.1881034e-05,1.4305115e-06,-1.1920929e-06,1.0,-2.40691e-05,-1.963973e-05,2.4072826e-05,1.0,-2.1457672e-06,1.963973e-05,2.2053719e-06,0.99999994,398,1.197,0,0,0.0
1.2131331489999866,10:49:15.465851,NaN,0,,0.028309692,0.0499392,0.074807525,-0.8671282,-0.3698379,-0.3336292,-0.49152923,0.7437029,0.453106,0.08054513,0.55688965,-0.82667196,,0.14070857,-0.044939972,0.070809096,-0.7432874,-0.6174175,0.25752527,-0.44484517,0.7436852,0.49904406,-0.49963647,0.2563744,-0.82742715,,0.08867657,1.3406535,0.47494665,0.99604386,0.0027334772,-0.088821165,-0.053904854,-0.7760417,-0.62837374,-0.07064658,0.6306757,-0.77282417,,-0.07268697,0.27884266,-0.08912974,0.8815229,0.2838318,0.37730208,-0.24625576,0.9582226,-0.14549072,-0.40283427,0.035340596,0.9145904,,0.05504751,0.44403774,-0.38315874,0.86664766,0.45700812,-0.20016345,-0.49787658,0.76624095,-0.40619424,-0.03226063,0.45168397,0.8915945,,0.8183548344829487,-0.08605441241748371,0.15336277361,0.637038048305985,0.1186004817964023,0.30416851620138563,0.8702971843634397,,-0.6228924654363263,-0.6848365058204811,0.12736827024000003,1.4489575094780633,0.22708986261016204,0.7897408863742985,0.8673569911730229,,-0.06956664232292899,-0.10007281598622488,0.10184858632,-0.034016912529394594,,3.1881034e-05,1.4305115e-06,-1.1920929e-06,1.0,-2.40691e-05,-1.963973e-05,2.4072826e-05,1.0,-2.1457672e-06,1.963973e-05,2.2053719e-06,0.99999994,406,1.222,0,0,0.0
1.2340263289997893,10:49:15.485745,NaN,0,,0.028309692,0.0499392,0.074807525,-0.8671282,-0.3698379,-0.3336292,-0.49152923,0.7437029,0.453106,0.08054513,0.55688965,-0.82667196,,0.14070843,-0.04493911,0.07080874,-0.7432872,-0.61741906,0.25752205,-0.44484383,0.74368167,0.4990505,-0.4996378,0.2563808,-0.8274243,,0.08867657,1.3406535,0.47494665,0.99604386,0.0027334772,-0.088821165,-0.053904854,-0.7760417,-0.62837374,-0.07064658,0.6306757,-0.77282417,,-0.07268697,0.27884266,-0.08912974,0.8815229,0.2838318,0.37730208,-0.24625576,0.9582226,-0.14549072,-0.40283427,0.035340596,0.9145904,,0.055047568,0.444038,-0.38315785,0.86664754,0.45700914,-0.20016167,-0.4978769,0.76624423,-0.40618756,-0.0322587,0.45167732,0.891598,,0.8183548344829487,-0.08605441241748371,0.15336277361,0.637038048305985,0.1186004817964023,0.30416851620138563,0.8702971843634397,,-0.6228924654363263,-0.6848287830876069,0.12736827024000003,1.4489575094780633,0.22708986261016204,0.7897408863742985,0.8673569911730229,,-0.06956664232292899,-0.10007281598622488,0.10184858632,-0.034016912529394594,,3.1881034e-05,1.4305115e-06,-1.1920929e-06,1.0,-2.40691e-05,-1.963973e-05,2.4072826e-05,1.0,-2.1457672e-06,1.963973e-05,2.2053719e-06,0.99999994,435,1.311,0,0,0.0
1.2539548189997731,10:49:15.569660,NaN,0,,0.028309692,0.0499392,0.074807525,-0.8671282,-0.3698379,-0.3336292,-0.49152923,0.7437029,0.453106,0.08054513,0.55688965,-0.82667196,,0.14070857,-0.044939972,0.070809096,-0.7432874,-0.6174175,0.25752527,-0.44484517,0.7436852,0.49904406,-0.49963647,0.2563744,-0.82742715,,0.08867657,1.3406535,0.47494665,0.99604386,0.0027334772,-0.088821165,-0.053904854,-0.7760417,-0.62837374,-0.07064658,0.6306757,-0.77282417,,-0.07268697,0.27884266,-0.08912974,0.8815229,0.2838318,0.37730208,-0.24625576,0.9582226,-0.14549072,-0.40283427,0.035340596,0.9145904,,0.05504751,0.44403774,-0.38315874,0.86664766,0.45700812,-0.20016345,-0.49787658,0.76624095,-0.40619424,-0.03226063,0.45168397,0.8915945,,0.8183548344829487,-0.08605441241748371,0.15336277361,0.637038048305985,0.1186004817964023,0.30416851620138563,0.8702971843634397,,-0.6228924654363263,-0.6848365058204811,0.12736827024000003,1.4489575094780633,0.22708986261016204,0.7897408863742985,0.8673569911730229,,-0.06956664232292899,-0.10007281598622488,0.10184858632,-0.034016912529394594,,3.1881034e-05,1.4305115e-06,-1.1920929e-06,1.0,-2.40691e-05,-1.963973e-05,2.4072826e-05,1.0,-2.1457672e-06,1.963973e-05,2.2053719e-06,0.99999994,439,1.323,0,0,0.0
1.3378613639997639,10:49:15.588025,NaN,0,,0.028309692,0.0499392,0.074807525,-0.8671282,-0.3698379,-0.3336292,-0.49152923,0.7437029,0.453106,0.08054513,0.55688965,-0.82667196,,0.14070843,-0.04493911,0.07080874,-0.7432872,-0.61741906,0.25752205,-0.44484383,0.74368167,0.4990505,-0.4996378,0.2563808,-0.8274243,,0.08867657,1.3406535,0.47494665,0.99604386,0.0027334772,-0.088821165,-0.053904854,-0.7760417,-0.62837374,-0.07064658,0.6306757,-0.77282417,,-0.07268697,0.27884266,-0.08912974,0.8815229,0.2838318,0.37730208,-0.24625576,0.9582226,-0.14549072,-0.40283427,0.035340596,0.9145904,,0.055047568,0.444038,-0.38315785,0.86664754,0.45700914,-0.20016167,-0.4978769,0.76624423,-0.40618756,-0.0322587,0.45167732,0.891598,,0.8183548344829487,-0.08605441241748371,0.15336277361,0.637038048305985,0.1186004817964023,0.30416851620138563,0.8702971843634397,,-0.6228924654363263,-0.6848287830876069,0.12736827024000003,1.4489575094780633,0.22708986261016204,0.7897408863742985,0.8673569911730229,,-0.06956664232292899,-0.10007281598622488,0.10184858632,-0.034016912529394594,,3.1881034e-05,1.4305115e-06,-1.1920929e-06,1.0,-2.40691e-05,-1.963973e-05,2.4072826e-05,1.0,-2.1457672e-06,1.963973e-05,2.2053719e-06,0.99999994,447,1.349,0,0,0.0
1.3562303959997735,10:49:15.611772,NaN,0,,0.028309692,0.0499392,0.074807525,-0.8671282,-0.3698379,-0.3336292,-0.49152923,0.7437029,0.453106,0.08054513,0.55688965,-0.82667196,,0.14070843,-0.04493911,0.07080874,-0.7432872,-0.61741906,0.25752205,-0.44484383,0.74368167,0.4990505,-0.4996378,0.2563808,-0.8274243,,0.08867657,1.3406535,0.47494665,0.99604386,0.0027334772,-0.088821165,-0.053904854,-0.7760417,-0.62837374,-0.07064658,0.6306757,-0.77282417,,-0.07268697,0.27884266,-0.08912974,0.8815229,0.2838318,0.37730208,-0.24625576,0.9582226,-0.14549072,-0.40283427,0.035340596,0.9145904,,0.055047568,0.444038,-0.38315785,0.86664754,0.45700914,-0.20016167,-0.4978769,0.76624423,-0.40618756,-0.0322587,0.45167732,0.891598,,0.8183548344829487,-0.08605441241748371,0.15336277361,0.637038048305985,0.1186004817964023,0.30416851620138563,0.8702971843634397,,-0.6228924654363263,-0.6848287830876069,0.12736827024000003,1.4489575094780633,0.22708986261016204,0.7897408863742985,0.8673569911730229,,-0.06956664232292899,-0.10007281598622488,0.10184858632,-0.034016912529394594,,3.1881034e-05,1.4305115e-06,-1.1920929e-06,1.0,-2.40691e-05,-1.963973e-05,2.4072826e-05,1.0,-2.1457672e-06,1.963973e-05,2.2053719e-06,0.99999994,451,1.361,0,0,0.0
1.3799770469995565,10:49:15.629484,NaN,0,,0.028309692,0.0499392,0.074807525,-0.8671282,-0.3698379,-0.3336292,-0.49152923,0.7437029,0.453106,0.08054513,0.55688965,-0.82667196,,0.14070843,-0.04493911,0.07080874,-0.7432872,-0.61741906,0.25752205,-0.44484383,0.74368167,0.4990505,-0.4996378,0.2563808,-0.8274243,,0.08867657,1.3406535,0.47494665,0.99604386,0.0027334772,-0.088821165,-0.053904854,-0.7760417,-0.62837374,-0.07064658,0.6306757,-0.77282417,,-0.07268697,0.27884266,-0.08912974,0.8815229,0.2838318,0.37730208,-0.24625576,0.9582226,-0.14549072,-0.40283427,0.035340596,0.9145904,,0.055047568,0.444038,-0.38315785,0.86664754,0.45700914,-0.20016167,-0.4978769,0.76624423,-0.40618756,-0.0322587,0.45167732,0.891598,,0.8183548344829487,-0.08605441241748371,0.15336277361,0.637038048305985,0.1186004817964023,0.30416851620138563,0.8702971843634397,,-0.6228924654363263,-0.6848287830876069,0.12736827024000003,1.4489575094780633,0.22708986261016204,0.7897408863742985,0.8673569911730229,,-0.06956664232292899,-0.10007281598622488,0.10184858632,-0.034016912529394594,,3.1881034e-05,1.4305115e-06,-1.1920929e-06,1.0,-2.40691e-05,-1.963973e-05,2.4072826e-05,1.0,-2.1457672e-06,1.963973e-05,2.2053719e-06,0.99999994,459,1.386,0,0,0.0
1.3976761079993594,10:49:15.649835,NaN,0,,0.028309692,0.0499392,0.074807525,-0.8671282,-0.3698924,-0.33356878,-0.49152923,0.7437769,0.4529845,0.08054513,0.55675465,-0.8267629,,0.14070857,-0.044939972,0.070809096,-0.7432874,-0.6174175,0.25752527,-0.44484517,0.7436852,0.49904406,-0.49963647,0.2563744,-0.82742715,,0.08867657,1.3406535,0.47494665,0.99604386,0.0027334772,-0.088821165,-0.053904854,-0.7760417,-0.62837374,-0.07064658,0.6306757,-0.77282417,,-0.07268697,0.27884266,-0.08912974,0.8815229,0.28389344,0.3772557,-0.24625576,0.95819885,-0.14564726,-0.40283427,0.035490002,0.91458464,,0.05504751,0.44403774,-0.38315874,0.86664766,0.45700812,-0.20016345,-0.49787658,0.76624095,-0.40619424,-0.03226063,0.45168397,0.8915945,,0.8183548344829487,-0.08605441241748371,0.15336277361,0.637038048305985,0.1186004817964023,0.30400515872110456,0.8699704962311713,,-0.6228924654363263,-0.6848365058204811,0.12736827024000003,1.4489575094780633,0.22708986261016204,0.7897408863742985,0.8673569911730229,,-0.06956664232292899,-0.10007281598622488,0.10184858632,-0.034016912529394594,,3.1881034e-05,1.4305115e-06,-1.1920929e-06,1.0,-2.40691e-05,-1.963973e-05,2.4072826e-05,1.0,-2.1457672e-06,1.963973e-05,2.2053719e-06,0.99999994,463,1.398,0,0,0.0
1.4180420929997126,10:49:15.668528,NaN,0,,0.028309692,0.0499392,0.074807525,-0.8671282,-0.3698924,-0.33356878,-0.49152923,0.7437769,0.4529845,0.08054513,0.55675465,-0.8267629,,0.14070857,-0.044939972,0.070809096,-0.7432874,-0.6174175,0.25752527,-0.44484517,0.7436852,0.49904406,-0.49963647,0.2563744,-0.82742715,,0.08867657,1.3406535,0.47494665,0.99604386,0.0027334772,-0.088821165,-0.053904854,-0.7760417,-0.62837374,-0.07064658,0.6306757,-0.77282417,,-0.07268697,0.27884266,-0.08912974,0.8815229,0.28389344,0.3772557,-0.24625576,0.95819885,-0.14564726,-0.40283427,0.035490002,0.91458464,,0.05504751,0.44403774,-0.38315874,0.86664766,0.45700812,-0.20016345,-0.49787658,0.76624095,-0.40619424,-0.03226063,0.45168397,0.8915945,,0.8183548344829487,-0.08605441241748371,0.15336277361,0.637038048305985,0.1186004817964023,0.30400515872110456,0.8699704962311713,,-0.6228924654363263,-0.6848365058204811,0.12736827024000003,1.4489575094780633,0.22708986261016204,0.7897408863742985,0.8673569911730229,,-0.06956664232292899,-0.10007281598622488,0.10184858632,-0.034016912529394594,,3.1881034e-05,1.4305115e-06,-1.1920929e-06,1.0,-2.40691e-05,-1.963973e-05,2.4072826e-05,1.0,-2.1457672e-06,1.963973e-05,2.2053719e-06,0.99999994,471,1.423,0,0,0.0
1.4367130959999486,10:49:15.685824,NaN,0,,0.028310154,0.049940243,0.074807554,-0.86712974,-0.36989203,-0.33356518,-0.49152747,0.7437742,0.45299083,0.080539376,0.55675846,-0.8267608,,0.14070857,-0.044939972,0.070809096,-0.7432874,-0.6174175,0.25752527,-0.44484517,0.7436852,0.49904406,-0.49963647,0.2563744,-0.82742715,,0.08867657,1.3406535,0.47494665,0.99604386,0.0027334772,-0.088821165,-0.053904854,-0.7760417,-0.62837374,-0.07064658,0.6306757,-0.77282417,,-0.072687484,0.27884343,-0.089129075,0.8815248,0.2838929,0.37725165,-0.24625793,0.95819914,-0.14564139,-0.40282875,0.03548529,0.9145872,,0.05504751,0.44403774,-0.38315874,0.86664766,0.45700812,-0.20016345,-0.49787658,0.76624095,-0.40619424,-0.03226063,0.45168397,0.8915945,,0.8183548344829487,-0.08604668968460949,0.15336277361,0.637038048305985,0.1186004817964023,0.30400515872110456,0.8699704962311713,,-0.6228924654363263,-0.6848365058204811,0.12736827024000003,1.4489575094780633,0.22708986261016204,0.7897408863742985,0.8673569911730229,,-0.06956664232292899,-0.10007281598622488,0.10184858632,-0.034016912529394594,,3.1881034e-05,1.4305115e-06,-1.1920929e-06,1.0,-2.40691e-05,-1.963973e-05,2.4072826e-05,1.0,-2.1457672e-06,1.963973e-05,2.2053719e-06,0.99999994,475,1.435,0,0,0.0
1.4540329279998332,10:49:15.704401,NaN,0,,0.028309692,0.0499392,0.074807525,-0.8671282,-0.3698924,-0.33356878,-0.49152923,0.7437769,0.4529845,0.08054513,0.55675465,-0.8267629,,0.14070857,-0.044939972,0.070809096,-0.7432874,-0.6174175,0.25752527,-0.44484517,0.7436852,0.49904406,-0.49963647,0.2563744,-0.82742715,,0.08867657,1.3406535,0.47494665,0.99604386,0.0027334772,-0.088821165,-0.053904854,-0.7760417,-0.62837374,-0.07064658,0.6306757,-0.77282417,,-0.07268697,0.27884266,-0.08912974,0.8815229,0.28389344,0.3772557,-0.24625576,0.95819885,-0.14564726,-0.40283427,0.035490002,0.91458464,,0.05504751,0.44403774,-0.38315874,0.86664766,0.45700812,-0.20016345,-0.49787658,0.76624095,-0.40619424,-0.03226063,0.45168397,0.8915945,,0.8183548344829487,-0.08605441241748371,0.15336277361,0.637038048305985,0.1186004817964023,0.30400515872110456,0.8699704962311713,,-0.6228924654363263,-0.6848365058204811,0.12736827024000003,1.4489575094780633,0.22708986261016204,0.7897408863742985,0.8673569911730229,,-0.06956664232292899,-0.10007281598622488,0.10184858632,-0.034016912529394594,,3.1881034e-05,1.4305115e-06,-1.1920929e-06,1.0,-2.40691e-05,-1.963973e-05,2.4072826e-05,1.0,-2.1457672e-06,1.963973e-05,2.2053719e-06,0.99999994,483,1.459,0,0,0.0
1.472606898999402,10:49:15.720627,NaN,0,,0.028309692,0.0499392,0.074807525,-0.8671282,-0.3698924,-0.33356878,-0.49152923,0.7437769,0.4529845,0.08054513,0.55675465,-0.8267629,,0.14070857,-0.044939972,0.070809096,-0.7432874,-0.6174175,0.25752527,-0.44484517,0.7436852,0.49904406,-0.49963647,0.2563744,-0.82742715,,0.08867657,1.3406535,0.47494665,0.99604386,0.0027334772,-0.088821165,-0.053904854,-0.7760417,-0.62837374,-0.07064658,0.6306757,-0.77282417,,-0.07268697,0.27884266,-0.08912974,0.8815229,0.28389344,0.3772557,-0.24625576,0.95819885,-0.14564726,-0.40283427,0.035490002,0.91458464,,0.05504751,0.44403774,-0.38315874,0.86664766,0.45700812,-0.20016345,-0.49787658,0.76624095,-0.40619424,-0.03226063,0.45168397,0.8915945,,0.8183548344829487,-0.08605441241748371,0.15336277361,0.637038048305985,0.1186004817964023,0.30400515872110456,0.8699704962311713,,-0.6228924654363263,-0.6848365058204811,0.12736827024000003,1.4489575094780633,0.22708986261016204,0.7897408863742985,0.8673569911730229,,-0.06956664232292899,-0.10007281598622488,0.10184858632,-0.034016912529394594,,3.1881034e-05,1.4305115e-06,-1.1920929e-06,1.0,-2.40691e-05,-1.963973e-05,2.4072826e-05,1.0,-2.1457672e-06,1.963973e-05,2.2053719e-06,0.99999994,508,1.536,0,0,0.0
1.4888308949994098,10:49:15.801212,NaN,0,,0.028310154,0.049940243,0.074807554,-0.86712974,-0.36989203,-0.33356518,-0.49152747,0.7437742,0.45299083,0.080539376,0.55675846,-0.8267608,,0.14070857,-0.044939972,0.070809096,-0.7432874,-0.6174175,0.25752527,-0.44484517,0.7436852,0.49904406,-0.49963647,0.2563744,-0.82742715,,0.08867657,1.3406535,0.47494665,0.99604386,0.0027334772,-0.088821165,-0.053904854,-0.7760417,-0.62837374,-0.07064658,0.6306757,-0.77282417,,-0.072687484,0.27884343,-0.089129075,0.8815248,0.2838929,0.37725165,-0.24625793,0.95819914,-0.14564139,-0.40282875,0.03548529,0.9145872,,0.05504751,0.44403774,-0.38315874,0.86664766,0.45700812,-0.20016345,-0.49787658,0.76624095,-0.40619424,-0.03226063,0.45168397,0.8915945,,0.8183548344829487,-0.08604668968460949,0.15336277361,0.637038048305985,0.1186004817964023,0.30400515872110456,0.8699704962311713,,-0.6228924654363263,-0.6848365058204811,0.12736827024000003,1.4489575094780633,0.22708986261016204,0.7897408863742985,0.8673569911730229,,-0.06956664232292899,-0.10007281598622488,0.10184858632,-0.034016912529394594,,3.1881034e-05,1.4305115e-06,-1.1920929e-06,1.0,-2.40691e-05,-1.963973e-05,2.4072826e-05,1.0,-2.1457672e-06,1.963973e-05,2.2053719e-06,0.99999994,512,1.549,0,0,0.0
1.5692476919994078,10:49:15.818726,NaN,0,,0.028309692,0.0499392,0.074807525,-0.8671282,-0.3698924,-0.33356878,-0.49152923,0.7437769,0.4529845,0.08054513,0.55675465,-0.8267629,,0.14070985,-0.044939585,0.07080963,-0.7432824,-0.61741805,0.2575386,-0.44483918,0.74368614,0.49904802,-0.4996492,0.25637037,-0.82742065,,0.08867657,1.3406535,0.47494665,0.99604386,0.0027334772,-0.088821165,-0.053904854,-0.7760417,-0.62837374,-0.07064658,0.6306757,-0.77282417,,-0.07268697,0.27884266,-0.08912974,0.8815229,0.28389344,0.3772557,-0.24625576,0.95819885,-0.14564726,-0.40283427,0.035490002,0.91458464,,0.05504612,0.44403812,-0.3831588,0.8666438,0.4570091,-0.20017801,-0.49788412,0.7662385,-0.4061896,-0.032248244,0.45168713,0.8915934,,0.8183548344829487,-0.08605441241748371,0.15336277361,0.637038048305985,0.1186004817964023,0.30400515872110456,0.8699704962311713,,-0.6229079109020748,-0.6848365058204811,0.12736827024000003,1.4489575094780633,0.22708986261016204,0.7897408863742985,0.8673569911730229,,-0.06956664232292899,-0.10007281598622488,0.10184858632,-0.034016912529394594,,3.1881034e-05,1.4305115e-06,-1.1920929e-06,1.0,-2.40691e-05,-1.963973e-05,2.4072826e-05,1.0,-2.1457672e-06,1.963973e-05,2.2053719e-06,0.99999994,520,1.574,0,0,0.0
1.5869348019996323,10:49:15.838453,NaN,0,,0.028309692,0.0499392,0.074807525,-0.8671282,-0.3698924,-0.33356878,-0.49152923,0.7437769,0.4529845,0.08054513,0.55675465,-0.8267629,,0.14070971,-0.04493878,0.070809275,-0.74328226,-0.61741954,0.25753534,-0.44483784,0.7436826,0.49905443,-0.4996507,0.25637686,-0.8274178,,0.08867657,1.3406535,0.47494665,0.99604386,0.0027334772,-0.088821165,-0.053904854,-0.7760417,-0.62837374,-0.07064658,0.6306757,-0.77282417,,-0.07268697,0.27884266,-0.08912974,0.8815229,0.28389344,0.3772557,-0.24625576,0.95819885,-0.14564726,-0.40283427,0.035490002,0.91458464,,0.05504618,0.4440384,-0.3831579,0.86664367,0.45701012,-0.20017622,-0.49788448,0.7662418,-0.40618291,-0.032246314,0.45168048,0.89159685,,0.8183548344829487,-0.08605441241748371,0.15336277361,0.637038048305985,0.1186004817964023,0.30400515872110456,0.8699704962311713,,-0.6229079109020748,-0.6848287830876069,0.12736827024000003,1.4489575094780633,0.22708986261016204,0.7897408863742985,0.8673569911730229,,-0.06956664232292899,-0.10007281598622488,0.10184858632,-0.034016912529394594,,3.1881034e-05,1.4305115e-06,-1.1920929e-06,1.0,-2.40691e-05,-1.963973e-05,2.4072826e-05,1.0,-2.1457672e-06,1.963973e-05,2.2053719e-06,0.99999994,524,1.586,0,0,0.0
1.6066629380002269,10:49:15.855603,NaN,0,,0.028310154,0.049940243,0.074807554,-0.86712974,-0.36989203,-0.33356518,-0.49152747,0.7437742,0.45299083,0.080539376,0.55675846,-0.8267608,,0.14070985,-0.044939585,0.07080963,-0.7432824,-0.61741805,0.2575386,-0.44483918,0.74368614,0.49904802,-0.4996492,0.25637037,-0.82742065,,0.08867657,1.3406535,0.47494665,0.99604386,0.0027334772,-0.088821165,-0.053904854,-0.7760417,-0.62837374,-0.07064658,0.6306757,-0.77282417,,-0.072687484,0.27884343,-0.089129075,0.8815248,0.2838929,0.37725165,-0.24625793,0.95819914,-0.14564139,-0.40282875,0.03548529,0.9145872,,0.05504612,0.44403812,-0.3831588,0.8666438,0.4570091,-0.20017801,-0.49788412,0.7662385,-0.4061896,-0.032248244,0.45168713,0.8915934,,0.8183548344829487,-0.08604668968460949,0.15336277361,0.637038048305985,0.1186004817964023,0.30400515872110456,0.8699704962311713,,-0.6229079109020748,-0.6848365058204811,0.12736827024000003,1.4489575094780633,0.22708986261016204,0.7897408863742985,0.8673569911730229,,-0.06956664232292899,-0.10007281598622488,0.10184858632,-0.034016912529394594,,3.1881034e-05,1.4305115e-06,-1.1920929e-06,1.0,-2.40691e-05,-1.963973e-05,2.4072826e-05,1.0,-2.1457672e-06,1.963973e-05,2.2053719e-06,0.99999994,532,1.611,0,0,0.0
1.6237986939995608,10:49:15.870846,NaN,0,,0.028309692,0.0499392,0.074807525,-0.8671282,-0.3698924,-0.33356878,-0.49152923,0.7437769,0.4529845,0.08054513,0.55675465,-0.8267629,,0.14070985,-0.044939585,0.07080963,-0.7432824,-0.61741805,0.2575386,-0.44483918,0.74368614,0.49904802,-0.4996492,0.25637037,-0.82742065,,0.08867657,1.3406535,0.47494665,0.99604386,0.0027334772,-0.088821165,-0.053904854,-0.7760417,-0.62837374,-0.07064658,0.6306757,-0.77282417,,-0.07268697,0.27884266,-0.08912974,0.8815229,0.28389344,0.3772557,-0.24625576,0.95819885,-0.14564726,-0.40283427,0.035490002,0.91458464,,0.05504612,0.44403812,-0.3831588,0.8666438,0.4570091,-0.20017801,-0.49788412,0.7662385,-0.4061896,-0.032248244,0.45168713,0.8915934,,0.8183548344829487,-0.08605441241748371,0.15336277361,0.637038048305985,0.1186004817964023,0.30400515872110456,0.8699704962311713,,-0.6229079109020748,-0.6848365058204811,0.12736827024000003,1.4489575094780633,0.22708986261016204,0.7897408863742985,0.8673569911730229,,-0.06956664232292899,-0.10007281598622488,0.10184858632,-0.034016912529394594,,3.1881034e-05,1.4305115e-06,-1.1920929e-06,1.0,-2.40691e-05,-1.963973e-05,2.4072826e-05,1.0,-2.1457672e-06,1.963973e-05,2.2053719e-06,0.99999994,536,1.623,0,0,0.0
1.639054754999961,10:49:15.888809,NaN,0,,0.028309692,0.0499392,0.074807525,-0.8671282,-0.3698924,-0.33356878,-0.49152923,0.7437769,0.4529845,0.08054513,0.55675465,-0.8267629,,0.14070971,-0.04493878,0.070809275,-0.74328226,-0.61741954,0.25753534,-0.44483784,0.7436826,0.49905443,-0.4996507,0.25637686,-0.8274178,,0.08867657,1.3406535,0.47494665,0.99604386,0.0027334772,-0.088821165,-0.053904854,-0.7760417,-0.62837374,-0.07064658,0.6306757,-0.77282417,,-0.07268697,0.27884266,-0.08912974,0.8815229,0.28389344,0.3772557,-0.24625576,0.95819885,-0.14564726,-0.40283427,0.035490002,0.91458464,,0.05504618,0.4440384,-0.3831579,0.86664367,0.45701012,-0.20017622,-0.49788448,0.7662418,-0.40618291,-0.032246314,0.45168048,0.89159685,,0.8183548344829487,-0.08605441241748371,0.15336277361,0.637038048305985,0.1186004817964023,0.30400515872110456,0.8699704962311713,,-0.6229079109020748,-0.6848287830876069,0.12736827024000003,1.4489575094780633,0.22708986261016204,0.7897408863742985,0.8673569911730229,,-0.06956664232292899,-0.10007281598622488,0.10184858632,-0.034016912529394594,,3.1881034e-05,1.4305115e-06,-1.1920929e-06,1.0,-2.40691e-05,-1.963973e-05,2.4072826e-05,1.0,-2.1457672e-06,1.963973e-05,2.2053719e-06,0.99999994,544,1.648,0,0,0.0
1.6570161119998374,10:49:15.911464,NaN,0,,0.028309692,0.0499392,0.074807525,-0.8671282,-0.3698924,-0.33356878,-0.49152923,0.7437769,0.4529845,0.08054513,0.55675465,-0.8267629,,0.14070985,-0.044939585,0.07080963,-0.7432824,-0.61741805,0.2575386,-0.44483918,0.74368614,0.49904802,-0.4996492,0.25637037,-0.82742065,,0.08867657,1.3406535,0.47494665,0.99604386,0.0027334772,-0.088821165,-0.053904854,-0.7760417,-0.62837374,-0.07064658,0.6306757,-0.77282417,,-0.07268697,0.27884266,-0.08912974,0.8815229,0.28389344,0.3772557,-0.24625576,0.95819885,-0.14564726,-0.40283427,0.035490002,0.91458464,,0.05504612,0.44403812,-0.3831588,0.8666438,0.4570091,-0.20017801,-0.49788412,0.7662385,-0.4061896,-0.032248244,0.45168713,0.8915934,,0.8183548344829487,-0.08605441241748371,0.15336277361,0.637038048305985,0.1186004817964023,0.30400515872110456,0.8699704962311713,,-0.6229079109020748,-0.6848365058204811,0.12736827024000003,1.4489575094780633,0.22708986261016204,0.7897408863742985,0.8673569911730229,,-0.06956664232292899,-0.10007281598622488,0.10184858632,-0.034016912529394594,,3.1881034e-05,1.4305115e-06,-1.1920929e-06,1.0,-2.40691e-05,-1.963973e-05,2.4072826e-05,1.0,-2.1457672e-06,1.963973e-05,2.2053719e-06,0.99999994,548,1.66,0,0,0.0
1.6796706929999345,10:49:15.931412,NaN,0,,0.028309692,0.0499392,0.074807525,-0.8671282,-0.3698924,-0.33356878,-0.49152923,0.7437769,0.4529845,0.08054513,0.55675465,-0.8267629,,0.14070985,-0.044939585,0.07080963,-0.7432824,-0.61741805,0.2575386,-0.44483918,0.74368614,0.49904802,-0.4996492,0.25637037,-0.82742065,,0.08867657,1.3406535,0.47494665,0.99604386,0.0027334772,-0.088821165,-0.053904854,-0.7760417,-0.62837374,-0.07064658,0.6306757,-0.77282417,,-0.07268697,0.27884266,-0.08912974,0.8815229,0.28389344,0.3772557,-0.24625576,0.95819885,-0.14564726,-0.40283427,0.035490002,0.91458464,,0.05504612,0.44403812,-0.3831588,0.8666438,0.4570091,-0.20017801,-0.49788412,0.7662385,-0.4061896,-0.032248244,0.45168713,0.8915934,,0.8183548344829487,-0.08605441241748371,0.15336277361,0.637038048305985,0.1186004817964023,0.30400515872110456,0.8699704962311713,,-0.6229079109020748,-0.6848365058204811,0.12736827024000003,1.4489575094780633,0.22708986261016204,0.7897408863742985,0.8673569911730229,,-0.06956664232292899,-0.10007281598622488,0.10184858632,-0.034016912529394594,,3.1881034e-05,1.4305115e-06,-1.1920929e-06,1.0,-2.40691e-05,-1.963973e-05,2.4072826e-05,1.0,-2.1457672e-06,1.963973e-05,2.2053719e-06,0.99999994,556,1.685,0,0,0.0
1.6996209729995826,10:49:15.950700,NaN,0,,0.028309692,0.0499392,0.074807525,-0.8671282,-0.3698924,-0.33356878,-0.49152923,0.7437769,0.4529845,0.08054513,0.55675465,-0.8267629,,0.14070971,-0.04493878,0.070809275,-0.74328226,-0.61741954,0.25753534,-0.44483784,0.7436826,0.49905443,-0.4996507,0.25637686,-0.8274178,,0.08867657,1.3406535,0.47494665,0.99604386,0.0027334772,-0.088821165,-0.053904854,-0.7760417,-0.62837374,-0.07064658,0.6306757,-0.77282417,,-0.07268697,0.27884266,-0.08912974,0.8815229,0.28389344,0.3772557,-0.24625576,0.95819885,-0.14564726,-0.40283427,0.035490002,0.91458464,,0.05504618,0.4440384,-0.3831579,0.86664367,0.45701012,-0.20017622,-0.49788448,0.7662418,-0.40618291,-0.032246314,0.45168048,0.89159685,,0.8183548344829487,-0.08605441241748371,0.15336277361,0.637038048305985,0.1186004817964023,0.30400515872110456,0.8699704962311713,,-0.6229079109020748,-0.6848287830876069,0.12736827024000003,1.4489575094780633,0.22708986261016204,0.7897408863742985,0.8673569911730229,,-0.06956664232292899,-0.10007281598622488,0.10184858632,-0.034016912529394594,,3.1881034e-05,1.4305115e-06,-1.1920929e-06,1.0,-2.40691e-05,-1.963973e-05,2.4072826e-05,1.0,-2.1457672e-06,1.963973e-05,2.2053719e-06,0.99999994,585,1.774,0,0,0.0
1.7189001569995526,10:49:16.035243,NaN,0,,0.028309692,0.0499392,0.074807525,-0.8671282,-0.3698924,-0.33356878,-0.49152923,0.7437769,0.4529845,0.08054513,0.55675465,-0.8267629,,0.14070971,-0.04493878,0.070809275,-0.74328226,-0.61741954,0.25753534,-0.44483784,0.7436826,0.49905443,-0.4996507,0.25637686,-0.8274178,,0.08867657,1.3406535,0.47494665,0.99604386,0.0027334772,-0.088821165,-0.053904854,-0.7760417,-0.62837374,-0.07064658,0.6306757,-0.77282417,,-0.07268697,0.27884266,-0.08912974,0.8815229,0.28389344,0.3772557,-0.24625576,0.95819885,-0.14564726,-0.40283427,0.035490002,0.91458464,,0.05504618,0.4440384,-0.3831579,0.86664367,0.45701012,-0.20017622,-0.49788448,0.7662418,-0.40618291,-0.032246314,0.45168048,0.89159685,,0.8183548344829487,-0.08605441241748371,0.15336277361,0.637038048305985,0.1186004817964023,0.30400515872110456,0.8699704962311713,,-0.6229079109020748,-0.6848287830876069,0.12736827024000003,1.4489575094780633,0.22708986261016204,0.7897408863742985,0.8673569911730229,,-0.06956664232292899,-0.10007281598622488,0.10184858632,-0.034016912529394594,,3.1881034e-05,1.4305115e-06,-1.1920929e-06,1.0,-2.40691e-05,-1.963973e-05,2.4072826e-05,1.0,-2.1457672e-06,1.963973e-05,2.2053719e-06,0.99999994,589,1.786,0,0,0.0
1.8034513389993663,10:49:16.053247,NaN,0,,0.028310154,0.049940243,0.074807554,-0.86712974,-0.36989203,-0.33356518,-0.49152747,0.7437742,0.45299083,0.080539376,0.55675846,-0.8267608,,0.14070985,-0.044939585,0.07080963,-0.7432824,-0.61741805,0.2575386,-0.44483918,0.74368614,0.49904802,-0.4996492,0.25637037,-0.82742065,,0.08867657,1.3406535,0.47494665,0.99604386,0.0027334772,-0.088821165,-0.053904854,-0.7760417,-0.62837374,-0.07064658,0.6306757,-0.77282417,,-0.072687484,0.27884343,-0.089129075,0.8815248,0.2838929,0.37725165,-0.24625793,0.95819914,-0.14564139,-0.40282875,0.03548529,0.9145872,,0.05504612,0.44403812,-0.3831588,0.8666438,0.4570091,-0.20017801,-0.49788412,0.7662385,-0.4061896,-0.032248244,0.45168713,0.8915934,,0.8183548344829487,-0.08604668968460949,0.15336277361,0.637038048305985,0.1186004817964023,0.30400515872110456,0.8699704962311713,,-0.6229079109020748,-0.6848365058204811,0.12736827024000003,1.4489575094780633,0.22708986261016204,0.7897408863742985,0.8673569911730229,,-0.06956664232292899,-0.10007281598622488,0.10184858632,-0.034016912529394594,,3.1881034e-05,1.4305115e-06,-1.1920929e-06,1.0,-2.40691e-05,-1.963973e-05,2.4072826e-05,1.0,-2.1457672e-06,1.963973e-05,2.2053719e-06,0.99999994,597,1.812,0,0,0.0
1.8214522869993743,10:49:16.073619,NaN,0,,0.028309692,0.0499392,0.074807525,-0.8671282,-0.3698924,-0.33356878,-0.49152923,0.7437769,0.4529845,0.08054513,0.55675465,-0.8267629,,0.14070985,-0.044939585,0.07080963,-0.7432824,-0.61741805,0.2575386,-0.44483918,0.74368614,0.49904802,-0.4996492,0.25637037,-0.82742065,,0.08867657,1.3406535,0.47494665,0.99604386,0.0027334772,-0.088821165,-0.053904854,-0.7760417,-0.62837374,-0.07064658,0.6306757,-0.77282417,,-0.07268697,0.27884266,-0.08912974,0.8815229,0.28389344,0.3772557,-0.24625576,0.95819885,-0.14564726,-0.40283427,0.035490002,0.91458464,,0.05504612,0.44403812,-0.3831588,0.8666438,0.4570091,-0.20017801,-0.49788412,0.7662385,-0.4061896,-0.032248244,0.45168713,0.8915934,,0.8183548344829487,-0.08605441241748371,0.15336277361,0.637038048305985,0.1186004817964023,0.30400515872110456,0.8699704962311713,,-0.6229079109020748,-0.6848365058204811,0.12736827024000003,1.4489575094780633,0.22708986261016204,0.7897408863742985,0.8673569911730229,,-0.06956664232292899,-0.10007281598622488,0.10184858632,-0.034016912529394594,,3.1881034e-05,1.4305115e-06,-1.1920929e-06,1.0,-2.40691e-05,-1.963973e-05,2.4072826e-05,1.0,-2.1457672e-06,1.963973e-05,2.2053719e-06,0.99999994,605,1.836,0,0,0.0
1.841787758999999,10:49:16.102242,NaN,0,,0.028309692,0.0499392,0.074807525,-0.8671282,-0.3698924,-0.33356878,-0.49152923,0.7437769,0.4529845,0.08054513,0.55675465,-0.8267629,,0.14070971,-0.04493878,0.070809275,-0.74328226,-0.61741954,0.25753534,-0.44483784,0.7436826,0.49905443,-0.4996507,0.25637686,-0.8274178,,0.08867657,1.3406535,0.47494665,0.99604386,0.0027334772,-0.088821165,-0.053904854,-0.7760417,-0.62837374,-0.07064658,0.6306757,-0.77282417,,-0.07268697,0.27884266,-0.08912974,0.8815229,0.28389344,0.3772557,-0.24625576,0.95819885,-0.14564726,-0.40283427,0.035490002,0.91458464,,0.05504618,0.4440384,-0.3831579,0.86664367,0.45701012,-0.20017622,-0.49788448,0.7662418,-0.40618291,-0.032246314,0.45168048,0.89159685,,0.8183548344829487,-0.08605441241748371,0.15336277361,0.637038048305985,0.1186004817964023,0.30400515872110456,0.8699704962311713,,-0.6229079109020748,-0.6848287830876069,0.12736827024000003,1.4489575094780633,0.22708986261016204,0.7897408863742985,0.8673569911730229,,-0.06956664232292899,-0.10007281598622488,0.10184858632,-0.034016912529394594,,3.1881034e-05,1.4305115e-06,-1.1920929e-06,1.0,-2.40691e-05,-1.963973e-05,2.4072826e-05,1.0,-2.1457672e-06,1.963973e-05,2.2053719e-06,0.99999994,613,1.861,0,0,0.0
1.8704504639999868,10:49:16.131604,NaN,0,,0.028309692,0.0499392,0.074807525,-0.8671282,-0.3698924,-0.33356878,-0.49152923,0.7437769,0.4529845,0.08054513,0.55675465,-0.8267629,,0.14070985,-0.044939585,0.07080963,-0.7432824,-0.61741805,0.2575386,-0.44483918,0.74368614,0.49904802,-0.4996492,0.25637037,-0.82742065,,0.08867657,1.3406535,0.47494665,0.99604386,0.0027334772,-0.088821165,-0.053904854,-0.7760417,-0.62837374,-0.07064658,0.6306757,-0.77282417,,-0.07268697,0.27884266,-0.08912974,0.8815229,0.28389344,0.3772557,-0.24625576,0.95819885,-0.14564726,-0.40283427,0.035490002,0.91458464,,0.05504612,0.44403812,-0.3831588,0.8666438,0.4570091,-0.20017801,-0.49788412,0.7662385,-0.4061896,-0.032248244,0.45168713,0.8915934,,0.8183548344829487,-0.08605441241748371,0.15336277361,0.637038048305985,0.1186004817964023,0.30400515872110456,0.8699704962311713,,-0.6229079109020748,-0.6848365058204811,0.12736827024000003,1.4489575094780633,0.22708986261016204,0.7897408863742985,0.8673569911730229,,-0.06956664232292899,-0.10007281598622488,0.10184858632,-0.034016912529394594,,3.1881034e-05,1.4305115e-06,-1.1920929e-06,1.0,-2.40691e-05,-1.963973e-05,2.4072826e-05,1.0,-2.1457672e-06,1.963973e-05,2.2053719e-06,0.99999994,621,1.885,0,0,0.0
1.8997711789997993,10:49:16.151070,NaN,0,,0.028309692,0.0499392,0.074807525,-0.8671282,-0.3698924,-0.33356878,-0.49152923,0.7437769,0.4529845,0.08054513,0.55675465,-0.8267629,,0.14070971,-0.04493878,0.070809275,-0.74328226,-0.61741954,0.25753534,-0.44483784,0.7436826,0.49905443,-0.4996507,0.25637686,-0.8274178,,0.08867657,1.3406535,0.47494665,0.99604386,0.0027334772,-0.088821165,-0.053904854,-0.7760417,-0.62837374,-0.07064658,0.6306757,-0.77282417,,-0.07268697,0.27884266,-0.08912974,0.8815229,0.28389344,0.3772557,-0.24625576,0.95819885,-0.14564726,-0.40283427,0.035490002,0.91458464,,0.05504618,0.4440384,-0.3831579,0.86664367,0.45701012,-0.20017622,-0.49788448,0.7662418,-0.40618291,-0.032246314,0.45168048,0.89159685,,0.8183548344829487,-0.08605441241748371,0.15336277361,0.637038048305985,0.1186004817964023,0.30400515872110456,0.8699704962311713,,-0.6229079109020748,-0.6848287830876069,0.12736827024000003,1.4489575094780633,0.22708986261016204,0.7897408863742985,0.8673569911730229,,-0.06956664232292899,-0.10007281598622488,0.10184858632,-0.034016912529394594,,3.1881034e-05,1.4305115e-06,-1.1920929e-06,1.0,-2.40691e-05,-1.963973e-05,2.4072826e-05,1.0,-2.1457672e-06,1.963973e-05,2.2053719e-06,0.99999994,629,1.91,0,0,0.0
1.9192787439997119,10:49:16.184043,NaN,0,,0.028309692,0.0499392,0.074807525,-0.8671282,-0.3698924,-0.33356878,-0.49152923,0.7437769,0.4529845,0.08054513,0.55675465,-0.8267629,,0.14070985,-0.044939585,0.07080963,-0.7432824,-0.61741805,0.2575386,-0.44483918,0.74368614,0.49904802,-0.4996492,0.25637037,-0.82742065,,0.08867657,1.3406535,0.47494665,0.99604386,0.0027334772,-0.088821165,-0.053904854,-0.7760417,-0.62837374,-0.07064658,0.6306757,-0.77282417,,-0.07268697,0.27884266,-0.08912974,0.8815229,0.28389344,0.3772557,-0.24625576,0.95819885,-0.14564726,-0.40283427,0.035490002,0.91458464,,0.05504612,0.44403812,-0.3831588,0.8666438,0.4570091,-0.20017801,-0.49788412,0.7662385,-0.4061896,-0.032248244,0.45168713,0.8915934,,0.8183548344829487,-0.08605441241748371,0.15336277361,0.637038048305985,0.1186004817964023,0.30400515872110456,0.8699704962311713,,-0.6229079109020748,-0.6848365058204811,0.12736827024000003,1.4489575094780633,0.22708986261016204,0.7897408863742985,0.8673569911730229,,-0.06956664232292899,-0.10007281598622488,0.10184858632,-0.034016912529394594,,3.1881034e-05,1.4305115e-06,-1.1920929e-06,1.0,-2.40691e-05,-1.963973e-05,2.4072826e-05,1.0,-2.1457672e-06,1.963973e-05,2.2053719e-06,0.99999994,658,1.999,0,0,0.0
