AlexandreBanks6/ExpertPlaybackApp/resources/Motions/PC1/Data_PC1_18.csv
Task Time,PC1 Time,PC2 Time,Gaze Calib,s_T_psm1,Tx,Ty,Tz,R00,R01,R02,R10,R11,R12,R20,R21,R22,s_T_psm3,Tx,Ty,Tz,R00,R01,R02,R10,R11,R12,R20,R21,R22,cart_T_ecm,Tx,Ty,Tz,R00,R01,R02,R10,R11,R12,R20,R21,R22,ecm_T_psm1,Tx,Ty,Tz,R00,R01,R02,R10,R11,R12,R20,R21,R22,ecm_T_psm3,Tx,Ty,Tz,R00,R01,R02,R10,R11,R12,R20,R21,R22,psm1_joints,q1,q2,q3,q4,q5,q6,jaw,psm3_joints,q1,q2,q3,q4,q5,q6,jaw,ecm_joints,q1,q2,q3,q4,ecmi_T_ecm,Tx,Ty,Tz,R00,R01,R02,R10,R11,R12,R20,R21,R22,Sample #,Task Duration (s),Collisions (binary),Collisions (increments),Cumulative Collision Time (s)
""
lci_T_si,,,,,-0.06864307,0.02038098,0.2891114,0.9954313,0.039618097,0.08687325,0.08580707,-0.7702462,-0.6319477,0.04187723,0.63651484,-0.7701267
rci_T_si,,,,,-0.07897199,0.025538264,0.29881117,0.9951801,0.019786213,0.09604759,0.0776052,-0.757668,-0.6480097,0.059950527,0.6523402,-0.75555164
ecm_T_lc,,,,,-4.4061628e-05,-0.00034663224,-0.01840835,-0.99912,0.030754527,0.028518902,-0.031987965,-0.99852574,-0.043852776,0.027128186,-0.04472645,0.9986309
ecm_T_rc,,,,,-0.0043358393,0.01870579,-0.007592615,-0.99555075,-0.052743673,-0.078081585,0.04863213,-0.9973746,0.053654674,-0.08070653,0.04961868,0.9955021
cart_T_ecmi,,,,,0.08982198,1.3490099,0.48509917,0.99604785,0.0026749708,-0.08877819,-0.05386132,-0.77659214,-0.6276971,-0.07062352,0.629998,-0.7733788
ecmac_T_ecmrep_psm1,,,,,0.08626859,-0.2052861,-0.33370098,0.999004,0.025128257,0.036871605,-0.023534218,0.9987958,-0.04304718,-0.037908904,0.04213656,0.9983924
ecmac_T_ecmrep_psm3,,,,,-0.16209933,-0.49188918,-0.56672233,0.99379694,-0.09876928,0.05111077,0.087427974,0.9779163,0.18983154,-0.068731576,-0.18418549,0.98048544
""
0,10:12:48.343552,NaN,0,,0.0277643,0.04912644,0.07544722,-0.86714745,-0.3695261,-0.33392474,-0.49147016,0.74350744,0.45349067,0.08069886,0.5573574,-0.8263415,,0.13958928,-0.04419829,0.07338297,-0.7429843,-0.617424,0.25838357,-0.4445385,0.74381626,0.4991219,-0.5003597,0.2559782,-0.8271125,,0.08977283,1.3490101,0.48509634,0.9960527,0.002744978,-0.0887216,-0.05377153,-0.77659184,-0.6277051,-0.07062352,0.629998,-0.7733788,,-0.072510935,0.27896166,-0.076276705,0.881335,0.28307897,0.3783053,-0.24631502,0.9585216,-0.14340597,-0.403209,0.033206437,0.91450524,,0.05515639,0.44358274,-0.37035215,0.8666923,0.45681885,-0.200402,-0.49786642,0.76699895,-0.40477353,-0.031200044,0.45058754,0.8921869,,0.819814430996177,-0.08605441241748371,0.15336925506000001,0.637038048305985,0.1186004817964023,0.3042501949415263,0.8704605284295741,,-0.6228461290390809,-0.6842109644576689,0.12753419536000002,1.4491671994215478,0.22722649910992745,0.7894661109903209,0.8673569911730228,,-0.06956664232292899,-0.10125745821601603,0.0886362022,-0.034016912529394594,,-4.876405e-05,-2.2649765e-06,6.3180923e-06,1.0,6.971136e-05,5.679205e-05,-6.971508e-05,1.0,6.4074993e-06,-5.6788325e-05,-6.3478947e-06,0.99999994,NaN,NaN,NaN,NaN,NaN
0.02222038999934739,10:12:48.356151,NaN,0,,0.027764754,0.049127467,0.07544725,-0.867149,-0.3695257,-0.33392113,-0.49146843,0.74350464,0.45349705,0.080693066,0.5573612,-0.8263395,,0.13958928,-0.04419829,0.07338297,-0.7429843,-0.617424,0.25838357,-0.4445385,0.74381626,0.4991219,-0.5003597,0.2559782,-0.8271125,,0.08977283,1.3490101,0.48509634,0.9960527,0.002744978,-0.0887216,-0.05377153,-0.77659184,-0.6277051,-0.07062352,0.629998,-0.7733788,,-0.07251144,0.27896243,-0.07627605,0.8813369,0.2830784,0.3783012,-0.24631718,0.9585219,-0.1434001,-0.4032035,0.033201724,0.91450787,,0.05515639,0.44358274,-0.37035215,0.8666923,0.45681885,-0.200402,-0.49786642,0.76699895,-0.40477353,-0.031200044,0.45058754,0.8921869,,0.819814430996177,-0.08604668968460949,0.15336925506000001,0.637038048305985,0.1186004817964023,0.3042501949415263,0.8704605284295741,,-0.6228461290390809,-0.6842109644576689,0.12753419536000002,1.4491671994215478,0.22722649910992745,0.7894661109903209,0.8673569911730228,,-0.06956664232292899,-0.10125745821601603,0.0886362022,-0.034016912529394594,,-4.876405e-05,-2.2649765e-06,6.3180923e-06,1.0,6.971136e-05,5.679205e-05,-6.971508e-05,1.0,6.4074993e-06,-5.6788325e-05,-6.3478947e-06,0.99999994,NaN,NaN,NaN,NaN,NaN
0.034783702999447996,10:12:48.375506,NaN,0,,0.027765727,0.049127035,0.07544686,-0.86714995,-0.36952904,-0.3339151,-0.4914675,0.7435068,0.45349455,0.0806887,0.5573562,-0.8263433,,0.13958928,-0.04419829,0.07338297,-0.7429843,-0.617424,0.25838357,-0.4445385,0.74381626,0.4991219,-0.5003597,0.2559782,-0.8271125,,0.08977283,1.3490101,0.48509634,0.9960527,0.002744978,-0.0887216,-0.05377153,-0.77659184,-0.6277051,-0.07062352,0.629998,-0.7733788,,-0.07251236,0.27896178,-0.07627599,0.8813382,0.28308204,0.37829563,-0.24631917,0.95852065,-0.14340499,-0.40319955,0.03320683,0.9145094,,0.05515639,0.44358274,-0.37035215,0.8666923,0.45681885,-0.200402,-0.49786642,0.76699895,-0.40477353,-0.031200044,0.45058754,0.8921869,,0.8198067082633028,-0.08604668968460949,0.15336925506000001,0.637038048305985,0.1186004817964023,0.3042501949415263,0.8704605284295741,,-0.6228461290390809,-0.6842109644576689,0.12753419536000002,1.4491671994215478,0.22722649910992745,0.7894661109903209,0.8673569911730228,,-0.06956664232292899,-0.10125745821601603,0.0886362022,-0.034016912529394594,,-4.876405e-05,-2.2649765e-06,6.3180923e-06,1.0,6.971136e-05,5.679205e-05,-6.971508e-05,1.0,6.4074993e-06,-5.6788325e-05,-6.3478947e-06,0.99999994,NaN,NaN,NaN,NaN,NaN
0.054148746999999275,10:12:48.394874,NaN,0,,0.027764754,0.049127467,0.07544725,-0.867149,-0.3695257,-0.33392113,-0.49146843,0.74350464,0.45349705,0.080693066,0.5573612,-0.8263395,,0.13958928,-0.04419829,0.07338297,-0.7429843,-0.617424,0.25838357,-0.4445385,0.74381626,0.4991219,-0.5003597,0.2559782,-0.8271125,,0.08977283,1.3490101,0.48509634,0.9960527,0.002744978,-0.0887216,-0.05377153,-0.77659184,-0.6277051,-0.07062352,0.629998,-0.7733788,,-0.07251144,0.27896243,-0.07627605,0.8813369,0.2830784,0.3783012,-0.24631718,0.9585219,-0.1434001,-0.4032035,0.033201724,0.91450787,,0.05515639,0.44358274,-0.37035215,0.8666923,0.45681885,-0.200402,-0.49786642,0.76699895,-0.40477353,-0.031200044,0.45058754,0.8921869,,0.819814430996177,-0.08604668968460949,0.15336925506000001,0.637038048305985,0.1186004817964023,0.3042501949415263,0.8704605284295741,,-0.6228461290390809,-0.6842109644576689,0.12753419536000002,1.4491671994215478,0.22722649910992745,0.7894661109903209,0.8673569911730228,,-0.06956664232292899,-0.10125745821601603,0.0886362022,-0.034016912529394594,,-4.876405e-05,-2.2649765e-06,6.3180923e-06,1.0,6.971136e-05,5.679205e-05,-6.971508e-05,1.0,6.4074993e-06,-5.6788325e-05,-6.3478947e-06,0.99999994,NaN,NaN,NaN,NaN,NaN
0.07353121699998155,10:12:48.413198,NaN,0,,0.0277643,0.04912644,0.07544722,-0.86714745,-0.3695261,-0.33392474,-0.49147016,0.74350744,0.45349067,0.08069886,0.5573574,-0.8263415,,0.13958928,-0.04419829,0.07338297,-0.7429843,-0.617424,0.25838357,-0.4445385,0.74381626,0.4991219,-0.5003597,0.2559782,-0.8271125,,0.08977283,1.3490101,0.48509634,0.9960527,0.002744978,-0.0887216,-0.05377153,-0.77659184,-0.6277051,-0.07062352,0.629998,-0.7733788,,-0.072510935,0.27896166,-0.076276705,0.881335,0.28307897,0.3783053,-0.24631502,0.9585216,-0.14340597,-0.403209,0.033206437,0.91450524,,0.05515639,0.44358274,-0.37035215,0.8666923,0.45681885,-0.200402,-0.49786642,0.76699895,-0.40477353,-0.031200044,0.45058754,0.8921869,,0.819814430996177,-0.08605441241748371,0.15336925506000001,0.637038048305985,0.1186004817964023,0.3042501949415263,0.8704605284295741,,-0.6228461290390809,-0.6842109644576689,0.12753419536000002,1.4491671994215478,0.22722649910992745,0.7894661109903209,0.8673569911730228,,-0.06956664232292899,-0.10125745821601603,0.0886362022,-0.034016912529394594,,-4.876405e-05,-2.2649765e-06,6.3180923e-06,1.0,6.971136e-05,5.679205e-05,-6.971508e-05,1.0,6.4074993e-06,-5.6788325e-05,-6.3478947e-06,0.99999994,NaN,NaN,NaN,NaN,NaN
0.09186380499977531,10:12:48.431998,NaN,0,,0.0277643,0.04912644,0.07544722,-0.86714745,-0.3695261,-0.33392474,-0.49147016,0.74350744,0.45349067,0.08069886,0.5573574,-0.8263415,,0.13958928,-0.04419829,0.07338297,-0.7429843,-0.617424,0.25838357,-0.4445385,0.74381626,0.4991219,-0.5003597,0.2559782,-0.8271125,,0.08977283,1.3490101,0.48509634,0.9960527,0.002744978,-0.0887216,-0.05377153,-0.77659184,-0.6277051,-0.07062352,0.629998,-0.7733788,,-0.072510935,0.27896166,-0.076276705,0.881335,0.28307897,0.3783053,-0.24631502,0.9585216,-0.14340597,-0.403209,0.033206437,0.91450524,,0.05515639,0.44358274,-0.37035215,0.8666923,0.45681885,-0.200402,-0.49786642,0.76699895,-0.40477353,-0.031200044,0.45058754,0.8921869,,0.819814430996177,-0.08605441241748371,0.15336925506000001,0.637038048305985,0.1186004817964023,0.3042501949415263,0.8704605284295741,,-0.6228461290390809,-0.6842109644576689,0.12753419536000002,1.4491671994215478,0.22722649910992745,0.7894661109903209,0.8673569911730228,,-0.06956664232292899,-0.10125745821601603,0.0886362022,-0.034016912529394594,,-4.876405e-05,-2.2649765e-06,6.3180923e-06,1.0,6.971136e-05,5.679205e-05,-6.971508e-05,1.0,6.4074993e-06,-5.6788325e-05,-6.3478947e-06,0.99999994,NaN,NaN,NaN,NaN,NaN
0.11066793600002711,10:12:48.447639,NaN,0,,0.027764754,0.049127467,0.07544725,-0.867149,-0.3695257,-0.33392113,-0.49146843,0.74350464,0.45349705,0.080693066,0.5573612,-0.8263395,,0.13958928,-0.04419829,0.07338297,-0.7429843,-0.617424,0.25838357,-0.4445385,0.74381626,0.4991219,-0.5003597,0.2559782,-0.8271125,,0.08977283,1.3490101,0.48509634,0.9960527,0.002744978,-0.0887216,-0.05377153,-0.77659184,-0.6277051,-0.07062352,0.629998,-0.7733788,,-0.07251144,0.27896243,-0.07627605,0.8813369,0.2830784,0.3783012,-0.24631718,0.9585219,-0.1434001,-0.4032035,0.033201724,0.91450787,,0.05515639,0.44358274,-0.37035215,0.8666923,0.45681885,-0.200402,-0.49786642,0.76699895,-0.40477353,-0.031200044,0.45058754,0.8921869,,0.819814430996177,-0.08604668968460949,0.15336925506000001,0.637038048305985,0.1186004817964023,0.3042501949415263,0.8704605284295741,,-0.6228461290390809,-0.6842109644576689,0.12753419536000002,1.4491671994215478,0.22722649910992745,0.7894661109903209,0.8673569911730228,,-0.06956664232292899,-0.10125745821601603,0.0886362022,-0.034016912529394594,,-4.876405e-05,-2.2649765e-06,6.3180923e-06,1.0,6.971136e-05,5.679205e-05,-6.971508e-05,1.0,6.4074993e-06,-5.6788325e-05,-6.3478947e-06,0.99999994,NaN,NaN,NaN,NaN,NaN
0.12629185500009044,10:12:48.465674,NaN,0,,0.027764754,0.049127467,0.07544725,-0.867149,-0.36949846,-0.33395132,-0.49146843,0.7434676,0.4535578,0.080693066,0.5574287,-0.82629395,,0.13958928,-0.04419829,0.07338297,-0.7429843,-0.617424,0.25838357,-0.4445385,0.74381626,0.4991219,-0.5003597,0.2559782,-0.8271125,,0.08977283,1.3490101,0.48509634,0.9960527,0.002744978,-0.0887216,-0.05377153,-0.77659184,-0.6277051,-0.07062352,0.629998,-0.7733788,,-0.07251144,0.27896243,-0.07627605,0.8813369,0.28304753,0.37832433,-0.24631718,0.95853364,-0.14332181,-0.4032035,0.03312703,0.91451055,,0.05515639,0.44358274,-0.37035215,0.8666923,0.45681885,-0.200402,-0.49786642,0.76699895,-0.40477353,-0.031200044,0.45058754,0.8921869,,0.819814430996177,-0.08604668968460949,0.15336925506000001,0.637038048305985,0.1186004817964023,0.3043318736816668,0.8706238724957084,,-0.6228461290390809,-0.6842109644576689,0.12753419536000002,1.4491671994215478,0.22722649910992745,0.7894661109903209,0.8673569911730228,,-0.06956664232292899,-0.10125745821601603,0.0886362022,-0.034016912529394594,,-4.876405e-05,-2.2649765e-06,6.3180923e-06,1.0,6.971136e-05,5.679205e-05,-6.971508e-05,1.0,6.4074993e-06,-5.6788325e-05,-6.3478947e-06,0.99999994,NaN,NaN,NaN,NaN,NaN
0.1442806719996952,10:12:48.483492,NaN,0,,0.027765727,0.049127035,0.07544686,-0.86714995,-0.36947447,-0.33397543,-0.4914675,0.7434327,0.45361602,0.0806887,0.5574912,-0.8262522,,0.13958928,-0.04419829,0.07338297,-0.7429843,-0.617424,0.25838357,-0.4445385,0.74381626,0.4991219,-0.5003597,0.2559782,-0.8271125,,0.08977283,1.3490101,0.48509634,0.9960527,0.002744978,-0.0887216,-0.05377153,-0.77659184,-0.6277051,-0.07062352,0.629998,-0.7733788,,-0.07251236,0.27896178,-0.07627599,0.8813382,0.28302023,0.37834185,-0.24631917,0.9585441,-0.14324841,-0.40319955,0.03305744,0.9145148,,0.05515639,0.44358274,-0.37035215,0.8666923,0.45681885,-0.200402,-0.49786642,0.76699895,-0.40477353,-0.031200044,0.45058754,0.8921869,,0.8198067082633028,-0.08604668968460949,0.15336925506000001,0.637038048305985,0.1186004817964023,0.30441355242180734,0.8707872165618427,,-0.6228461290390809,-0.6842109644576689,0.12753419536000002,1.4491671994215478,0.22722649910992745,0.7894661109903209,0.8673569911730228,,-0.06956664232292899,-0.10125745821601603,0.0886362022,-0.034016912529394594,,-4.876405e-05,-2.2649765e-06,6.3180923e-06,1.0,6.971136e-05,5.679205e-05,-6.971508e-05,1.0,6.4074993e-06,-5.6788325e-05,-6.3478947e-06,0.99999994,NaN,NaN,NaN,NaN,NaN
0.16213895799955935,10:12:48.503292,NaN,0,,0.0277643,0.04912644,0.07544722,-0.86714745,-0.36947152,-0.3339851,-0.49147016,0.74343336,0.45361215,0.08069886,0.5574923,-0.82625043,,0.13959056,-0.044197902,0.07338351,-0.7429792,-0.6174244,0.25839686,-0.44453257,0.7438172,0.49912584,-0.5003725,0.2559742,-0.827106,,0.08977283,1.3490101,0.48509634,0.9960527,0.002744978,-0.0887216,-0.05377153,-0.77659184,-0.6277051,-0.07062352,0.629998,-0.7733788,,-0.072510935,0.27896166,-0.076276705,0.881335,0.28301716,0.3783515,-0.24631502,0.958545,-0.14324939,-0.403209,0.033057045,0.91451067,,0.055154998,0.44358313,-0.3703522,0.86668843,0.4568198,-0.20041656,-0.49787396,0.7669965,-0.40476888,-0.031187646,0.4505907,0.8921857,,0.819814430996177,-0.08605441241748371,0.15336925506000001,0.637038048305985,0.1186004817964023,0.30441355242180734,0.8707872165618427,,-0.6228615745048294,-0.6842109644576689,0.12753419536000002,1.4491671994215478,0.22722649910992745,0.7894661109903209,0.8673569911730228,,-0.06956664232292899,-0.10125745821601603,0.0886362022,-0.034016912529394594,,-4.876405e-05,-2.2649765e-06,6.3180923e-06,1.0,6.971136e-05,5.679205e-05,-6.971508e-05,1.0,6.4074993e-06,-5.6788325e-05,-6.3478947e-06,0.99999994,NaN,NaN,NaN,NaN,NaN
0.18196069999976316,10:12:48.526202,NaN,0,,0.027764754,0.049127467,0.07544725,-0.867149,-0.3694712,-0.3339815,-0.49146843,0.74343055,0.45361847,0.080693066,0.5574962,-0.8262484,,0.13959056,-0.044197902,0.07338351,-0.7429792,-0.6174244,0.25839686,-0.44453257,0.7438172,0.49912584,-0.5003725,0.2559742,-0.827106,,0.08977283,1.3490101,0.48509634,0.9960527,0.002744978,-0.0887216,-0.05377153,-0.77659184,-0.6277051,-0.07062352,0.629998,-0.7733788,,-0.07251144,0.27896243,-0.07627605,0.8813369,0.28301662,0.37834746,-0.24631718,0.9585453,-0.14324352,-0.4032035,0.033052333,0.91451323,,0.055154998,0.44358313,-0.3703522,0.86668843,0.4568198,-0.20041656,-0.49787396,0.7669965,-0.40476888,-0.031187646,0.4505907,0.8921857,,0.819814430996177,-0.08604668968460949,0.15336925506000001,0.637038048305985,0.1186004817964023,0.30441355242180734,0.8707872165618427,,-0.6228615745048294,-0.6842109644576689,0.12753419536000002,1.4491671994215478,0.22722649910992745,0.7894661109903209,0.8673569911730228,,-0.06956664232292899,-0.10125745821601603,0.0886362022,-0.034016912529394594,,-4.876405e-05,-2.2649765e-06,6.3180923e-06,1.0,6.971136e-05,5.679205e-05,-6.971508e-05,1.0,6.4074993e-06,-5.6788325e-05,-6.3478947e-06,0.99999994,NaN,NaN,NaN,NaN,NaN
0.20484050999948522,10:12:48.546576,NaN,0,,0.027766695,0.049126618,0.07544649,-0.8671509,-0.36947784,-0.33396938,-0.4914666,0.74343485,0.4536135,0.080684274,0.5574861,-0.82625604,,0.13959056,-0.044197902,0.07338351,-0.7429792,-0.6174244,0.25839686,-0.44453257,0.7438172,0.49912584,-0.5003725,0.2559742,-0.827106,,0.08977283,1.3490101,0.48509634,0.9960527,0.002744978,-0.0887216,-0.05377153,-0.77659184,-0.6277051,-0.07062352,0.629998,-0.7733788,,-0.072513275,0.27896112,-0.07627594,0.88133943,0.28302386,0.37833628,-0.24632119,0.9585428,-0.14325331,-0.40319562,0.033062547,0.9145163,,0.055154998,0.44358313,-0.3703522,0.86668843,0.4568198,-0.20041656,-0.49787396,0.7669965,-0.40476888,-0.031187646,0.4505907,0.8921857,,0.8197989855304286,-0.08604668968460949,0.15336925506000001,0.637038048305985,0.1186004817964023,0.30441355242180734,0.8707872165618427,,-0.6228615745048294,-0.6842109644576689,0.12753419536000002,1.4491671994215478,0.22722649910992745,0.7894661109903209,0.8673569911730228,,-0.06956664232292899,-0.10125745821601603,0.0886362022,-0.034016912529394594,,-4.876405e-05,-2.2649765e-06,6.3180923e-06,1.0,6.971136e-05,5.679205e-05,-6.971508e-05,1.0,6.4074993e-06,-5.6788325e-05,-6.3478947e-06,0.99999994,NaN,NaN,NaN,NaN,NaN
0.2252462149999701,10:12:48.563910,NaN,0,,0.027765272,0.049126007,0.07544683,-0.8671484,-0.36947483,-0.33397907,-0.49146926,0.7434355,0.45360962,0.08069445,0.55748725,-0.82625425,,0.13959056,-0.044197902,0.07338351,-0.7429792,-0.6174244,0.25839686,-0.44453257,0.7438172,0.49912584,-0.5003725,0.2559742,-0.827106,,0.08977283,1.3490101,0.48509634,0.9960527,0.002744978,-0.0887216,-0.05377153,-0.77659184,-0.6277051,-0.07062352,0.629998,-0.7733788,,-0.07251185,0.278961,-0.076276645,0.8813363,0.28302076,0.37834594,-0.24631703,0.9585438,-0.14325428,-0.40320507,0.033062153,0.9145122,,0.055154998,0.44358313,-0.3703522,0.86668843,0.4568198,-0.20041656,-0.49787396,0.7669965,-0.40476888,-0.031187646,0.4505907,0.8921857,,0.8198067082633028,-0.08605441241748371,0.15336925506000001,0.637038048305985,0.1186004817964023,0.30441355242180734,0.8707872165618427,,-0.6228615745048294,-0.6842109644576689,0.12753419536000002,1.4491671994215478,0.22722649910992745,0.7894661109903209,0.8673569911730228,,-0.06956664232292899,-0.10125745821601603,0.0886362022,-0.034016912529394594,,-4.876405e-05,-2.2649765e-06,6.3180923e-06,1.0,6.971136e-05,5.679205e-05,-6.971508e-05,1.0,6.4074993e-06,-5.6788325e-05,-6.3478947e-06,0.99999994,NaN,NaN,NaN,NaN,NaN
0.24255883499972697,10:12:48.578861,NaN,0,,0.0277643,0.04912644,0.07544722,-0.86714745,-0.36947152,-0.3339851,-0.49147016,0.74343336,0.45361215,0.08069886,0.5574923,-0.82625043,,0.13959056,-0.044197902,0.07338351,-0.7429792,-0.6174244,0.25839686,-0.44453257,0.7438172,0.49912584,-0.5003725,0.2559742,-0.827106,,0.08977283,1.3490101,0.48509634,0.9960527,0.002744978,-0.0887216,-0.05377153,-0.77659184,-0.6277051,-0.07062352,0.629998,-0.7733788,,-0.072510935,0.27896166,-0.076276705,0.881335,0.28301716,0.3783515,-0.24631502,0.958545,-0.14324939,-0.403209,0.033057045,0.91451067,,0.055154998,0.44358313,-0.3703522,0.86668843,0.4568198,-0.20041656,-0.49787396,0.7669965,-0.40476888,-0.031187646,0.4505907,0.8921857,,0.819814430996177,-0.08605441241748371,0.15336925506000001,0.637038048305985,0.1186004817964023,0.30441355242180734,0.8707872165618427,,-0.6228615745048294,-0.6842109644576689,0.12753419536000002,1.4491671994215478,0.22722649910992745,0.7894661109903209,0.8673569911730228,,-0.06956664232292899,-0.10125745821601603,0.0886362022,-0.034016912529394594,,-4.876405e-05,-2.2649765e-06,6.3180923e-06,1.0,6.971136e-05,5.679205e-05,-6.971508e-05,1.0,6.4074993e-06,-5.6788325e-05,-6.3478947e-06,0.99999994,NaN,NaN,NaN,NaN,NaN
0.25752595699941594,10:12:48.596523,NaN,0,,0.027764754,0.049127467,0.07544725,-0.867149,-0.3694712,-0.3339815,-0.49146843,0.74343055,0.45361847,0.080693066,0.5574962,-0.8262484,,0.13959056,-0.044197902,0.07338351,-0.7429792,-0.6174244,0.25839686,-0.44453257,0.7438172,0.49912584,-0.5003725,0.2559742,-0.827106,,0.08977283,1.3490101,0.48509634,0.9960527,0.002744978,-0.0887216,-0.05377153,-0.77659184,-0.6277051,-0.07062352,0.629998,-0.7733788,,-0.07251144,0.27896243,-0.07627605,0.8813369,0.28301662,0.37834746,-0.24631718,0.9585453,-0.14324352,-0.4032035,0.033052333,0.91451323,,0.055154998,0.44358313,-0.3703522,0.86668843,0.4568198,-0.20041656,-0.49787396,0.7669965,-0.40476888,-0.031187646,0.4505907,0.8921857,,0.819814430996177,-0.08604668968460949,0.15336925506000001,0.637038048305985,0.1186004817964023,0.30441355242180734,0.8707872165618427,,-0.6228615745048294,-0.6842109644576689,0.12753419536000002,1.4491671994215478,0.22722649910992745,0.7894661109903209,0.8673569911730228,,-0.06956664232292899,-0.10125745821601603,0.0886362022,-0.034016912529394594,,-4.876405e-05,-2.2649765e-06,6.3180923e-06,1.0,6.971136e-05,5.679205e-05,-6.971508e-05,1.0,6.4074993e-06,-5.6788325e-05,-6.3478947e-06,0.99999994,NaN,NaN,NaN,NaN,NaN
0.27519262099940534,10:12:48.615054,NaN,0,,0.027765272,0.049126007,0.07544683,-0.8671484,-0.36947483,-0.33397907,-0.49146926,0.7434355,0.45360962,0.08069445,0.55748725,-0.82625425,,0.13959056,-0.044197902,0.07338351,-0.7429792,-0.6174244,0.25839686,-0.44453257,0.7438172,0.49912584,-0.5003725,0.2559742,-0.827106,,0.08977283,1.3490101,0.48509634,0.9960527,0.002744978,-0.0887216,-0.05377153,-0.77659184,-0.6277051,-0.07062352,0.629998,-0.7733788,,-0.07251185,0.278961,-0.076276645,0.8813363,0.28302076,0.37834594,-0.24631703,0.9585438,-0.14325428,-0.40320507,0.033062153,0.9145122,,0.055154998,0.44358313,-0.3703522,0.86668843,0.4568198,-0.20041656,-0.49787396,0.7669965,-0.40476888,-0.031187646,0.4505907,0.8921857,,0.8198067082633028,-0.08605441241748371,0.15336925506000001,0.637038048305985,0.1186004817964023,0.30441355242180734,0.8707872165618427,,-0.6228615745048294,-0.6842109644576689,0.12753419536000002,1.4491671994215478,0.22722649910992745,0.7894661109903209,0.8673569911730228,,-0.06956664232292899,-0.10125745821601603,0.0886362022,-0.034016912529394594,,-4.876405e-05,-2.2649765e-06,6.3180923e-06,1.0,6.971136e-05,5.679205e-05,-6.971508e-05,1.0,6.4074993e-06,-5.6788325e-05,-6.3478947e-06,0.99999994,NaN,NaN,NaN,NaN,NaN
0.29372318599962455,10:12:48.633018,NaN,0,,0.027764754,0.049127467,0.07544725,-0.867149,-0.3694712,-0.3339815,-0.49146843,0.74343055,0.45361847,0.080693066,0.5574962,-0.8262484,,0.13959056,-0.044197902,0.07338351,-0.7429792,-0.6174244,0.25839686,-0.44453257,0.7438172,0.49912584,-0.5003725,0.2559742,-0.827106,,0.08977283,1.3490101,0.48509634,0.9960527,0.002744978,-0.0887216,-0.05377153,-0.77659184,-0.6277051,-0.07062352,0.629998,-0.7733788,,-0.07251144,0.27896243,-0.07627605,0.8813369,0.28301662,0.37834746,-0.24631718,0.9585453,-0.14324352,-0.4032035,0.033052333,0.91451323,,0.055154998,0.44358313,-0.3703522,0.86668843,0.4568198,-0.20041656,-0.49787396,0.7669965,-0.40476888,-0.031187646,0.4505907,0.8921857,,0.819814430996177,-0.08604668968460949,0.15336925506000001,0.637038048305985,0.1186004817964023,0.30441355242180734,0.8707872165618427,,-0.6228615745048294,-0.6842109644576689,0.12753419536000002,1.4491671994215478,0.22722649910992745,0.7894661109903209,0.8673569911730228,,-0.06956664232292899,-0.10125745821601603,0.0886362022,-0.034016912529394594,,-4.876405e-05,-2.2649765e-06,6.3180923e-06,1.0,6.971136e-05,5.679205e-05,-6.971508e-05,1.0,6.4074993e-06,-5.6788325e-05,-6.3478947e-06,0.99999994,NaN,NaN,NaN,NaN,NaN
0.31166752399985853,10:12:48.649455,NaN,0,,0.0277643,0.04912644,0.07544722,-0.86714745,-0.36947152,-0.3339851,-0.49147016,0.74343336,0.45361215,0.08069886,0.5574923,-0.82625043,,0.13958992,-0.04419808,0.07338321,-0.74298173,-0.6174243,0.25839022,-0.44453552,0.74381673,0.4991239,-0.5003661,0.25597617,-0.8271092,,0.08977283,1.3490101,0.48509634,0.9960527,0.002744978,-0.0887216,-0.05377153,-0.77659184,-0.6277051,-0.07062352,0.629998,-0.7733788,,-0.072510935,0.27896166,-0.076276705,0.881335,0.28301716,0.3783515,-0.24631502,0.958545,-0.14324939,-0.403209,0.033057045,0.91451067,,0.055155694,0.44358292,-0.37035218,0.8666904,0.45681933,-0.20040928,-0.49787018,0.76699775,-0.4047712,-0.031193845,0.45058912,0.8921863,,0.819814430996177,-0.08605441241748371,0.15336925506000001,0.637038048305985,0.1186004817964023,0.30441355242180734,0.8707872165618427,,-0.6228538517719552,-0.6842109644576689,0.12753419536000002,1.4491671994215478,0.22722649910992745,0.7894661109903209,0.8673569911730228,,-0.06956664232292899,-0.10125745821601603,0.0886362022,-0.034016912529394594,,-4.876405e-05,-2.2649765e-06,6.3180923e-06,1.0,6.971136e-05,5.679205e-05,-6.971508e-05,1.0,6.4074993e-06,-5.6788325e-05,-6.3478947e-06,0.99999994,NaN,NaN,NaN,NaN,NaN
0.32809952499974315,10:12:48.668381,NaN,0,,0.0277643,0.04912644,0.07544722,-0.86714745,-0.36947152,-0.3339851,-0.49147016,0.74343336,0.45361215,0.08069886,0.5574923,-0.82625043,,0.13959056,-0.044197902,0.07338351,-0.7429792,-0.6174244,0.25839686,-0.44453257,0.7438172,0.49912584,-0.5003725,0.2559742,-0.827106,,0.08977283,1.3490101,0.48509634,0.9960527,0.002744978,-0.0887216,-0.05377153,-0.77659184,-0.6277051,-0.07062352,0.629998,-0.7733788,,-0.072510935,0.27896166,-0.076276705,0.881335,0.28301716,0.3783515,-0.24631502,0.958545,-0.14324939,-0.403209,0.033057045,0.91451067,,0.055154998,0.44358313,-0.3703522,0.86668843,0.4568198,-0.20041656,-0.49787396,0.7669965,-0.40476888,-0.031187646,0.4505907,0.8921857,,0.819814430996177,-0.08605441241748371,0.15336925506000001,0.637038048305985,0.1186004817964023,0.30441355242180734,0.8707872165618427,,-0.6228615745048294,-0.6842109644576689,0.12753419536000002,1.4491671994215478,0.22722649910992745,0.7894661109903209,0.8673569911730228,,-0.06956664232292899,-0.10125745821601603,0.0886362022,-0.034016912529394594,,-4.876405e-05,-2.2649765e-06,6.3180923e-06,1.0,6.971136e-05,5.679205e-05,-6.971508e-05,1.0,6.4074993e-06,-5.6788325e-05,-6.3478947e-06,0.99999994,NaN,NaN,NaN,NaN,NaN
0.3468365949993313,10:12:48.685472,NaN,0,,0.027764754,0.049127467,0.07544725,-0.867149,-0.3694712,-0.3339815,-0.49146843,0.74343055,0.45361847,0.080693066,0.5574962,-0.8262484,,0.13959056,-0.044197902,0.07338351,-0.7429792,-0.6174244,0.25839686,-0.44453257,0.7438172,0.49912584,-0.5003725,0.2559742,-0.827106,,0.08977283,1.3490101,0.48509634,0.9960527,0.002744978,-0.0887216,-0.05377153,-0.77659184,-0.6277051,-0.07062352,0.629998,-0.7733788,,-0.07251144,0.27896243,-0.07627605,0.8813369,0.28301662,0.37834746,-0.24631718,0.9585453,-0.14324352,-0.4032035,0.033052333,0.91451323,,0.055154998,0.44358313,-0.3703522,0.86668843,0.4568198,-0.20041656,-0.49787396,0.7669965,-0.40476888,-0.031187646,0.4505907,0.8921857,,0.819814430996177,-0.08604668968460949,0.15336925506000001,0.637038048305985,0.1186004817964023,0.30441355242180734,0.8707872165618427,,-0.6228615745048294,-0.6842109644576689,0.12753419536000002,1.4491671994215478,0.22722649910992745,0.7894661109903209,0.8673569911730228,,-0.06956664232292899,-0.10125745821601603,0.0886362022,-0.034016912529394594,,-4.876405e-05,-2.2649765e-06,6.3180923e-06,1.0,6.971136e-05,5.679205e-05,-6.971508e-05,1.0,6.4074993e-06,-5.6788325e-05,-6.3478947e-06,0.99999994,NaN,NaN,NaN,NaN,NaN
0.36414206700010254,10:12:48.703442,NaN,0,,0.027765727,0.049127035,0.07544686,-0.86714995,-0.36947447,-0.33397543,-0.4914675,0.7434327,0.45361602,0.0806887,0.5574912,-0.8262522,,0.13959056,-0.044197902,0.07338351,-0.7429792,-0.6174244,0.25839686,-0.44453257,0.7438172,0.49912584,-0.5003725,0.2559742,-0.827106,,0.08977283,1.3490101,0.48509634,0.9960527,0.002744978,-0.0887216,-0.05377153,-0.77659184,-0.6277051,-0.07062352,0.629998,-0.7733788,,-0.07251236,0.27896178,-0.07627599,0.8813382,0.28302023,0.37834185,-0.24631917,0.9585441,-0.14324841,-0.40319955,0.03305744,0.9145148,,0.055154998,0.44358313,-0.3703522,0.86668843,0.4568198,-0.20041656,-0.49787396,0.7669965,-0.40476888,-0.031187646,0.4505907,0.8921857,,0.8198067082633028,-0.08604668968460949,0.15336925506000001,0.637038048305985,0.1186004817964023,0.30441355242180734,0.8707872165618427,,-0.6228615745048294,-0.6842109644576689,0.12753419536000002,1.4491671994215478,0.22722649910992745,0.7894661109903209,0.8673569911730228,,-0.06956664232292899,-0.10125745821601603,0.0886362022,-0.034016912529394594,,-4.876405e-05,-2.2649765e-06,6.3180923e-06,1.0,6.971136e-05,5.679205e-05,-6.971508e-05,1.0,6.4074993e-06,-5.6788325e-05,-6.3478947e-06,0.99999994,NaN,NaN,NaN,NaN,NaN
0.3821063129998947,10:12:48.726509,NaN,0,,0.0277643,0.04912644,0.07544722,-0.86714745,-0.36947152,-0.3339851,-0.49147016,0.74343336,0.45361215,0.08069886,0.5574923,-0.82625043,,0.13959056,-0.044197902,0.07338351,-0.7429792,-0.6174244,0.25839686,-0.44453257,0.7438172,0.49912584,-0.5003725,0.2559742,-0.827106,,0.08977283,1.3490101,0.48509634,0.9960527,0.002744978,-0.0887216,-0.05377153,-0.77659184,-0.6277051,-0.07062352,0.629998,-0.7733788,,-0.072510935,0.27896166,-0.076276705,0.881335,0.28301716,0.3783515,-0.24631502,0.958545,-0.14324939,-0.403209,0.033057045,0.91451067,,0.055154998,0.44358313,-0.3703522,0.86668843,0.4568198,-0.20041656,-0.49787396,0.7669965,-0.40476888,-0.031187646,0.4505907,0.8921857,,0.819814430996177,-0.08605441241748371,0.15336925506000001,0.637038048305985,0.1186004817964023,0.30441355242180734,0.8707872165618427,,-0.6228615745048294,-0.6842109644576689,0.12753419536000002,1.4491671994215478,0.22722649910992745,0.7894661109903209,0.8673569911730228,,-0.06956664232292899,-0.10125745821601603,0.0886362022,-0.034016912529394594,,-4.876405e-05,-2.2649765e-06,6.3180923e-06,1.0,6.971136e-05,5.679205e-05,-6.971508e-05,1.0,6.4074993e-06,-5.6788325e-05,-6.3478947e-06,0.99999994,NaN,NaN,NaN,NaN,NaN
0.405127557999549,10:12:48.740402,NaN,0,,0.0277643,0.04912644,0.07544722,-0.86714745,-0.36947152,-0.3339851,-0.49147016,0.74343336,0.45361215,0.08069886,0.5574923,-0.82625043,,0.13959056,-0.044197902,0.07338351,-0.7429792,-0.6174244,0.25839686,-0.44453257,0.7438172,0.49912584,-0.5003725,0.2559742,-0.827106,,0.08977283,1.3490101,0.48509634,0.9960527,0.002744978,-0.0887216,-0.05377153,-0.77659184,-0.6277051,-0.07062352,0.629998,-0.7733788,,-0.072510935,0.27896166,-0.076276705,0.881335,0.28301716,0.3783515,-0.24631502,0.958545,-0.14324939,-0.403209,0.033057045,0.91451067,,0.055154998,0.44358313,-0.3703522,0.86668843,0.4568198,-0.20041656,-0.49787396,0.7669965,-0.40476888,-0.031187646,0.4505907,0.8921857,,0.819814430996177,-0.08605441241748371,0.15336925506000001,0.637038048305985,0.1186004817964023,0.30441355242180734,0.8707872165618427,,-0.6228615745048294,-0.6842109644576689,0.12753419536000002,1.4491671994215478,0.22722649910992745,0.7894661109903209,0.8673569911730228,,-0.06956664232292899,-0.10125745821601603,0.0886362022,-0.034016912529394594,,-4.876405e-05,-2.2649765e-06,6.3180923e-06,1.0,6.971136e-05,5.679205e-05,-6.971508e-05,1.0,6.4074993e-06,-5.6788325e-05,-6.3478947e-06,0.99999994,NaN,NaN,NaN,NaN,NaN
0.4190269499995338,10:12:48.759302,NaN,0,,0.0277643,0.04912644,0.07544722,-0.86714745,-0.36947152,-0.3339851,-0.49147016,0.74343336,0.45361215,0.08069886,0.5574923,-0.82625043,,0.13959056,-0.044197902,0.07338351,-0.7429792,-0.6174244,0.25839686,-0.44453257,0.7438172,0.49912584,-0.5003725,0.2559742,-0.827106,,0.08977283,1.3490101,0.48509634,0.9960527,0.002744978,-0.0887216,-0.05377153,-0.77659184,-0.6277051,-0.07062352,0.629998,-0.7733788,,-0.072510935,0.27896166,-0.076276705,0.881335,0.28301716,0.3783515,-0.24631502,0.958545,-0.14324939,-0.403209,0.033057045,0.91451067,,0.055154998,0.44358313,-0.3703522,0.86668843,0.4568198,-0.20041656,-0.49787396,0.7669965,-0.40476888,-0.031187646,0.4505907,0.8921857,,0.819814430996177,-0.08605441241748371,0.15336925506000001,0.637038048305985,0.1186004817964023,0.30441355242180734,0.8707872165618427,,-0.6228615745048294,-0.6842109644576689,0.12753419536000002,1.4491671994215478,0.22722649910992745,0.7894661109903209,0.8673569911730228,,-0.06956664232292899,-0.10125745821601603,0.0886362022,-0.034016912529394594,,-4.876405e-05,-2.2649765e-06,6.3180923e-06,1.0,6.971136e-05,5.679205e-05,-6.971508e-05,1.0,6.4074993e-06,-5.6788325e-05,-6.3478947e-06,0.99999994,NaN,NaN,NaN,NaN,NaN
0.43795225199937704,10:12:48.776191,NaN,0,,0.027765727,0.049127035,0.07544686,-0.86714995,-0.36947447,-0.33397543,-0.4914675,0.7434327,0.45361602,0.0806887,0.5574912,-0.8262522,,0.13959056,-0.044197902,0.07338351,-0.7429792,-0.6174244,0.25839686,-0.44453257,0.7438172,0.49912584,-0.5003725,0.2559742,-0.827106,,0.08977283,1.3490101,0.48509634,0.9960527,0.002744978,-0.0887216,-0.05377153,-0.77659184,-0.6277051,-0.07062352,0.629998,-0.7733788,,-0.07251236,0.27896178,-0.07627599,0.8813382,0.28302023,0.37834185,-0.24631917,0.9585441,-0.14324841,-0.40319955,0.03305744,0.9145148,,0.055154998,0.44358313,-0.3703522,0.86668843,0.4568198,-0.20041656,-0.49787396,0.7669965,-0.40476888,-0.031187646,0.4505907,0.8921857,,0.8198067082633028,-0.08604668968460949,0.15336925506000001,0.637038048305985,0.1186004817964023,0.30441355242180734,0.8707872165618427,,-0.6228615745048294,-0.6842109644576689,0.12753419536000002,1.4491671994215478,0.22722649910992745,0.7894661109903209,0.8673569911730228,,-0.06956664232292899,-0.10125745821601603,0.0886362022,-0.034016912529394594,,-4.876405e-05,-2.2649765e-06,6.3180923e-06,1.0,6.971136e-05,5.679205e-05,-6.971508e-05,1.0,6.4074993e-06,-5.6788325e-05,-6.3478947e-06,0.99999994,NaN,NaN,NaN,NaN,NaN
0.45485181099957117,10:12:48.786766,NaN,0,,0.027764754,0.049127467,0.07544725,-0.867149,-0.3694712,-0.3339815,-0.49146843,0.74343055,0.45361847,0.080693066,0.5574962,-0.8262484,,0.13959056,-0.044197902,0.07338351,-0.7429792,-0.6174244,0.25839686,-0.44453257,0.7438172,0.49912584,-0.5003725,0.2559742,-0.827106,,0.08977283,1.3490101,0.48509634,0.9960527,0.002744978,-0.0887216,-0.05377153,-0.77659184,-0.6277051,-0.07062352,0.629998,-0.7733788,,-0.07251144,0.27896243,-0.07627605,0.8813369,0.28301662,0.37834746,-0.24631718,0.9585453,-0.14324352,-0.4032035,0.033052333,0.91451323,,0.055154998,0.44358313,-0.3703522,0.86668843,0.4568198,-0.20041656,-0.49787396,0.7669965,-0.40476888,-0.031187646,0.4505907,0.8921857,,0.819814430996177,-0.08604668968460949,0.15336925506000001,0.637038048305985,0.1186004817964023,0.30441355242180734,0.8707872165618427,,-0.6228615745048294,-0.6842109644576689,0.12753419536000002,1.4491671994215478,0.22722649910992745,0.7894661109903209,0.8673569911730228,,-0.06956664232292899,-0.10125745821601603,0.0886362022,-0.034016912529394594,,-4.876405e-05,-2.2649765e-06,6.3180923e-06,1.0,6.971136e-05,5.679205e-05,-6.971508e-05,1.0,6.4074993e-06,-5.6788325e-05,-6.3478947e-06,0.99999994,NaN,NaN,NaN,NaN,NaN
0.4654314499994143,10:12:48.805539,NaN,0,,0.027764754,0.049127467,0.07544725,-0.867149,-0.3694712,-0.3339815,-0.49146843,0.74343055,0.45361847,0.080693066,0.5574962,-0.8262484,,0.13959056,-0.044197902,0.07338351,-0.7429792,-0.6174244,0.25839686,-0.44453257,0.7438172,0.49912584,-0.5003725,0.2559742,-0.827106,,0.08977283,1.3490101,0.48509634,0.9960527,0.002744978,-0.0887216,-0.05377153,-0.77659184,-0.6277051,-0.07062352,0.629998,-0.7733788,,-0.07251144,0.27896243,-0.07627605,0.8813369,0.28301662,0.37834746,-0.24631718,0.9585453,-0.14324352,-0.4032035,0.033052333,0.91451323,,0.055154998,0.44358313,-0.3703522,0.86668843,0.4568198,-0.20041656,-0.49787396,0.7669965,-0.40476888,-0.031187646,0.4505907,0.8921857,,0.819814430996177,-0.08604668968460949,0.15336925506000001,0.637038048305985,0.1186004817964023,0.30441355242180734,0.8707872165618427,,-0.6228615745048294,-0.6842109644576689,0.12753419536000002,1.4491671994215478,0.22722649910992745,0.7894661109903209,0.8673569911730228,,-0.06956664232292899,-0.10125745821601603,0.0886362022,-0.034016912529394594,,-4.876405e-05,-2.2649765e-06,6.3180923e-06,1.0,6.971136e-05,5.679205e-05,-6.971508e-05,1.0,6.4074993e-06,-5.6788325e-05,-6.3478947e-06,0.99999994,NaN,NaN,NaN,NaN,NaN
0.484201810999366,10:12:48.827081,NaN,0,,0.0277643,0.04912644,0.07544722,-0.86714745,-0.36947152,-0.3339851,-0.49147016,0.74343336,0.45361215,0.08069886,0.5574923,-0.82625043,,0.13959056,-0.044197902,0.07338351,-0.7429792,-0.6174244,0.25839686,-0.44453257,0.7438172,0.49912584,-0.5003725,0.2559742,-0.827106,,0.08977283,1.3490101,0.48509634,0.9960527,0.002744978,-0.0887216,-0.05377153,-0.77659184,-0.6277051,-0.07062352,0.629998,-0.7733788,,-0.072510935,0.27896166,-0.076276705,0.881335,0.28301716,0.3783515,-0.24631502,0.958545,-0.14324939,-0.403209,0.033057045,0.91451067,,0.055154998,0.44358313,-0.3703522,0.86668843,0.4568198,-0.20041656,-0.49787396,0.7669965,-0.40476888,-0.031187646,0.4505907,0.8921857,,0.819814430996177,-0.08605441241748371,0.15336925506000001,0.637038048305985,0.1186004817964023,0.30441355242180734,0.8707872165618427,,-0.6228615745048294,-0.6842109644576689,0.12753419536000002,1.4491671994215478,0.22722649910992745,0.7894661109903209,0.8673569911730228,,-0.06956664232292899,-0.10125745821601603,0.0886362022,-0.034016912529394594,,-4.876405e-05,-2.2649765e-06,6.3180923e-06,1.0,6.971136e-05,5.679205e-05,-6.971508e-05,1.0,6.4074993e-06,-5.6788325e-05,-6.3478947e-06,0.99999994,NaN,NaN,NaN,NaN,NaN
0.5057365089996892,10:12:48.842751,NaN,0,,0.027764754,0.049127467,0.07544725,-0.867149,-0.3694712,-0.3339815,-0.49146843,0.74343055,0.45361847,0.080693066,0.5574962,-0.8262484,,0.13959056,-0.044197902,0.07338351,-0.7429792,-0.6174244,0.25839686,-0.44453257,0.7438172,0.49912584,-0.5003725,0.2559742,-0.827106,,0.08977283,1.3490101,0.48509634,0.9960527,0.002744978,-0.0887216,-0.05377153,-0.77659184,-0.6277051,-0.07062352,0.629998,-0.7733788,,-0.07251144,0.27896243,-0.07627605,0.8813369,0.28301662,0.37834746,-0.24631718,0.9585453,-0.14324352,-0.4032035,0.033052333,0.91451323,,0.055154998,0.44358313,-0.3703522,0.86668843,0.4568198,-0.20041656,-0.49787396,0.7669965,-0.40476888,-0.031187646,0.4505907,0.8921857,,0.819814430996177,-0.08604668968460949,0.15336925506000001,0.637038048305985,0.1186004817964023,0.30441355242180734,0.8707872165618427,,-0.6228615745048294,-0.6842109644576689,0.12753419536000002,1.4491671994215478,0.22722649910992745,0.7894661109903209,0.8673569911730228,,-0.06956664232292899,-0.10125745821601603,0.0886362022,-0.034016912529394594,,-4.876405e-05,-2.2649765e-06,6.3180923e-06,1.0,6.971136e-05,5.679205e-05,-6.971508e-05,1.0,6.4074993e-06,-5.6788325e-05,-6.3478947e-06,0.99999994,NaN,NaN,NaN,NaN,NaN
0.5213661979996687,10:12:48.861508,NaN,0,,0.027764754,0.049127467,0.07544725,-0.867149,-0.3694712,-0.3339815,-0.49146843,0.74343055,0.45361847,0.080693066,0.5574962,-0.8262484,,0.13959056,-0.044197902,0.07338351,-0.7429792,-0.6174244,0.25839686,-0.44453257,0.7438172,0.49912584,-0.5003725,0.2559742,-0.827106,,0.08977283,1.3490101,0.48509634,0.9960527,0.002744978,-0.0887216,-0.05377153,-0.77659184,-0.6277051,-0.07062352,0.629998,-0.7733788,,-0.07251144,0.27896243,-0.07627605,0.8813369,0.28301662,0.37834746,-0.24631718,0.9585453,-0.14324352,-0.4032035,0.033052333,0.91451323,,0.055154998,0.44358313,-0.3703522,0.86668843,0.4568198,-0.20041656,-0.49787396,0.7669965,-0.40476888,-0.031187646,0.4505907,0.8921857,,0.819814430996177,-0.08604668968460949,0.15336925506000001,0.637038048305985,0.1186004817964023,0.30441355242180734,0.8707872165618427,,-0.6228615745048294,-0.6842109644576689,0.12753419536000002,1.4491671994215478,0.22722649910992745,0.7894661109903209,0.8673569911730228,,-0.06956664232292899,-0.10125745821601603,0.0886362022,-0.034016912529394594,,-4.876405e-05,-2.2649765e-06,6.3180923e-06,1.0,6.971136e-05,5.679205e-05,-6.971508e-05,1.0,6.4074993e-06,-5.6788325e-05,-6.3478947e-06,0.99999994,NaN,NaN,NaN,NaN,NaN
0.5401547759993264,10:12:48.877984,NaN,0,,0.027765727,0.049127035,0.07544686,-0.86714995,-0.36947447,-0.33397543,-0.4914675,0.7434327,0.45361602,0.0806887,0.5574912,-0.8262522,,0.13959056,-0.044197902,0.07338351,-0.7429792,-0.6174244,0.25839686,-0.44453257,0.7438172,0.49912584,-0.5003725,0.2559742,-0.827106,,0.08977283,1.3490101,0.48509634,0.9960527,0.002744978,-0.0887216,-0.05377153,-0.77659184,-0.6277051,-0.07062352,0.629998,-0.7733788,,-0.07251236,0.27896178,-0.07627599,0.8813382,0.28302023,0.37834185,-0.24631917,0.9585441,-0.14324841,-0.40319955,0.03305744,0.9145148,,0.055154998,0.44358313,-0.3703522,0.86668843,0.4568198,-0.20041656,-0.49787396,0.7669965,-0.40476888,-0.031187646,0.4505907,0.8921857,,0.8198067082633028,-0.08604668968460949,0.15336925506000001,0.637038048305985,0.1186004817964023,0.30441355242180734,0.8707872165618427,,-0.6228615745048294,-0.6842109644576689,0.12753419536000002,1.4491671994215478,0.22722649910992745,0.7894661109903209,0.8673569911730228,,-0.06956664232292899,-0.10125745821601603,0.0886362022,-0.034016912529394594,,-4.876405e-05,-2.2649765e-06,6.3180923e-06,1.0,6.971136e-05,5.679205e-05,-6.971508e-05,1.0,6.4074993e-06,-5.6788325e-05,-6.3478947e-06,0.99999994,NaN,NaN,NaN,NaN,NaN
0.5565838829998029,10:12:48.896206,NaN,0,,0.027765272,0.049126007,0.07544683,-0.8671484,-0.36947483,-0.33397907,-0.49146926,0.7434355,0.45360962,0.08069445,0.55748725,-0.82625425,,0.13959056,-0.044197902,0.07338351,-0.7429792,-0.6174244,0.25839686,-0.44453257,0.7438172,0.49912584,-0.5003725,0.2559742,-0.827106,,0.08977283,1.3490101,0.48509634,0.9960527,0.002744978,-0.0887216,-0.05377153,-0.77659184,-0.6277051,-0.07062352,0.629998,-0.7733788,,-0.07251185,0.278961,-0.076276645,0.8813363,0.28302076,0.37834594,-0.24631703,0.9585438,-0.14325428,-0.40320507,0.033062153,0.9145122,,0.055154998,0.44358313,-0.3703522,0.86668843,0.4568198,-0.20041656,-0.49787396,0.7669965,-0.40476888,-0.031187646,0.4505907,0.8921857,,0.8198067082633028,-0.08605441241748371,0.15336925506000001,0.637038048305985,0.1186004817964023,0.30441355242180734,0.8707872165618427,,-0.6228615745048294,-0.6842109644576689,0.12753419536000002,1.4491671994215478,0.22722649910992745,0.7894661109903209,0.8673569911730228,,-0.06956664232292899,-0.10125745821601603,0.0886362022,-0.034016912529394594,,-4.876405e-05,-2.2649765e-06,6.3180923e-06,1.0,6.971136e-05,5.679205e-05,-6.971508e-05,1.0,6.4074993e-06,-5.6788325e-05,-6.3478947e-06,0.99999994,NaN,NaN,NaN,NaN,NaN
0.5746805720000339,10:12:48.914643,NaN,0,,0.0277643,0.04912644,0.07544722,-0.86714745,-0.36947152,-0.3339851,-0.49147016,0.74343336,0.45361215,0.08069886,0.5574923,-0.82625043,,0.13959056,-0.044197902,0.07338351,-0.7429792,-0.6174244,0.25839686,-0.44453257,0.7438172,0.49912584,-0.5003725,0.2559742,-0.827106,,0.08977283,1.3490101,0.48509634,0.9960527,0.002744978,-0.0887216,-0.05377153,-0.77659184,-0.6277051,-0.07062352,0.629998,-0.7733788,,-0.072510935,0.27896166,-0.076276705,0.881335,0.28301716,0.3783515,-0.24631502,0.958545,-0.14324939,-0.403209,0.033057045,0.91451067,,0.055154998,0.44358313,-0.3703522,0.86668843,0.4568198,-0.20041656,-0.49787396,0.7669965,-0.40476888,-0.031187646,0.4505907,0.8921857,,0.819814430996177,-0.08605441241748371,0.15336925506000001,0.637038048305985,0.1186004817964023,0.30441355242180734,0.8707872165618427,,-0.6228615745048294,-0.6842109644576689,0.12753419536000002,1.4491671994215478,0.22722649910992745,0.7894661109903209,0.8673569911730228,,-0.06956664232292899,-0.10125745821601603,0.0886362022,-0.034016912529394594,,-4.876405e-05,-2.2649765e-06,6.3180923e-06,1.0,6.971136e-05,5.679205e-05,-6.971508e-05,1.0,6.4074993e-06,-5.6788325e-05,-6.3478947e-06,0.99999994,NaN,NaN,NaN,NaN,NaN
0.5932959609999671,10:12:48.929590,NaN,0,,0.027764754,0.049127467,0.07544725,-0.867149,-0.3694712,-0.3339815,-0.49146843,0.74343055,0.45361847,0.080693066,0.5574962,-0.8262484,,0.13959056,-0.044197902,0.07338351,-0.7429792,-0.6174244,0.25839686,-0.44453257,0.7438172,0.49912584,-0.5003725,0.2559742,-0.827106,,0.08977283,1.3490101,0.48509634,0.9960527,0.002744978,-0.0887216,-0.05377153,-0.77659184,-0.6277051,-0.07062352,0.629998,-0.7733788,,-0.07251144,0.27896243,-0.07627605,0.8813369,0.28301662,0.37834746,-0.24631718,0.9585453,-0.14324352,-0.4032035,0.033052333,0.91451323,,0.055154998,0.44358313,-0.3703522,0.86668843,0.4568198,-0.20041656,-0.49787396,0.7669965,-0.40476888,-0.031187646,0.4505907,0.8921857,,0.819814430996177,-0.08604668968460949,0.15336925506000001,0.637038048305985,0.1186004817964023,0.30441355242180734,0.8707872165618427,,-0.6228615745048294,-0.6842109644576689,0.12753419536000002,1.4491671994215478,0.22722649910992745,0.7894661109903209,0.8673569911730228,,-0.06956664232292899,-0.10125745821601603,0.0886362022,-0.034016912529394594,,-4.876405e-05,-2.2649765e-06,6.3180923e-06,1.0,6.971136e-05,5.679205e-05,-6.971508e-05,1.0,6.4074993e-06,-5.6788325e-05,-6.3478947e-06,0.99999994,NaN,NaN,NaN,NaN,NaN
0.6082559289998244,10:12:48.947438,NaN,0,,0.027764754,0.049127467,0.07544725,-0.867149,-0.3694712,-0.3339815,-0.49146843,0.74343055,0.45361847,0.080693066,0.5574962,-0.8262484,,0.13959056,-0.044197902,0.07338351,-0.7429792,-0.6174244,0.25839686,-0.44453257,0.7438172,0.49912584,-0.5003725,0.2559742,-0.827106,,0.08977283,1.3490101,0.48509634,0.9960527,0.002744978,-0.0887216,-0.05377153,-0.77659184,-0.6277051,-0.07062352,0.629998,-0.7733788,,-0.07251144,0.27896243,-0.07627605,0.8813369,0.28301662,0.37834746,-0.24631718,0.9585453,-0.14324352,-0.4032035,0.033052333,0.91451323,,0.055154998,0.44358313,-0.3703522,0.86668843,0.4568198,-0.20041656,-0.49787396,0.7669965,-0.40476888,-0.031187646,0.4505907,0.8921857,,0.819814430996177,-0.08604668968460949,0.15336925506000001,0.637038048305985,0.1186004817964023,0.30441355242180734,0.8707872165618427,,-0.6228615745048294,-0.6842109644576689,0.12753419536000002,1.4491671994215478,0.22722649910992745,0.7894661109903209,0.8673569911730228,,-0.06956664232292899,-0.10125745821601603,0.0886362022,-0.034016912529394594,,-4.876405e-05,-2.2649765e-06,6.3180923e-06,1.0,6.971136e-05,5.679205e-05,-6.971508e-05,1.0,6.4074993e-06,-5.6788325e-05,-6.3478947e-06,0.99999994,NaN,NaN,NaN,NaN,NaN
0.6261022009994122,10:12:48.966198,NaN,0,,0.027765272,0.049126007,0.07544683,-0.8671484,-0.36947483,-0.33397907,-0.49146926,0.7434355,0.45360962,0.08069445,0.55748725,-0.82625425,,0.13959056,-0.044197902,0.07338351,-0.7429792,-0.6174244,0.25839686,-0.44453257,0.7438172,0.49912584,-0.5003725,0.2559742,-0.827106,,0.08977283,1.3490101,0.48509634,0.9960527,0.002744978,-0.0887216,-0.05377153,-0.77659184,-0.6277051,-0.07062352,0.629998,-0.7733788,,-0.07251185,0.278961,-0.076276645,0.8813363,0.28302076,0.37834594,-0.24631703,0.9585438,-0.14325428,-0.40320507,0.033062153,0.9145122,,0.055154998,0.44358313,-0.3703522,0.86668843,0.4568198,-0.20041656,-0.49787396,0.7669965,-0.40476888,-0.031187646,0.4505907,0.8921857,,0.8198067082633028,-0.08605441241748371,0.15336925506000001,0.637038048305985,0.1186004817964023,0.30441355242180734,0.8707872165618427,,-0.6228615745048294,-0.6842109644576689,0.12753419536000002,1.4491671994215478,0.22722649910992745,0.7894661109903209,0.8673569911730228,,-0.06956664232292899,-0.10125745821601603,0.0886362022,-0.034016912529394594,,-4.876405e-05,-2.2649765e-06,6.3180923e-06,1.0,6.971136e-05,5.679205e-05,-6.971508e-05,1.0,6.4074993e-06,-5.6788325e-05,-6.3478947e-06,0.99999994,NaN,NaN,NaN,NaN,NaN
0.6448644909996801,10:12:48.981834,NaN,0,,0.0277643,0.04912644,0.07544722,-0.86714745,-0.36947152,-0.3339851,-0.49147016,0.74343336,0.45361215,0.08069886,0.5574923,-0.82625043,,0.13959056,-0.044197902,0.07338351,-0.7429792,-0.6174244,0.25839686,-0.44453257,0.7438172,0.49912584,-0.5003725,0.2559742,-0.827106,,0.08977283,1.3490101,0.48509634,0.9960527,0.002744978,-0.0887216,-0.05377153,-0.77659184,-0.6277051,-0.07062352,0.629998,-0.7733788,,-0.072510935,0.27896166,-0.076276705,0.881335,0.28301716,0.3783515,-0.24631502,0.958545,-0.14324939,-0.403209,0.033057045,0.91451067,,0.055154998,0.44358313,-0.3703522,0.86668843,0.4568198,-0.20041656,-0.49787396,0.7669965,-0.40476888,-0.031187646,0.4505907,0.8921857,,0.819814430996177,-0.08605441241748371,0.15336925506000001,0.637038048305985,0.1186004817964023,0.30441355242180734,0.8707872165618427,,-0.6228615745048294,-0.6842109644576689,0.12753419536000002,1.4491671994215478,0.22722649910992745,0.7894661109903209,0.8673569911730228,,-0.06956664232292899,-0.10125745821601603,0.0886362022,-0.034016912529394594,,-4.876405e-05,-2.2649765e-06,6.3180923e-06,1.0,6.971136e-05,5.679205e-05,-6.971508e-05,1.0,6.4074993e-06,-5.6788325e-05,-6.3478947e-06,0.99999994,NaN,NaN,NaN,NaN,NaN
0.6605032719999144,10:12:49.001868,NaN,0,,0.027765272,0.049126007,0.07544683,-0.8671484,-0.36947483,-0.33397907,-0.49146926,0.7434355,0.45360962,0.08069445,0.55748725,-0.82625425,,0.13959056,-0.044197902,0.07338351,-0.7429792,-0.6174244,0.25839686,-0.44453257,0.7438172,0.49912584,-0.5003725,0.2559742,-0.827106,,0.08977283,1.3490101,0.48509634,0.9960527,0.002744978,-0.0887216,-0.05377153,-0.77659184,-0.6277051,-0.07062352,0.629998,-0.7733788,,-0.07251185,0.278961,-0.076276645,0.8813363,0.28302076,0.37834594,-0.24631703,0.9585438,-0.14325428,-0.40320507,0.033062153,0.9145122,,0.055154998,0.44358313,-0.3703522,0.86668843,0.4568198,-0.20041656,-0.49787396,0.7669965,-0.40476888,-0.031187646,0.4505907,0.8921857,,0.8198067082633028,-0.08605441241748371,0.15336925506000001,0.637038048305985,0.1186004817964023,0.30441355242180734,0.8707872165618427,,-0.6228615745048294,-0.6842109644576689,0.12753419536000002,1.4491671994215478,0.22722649910992745,0.7894661109903209,0.8673569911730228,,-0.06956664232292899,-0.10125745821601603,0.0886362022,-0.034016912529394594,,-4.876405e-05,-2.2649765e-06,6.3180923e-06,1.0,6.971136e-05,5.679205e-05,-6.971508e-05,1.0,6.4074993e-06,-5.6788325e-05,-6.3478947e-06,0.99999994,NaN,NaN,NaN,NaN,NaN
0.6805336659999739,10:12:49.018935,NaN,0,,0.027764754,0.049127467,0.07544725,-0.867149,-0.3694712,-0.3339815,-0.49146843,0.74343055,0.45361847,0.080693066,0.5574962,-0.8262484,,0.13959056,-0.044197902,0.07338351,-0.7429792,-0.6174244,0.25839686,-0.44453257,0.7438172,0.49912584,-0.5003725,0.2559742,-0.827106,,0.08977283,1.3490101,0.48509634,0.9960527,0.002744978,-0.0887216,-0.05377153,-0.77659184,-0.6277051,-0.07062352,0.629998,-0.7733788,,-0.07251144,0.27896243,-0.07627605,0.8813369,0.28301662,0.37834746,-0.24631718,0.9585453,-0.14324352,-0.4032035,0.033052333,0.91451323,,0.055154998,0.44358313,-0.3703522,0.86668843,0.4568198,-0.20041656,-0.49787396,0.7669965,-0.40476888,-0.031187646,0.4505907,0.8921857,,0.819814430996177,-0.08604668968460949,0.15336925506000001,0.637038048305985,0.1186004817964023,0.30441355242180734,0.8707872165618427,,-0.6228615745048294,-0.6842109644576689,0.12753419536000002,1.4491671994215478,0.22722649910992745,0.7894661109903209,0.8673569911730228,,-0.06956664232292899,-0.10125745821601603,0.0886362022,-0.034016912529394594,,-4.876405e-05,-2.2649765e-06,6.3180923e-06,1.0,6.971136e-05,5.679205e-05,-6.971508e-05,1.0,6.4074993e-06,-5.6788325e-05,-6.3478947e-06,0.99999994,NaN,NaN,NaN,NaN,NaN
0.6975313129996721,10:12:49.039430,NaN,0,,0.027764754,0.049127467,0.07544725,-0.867149,-0.3694712,-0.3339815,-0.49146843,0.74343055,0.45361847,0.080693066,0.5574962,-0.8262484,,0.13959056,-0.044197902,0.07338351,-0.7429792,-0.6174244,0.25839686,-0.44453257,0.7438172,0.49912584,-0.5003725,0.2559742,-0.827106,,0.08977283,1.3490101,0.48509634,0.9960527,0.002744978,-0.0887216,-0.05377153,-0.77659184,-0.6277051,-0.07062352,0.629998,-0.7733788,,-0.07251144,0.27896243,-0.07627605,0.8813369,0.28301662,0.37834746,-0.24631718,0.9585453,-0.14324352,-0.4032035,0.033052333,0.91451323,,0.055154998,0.44358313,-0.3703522,0.86668843,0.4568198,-0.20041656,-0.49787396,0.7669965,-0.40476888,-0.031187646,0.4505907,0.8921857,,0.819814430996177,-0.08604668968460949,0.15336925506000001,0.637038048305985,0.1186004817964023,0.30441355242180734,0.8707872165618427,,-0.6228615745048294,-0.6842109644576689,0.12753419536000002,1.4491671994215478,0.22722649910992745,0.7894661109903209,0.8673569911730228,,-0.06956664232292899,-0.10125745821601603,0.0886362022,-0.034016912529394594,,-4.876405e-05,-2.2649765e-06,6.3180923e-06,1.0,6.971136e-05,5.679205e-05,-6.971508e-05,1.0,6.4074993e-06,-5.6788325e-05,-6.3478947e-06,0.99999994,NaN,NaN,NaN,NaN,NaN
0.7180863189996671,10:12:49.053029,NaN,0,,0.027764754,0.049127467,0.07544725,-0.867149,-0.3694712,-0.3339815,-0.49146843,0.74343055,0.45361847,0.080693066,0.5574962,-0.8262484,,0.13959056,-0.044197902,0.07338351,-0.7429792,-0.6174244,0.25839686,-0.44453257,0.7438172,0.49912584,-0.5003725,0.2559742,-0.827106,,0.08977283,1.3490101,0.48509634,0.9960527,0.002744978,-0.0887216,-0.05377153,-0.77659184,-0.6277051,-0.07062352,0.629998,-0.7733788,,-0.07251144,0.27896243,-0.07627605,0.8813369,0.28301662,0.37834746,-0.24631718,0.9585453,-0.14324352,-0.4032035,0.033052333,0.91451323,,0.055154998,0.44358313,-0.3703522,0.86668843,0.4568198,-0.20041656,-0.49787396,0.7669965,-0.40476888,-0.031187646,0.4505907,0.8921857,,0.819814430996177,-0.08604668968460949,0.15336925506000001,0.637038048305985,0.1186004817964023,0.30441355242180734,0.8707872165618427,,-0.6228615745048294,-0.6842109644576689,0.12753419536000002,1.4491671994215478,0.22722649910992745,0.7894661109903209,0.8673569911730228,,-0.06956664232292899,-0.10125745821601603,0.0886362022,-0.034016912529394594,,-4.876405e-05,-2.2649765e-06,6.3180923e-06,1.0,6.971136e-05,5.679205e-05,-6.971508e-05,1.0,6.4074993e-06,-5.6788325e-05,-6.3478947e-06,0.99999994,NaN,NaN,NaN,NaN,NaN
0.7316936199995325,10:12:49.070734,NaN,0,,0.0277643,0.04912644,0.07544722,-0.86714745,-0.36947152,-0.3339851,-0.49147016,0.74343336,0.45361215,0.08069886,0.5574923,-0.82625043,,0.13959056,-0.044197902,0.07338351,-0.7429792,-0.6174244,0.25839686,-0.44453257,0.7438172,0.49912584,-0.5003725,0.2559742,-0.827106,,0.08977283,1.3490101,0.48509634,0.9960527,0.002744978,-0.0887216,-0.05377153,-0.77659184,-0.6277051,-0.07062352,0.629998,-0.7733788,,-0.072510935,0.27896166,-0.076276705,0.881335,0.28301716,0.3783515,-0.24631502,0.958545,-0.14324939,-0.403209,0.033057045,0.91451067,,0.055154998,0.44358313,-0.3703522,0.86668843,0.4568198,-0.20041656,-0.49787396,0.7669965,-0.40476888,-0.031187646,0.4505907,0.8921857,,0.819814430996177,-0.08605441241748371,0.15336925506000001,0.637038048305985,0.1186004817964023,0.30441355242180734,0.8707872165618427,,-0.6228615745048294,-0.6842109644576689,0.12753419536000002,1.4491671994215478,0.22722649910992745,0.7894661109903209,0.8673569911730228,,-0.06956664232292899,-0.10125745821601603,0.0886362022,-0.034016912529394594,,-4.876405e-05,-2.2649765e-06,6.3180923e-06,1.0,6.971136e-05,5.679205e-05,-6.971508e-05,1.0,6.4074993e-06,-5.6788325e-05,-6.3478947e-06,0.99999994,NaN,NaN,NaN,NaN,NaN
0.7493993459993362,10:12:49.089640,NaN,0,,0.0277643,0.04912644,0.07544722,-0.86714745,-0.36947152,-0.3339851,-0.49147016,0.74343336,0.45361215,0.08069886,0.5574923,-0.82625043,,0.13959056,-0.044197902,0.07338351,-0.7429792,-0.6174244,0.25839686,-0.44453257,0.7438172,0.49912584,-0.5003725,0.2559742,-0.827106,,0.08977283,1.3490101,0.48509634,0.9960527,0.002744978,-0.0887216,-0.05377153,-0.77659184,-0.6277051,-0.07062352,0.629998,-0.7733788,,-0.072510935,0.27896166,-0.076276705,0.881335,0.28301716,0.3783515,-0.24631502,0.958545,-0.14324939,-0.403209,0.033057045,0.91451067,,0.055154998,0.44358313,-0.3703522,0.86668843,0.4568198,-0.20041656,-0.49787396,0.7669965,-0.40476888,-0.031187646,0.4505907,0.8921857,,0.819814430996177,-0.08605441241748371,0.15336925506000001,0.637038048305985,0.1186004817964023,0.30441355242180734,0.8707872165618427,,-0.6228615745048294,-0.6842109644576689,0.12753419536000002,1.4491671994215478,0.22722649910992745,0.7894661109903209,0.8673569911730228,,-0.06956664232292899,-0.10125745821601603,0.0886362022,-0.034016912529394594,,-4.876405e-05,-2.2649765e-06,6.3180923e-06,1.0,6.971136e-05,5.679205e-05,-6.971508e-05,1.0,6.4074993e-06,-5.6788325e-05,-6.3478947e-06,0.99999994,NaN,NaN,NaN,NaN,NaN
0.7682642379995741,10:12:49.109606,NaN,0,,0.027764754,0.049127467,0.07544725,-0.867149,-0.3694712,-0.3339815,-0.49146843,0.74343055,0.45361847,0.080693066,0.5574962,-0.8262484,,0.13959056,-0.044197902,0.07338351,-0.7429792,-0.6174244,0.25839686,-0.44453257,0.7438172,0.49912584,-0.5003725,0.2559742,-0.827106,,0.08977283,1.3490101,0.48509634,0.9960527,0.002744978,-0.0887216,-0.05377153,-0.77659184,-0.6277051,-0.07062352,0.629998,-0.7733788,,-0.07251144,0.27896243,-0.07627605,0.8813369,0.28301662,0.37834746,-0.24631718,0.9585453,-0.14324352,-0.4032035,0.033052333,0.91451323,,0.055154998,0.44358313,-0.3703522,0.86668843,0.4568198,-0.20041656,-0.49787396,0.7669965,-0.40476888,-0.031187646,0.4505907,0.8921857,,0.819814430996177,-0.08604668968460949,0.15336925506000001,0.637038048305985,0.1186004817964023,0.30441355242180734,0.8707872165618427,,-0.6228615745048294,-0.6842109644576689,0.12753419536000002,1.4491671994215478,0.22722649910992745,0.7894661109903209,0.8673569911730228,,-0.06956664232292899,-0.10125745821601603,0.0886362022,-0.034016912529394594,,-4.876405e-05,-2.2649765e-06,6.3180923e-06,1.0,6.971136e-05,5.679205e-05,-6.971508e-05,1.0,6.4074993e-06,-5.6788325e-05,-6.3478947e-06,0.99999994,NaN,NaN,NaN,NaN,NaN
0.7882461729996066,10:12:49.124380,NaN,0,,0.0277643,0.04912644,0.07544722,-0.86714745,-0.36947152,-0.3339851,-0.49147016,0.74343336,0.45361215,0.08069886,0.5574923,-0.82625043,,0.13959056,-0.044197902,0.07338351,-0.7429792,-0.6174244,0.25839686,-0.44453257,0.7438172,0.49912584,-0.5003725,0.2559742,-0.827106,,0.08977283,1.3490101,0.48509634,0.9960527,0.002744978,-0.0887216,-0.05377153,-0.77659184,-0.6277051,-0.07062352,0.629998,-0.7733788,,-0.072510935,0.27896166,-0.076276705,0.881335,0.28301716,0.3783515,-0.24631502,0.958545,-0.14324939,-0.403209,0.033057045,0.91451067,,0.055154998,0.44358313,-0.3703522,0.86668843,0.4568198,-0.20041656,-0.49787396,0.7669965,-0.40476888,-0.031187646,0.4505907,0.8921857,,0.819814430996177,-0.08605441241748371,0.15336925506000001,0.637038048305985,0.1186004817964023,0.30441355242180734,0.8707872165618427,,-0.6228615745048294,-0.6842109644576689,0.12753419536000002,1.4491671994215478,0.22722649910992745,0.7894661109903209,0.8673569911730228,,-0.06956664232292899,-0.10125745821601603,0.0886362022,-0.034016912529394594,,-4.876405e-05,-2.2649765e-06,6.3180923e-06,1.0,6.971136e-05,5.679205e-05,-6.971508e-05,1.0,6.4074993e-06,-5.6788325e-05,-6.3478947e-06,0.99999994,NaN,NaN,NaN,NaN,NaN
0.80303436199938,10:12:49.143965,NaN,0,,0.0277643,0.04912644,0.07544722,-0.86714745,-0.36947152,-0.3339851,-0.49147016,0.74343336,0.45361215,0.08069886,0.5574923,-0.82625043,,0.13959056,-0.044197902,0.07338351,-0.7429792,-0.6174244,0.25839686,-0.44453257,0.7438172,0.49912584,-0.5003725,0.2559742,-0.827106,,0.08977283,1.3490101,0.48509634,0.9960527,0.002744978,-0.0887216,-0.05377153,-0.77659184,-0.6277051,-0.07062352,0.629998,-0.7733788,,-0.072510935,0.27896166,-0.076276705,0.881335,0.28301716,0.3783515,-0.24631502,0.958545,-0.14324939,-0.403209,0.033057045,0.91451067,,0.055154998,0.44358313,-0.3703522,0.86668843,0.4568198,-0.20041656,-0.49787396,0.7669965,-0.40476888,-0.031187646,0.4505907,0.8921857,,0.819814430996177,-0.08605441241748371,0.15336925506000001,0.637038048305985,0.1186004817964023,0.30441355242180734,0.8707872165618427,,-0.6228615745048294,-0.6842109644576689,0.12753419536000002,1.4491671994215478,0.22722649910992745,0.7894661109903209,0.8673569911730228,,-0.06956664232292899,-0.10125745821601603,0.0886362022,-0.034016912529394594,,-4.876405e-05,-2.2649765e-06,6.3180923e-06,1.0,6.971136e-05,5.679205e-05,-6.971508e-05,1.0,6.4074993e-06,-5.6788325e-05,-6.3478947e-06,0.99999994,NaN,NaN,NaN,NaN,NaN
0.8225865409995095,10:12:49.161149,NaN,0,,0.0277643,0.04912644,0.07544722,-0.86714745,-0.36947152,-0.3339851,-0.49147016,0.74343336,0.45361215,0.08069886,0.5574923,-0.82625043,,0.13959056,-0.044197902,0.07338351,-0.7429792,-0.6174244,0.25839686,-0.44453257,0.7438172,0.49912584,-0.5003725,0.2559742,-0.827106,,0.08977283,1.3490101,0.48509634,0.9960527,0.002744978,-0.0887216,-0.05377153,-0.77659184,-0.6277051,-0.07062352,0.629998,-0.7733788,,-0.072510935,0.27896166,-0.076276705,0.881335,0.28301716,0.3783515,-0.24631502,0.958545,-0.14324939,-0.403209,0.033057045,0.91451067,,0.055154998,0.44358313,-0.3703522,0.86668843,0.4568198,-0.20041656,-0.49787396,0.7669965,-0.40476888,-0.031187646,0.4505907,0.8921857,,0.819814430996177,-0.08605441241748371,0.15336925506000001,0.637038048305985,0.1186004817964023,0.30441355242180734,0.8707872165618427,,-0.6228615745048294,-0.6842109644576689,0.12753419536000002,1.4491671994215478,0.22722649910992745,0.7894661109903209,0.8673569911730228,,-0.06956664232292899,-0.10125745821601603,0.0886362022,-0.034016912529394594,,-4.876405e-05,-2.2649765e-06,6.3180923e-06,1.0,6.971136e-05,5.679205e-05,-6.971508e-05,1.0,6.4074993e-06,-5.6788325e-05,-6.3478947e-06,0.99999994,NaN,NaN,NaN,NaN,NaN
0.8397933579999517,10:12:49.178758,NaN,0,,0.0277643,0.04912644,0.07544722,-0.86714745,-0.36947152,-0.3339851,-0.49147016,0.74343336,0.45361215,0.08069886,0.5574923,-0.82625043,,0.13959056,-0.044197902,0.07338351,-0.7429792,-0.6174244,0.25839686,-0.44453257,0.7438172,0.49912584,-0.5003725,0.2559742,-0.827106,,0.08977283,1.3490101,0.48509634,0.9960527,0.002744978,-0.0887216,-0.05377153,-0.77659184,-0.6277051,-0.07062352,0.629998,-0.7733788,,-0.072510935,0.27896166,-0.076276705,0.881335,0.28301716,0.3783515,-0.24631502,0.958545,-0.14324939,-0.403209,0.033057045,0.91451067,,0.055154998,0.44358313,-0.3703522,0.86668843,0.4568198,-0.20041656,-0.49787396,0.7669965,-0.40476888,-0.031187646,0.4505907,0.8921857,,0.819814430996177,-0.08605441241748371,0.15336925506000001,0.637038048305985,0.1186004817964023,0.30441355242180734,0.8707872165618427,,-0.6228615745048294,-0.6842109644576689,0.12753419536000002,1.4491671994215478,0.22722649910992745,0.7894661109903209,0.8673569911730228,,-0.06956664232292899,-0.10125745821601603,0.0886362022,-0.034016912529394594,,-4.876405e-05,-2.2649765e-06,6.3180923e-06,1.0,6.971136e-05,5.679205e-05,-6.971508e-05,1.0,6.4074993e-06,-5.6788325e-05,-6.3478947e-06,0.99999994,NaN,NaN,NaN,NaN,NaN
0.8574117399994066,10:12:49.193667,NaN,0,,0.027765272,0.049126007,0.07544683,-0.8671484,-0.36947483,-0.33397907,-0.49146926,0.7434355,0.45360962,0.08069445,0.55748725,-0.82625425,,0.13959056,-0.044197902,0.07338351,-0.7429792,-0.6174244,0.25839686,-0.44453257,0.7438172,0.49912584,-0.5003725,0.2559742,-0.827106,,0.08977283,1.3490101,0.48509634,0.9960527,0.002744978,-0.0887216,-0.05377153,-0.77659184,-0.6277051,-0.07062352,0.629998,-0.7733788,,-0.07251185,0.278961,-0.076276645,0.8813363,0.28302076,0.37834594,-0.24631703,0.9585438,-0.14325428,-0.40320507,0.033062153,0.9145122,,0.055154998,0.44358313,-0.3703522,0.86668843,0.4568198,-0.20041656,-0.49787396,0.7669965,-0.40476888,-0.031187646,0.4505907,0.8921857,,0.8198067082633028,-0.08605441241748371,0.15336925506000001,0.637038048305985,0.1186004817964023,0.30441355242180734,0.8707872165618427,,-0.6228615745048294,-0.6842109644576689,0.12753419536000002,1.4491671994215478,0.22722649910992745,0.7894661109903209,0.8673569911730228,,-0.06956664232292899,-0.10125745821601603,0.0886362022,-0.034016912529394594,,-4.876405e-05,-2.2649765e-06,6.3180923e-06,1.0,6.971136e-05,5.679205e-05,-6.971508e-05,1.0,6.4074993e-06,-5.6788325e-05,-6.3478947e-06,0.99999994,NaN,NaN,NaN,NaN,NaN
0.8722647069998857,10:12:49.213800,NaN,0,,0.027764754,0.049127467,0.07544725,-0.867149,-0.3694712,-0.3339815,-0.49146843,0.74343055,0.45361847,0.080693066,0.5574962,-0.8262484,,0.13959056,-0.044197902,0.07338351,-0.7429792,-0.6174244,0.25839686,-0.44453257,0.7438172,0.49912584,-0.5003725,0.2559742,-0.827106,,0.08977283,1.3490101,0.48509634,0.9960527,0.002744978,-0.0887216,-0.05377153,-0.77659184,-0.6277051,-0.07062352,0.629998,-0.7733788,,-0.07251144,0.27896243,-0.07627605,0.8813369,0.28301662,0.37834746,-0.24631718,0.9585453,-0.14324352,-0.4032035,0.033052333,0.91451323,,0.055154998,0.44358313,-0.3703522,0.86668843,0.4568198,-0.20041656,-0.49787396,0.7669965,-0.40476888,-0.031187646,0.4505907,0.8921857,,0.819814430996177,-0.08604668968460949,0.15336925506000001,0.637038048305985,0.1186004817964023,0.30441355242180734,0.8707872165618427,,-0.6228615745048294,-0.6842109644576689,0.12753419536000002,1.4491671994215478,0.22722649910992745,0.7894661109903209,0.8673569911730228,,-0.06956664232292899,-0.10125745821601603,0.0886362022,-0.034016912529394594,,-4.876405e-05,-2.2649765e-06,6.3180923e-06,1.0,6.971136e-05,5.679205e-05,-6.971508e-05,1.0,6.4074993e-06,-5.6788325e-05,-6.3478947e-06,0.99999994,NaN,NaN,NaN,NaN,NaN
0.8924625029994786,10:12:49.230784,NaN,0,,0.027764754,0.049127467,0.07544725,-0.867149,-0.3694712,-0.3339815,-0.49146843,0.74343055,0.45361847,0.080693066,0.5574962,-0.8262484,,0.13959056,-0.044197902,0.07338351,-0.7429792,-0.6174244,0.25839686,-0.44453257,0.7438172,0.49912584,-0.5003725,0.2559742,-0.827106,,0.08977283,1.3490101,0.48509634,0.9960527,0.002744978,-0.0887216,-0.05377153,-0.77659184,-0.6277051,-0.07062352,0.629998,-0.7733788,,-0.07251144,0.27896243,-0.07627605,0.8813369,0.28301662,0.37834746,-0.24631718,0.9585453,-0.14324352,-0.4032035,0.033052333,0.91451323,,0.055154998,0.44358313,-0.3703522,0.86668843,0.4568198,-0.20041656,-0.49787396,0.7669965,-0.40476888,-0.031187646,0.4505907,0.8921857,,0.819814430996177,-0.08604668968460949,0.15336925506000001,0.637038048305985,0.1186004817964023,0.30441355242180734,0.8707872165618427,,-0.6228615745048294,-0.6842109644576689,0.12753419536000002,1.4491671994215478,0.22722649910992745,0.7894661109903209,0.8673569911730228,,-0.06956664232292899,-0.10125745821601603,0.0886362022,-0.034016912529394594,,-4.876405e-05,-2.2649765e-06,6.3180923e-06,1.0,6.971136e-05,5.679205e-05,-6.971508e-05,1.0,6.4074993e-06,-5.6788325e-05,-6.3478947e-06,0.99999994,NaN,NaN,NaN,NaN,NaN
0.9093982099993809,10:12:49.248708,NaN,0,,0.027764754,0.049127467,0.07544725,-0.867149,-0.3694712,-0.3339815,-0.49146843,0.74343055,0.45361847,0.080693066,0.5574962,-0.8262484,,0.13959056,-0.044197902,0.07338351,-0.7429792,-0.6174244,0.25839686,-0.44453257,0.7438172,0.49912584,-0.5003725,0.2559742,-0.827106,,0.08977283,1.3490101,0.48509634,0.9960527,0.002744978,-0.0887216,-0.05377153,-0.77659184,-0.6277051,-0.07062352,0.629998,-0.7733788,,-0.07251144,0.27896243,-0.07627605,0.8813369,0.28301662,0.37834746,-0.24631718,0.9585453,-0.14324352,-0.4032035,0.033052333,0.91451323,,0.055154998,0.44358313,-0.3703522,0.86668843,0.4568198,-0.20041656,-0.49787396,0.7669965,-0.40476888,-0.031187646,0.4505907,0.8921857,,0.819814430996177,-0.08604668968460949,0.15336925506000001,0.637038048305985,0.1186004817964023,0.30441355242180734,0.8707872165618427,,-0.6228615745048294,-0.6842109644576689,0.12753419536000002,1.4491671994215478,0.22722649910992745,0.7894661109903209,0.8673569911730228,,-0.06956664232292899,-0.10125745821601603,0.0886362022,-0.034016912529394594,,-4.876405e-05,-2.2649765e-06,6.3180923e-06,1.0,6.971136e-05,5.679205e-05,-6.971508e-05,1.0,6.4074993e-06,-5.6788325e-05,-6.3478947e-06,0.99999994,NaN,NaN,NaN,NaN,NaN
0.9273769809997248,10:12:49.265543,NaN,0,,0.0277643,0.04912644,0.07544722,-0.86714745,-0.36947152,-0.3339851,-0.49147016,0.74343336,0.45361215,0.08069886,0.5574923,-0.82625043,,0.13959056,-0.044197902,0.07338351,-0.7429792,-0.6174244,0.25839686,-0.44453257,0.7438172,0.49912584,-0.5003725,0.2559742,-0.827106,,0.08977283,1.3490101,0.48509634,0.9960527,0.002744978,-0.0887216,-0.05377153,-0.77659184,-0.6277051,-0.07062352,0.629998,-0.7733788,,-0.072510935,0.27896166,-0.076276705,0.881335,0.28301716,0.3783515,-0.24631502,0.958545,-0.14324939,-0.403209,0.033057045,0.91451067,,0.055154998,0.44358313,-0.3703522,0.86668843,0.4568198,-0.20041656,-0.49787396,0.7669965,-0.40476888,-0.031187646,0.4505907,0.8921857,,0.819814430996177,-0.08605441241748371,0.15336925506000001,0.637038048305985,0.1186004817964023,0.30441355242180734,0.8707872165618427,,-0.6228615745048294,-0.6842109644576689,0.12753419536000002,1.4491671994215478,0.22722649910992745,0.7894661109903209,0.8673569911730228,,-0.06956664232292899,-0.10125745821601603,0.0886362022,-0.034016912529394594,,-4.876405e-05,-2.2649765e-06,6.3180923e-06,1.0,6.971136e-05,5.679205e-05,-6.971508e-05,1.0,6.4074993e-06,-5.6788325e-05,-6.3478947e-06,0.99999994,NaN,NaN,NaN,NaN,NaN
0.944168434999483,10:12:49.282062,NaN,0,,0.0277643,0.04912644,0.07544722,-0.86714745,-0.36947152,-0.3339851,-0.49147016,0.74343336,0.45361215,0.08069886,0.5574923,-0.82625043,,0.13959056,-0.044197902,0.07338351,-0.7429792,-0.6174244,0.25839686,-0.44453257,0.7438172,0.49912584,-0.5003725,0.2559742,-0.827106,,0.08977283,1.3490101,0.48509634,0.9960527,0.002744978,-0.0887216,-0.05377153,-0.77659184,-0.6277051,-0.07062352,0.629998,-0.7733788,,-0.072510935,0.27896166,-0.076276705,0.881335,0.28301716,0.3783515,-0.24631502,0.958545,-0.14324939,-0.403209,0.033057045,0.91451067,,0.055154998,0.44358313,-0.3703522,0.86668843,0.4568198,-0.20041656,-0.49787396,0.7669965,-0.40476888,-0.031187646,0.4505907,0.8921857,,0.819814430996177,-0.08605441241748371,0.15336925506000001,0.637038048305985,0.1186004817964023,0.30441355242180734,0.8707872165618427,,-0.6228615745048294,-0.6842109644576689,0.12753419536000002,1.4491671994215478,0.22722649910992745,0.7894661109903209,0.8673569911730228,,-0.06956664232292899,-0.10125745821601603,0.0886362022,-0.034016912529394594,,-4.876405e-05,-2.2649765e-06,6.3180923e-06,1.0,6.971136e-05,5.679205e-05,-6.971508e-05,1.0,6.4074993e-06,-5.6788325e-05,-6.3478947e-06,0.99999994,NaN,NaN,NaN,NaN,NaN
0.9606867319998855,10:12:49.300665,NaN,0,,0.027764754,0.049127467,0.07544725,-0.867149,-0.3694712,-0.3339815,-0.49146843,0.74343055,0.45361847,0.080693066,0.5574962,-0.8262484,,0.13959056,-0.044197902,0.07338351,-0.7429792,-0.6174244,0.25839686,-0.44453257,0.7438172,0.49912584,-0.5003725,0.2559742,-0.827106,,0.08977283,1.3490101,0.48509634,0.9960527,0.002744978,-0.0887216,-0.05377153,-0.77659184,-0.6277051,-0.07062352,0.629998,-0.7733788,,-0.07251144,0.27896243,-0.07627605,0.8813369,0.28301662,0.37834746,-0.24631718,0.9585453,-0.14324352,-0.4032035,0.033052333,0.91451323,,0.055154998,0.44358313,-0.3703522,0.86668843,0.4568198,-0.20041656,-0.49787396,0.7669965,-0.40476888,-0.031187646,0.4505907,0.8921857,,0.819814430996177,-0.08604668968460949,0.15336925506000001,0.637038048305985,0.1186004817964023,0.30441355242180734,0.8707872165618427,,-0.6228615745048294,-0.6842109644576689,0.12753419536000002,1.4491671994215478,0.22722649910992745,0.7894661109903209,0.8673569911730228,,-0.06956664232292899,-0.10125745821601603,0.0886362022,-0.034016912529394594,,-4.876405e-05,-2.2649765e-06,6.3180923e-06,1.0,6.971136e-05,5.679205e-05,-6.971508e-05,1.0,6.4074993e-06,-5.6788325e-05,-6.3478947e-06,0.99999994,NaN,NaN,NaN,NaN,NaN
0.9787760350000099,10:12:49.318916,NaN,0,,0.027689109,0.049152948,0.0754417,-0.8671854,-0.36941966,-0.33394355,-0.4914049,0.7434569,0.45364422,0.08068752,0.5574952,-0.82624954,,0.13968544,-0.044166345,0.07340172,-0.74293244,-0.6174807,0.2583969,-0.4445842,0.74378115,0.49913362,-0.5003961,0.2559433,-0.8271013,,0.08984922,1.349009,0.48509,0.9960461,0.002650615,-0.088797875,-0.05389256,-0.7765922,-0.6276943,-0.07062352,0.629998,-0.7733788,,-0.07249322,0.27899453,-0.07625362,0.8813165,0.28305674,0.37836504,-0.24635473,0.9585338,-0.14325574,-0.4032252,0.03304163,0.91450405,,0.05499164,0.4435907,-0.37034735,0.8666046,0.45699129,-0.20038818,-0.49801424,0.7669238,-0.4047342,-0.031277537,0.45054066,0.89220786,,0.819814430996177,-0.08604668968460949,0.15336925506000001,0.637038048305985,0.1186004817964023,0.30441355242180734,0.8707872165618427,,-0.6228615745048294,-0.6842109644576689,0.12753419536000002,1.4491671994215478,0.22722649910992745,0.7894661109903209,0.8673569911730228,,-0.06956664232292899,-0.10125745821601603,0.0886362022,-0.034016912529394594,,2.7827919e-05,-5.1259995e-06,5.1259995e-06,1.0,-2.4255365e-05,-1.9755214e-05,2.4255365e-05,1.0,-2.1755695e-06,1.9762665e-05,2.2351742e-06,0.99999994,NaN,NaN,NaN,NaN,NaN
0.9975846099996488,10:12:49.339252,NaN,0,,0.027689615,0.049151473,0.075441286,-0.8671849,-0.36942336,-0.33394107,-0.49140573,0.7434618,0.45363536,0.080688894,0.5574863,-0.82625544,,0.13968544,-0.044166345,0.07340172,-0.74293244,-0.6174807,0.2583969,-0.4445842,0.74378115,0.49913362,-0.5003961,0.2559433,-0.8271013,,0.08984922,1.349009,0.48509,0.9960461,0.002650615,-0.088797875,-0.05389256,-0.7765922,-0.6276943,-0.07062352,0.629998,-0.7733788,,-0.07249362,0.2789931,-0.076254226,0.8813158,0.2830609,0.37836352,-0.24635458,0.9585323,-0.1432665,-0.4032268,0.03305145,0.91450304,,0.05499164,0.4435907,-0.37034735,0.8666046,0.45699129,-0.20038818,-0.49801424,0.7669238,-0.4047342,-0.031277537,0.45054066,0.89220786,,0.8198067082633028,-0.08605441241748371,0.15336925506000001,0.637038048305985,0.1186004817964023,0.30441355242180734,0.8707872165618427,,-0.6228615745048294,-0.6842109644576689,0.12753419536000002,1.4491671994215478,0.22722649910992745,0.7894661109903209,0.8673569911730228,,-0.06956664232292899,-0.10125745821601603,0.0886362022,-0.034016912529394594,,2.7827919e-05,-5.1259995e-06,5.1259995e-06,1.0,-2.4255365e-05,-1.9755214e-05,2.4255365e-05,1.0,-2.1755695e-06,1.9762665e-05,2.2351742e-06,0.99999994,NaN,NaN,NaN,NaN,NaN
1.0179217710001467,10:12:49.353822,NaN,0,,0.027689615,0.049151473,0.075441286,-0.8671849,-0.36942336,-0.33394107,-0.49140573,0.7434618,0.45363536,0.080688894,0.5574863,-0.82625544,,0.13968544,-0.044166345,0.07340172,-0.74293244,-0.6174807,0.2583969,-0.4445842,0.74378115,0.49913362,-0.5003961,0.2559433,-0.8271013,,0.08984922,1.349009,0.48509,0.9960461,0.002650615,-0.088797875,-0.05389256,-0.7765922,-0.6276943,-0.07062352,0.629998,-0.7733788,,-0.07249362,0.2789931,-0.076254226,0.8813158,0.2830609,0.37836352,-0.24635458,0.9585323,-0.1432665,-0.4032268,0.03305145,0.91450304,,0.05499164,0.4435907,-0.37034735,0.8666046,0.45699129,-0.20038818,-0.49801424,0.7669238,-0.4047342,-0.031277537,0.45054066,0.89220786,,0.8198067082633028,-0.08605441241748371,0.15336925506000001,0.637038048305985,0.1186004817964023,0.30441355242180734,0.8707872165618427,,-0.6228615745048294,-0.6842109644576689,0.12753419536000002,1.4491671994215478,0.22722649910992745,0.7894661109903209,0.8673569911730228,,-0.06956664232292899,-0.10125745821601603,0.0886362022,-0.034016912529394594,,2.7827919e-05,-5.1259995e-06,5.1259995e-06,1.0,-2.4255365e-05,-1.9755214e-05,2.4255365e-05,1.0,-2.1755695e-06,1.9762665e-05,2.2351742e-06,0.99999994,NaN,NaN,NaN,NaN,NaN
1.0324918030000845,10:12:49.374079,NaN,0,,0.027689615,0.049151473,0.075441286,-0.8671849,-0.36942336,-0.33394107,-0.49140573,0.7434618,0.45363536,0.080688894,0.5574863,-0.82625544,,0.13968544,-0.044166345,0.07340172,-0.74293244,-0.6174807,0.2583969,-0.4445842,0.74378115,0.49913362,-0.5003961,0.2559433,-0.8271013,,0.08984922,1.349009,0.48509,0.9960461,0.002650615,-0.088797875,-0.05389256,-0.7765922,-0.6276943,-0.07062352,0.629998,-0.7733788,,-0.07249362,0.2789931,-0.076254226,0.8813158,0.2830609,0.37836352,-0.24635458,0.9585323,-0.1432665,-0.4032268,0.03305145,0.91450304,,0.05499164,0.4435907,-0.37034735,0.8666046,0.45699129,-0.20038818,-0.49801424,0.7669238,-0.4047342,-0.031277537,0.45054066,0.89220786,,0.8198067082633028,-0.08605441241748371,0.15336925506000001,0.637038048305985,0.1186004817964023,0.30441355242180734,0.8707872165618427,,-0.6228615745048294,-0.6842109644576689,0.12753419536000002,1.4491671994215478,0.22722649910992745,0.7894661109903209,0.8673569911730228,,-0.06956664232292899,-0.10125745821601603,0.0886362022,-0.034016912529394594,,2.7827919e-05,-5.1259995e-06,5.1259995e-06,1.0,-2.4255365e-05,-1.9755214e-05,2.4255365e-05,1.0,-2.1755695e-06,1.9762665e-05,2.2351742e-06,0.99999994,NaN,NaN,NaN,NaN,NaN
1.052711846999955,10:12:49.387305,NaN,0,,0.027688647,0.049151905,0.07544167,-0.8671839,-0.36942002,-0.33394718,-0.49140665,0.7434597,0.45363784,0.080693275,0.55749136,-0.8262516,,0.13968544,-0.044166345,0.07340172,-0.74293244,-0.6174807,0.2583969,-0.4445842,0.74378115,0.49913362,-0.5003961,0.2559433,-0.8271013,,0.08984922,1.349009,0.48509,0.9960461,0.002650615,-0.088797875,-0.05389256,-0.7765922,-0.6276943,-0.07062352,0.629998,-0.7733788,,-0.072492704,0.27899376,-0.07625428,0.8813146,0.28305727,0.37836912,-0.24635258,0.9585335,-0.14326161,-0.40323073,0.033046342,0.9145015,,0.05499164,0.4435907,-0.37034735,0.8666046,0.45699129,-0.20038818,-0.49801424,0.7669238,-0.4047342,-0.031277537,0.45054066,0.89220786,,0.819814430996177,-0.08605441241748371,0.15336925506000001,0.637038048305985,0.1186004817964023,0.30441355242180734,0.8707872165618427,,-0.6228615745048294,-0.6842109644576689,0.12753419536000002,1.4491671994215478,0.22722649910992745,0.7894661109903209,0.8673569911730228,,-0.06956664232292899,-0.10125745821601603,0.0886362022,-0.034016912529394594,,2.7827919e-05,-5.1259995e-06,5.1259995e-06,1.0,-2.4255365e-05,-1.9755214e-05,2.4255365e-05,1.0,-2.1755695e-06,1.9762665e-05,2.2351742e-06,0.99999994,NaN,NaN,NaN,NaN,NaN
1.0659647829997994,10:12:49.408419,NaN,0,,0.027689109,0.049152948,0.0754417,-0.8671854,-0.36941966,-0.33394355,-0.4914049,0.7434569,0.45364422,0.08068752,0.5574952,-0.82624954,,0.13968544,-0.044166345,0.07340172,-0.74293244,-0.6174807,0.2583969,-0.4445842,0.74378115,0.49913362,-0.5003961,0.2559433,-0.8271013,,0.08984922,1.349009,0.48509,0.9960461,0.002650615,-0.088797875,-0.05389256,-0.7765922,-0.6276943,-0.07062352,0.629998,-0.7733788,,-0.07249322,0.27899453,-0.07625362,0.8813165,0.28305674,0.37836504,-0.24635473,0.9585338,-0.14325574,-0.4032252,0.03304163,0.91450405,,0.05499164,0.4435907,-0.37034735,0.8666046,0.45699129,-0.20038818,-0.49801424,0.7669238,-0.4047342,-0.031277537,0.45054066,0.89220786,,0.819814430996177,-0.08604668968460949,0.15336925506000001,0.637038048305985,0.1186004817964023,0.30441355242180734,0.8707872165618427,,-0.6228615745048294,-0.6842109644576689,0.12753419536000002,1.4491671994215478,0.22722649910992745,0.7894661109903209,0.8673569911730228,,-0.06956664232292899,-0.10125745821601603,0.0886362022,-0.034016912529394594,,2.7827919e-05,-5.1259995e-06,5.1259995e-06,1.0,-2.4255365e-05,-1.9755214e-05,2.4255365e-05,1.0,-2.1755695e-06,1.9762665e-05,2.2351742e-06,0.99999994,NaN,NaN,NaN,NaN,NaN
1.086970835000102,10:12:49.424797,NaN,0,,0.027689109,0.049152948,0.0754417,-0.8671854,-0.36941966,-0.33394355,-0.4914049,0.7434569,0.45364422,0.08068752,0.5574952,-0.82624954,,0.13968544,-0.044166345,0.07340172,-0.74293244,-0.6174807,0.2583969,-0.4445842,0.74378115,0.49913362,-0.5003961,0.2559433,-0.8271013,,0.08984922,1.349009,0.48509,0.9960461,0.002650615,-0.088797875,-0.05389256,-0.7765922,-0.6276943,-0.07062352,0.629998,-0.7733788,,-0.07249322,0.27899453,-0.07625362,0.8813165,0.28305674,0.37836504,-0.24635473,0.9585338,-0.14325574,-0.4032252,0.03304163,0.91450405,,0.05499164,0.4435907,-0.37034735,0.8666046,0.45699129,-0.20038818,-0.49801424,0.7669238,-0.4047342,-0.031277537,0.45054066,0.89220786,,0.819814430996177,-0.08604668968460949,0.15336925506000001,0.637038048305985,0.1186004817964023,0.30441355242180734,0.8707872165618427,,-0.6228615745048294,-0.6842109644576689,0.12753419536000002,1.4491671994215478,0.22722649910992745,0.7894661109903209,0.8673569911730228,,-0.06956664232292899,-0.10125745821601603,0.0886362022,-0.034016912529394594,,2.7827919e-05,-5.1259995e-06,5.1259995e-06,1.0,-2.4255365e-05,-1.9755214e-05,2.4255365e-05,1.0,-2.1755695e-06,1.9762665e-05,2.2351742e-06,0.99999994,NaN,NaN,NaN,NaN,NaN
1.1034445209998012,10:12:49.444564,NaN,0,,0.027688647,0.049151905,0.07544167,-0.8671839,-0.36942002,-0.33394718,-0.49140665,0.7434597,0.45363784,0.080693275,0.55749136,-0.8262516,,0.13968544,-0.044166345,0.07340172,-0.74293244,-0.6174807,0.2583969,-0.4445842,0.74378115,0.49913362,-0.5003961,0.2559433,-0.8271013,,0.08984922,1.349009,0.48509,0.9960461,0.002650615,-0.088797875,-0.05389256,-0.7765922,-0.6276943,-0.07062352,0.629998,-0.7733788,,-0.072492704,0.27899376,-0.07625428,0.8813146,0.28305727,0.37836912,-0.24635258,0.9585335,-0.14326161,-0.40323073,0.033046342,0.9145015,,0.05499164,0.4435907,-0.37034735,0.8666046,0.45699129,-0.20038818,-0.49801424,0.7669238,-0.4047342,-0.031277537,0.45054066,0.89220786,,0.819814430996177,-0.08605441241748371,0.15336925506000001,0.637038048305985,0.1186004817964023,0.30441355242180734,0.8707872165618427,,-0.6228615745048294,-0.6842109644576689,0.12753419536000002,1.4491671994215478,0.22722649910992745,0.7894661109903209,0.8673569911730228,,-0.06956664232292899,-0.10125745821601603,0.0886362022,-0.034016912529394594,,2.7827919e-05,-5.1259995e-06,5.1259995e-06,1.0,-2.4255365e-05,-1.9755214e-05,2.4255365e-05,1.0,-2.1755695e-06,1.9762665e-05,2.2351742e-06,0.99999994,NaN,NaN,NaN,NaN,NaN
1.1228118429999085,10:12:49.457538,NaN,0,,0.027688647,0.049151905,0.07544167,-0.8671839,-0.36942002,-0.33394718,-0.49140665,0.7434597,0.45363784,0.080693275,0.55749136,-0.8262516,,0.13968544,-0.044166345,0.07340172,-0.74293244,-0.6174807,0.2583969,-0.4445842,0.74378115,0.49913362,-0.5003961,0.2559433,-0.8271013,,0.08984922,1.349009,0.48509,0.9960461,0.002650615,-0.088797875,-0.05389256,-0.7765922,-0.6276943,-0.07062352,0.629998,-0.7733788,,-0.072492704,0.27899376,-0.07625428,0.8813146,0.28305727,0.37836912,-0.24635258,0.9585335,-0.14326161,-0.40323073,0.033046342,0.9145015,,0.05499164,0.4435907,-0.37034735,0.8666046,0.45699129,-0.20038818,-0.49801424,0.7669238,-0.4047342,-0.031277537,0.45054066,0.89220786,,0.819814430996177,-0.08605441241748371,0.15336925506000001,0.637038048305985,0.1186004817964023,0.30441355242180734,0.8707872165618427,,-0.6228615745048294,-0.6842109644576689,0.12753419536000002,1.4491671994215478,0.22722649910992745,0.7894661109903209,0.8673569911730228,,-0.06956664232292899,-0.10125745821601603,0.0886362022,-0.034016912529394594,,2.7827919e-05,-5.1259995e-06,5.1259995e-06,1.0,-2.4255365e-05,-1.9755214e-05,2.4255365e-05,1.0,-2.1755695e-06,1.9762665e-05,2.2351742e-06,0.99999994,NaN,NaN,NaN,NaN,NaN
1.1360980479994396,10:12:49.476867,NaN,0,,0.027688647,0.049151905,0.07544167,-0.8671839,-0.36942002,-0.33394718,-0.49140665,0.7434597,0.45363784,0.080693275,0.55749136,-0.8262516,,0.13968544,-0.044166345,0.07340172,-0.74293244,-0.6174807,0.2583969,-0.4445842,0.74378115,0.49913362,-0.5003961,0.2559433,-0.8271013,,0.08984922,1.349009,0.48509,0.9960461,0.002650615,-0.088797875,-0.05389256,-0.7765922,-0.6276943,-0.07062352,0.629998,-0.7733788,,-0.072492704,0.27899376,-0.07625428,0.8813146,0.28305727,0.37836912,-0.24635258,0.9585335,-0.14326161,-0.40323073,0.033046342,0.9145015,,0.05499164,0.4435907,-0.37034735,0.8666046,0.45699129,-0.20038818,-0.49801424,0.7669238,-0.4047342,-0.031277537,0.45054066,0.89220786,,0.819814430996177,-0.08605441241748371,0.15336925506000001,0.637038048305985,0.1186004817964023,0.30441355242180734,0.8707872165618427,,-0.6228615745048294,-0.6842109644576689,0.12753419536000002,1.4491671994215478,0.22722649910992745,0.7894661109903209,0.8673569911730228,,-0.06956664232292899,-0.10125745821601603,0.0886362022,-0.034016912529394594,,2.7827919e-05,-5.1259995e-06,5.1259995e-06,1.0,-2.4255365e-05,-1.9755214e-05,2.4255365e-05,1.0,-2.1755695e-06,1.9762665e-05,2.2351742e-06,0.99999994,NaN,NaN,NaN,NaN,NaN
1.1555272739997235,10:12:49.494397,NaN,0,,0.02769008,0.04915253,0.075441316,-0.86718637,-0.36942297,-0.3339375,-0.491404,0.7434591,0.4536417,0.0806831,0.55749017,-0.82625335,,0.13968544,-0.044166345,0.07340172,-0.74293244,-0.6174807,0.2583969,-0.4445842,0.74378115,0.49913362,-0.5003961,0.2559433,-0.8271013,,0.08984922,1.349009,0.48509,0.9960461,0.002650615,-0.088797875,-0.05389256,-0.7765922,-0.6276943,-0.07062352,0.629998,-0.7733788,,-0.072494134,0.27899387,-0.07625356,0.88131773,0.28306034,0.37835944,-0.24635674,0.95853263,-0.14326063,-0.40322128,0.033046737,0.9145056,,0.05499164,0.4435907,-0.37034735,0.8666046,0.45699129,-0.20038818,-0.49801424,0.7669238,-0.4047342,-0.031277537,0.45054066,0.89220786,,0.8198067082633028,-0.08604668968460949,0.15336925506000001,0.637038048305985,0.1186004817964023,0.30441355242180734,0.8707872165618427,,-0.6228615745048294,-0.6842109644576689,0.12753419536000002,1.4491671994215478,0.22722649910992745,0.7894661109903209,0.8673569911730228,,-0.06956664232292899,-0.10125745821601603,0.0886362022,-0.034016912529394594,,2.7827919e-05,-5.1259995e-06,5.1259995e-06,1.0,-2.4255365e-05,-1.9755214e-05,2.4255365e-05,1.0,-2.1755695e-06,1.9762665e-05,2.2351742e-06,0.99999994,NaN,NaN,NaN,NaN,NaN
1.1730547139995906,10:12:49.507490,NaN,0,,0.027689615,0.049151473,0.075441286,-0.8671849,-0.36942336,-0.33394107,-0.49140573,0.7434618,0.45363536,0.080688894,0.5574863,-0.82625544,,0.13968544,-0.044166345,0.07340172,-0.74293244,-0.6174807,0.2583969,-0.4445842,0.74378115,0.49913362,-0.5003961,0.2559433,-0.8271013,,0.08984922,1.349009,0.48509,0.9960461,0.002650615,-0.088797875,-0.05389256,-0.7765922,-0.6276943,-0.07062352,0.629998,-0.7733788,,-0.07249362,0.2789931,-0.076254226,0.8813158,0.2830609,0.37836352,-0.24635458,0.9585323,-0.1432665,-0.4032268,0.03305145,0.91450304,,0.05499164,0.4435907,-0.37034735,0.8666046,0.45699129,-0.20038818,-0.49801424,0.7669238,-0.4047342,-0.031277537,0.45054066,0.89220786,,0.8198067082633028,-0.08605441241748371,0.15336925506000001,0.637038048305985,0.1186004817964023,0.30441355242180734,0.8707872165618427,,-0.6228615745048294,-0.6842109644576689,0.12753419536000002,1.4491671994215478,0.22722649910992745,0.7894661109903209,0.8673569911730228,,-0.06956664232292899,-0.10125745821601603,0.0886362022,-0.034016912529394594,,2.7827919e-05,-5.1259995e-06,5.1259995e-06,1.0,-2.4255365e-05,-1.9755214e-05,2.4255365e-05,1.0,-2.1755695e-06,1.9762665e-05,2.2351742e-06,0.99999994,NaN,NaN,NaN,NaN,NaN
1.1861449569996694,10:12:49.525597,NaN,0,,0.02769008,0.04915253,0.075441316,-0.86718637,-0.36942297,-0.3339375,-0.491404,0.7434591,0.4536417,0.0806831,0.55749017,-0.82625335,,0.13968544,-0.044166345,0.07340172,-0.74293244,-0.6174807,0.2583969,-0.4445842,0.74378115,0.49913362,-0.5003961,0.2559433,-0.8271013,,0.08984922,1.349009,0.48509,0.9960461,0.002650615,-0.088797875,-0.05389256,-0.7765922,-0.6276943,-0.07062352,0.629998,-0.7733788,,-0.072494134,0.27899387,-0.07625356,0.88131773,0.28306034,0.37835944,-0.24635674,0.95853263,-0.14326063,-0.40322128,0.033046737,0.9145056,,0.05499164,0.4435907,-0.37034735,0.8666046,0.45699129,-0.20038818,-0.49801424,0.7669238,-0.4047342,-0.031277537,0.45054066,0.89220786,,0.8198067082633028,-0.08604668968460949,0.15336925506000001,0.637038048305985,0.1186004817964023,0.30441355242180734,0.8707872165618427,,-0.6228615745048294,-0.6842109644576689,0.12753419536000002,1.4491671994215478,0.22722649910992745,0.7894661109903209,0.8673569911730228,,-0.06956664232292899,-0.10125745821601603,0.0886362022,-0.034016912529394594,,2.7827919e-05,-5.1259995e-06,5.1259995e-06,1.0,-2.4255365e-05,-1.9755214e-05,2.4255365e-05,1.0,-2.1755695e-06,1.9762665e-05,2.2351742e-06,0.99999994,NaN,NaN,NaN,NaN,NaN
1.2042401179996887,10:12:49.545056,NaN,0,,0.027689109,0.049152948,0.0754417,-0.8671854,-0.36941966,-0.33394355,-0.4914049,0.7434569,0.45364422,0.08068752,0.5574952,-0.82624954,,0.13968544,-0.044166345,0.07340172,-0.74293244,-0.6174807,0.2583969,-0.4445842,0.74378115,0.49913362,-0.5003961,0.2559433,-0.8271013,,0.08984922,1.349009,0.48509,0.9960461,0.002650615,-0.088797875,-0.05389256,-0.7765922,-0.6276943,-0.07062352,0.629998,-0.7733788,,-0.07249322,0.27899453,-0.07625362,0.8813165,0.28305674,0.37836504,-0.24635473,0.9585338,-0.14325574,-0.4032252,0.03304163,0.91450405,,0.05499164,0.4435907,-0.37034735,0.8666046,0.45699129,-0.20038818,-0.49801424,0.7669238,-0.4047342,-0.031277537,0.45054066,0.89220786,,0.819814430996177,-0.08604668968460949,0.15336925506000001,0.637038048305985,0.1186004817964023,0.30441355242180734,0.8707872165618427,,-0.6228615745048294,-0.6842109644576689,0.12753419536000002,1.4491671994215478,0.22722649910992745,0.7894661109903209,0.8673569911730228,,-0.06956664232292899,-0.10125745821601603,0.0886362022,-0.034016912529394594,,2.7827919e-05,-5.1259995e-06,5.1259995e-06,1.0,-2.4255365e-05,-1.9755214e-05,2.4255365e-05,1.0,-2.1755695e-06,1.9762665e-05,2.2351742e-06,0.99999994,NaN,NaN,NaN,NaN,NaN
1.2237240479998945,10:12:49.556444,NaN,0,,0.027688647,0.049151905,0.07544167,-0.8671839,-0.36942002,-0.33394718,-0.49140665,0.7434597,0.45363784,0.080693275,0.55749136,-0.8262516,,0.13968544,-0.044166345,0.07340172,-0.74293244,-0.6174807,0.2583969,-0.4445842,0.74378115,0.49913362,-0.5003961,0.2559433,-0.8271013,,0.08984922,1.349009,0.48509,0.9960461,0.002650615,-0.088797875,-0.05389256,-0.7765922,-0.6276943,-0.07062352,0.629998,-0.7733788,,-0.072492704,0.27899376,-0.07625428,0.8813146,0.28305727,0.37836912,-0.24635258,0.9585335,-0.14326161,-0.40323073,0.033046342,0.9145015,,0.05499164,0.4435907,-0.37034735,0.8666046,0.45699129,-0.20038818,-0.49801424,0.7669238,-0.4047342,-0.031277537,0.45054066,0.89220786,,0.819814430996177,-0.08604668968460949,0.15336925506000001,0.637038048305985,0.1186004817964023,0.30441355242180734,0.8707872165618427,,-0.6228615745048294,-0.6842109644576689,0.12753419536000002,1.4491671994215478,0.22722649910992745,0.7894661109903209,0.8673569911730228,,-0.06956664232292899,-0.10125745821601603,0.0886362022,-0.034016912529394594,,2.7827919e-05,-5.1259995e-06,5.1259995e-06,1.0,-2.4255365e-05,-1.9755214e-05,2.4255365e-05,1.0,-2.1755695e-06,1.9762665e-05,2.2351742e-06,0.99999994,NaN,NaN,NaN,NaN,NaN
1.2350686449999557,10:12:49.578074,NaN,0,,0.027689109,0.049152948,0.0754417,-0.8671854,-0.36941966,-0.33394355,-0.4914049,0.7434569,0.45364422,0.08068752,0.5574952,-0.82624954,,0.13968544,-0.044166345,0.07340172,-0.74293244,-0.6174807,0.2583969,-0.4445842,0.74378115,0.49913362,-0.5003961,0.2559433,-0.8271013,,0.08984922,1.349009,0.48509,0.9960461,0.002650615,-0.088797875,-0.05389256,-0.7765922,-0.6276943,-0.07062352,0.629998,-0.7733788,,-0.07249322,0.27899453,-0.07625362,0.8813165,0.28305674,0.37836504,-0.24635473,0.9585338,-0.14325574,-0.4032252,0.03304163,0.91450405,,0.05499164,0.4435907,-0.37034735,0.8666046,0.45699129,-0.20038818,-0.49801424,0.7669238,-0.4047342,-0.031277537,0.45054066,0.89220786,,0.819814430996177,-0.08604668968460949,0.15336925506000001,0.637038048305985,0.1186004817964023,0.30441355242180734,0.8707872165618427,,-0.6228615745048294,-0.6842109644576689,0.12753419536000002,1.4491671994215478,0.22722649910992745,0.7894661109903209,0.8673569911730228,,-0.06956664232292899,-0.10125745821601603,0.0886362022,-0.034016912529394594,,2.7827919e-05,-5.1259995e-06,5.1259995e-06,1.0,-2.4255365e-05,-1.9755214e-05,2.4255365e-05,1.0,-2.1755695e-06,1.9762665e-05,2.2351742e-06,0.99999994,NaN,NaN,NaN,NaN,NaN
1.256722546999299,10:12:49.596352,NaN,0,,0.027688647,0.049151905,0.07544167,-0.8671839,-0.36942002,-0.33394718,-0.49140665,0.7434597,0.45363784,0.080693275,0.55749136,-0.8262516,,0.13968544,-0.044166345,0.07340172,-0.74293244,-0.6174807,0.2583969,-0.4445842,0.74378115,0.49913362,-0.5003961,0.2559433,-0.8271013,,0.08984922,1.349009,0.48509,0.9960461,0.002650615,-0.088797875,-0.05389256,-0.7765922,-0.6276943,-0.07062352,0.629998,-0.7733788,,-0.072492704,0.27899376,-0.07625428,0.8813146,0.28305727,0.37836912,-0.24635258,0.9585335,-0.14326161,-0.40323073,0.033046342,0.9145015,,0.05499164,0.4435907,-0.37034735,0.8666046,0.45699129,-0.20038818,-0.49801424,0.7669238,-0.4047342,-0.031277537,0.45054066,0.89220786,,0.819814430996177,-0.08605441241748371,0.15336925506000001,0.637038048305985,0.1186004817964023,0.30441355242180734,0.8707872165618427,,-0.6228615745048294,-0.6842109644576689,0.12753419536000002,1.4491671994215478,0.22722649910992745,0.7894661109903209,0.8673569911730228,,-0.06956664232292899,-0.10125745821601603,0.0886362022,-0.034016912529394594,,2.7827919e-05,-5.1259995e-06,5.1259995e-06,1.0,-2.4255365e-05,-1.9755214e-05,2.4255365e-05,1.0,-2.1755695e-06,1.9762665e-05,2.2351742e-06,0.99999994,NaN,NaN,NaN,NaN,NaN
1.2750208809993637,10:12:49.615148,NaN,0,,0.027688647,0.049151905,0.07544167,-0.8671839,-0.36942002,-0.33394718,-0.49140665,0.7434597,0.45363784,0.080693275,0.55749136,-0.8262516,,0.13968544,-0.044166345,0.07340172,-0.74293244,-0.6174807,0.2583969,-0.4445842,0.74378115,0.49913362,-0.5003961,0.2559433,-0.8271013,,0.08984922,1.349009,0.48509,0.9960461,0.002650615,-0.088797875,-0.05389256,-0.7765922,-0.6276943,-0.07062352,0.629998,-0.7733788,,-0.072492704,0.27899376,-0.07625428,0.8813146,0.28305727,0.37836912,-0.24635258,0.9585335,-0.14326161,-0.40323073,0.033046342,0.9145015,,0.05499164,0.4435907,-0.37034735,0.8666046,0.45699129,-0.20038818,-0.49801424,0.7669238,-0.4047342,-0.031277537,0.45054066,0.89220786,,0.819814430996177,-0.08605441241748371,0.15336925506000001,0.637038048305985,0.1186004817964023,0.30441355242180734,0.8707872165618427,,-0.6228615745048294,-0.6842109644576689,0.12753419536000002,1.4491671994215478,0.22722649910992745,0.7894661109903209,0.8673569911730228,,-0.06956664232292899,-0.10125745821601603,0.0886362022,-0.034016912529394594,,2.7827919e-05,-5.1259995e-06,5.1259995e-06,1.0,-2.4255365e-05,-1.9755214e-05,2.4255365e-05,1.0,-2.1755695e-06,1.9762665e-05,2.2351742e-06,0.99999994,NaN,NaN,NaN,NaN,NaN
1.293806788999973,10:12:49.633649,NaN,0,,0.027688647,0.049151905,0.07544167,-0.8671839,-0.36942002,-0.33394718,-0.49140665,0.7434597,0.45363784,0.080693275,0.55749136,-0.8262516,,0.13968544,-0.044166345,0.07340172,-0.74293244,-0.6174807,0.2583969,-0.4445842,0.74378115,0.49913362,-0.5003961,0.2559433,-0.8271013,,0.08984922,1.349009,0.48509,0.9960461,0.002650615,-0.088797875,-0.05389256,-0.7765922,-0.6276943,-0.07062352,0.629998,-0.7733788,,-0.072492704,0.27899376,-0.07625428,0.8813146,0.28305727,0.37836912,-0.24635258,0.9585335,-0.14326161,-0.40323073,0.033046342,0.9145015,,0.05499164,0.4435907,-0.37034735,0.8666046,0.45699129,-0.20038818,-0.49801424,0.7669238,-0.4047342,-0.031277537,0.45054066,0.89220786,,0.819814430996177,-0.08605441241748371,0.15336925506000001,0.637038048305985,0.1186004817964023,0.30441355242180734,0.8707872165618427,,-0.6228615745048294,-0.6842109644576689,0.12753419536000002,1.4491671994215478,0.22722649910992745,0.7894661109903209,0.8673569911730228,,-0.06956664232292899,-0.10125745821601603,0.0886362022,-0.034016912529394594,,2.7827919e-05,-5.1259995e-06,5.1259995e-06,1.0,-2.4255365e-05,-1.9755214e-05,2.4255365e-05,1.0,-2.1755695e-06,1.9762665e-05,2.2351742e-06,0.99999994,NaN,NaN,NaN,NaN,NaN
1.3122782629998255,10:12:49.647787,NaN,0,,0.027688647,0.049151905,0.07544167,-0.8671839,-0.36942002,-0.33394718,-0.49140665,0.7434597,0.45363784,0.080693275,0.55749136,-0.8262516,,0.13968544,-0.044166345,0.07340172,-0.74293244,-0.6174807,0.2583969,-0.4445842,0.74378115,0.49913362,-0.5003961,0.2559433,-0.8271013,,0.08984922,1.349009,0.48509,0.9960461,0.002650615,-0.088797875,-0.05389256,-0.7765922,-0.6276943,-0.07062352,0.629998,-0.7733788,,-0.072492704,0.27899376,-0.07625428,0.8813146,0.28305727,0.37836912,-0.24635258,0.9585335,-0.14326161,-0.40323073,0.033046342,0.9145015,,0.05499164,0.4435907,-0.37034735,0.8666046,0.45699129,-0.20038818,-0.49801424,0.7669238,-0.4047342,-0.031277537,0.45054066,0.89220786,,0.819814430996177,-0.08605441241748371,0.15336925506000001,0.637038048305985,0.1186004817964023,0.30441355242180734,0.8707872165618427,,-0.6228615745048294,-0.6842109644576689,0.12753419536000002,1.4491671994215478,0.22722649910992745,0.7894661109903209,0.8673569911730228,,-0.06956664232292899,-0.10125745821601603,0.0886362022,-0.034016912529394594,,2.7827919e-05,-5.1259995e-06,5.1259995e-06,1.0,-2.4255365e-05,-1.9755214e-05,2.4255365e-05,1.0,-2.1755695e-06,1.9762665e-05,2.2351742e-06,0.99999994,NaN,NaN,NaN,NaN,NaN
1.3264407149999897,10:12:49.665481,NaN,0,,0.027688647,0.049151905,0.07544167,-0.8671839,-0.36942002,-0.33394718,-0.49140665,0.7434597,0.45363784,0.080693275,0.55749136,-0.8262516,,0.13968544,-0.044166345,0.07340172,-0.74293244,-0.6174807,0.2583969,-0.4445842,0.74378115,0.49913362,-0.5003961,0.2559433,-0.8271013,,0.08984922,1.349009,0.48509,0.9960461,0.002650615,-0.088797875,-0.05389256,-0.7765922,-0.6276943,-0.07062352,0.629998,-0.7733788,,-0.072492704,0.27899376,-0.07625428,0.8813146,0.28305727,0.37836912,-0.24635258,0.9585335,-0.14326161,-0.40323073,0.033046342,0.9145015,,0.05499164,0.4435907,-0.37034735,0.8666046,0.45699129,-0.20038818,-0.49801424,0.7669238,-0.4047342,-0.031277537,0.45054066,0.89220786,,0.819814430996177,-0.08605441241748371,0.15336925506000001,0.637038048305985,0.1186004817964023,0.30441355242180734,0.8707872165618427,,-0.6228615745048294,-0.6842109644576689,0.12753419536000002,1.4491671994215478,0.22722649910992745,0.7894661109903209,0.8673569911730228,,-0.06956664232292899,-0.10125745821601603,0.0886362022,-0.034016912529394594,,2.7827919e-05,-5.1259995e-06,5.1259995e-06,1.0,-2.4255365e-05,-1.9755214e-05,2.4255365e-05,1.0,-2.1755695e-06,1.9762665e-05,2.2351742e-06,0.99999994,NaN,NaN,NaN,NaN,NaN
1.3441419289993064,10:12:49.683258,NaN,0,,0.027689109,0.049152948,0.0754417,-0.8671854,-0.36941966,-0.33394355,-0.4914049,0.7434569,0.45364422,0.08068752,0.5574952,-0.82624954,,0.13968544,-0.044166345,0.07340172,-0.74293244,-0.6174807,0.2583969,-0.4445842,0.74378115,0.49913362,-0.5003961,0.2559433,-0.8271013,,0.08984922,1.349009,0.48509,0.9960461,0.002650615,-0.088797875,-0.05389256,-0.7765922,-0.6276943,-0.07062352,0.629998,-0.7733788,,-0.07249322,0.27899453,-0.07625362,0.8813165,0.28305674,0.37836504,-0.24635473,0.9585338,-0.14325574,-0.4032252,0.03304163,0.91450405,,0.05499164,0.4435907,-0.37034735,0.8666046,0.45699129,-0.20038818,-0.49801424,0.7669238,-0.4047342,-0.031277537,0.45054066,0.89220786,,0.819814430996177,-0.08604668968460949,0.15336925506000001,0.637038048305985,0.1186004817964023,0.30441355242180734,0.8707872165618427,,-0.6228615745048294,-0.6842109644576689,0.12753419536000002,1.4491671994215478,0.22722649910992745,0.7894661109903209,0.8673569911730228,,-0.06956664232292899,-0.10125745821601603,0.0886362022,-0.034016912529394594,,2.7827919e-05,-5.1259995e-06,5.1259995e-06,1.0,-2.4255365e-05,-1.9755214e-05,2.4255365e-05,1.0,-2.1755695e-06,1.9762665e-05,2.2351742e-06,0.99999994,NaN,NaN,NaN,NaN,NaN
1.3619270259996483,10:12:49.704660,NaN,0,,0.027689615,0.049151473,0.075441286,-0.8671849,-0.36942336,-0.33394107,-0.49140573,0.7434618,0.45363536,0.080688894,0.5574863,-0.82625544,,0.13968544,-0.044166345,0.07340172,-0.74293244,-0.6174807,0.2583969,-0.4445842,0.74378115,0.49913362,-0.5003961,0.2559433,-0.8271013,,0.08984922,1.349009,0.48509,0.9960461,0.002650615,-0.088797875,-0.05389256,-0.7765922,-0.6276943,-0.07062352,0.629998,-0.7733788,,-0.07249362,0.2789931,-0.076254226,0.8813158,0.2830609,0.37836352,-0.24635458,0.9585323,-0.1432665,-0.4032268,0.03305145,0.91450304,,0.05499164,0.4435907,-0.37034735,0.8666046,0.45699129,-0.20038818,-0.49801424,0.7669238,-0.4047342,-0.031277537,0.45054066,0.89220786,,0.8198067082633028,-0.08605441241748371,0.15336925506000001,0.637038048305985,0.1186004817964023,0.30441355242180734,0.8707872165618427,,-0.6228615745048294,-0.6842109644576689,0.12753419536000002,1.4491671994215478,0.22722649910992745,0.7894661109903209,0.8673569911730228,,-0.06956664232292899,-0.10125745821601603,0.0886362022,-0.034016912529394594,,2.7827919e-05,-5.1259995e-06,5.1259995e-06,1.0,-2.4255365e-05,-1.9755214e-05,2.4255365e-05,1.0,-2.1755695e-06,1.9762665e-05,2.2351742e-06,0.99999994,NaN,NaN,NaN,NaN,NaN
1.3833282850000614,10:12:49.725126,NaN,0,,0.027688647,0.049151905,0.07544167,-0.8671839,-0.36942002,-0.33394718,-0.49140665,0.7434597,0.45363784,0.080693275,0.55749136,-0.8262516,,0.13968544,-0.044166345,0.07340172,-0.74293244,-0.6174807,0.2583969,-0.4445842,0.74378115,0.49913362,-0.5003961,0.2559433,-0.8271013,,0.08984922,1.349009,0.48509,0.9960461,0.002650615,-0.088797875,-0.05389256,-0.7765922,-0.6276943,-0.07062352,0.629998,-0.7733788,,-0.072492704,0.27899376,-0.07625428,0.8813146,0.28305727,0.37836912,-0.24635258,0.9585335,-0.14326161,-0.40323073,0.033046342,0.9145015,,0.05499164,0.4435907,-0.37034735,0.8666046,0.45699129,-0.20038818,-0.49801424,0.7669238,-0.4047342,-0.031277537,0.45054066,0.89220786,,0.819814430996177,-0.08605441241748371,0.15336925506000001,0.637038048305985,0.1186004817964023,0.30441355242180734,0.8707872165618427,,-0.6228615745048294,-0.6842109644576689,0.12753419536000002,1.4491671994215478,0.22722649910992745,0.7894661109903209,0.8673569911730228,,-0.06956664232292899,-0.10125745821601603,0.0886362022,-0.034016912529394594,,2.7827919e-05,-5.1259995e-06,5.1259995e-06,1.0,-2.4255365e-05,-1.9755214e-05,2.4255365e-05,1.0,-2.1755695e-06,1.9762665e-05,2.2351742e-06,0.99999994,NaN,NaN,NaN,NaN,NaN
