AlexandreBanks6/ExpertPlaybackApp/resources/Motions/PC1/PC1_OneHanded.csv
Task Time,PC1 Time,PC2 Time,Gaze Calib,s_T_psm1,Tx,Ty,Tz,R00,R01,R02,R10,R11,R12,R20,R21,R22,s_T_psm3,Tx,Ty,Tz,R00,R01,R02,R10,R11,R12,R20,R21,R22,cart_T_ecm,Tx,Ty,Tz,R00,R01,R02,R10,R11,R12,R20,R21,R22,ecm_T_psm1,Tx,Ty,Tz,R00,R01,R02,R10,R11,R12,R20,R21,R22,ecm_T_psm3,Tx,Ty,Tz,R00,R01,R02,R10,R11,R12,R20,R21,R22,psm1_joints,q1,q2,q3,q4,q5,q6,jaw,psm3_joints,q1,q2,q3,q4,q5,q6,jaw,ecm_joints,q1,q2,q3,q4,ecmi_T_ecm,Tx,Ty,Tz,R00,R01,R02,R10,R11,R12,R20,R21,R22
,,,,,,,,,,,,,,,,,,,,,,,,,,,,,,,,,,,,,,,,,,,,,,,,,,,,,,,,,,,,,,,,,,,,,,,,,,,,,,,,,,,,,,,,,,,,,,,,,,,,,,
lci_T_si,,,,,-0.078806676,0.00452464,0.33438998,0.9966525,-0.045751315,0.067754425,-0.015703475,-0.92045116,-0.39054194,0.08023245,0.3881706,-0.91808844,,,,,,,,,,,,,,,,,,,,,,,,,,,,,,,,,,,,,,,,,,,,,,,,,,,,,,,,,,,,,,,,,,,,,,,,,,,,,,,,,,,,,,
rci_T_si,,,,,-0.08983947,0.009858665,0.34597912,0.9956648,-0.0569898,0.07351057,-0.022098947,-0.9126243,-0.40820155,0.09035087,0.40480742,-0.9099273,,,,,,,,,,,,,,,,,,,,,,,,,,,,,,,,,,,,,,,,,,,,,,,,,,,,,,,,,,,,,,,,,,,,,,,,,,,,,,,,,,,,,,
ecm_T_lc,,,,,-4.4071905E-05,-0.000346569,-0.018408367,-0.99912006,0.03075457,0.028518898,-0.03198801,-0.99852574,-0.04385276,0.027128182,-0.044726435,0.9986309,,,,,,,,,,,,,,,,,,,,,,,,,,,,,,,,,,,,,,,,,,,,,,,,,,,,,,,,,,,,,,,,,,,,,,,,,,,,,,,,,,,,,,
ecm_T_rc,,,,,0.00057554984,0.029174112,-0.0048684436,-0.9955508,-0.052743625,-0.07808159,0.04863208,-0.9973746,0.053654663,-0.080706544,0.04961867,0.9955021,,,,,,,,,,,,,,,,,,,,,,,,,,,,,,,,,,,,,,,,,,,,,,,,,,,,,,,,,,,,,,,,,,,,,,,,,,,,,,,,,,,,,,
cart_T_ecmi,,,,,0.20658258,1.3419913,0.5569026,0.99420214,-0.04727794,-0.096575625,-0.08004408,-0.92512506,-0.3711288,-0.071798325,0.37670738,-0.92354566,,,,,,,,,,,,,,,,,,,,,,,,,,,,,,,,,,,,,,,,,,,,,,,,,,,,,,,,,,,,,,,,,,,,,,,,,,,,,,,,,,,,,,
ecmac_T_ecmrep_psm1,,,,,0.013351295,-0.1340388,-0.3767514,0.9993409,0.017673537,0.03170847,-0.016076513,0.9986232,-0.04993267,-0.032547303,0.049389996,0.9982491,,,,,,,,,,,,,,,,,,,,,,,,,,,,,,,,,,,,,,,,,,,,,,,,,,,,,,,,,,,,,,,,,,,,,,,,,,,,,,,,,,,,,,
ecmac_T_ecmrep_psm3,,,,,-0.010487383,-0.25930798,-0.6568002,0.9989584,-0.045224834,0.006069658,0.044999205,0.99843425,0.03322901,-0.0075629307,-0.03292127,0.99942935,,,,,,,,,,,,,,,,,,,,,,,,,,,,,,,,,,,,,,,,,,,,,,,,,,,,,,,,,,,,,,,,,,,,,,,,,,,,,,,,,,,,,,
,,,,,,,,,,,,,,,,,,,,,,,,,,,,,,,,,,,,,,,,,,,,,,,,,,,,,,,,,,,,,,,,,,,,,,,,,,,,,,,,,,,,,,,,,,,,,,,,,,,,,,
0,10:00:39.059109,NaN,0,,0.11363675,-0.039905466,0.03291942,0.5913022,-0.40504223,-0.69735396,-0.42400035,-0.8917015,0.15840507,-0.6859923,0.20201308,-0.6990032,,0.10014618,-0.00075754523,-0.0035596788,-0.63849986,0.10332216,0.7626549,0.21424744,0.9756387,0.047192812,-0.73919964,0.19352949,-0.64508164,,0.20660138,1.3419893,0.5569048,0.9942004,-0.047298063,-0.096583694,-0.08006571,-0.92512405,-0.3711267,-0.071798325,0.37670738,-0.92354566,,-0.06779757,0.12392846,-0.09053932,-0.5552351,0.362642,0.7484683,-0.6543531,-0.74595416,-0.12399389,0.51335764,-0.55860823,0.65147585,,-0.028540874,0.254448,-0.3187524,0.7183805,-0.13939518,-0.6815412,-0.10247914,0.9478232,-0.3018761,0.68806064,0.28670567,0.6666126,,0.937817789314328,-0.133147637484505,0.1720047201,-1.39716409343739,0.686461774821573,0.268622234334761,0.694865657335224,,-0.797912760564876,-0.426789109561143,0.23912272743,1.9754889575677,0.144698053251601,0.14648420056063,0.585098444892988,,-0.129819771424903,-0.40618175017038,0.08760750076,0.052333711583684,,1.8708408E-05,1.9073486E-06,-3.0994415E-06,1,-2.0084903E-05,-8.188188E-06,2.0092353E-05,1,-1.5795231E-06,8.188188E-06,1.5497208E-06,1
0.017449783044867,10:00:39.076890,NaN,0,,0.113638565,-0.03991562,0.032927647,0.59131545,-0.40497908,-0.6973795,-0.4239809,-0.8917225,0.1583392,-0.68599296,0.20204717,-0.6989926,,0.10017988,-0.0006696433,-0.0035388768,-0.63847405,0.10325782,0.76268524,0.21407464,0.97568035,0.047115743,-0.73927194,0.19335374,-0.64505154,,0.20660138,1.3419893,0.5569048,0.9942004,-0.047298063,-0.096583694,-0.08006571,-0.92512405,-0.3711267,-0.071798325,0.37670738,-0.92354566,,-0.06780027,0.12392226,-0.09055066,-0.55524755,0.362576,0.748491,-0.6543353,-0.7459603,-0.12405064,0.51336676,-0.5586429,0.6514389,,-0.02857804,0.25453326,-0.3187271,0.71836597,-0.13931109,-0.68157375,-0.102667235,0.9477848,-0.30193293,0.6880478,0.28687364,0.6665536,,0.937817789314328,-0.133155360217379,0.17200342381,-1.39716409343739,0.686461774821573,0.268622234334761,0.694865657335224,,-0.798144442551103,-0.426603763972162,0.23913309775,1.97527926762422,0.144698053251601,0.147219309221895,0.621524171640932,,-0.129819771424903,-0.40618175017038,0.08760750076,0.052333711583684,,1.8708408E-05,1.9073486E-06,-3.0994415E-06,1,-2.0084903E-05,-8.188188E-06,2.0092353E-05,1,-1.5795231E-06,8.188188E-06,1.5497208E-06,1
0.035152223019395,10:00:39.110346,10:00:32.288338,0,,0.113636196,-0.039942116,0.03294085,0.59131444,-0.40497506,-0.6973826,-0.42399696,-0.89171857,0.15831807,-0.68598396,0.20207241,-0.6989943,,0.1002665,-0.0004504174,-0.0034843683,-0.63826656,0.10332672,0.76284957,0.2136412,0.975801,0.046580255,-0.73957646,0.1927067,-0.64489603,,0.20660138,1.3419893,0.5569048,0.9942004,-0.047298063,-0.096583694,-0.08006571,-0.92512405,-0.3711267,-0.071798325,0.37670738,-0.92354566,,-0.06779962,0.12390287,-0.09057315,-0.55524766,0.36257035,0.7484937,-0.65434664,-0.74594694,-0.12407079,0.5133522,-0.5586643,0.65143204,,-0.028673617,0.254747,-0.31866616,0.7182022,-0.13930464,-0.6817477,-0.103204444,0.9475937,-0.30234918,0.6881384,0.28750724,0.666187,,0.937810066581453,-0.133240310278995,0.17199953494,-1.39716409343739,0.686461774821573,0.268867270555183,0.688658582822121,,-0.798661865653676,-0.426009113540847,0.23914476436,1.97444050785028,0.144561416751836,0.145942188543202,0.712996848676129,,-0.129819771424903,-0.40618175017038,0.08760750076,0.052333711583684,,1.8708408E-05,1.9073486E-06,-3.0994415E-06,1,-2.0084903E-05,-8.188188E-06,2.0092353E-05,1,-1.5795231E-06,8.188188E-06,1.5497208E-06,1
0.068670533015393,10:00:39.130045,10:00:32.288338,0,,0.113634095,-0.039950296,0.032943323,0.5913236,-0.40493655,-0.69739723,-0.4239738,-0.8917347,0.15828897,-0.68599033,0.2020782,-0.6989863,,0.100286484,-0.00039687753,-0.003471911,-0.63815993,0.10353001,0.7629112,0.2136338,0.97581697,0.046278268,-0.7396706,0.19251657,-0.6448449,,0.20660138,1.3419893,0.5569048,0.9942004,-0.047298063,-0.096583694,-0.08006571,-0.92512405,-0.3711267,-0.071798325,0.37670738,-0.92354566,,-0.06779795,0.12389627,-0.09057872,-0.5552557,0.3625311,0.7485067,-0.65432775,-0.7459596,-0.12409461,0.51336765,-0.55867296,0.6514125,,-0.028695693,0.2547989,-0.31865063,0.7181076,-0.1394842,-0.68181056,-0.103260845,0.947508,-0.3025984,0.68822867,0.28770253,0.6660094,,0.937802343848579,-0.133263478477618,0.17199953494,-1.39716409343739,0.686598411321338,0.268674173911346,0.681471443912213,,-0.798800874845412,-0.425800599753243,0.23914735694,1.97444050785028,0.144561416751836,0.144880364921375,0.735211641670391,,-0.129819771424903,-0.40618175017038,0.08760750076,0.052333711583684,,1.8708408E-05,1.9073486E-06,-3.0994415E-06,1,-2.0084903E-05,-8.188188E-06,2.0092353E-05,1,-1.5795231E-06,8.188188E-06,1.5497208E-06,1
0.088386787043419,10:00:39.147644,10:00:32.288338,0,,0.11363128,-0.039959386,0.032951117,0.59129596,-0.40503204,-0.69736516,-0.4240496,-0.89168894,0.15834421,-0.68596727,0.20208916,-0.6990057,,0.100327894,-0.00030000508,-0.0034491718,-0.6400603,0.1044077,0.76119757,0.21306172,0.9759886,0.04528609,-0.7381921,0.19116789,-0.646937,,0.20660138,1.3419893,0.5569048,0.9942004,-0.047298063,-0.096583694,-0.08006571,-0.92512405,-0.3711267,-0.071798325,0.37670738,-0.92354566,,-0.06779596,0.12389088,-0.0905896,-0.5552321,0.3626269,0.7484778,-0.65438884,-0.74591327,-0.12405106,0.51331526,-0.55867267,0.651454,,-0.028740881,0.25489253,-0.3186222,0.7198276,-0.14019845,-0.6798475,-0.10297095,0.9469896,-0.30431503,0.686473,0.28905892,0.66723293,,0.937810066581453,-0.133309814874863,0.17199694236,-1.3969544034939,0.686735047821104,0.268154362306946,0.67640777786205,,-0.79907117049601,-0.425383572178035,0.23915124581,1.97360174807634,0.144698053251601,0.143298729695148,0.773107465013544,,-0.129819771424903,-0.40618175017038,0.08760750076,0.052333711583684,,1.8708408E-05,1.9073486E-06,-3.0994415E-06,1,-2.0084903E-05,-8.188188E-06,2.0092353E-05,1,-1.5795231E-06,8.188188E-06,1.5497208E-06,1
0.105977607017849,10:00:39.169819,10:00:32.288338,0,,0.11362846,-0.039968483,0.032958925,0.59130096,-0.40499133,-0.69738466,-0.42404348,-0.89170027,0.15829656,-0.6859668,0.20212051,-0.69899714,,0.1003661,-0.00022295117,-0.0034227967,-0.63969654,0.10507839,0.761411,0.21308354,0.97602797,0.044324726,-0.738501,0.19059858,-0.6467524,,0.20660138,1.3419893,0.5569048,0.9942004,-0.047298063,-0.096583694,-0.08006571,-0.92512405,-0.3711267,-0.071798325,0.37670738,-0.92354566,,-0.06779397,0.12388548,-0.090600476,-0.5552369,0.36258382,0.74849516,-0.654383,-0.7459116,-0.12409176,0.5133175,-0.5587028,0.6514263,,-0.028783044,0.25497043,-0.3186064,0.7195027,-0.14079754,-0.6800676,-0.103116155,0.9467213,-0.30509967,0.6867918,0.28964597,0.66665006,,0.937810066581453,-0.133363874004983,0.17199434978,-1.39716409343739,0.686735047821104,0.267991004826665,0.670527391481216,,-0.799372357078105,-0.424897040006958,0.2391525421,1.97213391847195,0.143195051754182,0.142890751832998,0.812636729018039,,-0.129819771424903,-0.40618175017038,0.08760750076,0.052333711583684,,1.8708408E-05,1.9073486E-06,-3.0994415E-06,1,-2.0084903E-05,-8.188188E-06,2.0092353E-05,1,-1.5795231E-06,8.188188E-06,1.5497208E-06,1
0.128092485014349,10:00:39.187444,10:00:32.288338,0,,0.11362996,-0.039981797,0.032963082,0.5912905,-0.4050472,-0.6973611,-0.4240772,-0.8916769,0.15833761,-0.68595505,0.20211148,-0.6990114,,0.10040095,-0.00016565621,-0.0033926964,-0.6370694,0.10526089,0.76358545,0.21341503,0.9759921,0.043513656,-0.7406731,0.19068182,-0.64423907,,0.20660138,1.3419893,0.5569048,0.9942004,-0.047298063,-0.096583694,-0.08006571,-0.92512405,-0.3711267,-0.071798325,0.37670738,-0.92354566,,-0.067796156,0.12387479,-0.090609305,-0.55522823,0.3626409,0.74847394,-0.65440965,-0.74589366,-0.1240593,0.51329297,-0.5586898,0.6514569,,-0.02882202,0.25503266,-0.31860328,0.7171466,-0.14098808,-0.68251234,-0.10398324,0.946715,-0.3048249,0.68912137,0.28957397,0.664273,,0.937802343848579,-0.133433378600851,0.1719917572,-1.39737378338087,0.686735047821104,0.267991004826665,0.668403918621471,,-0.799688989125948,-0.424348725972888,0.23915383839,1.97255329835892,0.142785142254885,0.140284570899027,0.855759562477489,,-0.129819771424903,-0.40618175017038,0.08760750076,0.052333711583684,,1.8708408E-05,1.9073486E-06,-3.0994415E-06,1,-2.0084903E-05,-8.188188E-06,2.0092353E-05,1,-1.5795231E-06,8.188188E-06,1.5497208E-06,1
0.14572681003483,10:00:39.210422,10:00:32.288338,0,,0.11362714,-0.039990887,0.032970876,0.59129536,-0.40500653,-0.69738054,-0.42407107,-0.8916882,0.15828995,-0.6859545,0.20214283,-0.69900274,,0.10043476,-0.000134781,-0.0033656955,-0.6366095,0.10597628,0.76387006,0.21334562,0.9760567,0.04238808,-0.7410885,0.18995297,-0.6439766,,0.20660138,1.3419893,0.5569048,0.9942004,-0.047298063,-0.096583694,-0.08006571,-0.92512405,-0.3711267,-0.071798325,0.37670738,-0.92354566,,-0.06779417,0.1238694,-0.09062018,-0.555233,0.36259782,0.7484912,-0.6544038,-0.745892,-0.1241,0.51329523,-0.55871993,0.65142924,,-0.028859224,0.2550701,-0.31860963,0.7167401,-0.14161304,-0.68280995,-0.1042642,0.9463938,-0.30572492,0.68950176,0.29031795,0.6635532,,0.937786898382831,-0.133510605929593,0.17199046091,-1.39737378338087,0.686735047821104,0.267664289866103,0.669547327084411,,-0.799920671112175,-0.423916252931932,0.23915513468,1.97339205813286,0.143331688253947,0.138940433142695,0.88826503163821,,-0.129819771424903,-0.40618175017038,0.08760750076,0.052333711583684,,1.8708408E-05,1.9073486E-06,-3.0994415E-06,1,-2.0084903E-05,-8.188188E-06,2.0092353E-05,1,-1.5795231E-06,8.188188E-06,1.5497208E-06,1
0.168730393052101,10:00:39.229141,10:00:32.288338,0,,0.11362505,-0.039999068,0.032973364,0.5913046,-0.40496802,-0.69739515,-0.4240479,-0.8917045,0.15826087,-0.6859609,0.20214868,-0.6989949,,0.10045783,-0.00012634695,-0.0033458173,-0.6361302,0.10674882,0.7641617,0.21332091,0.97611207,0.04122308,-0.74150705,0.18923488,-0.6437062,,0.20660138,1.3419893,0.5569048,0.9942004,-0.047298063,-0.096583694,-0.08006571,-0.92512405,-0.3711267,-0.071798325,0.37670738,-0.92354566,,-0.0677925,0.1238628,-0.09062576,-0.555241,0.36255854,0.74850434,-0.65438485,-0.7459046,-0.12412382,0.5133107,-0.5587286,0.6514097,,-0.028884603,0.25508505,-0.318621,0.7163141,-0.14229585,-0.68311495,-0.10450817,0.94606537,-0.30665684,0.6899074,0.2910537,0.6628089,,0.937786898382831,-0.133603278724084,0.17198786833,-1.39737378338087,0.686735047821104,0.267745968606244,0.669383983018276,,-0.80011373943403,-0.423553284486843,0.23915643097,1.97318236818937,0.144014870752774,0.139363488505899,0.912766641558352,,-0.129819771424903,-0.40618175017038,0.08760750076,0.052333711583684,,1.8708408E-05,1.9073486E-06,-3.0994415E-06,1,-2.0084903E-05,-8.188188E-06,2.0092353E-05,1,-1.5795231E-06,8.188188E-06,1.5497208E-06,1
0.187483297020663,10:00:39.250709,10:00:32.288338,0,,0.1136183,-0.04000619,0.03297539,0.59130555,-0.40495205,-0.6974036,-0.42403817,-0.891711,0.15824999,-0.6859661,0.20215169,-0.6989888,,0.10047796,-0.00014865398,-0.0033254921,-0.6354818,0.1078272,0.7645497,0.21334237,0.9761723,0.03965372,-0.7420566,0.18831009,-0.6433439,,0.20660138,1.3419893,0.5569048,0.9942004,-0.047298063,-0.096583694,-0.08006571,-0.92512405,-0.3711267,-0.071798325,0.37670738,-0.92354566,,-0.067786135,0.123857,-0.09063088,-0.55524135,0.36254218,0.748512,-0.6543779,-0.74590945,-0.12413158,0.51331925,-0.5587327,0.6513994,,-0.028906677,0.25507313,-0.31864724,0.715735,-0.14325796,-0.6835207,-0.10478194,0.94562703,-0.30791274,0.6904666,0.29200456,0.66180754,,0.937794621115705,-0.133711396984323,0.17198657204,-1.39737378338087,0.686735047821104,0.268154362306947,0.65843993058728,,-0.800252748625766,-0.423298434301994,0.23915643097,1.97297267824589,0.145107962750898,0.13879886023689,0.945598798851342,,-0.129819771424903,-0.40618175017038,0.08760750076,0.052333711583684,,1.8708408E-05,1.9073486E-06,-3.0994415E-06,1,-2.0084903E-05,-8.188188E-06,2.0092353E-05,1,-1.5795231E-06,8.188188E-06,1.5497208E-06,1
0.209049850003794,10:00:39.271254,10:00:32.288338,0,,0.1136176,-0.040007114,0.032980725,0.5912688,-0.40508598,-0.69735694,-0.42413706,-0.89164907,0.15833431,-0.6859367,0.20215684,-0.6990163,,0.100463524,-0.00019314885,-0.0033003986,-0.6348306,0.109060064,0.7649157,0.21354142,0.97619295,0.03804201,-0.74255663,0.18749142,-0.64300597,,0.20660138,1.3419893,0.5569048,0.9942004,-0.047298063,-0.096583694,-0.08006571,-0.92512405,-0.3711267,-0.071798325,0.37670738,-0.92354566,,-0.06778582,0.123858206,-0.09063619,-0.55520976,0.36267728,0.74847,-0.65445787,-0.7458505,-0.124064215,0.5132515,-0.55872375,0.65146047,,-0.02889468,0.25504595,-0.31869122,0.7151448,-0.14438543,-0.68390113,-0.104875594,0.9451913,-0.30921587,0.6910637,0.29285866,0.6608061,,0.937802343848579,-0.133811792511688,0.17198527575,-1.39737378338087,0.686735047821104,0.267664289866103,0.661053435645428,,-0.80031453048876,-0.423205761507503,0.23915772726,1.97297267824589,0.145517872250194,0.137484461644114,0.981044461202481,,-0.129819771424903,-0.40618175017038,0.08760750076,0.052333711583684,,1.8708408E-05,1.9073486E-06,-3.0994415E-06,1,-2.0084903E-05,-8.188188E-06,2.0092353E-05,1,-1.5795231E-06,8.188188E-06,1.5497208E-06,1
0.229574393015355,10:00:39.287608,10:00:32.288338,0,,0.11362047,-0.040013157,0.03298773,0.5912773,-0.40504205,-0.69737524,-0.42412913,-0.8916619,0.158283,-0.6859342,0.20218804,-0.6990096,,0.10027927,-0.0002387464,-0.003071934,-0.63409233,0.11043444,0.7653308,0.2137456,0.9762173,0.03622803,-0.7431284,0.18655798,-0.64261687,,0.20660138,1.3419893,0.5569048,0.9942004,-0.047298063,-0.096583694,-0.08006571,-0.92512405,-0.3711267,-0.071798325,0.37670738,-0.92354566,,-0.06778935,0.12385532,-0.09064474,-0.55521816,0.36263093,0.7484862,-0.6544496,-0.7458503,-0.12410905,0.51325285,-0.5587541,0.6514333,,-0.02873813,0.25512147,-0.3189321,0.7144766,-0.14563988,-0.68433344,-0.105003096,0.9446973,-0.31067875,0.6917352,0.29382983,0.6596715,,0.937810066581453,-0.133912188039053,0.17198268317,-1.39737378338087,0.686735047821104,0.267500932385822,0.66072674751316,,-0.800329975954509,-0.423213484240377,0.2391525421,1.97297267824589,0.14565450874996,0.135167717756623,0.996235459352969,,-0.129819771424903,-0.40618175017038,0.08760750076,0.052333711583684,,1.8708408E-05,1.9073486E-06,-3.0994415E-06,1,-2.0084903E-05,-8.188188E-06,2.0092353E-05,1,-1.5795231E-06,8.188188E-06,1.5497208E-06,1
0.245950442040339,10:00:39.308034,10:00:32.483774,0,,0.113619044,-0.040014997,0.032998383,0.5912688,-0.40503767,-0.69738495,-0.42416322,-0.8916523,0.15824589,-0.6859204,0.20223922,-0.6990083,,0.10004227,-0.00031982362,-0.0027964115,-0.63318825,0.11212503,0.7658333,0.21401858,0.976237,0.03401974,-0.7438204,0.18544346,-0.6421387,,0.20660138,1.3419893,0.5569048,0.9942004,-0.047298063,-0.096583694,-0.08006571,-0.92512405,-0.3711267,-0.071798325,0.37670738,-0.92354566,,-0.06778873,0.12385773,-0.09065535,-0.55521166,0.36262333,0.74849474,-0.65447575,-0.7458217,-0.1241428,0.5132265,-0.5587972,0.6514171,,-0.028534269,0.2551903,-0.31923595,0.71365696,-0.14718679,-0.6848575,-0.10513508,0.94409585,-0.3124574,0.69256073,0.29498997,0.6582861,,0.937802343848579,-0.133997138100669,0.17198138688,-1.39737378338087,0.686735047821104,0.267582611125963,0.660236715314757,,-0.800291362290137,-0.423321602500617,0.23911883856,1.97360174807634,0.14592778174949,0.133638022106981,1.01583674728908,,-0.129819771424903,-0.40618175017038,0.08760750076,0.052333711583684,,1.8708408E-05,1.9073486E-06,-3.0994415E-06,1,-2.0084903E-05,-8.188188E-06,2.0092353E-05,1,-1.5795231E-06,8.188188E-06,1.5497208E-06,1
0.265759602014441,10:00:39.322718,10:00:32.483774,0,,0.11361369,-0.04001484,0.033003286,0.5912563,-0.40505797,-0.6973837,-0.42419365,-0.8916379,0.15824555,-0.6859124,0.20226204,-0.6990096,,0.09980622,-0.00042580068,-0.002523452,-0.6323032,0.113743536,0.76632565,0.21425563,0.9762571,0.03188148,-0.7445047,0.18434834,-0.6416608,,0.20660138,1.3419893,0.5569048,0.9942004,-0.047298063,-0.096583694,-0.08006571,-0.92512405,-0.3711267,-0.071798325,0.37670738,-0.92354566,,-0.06778372,0.12385974,-0.0906602,-0.5552007,0.36264244,0.74849355,-0.6545008,-0.74579966,-0.12414362,0.5132065,-0.5588142,0.65141827,,-0.028330704,0.25523585,-0.31954893,0.7128559,-0.14866443,-0.6853724,-0.105294235,0.94350845,-0.31417337,0.6933611,0.2961261,0.65693206,,0.937794621115705,-0.134043474497915,0.1719787943,-1.39737378338087,0.686598411321338,0.267694029029659,0.660236715314757,,-0.800252748625766,-0.423483779890975,0.23901254278,1.97381143801983,0.146747600748083,0.132316084763678,1.04491199106098,,-0.129819771424903,-0.40618175017038,0.08760750076,0.052333711583684,,1.8708408E-05,1.9073486E-06,-3.0994415E-06,1,-2.0084903E-05,-8.188188E-06,2.0092353E-05,1,-1.5795231E-06,8.188188E-06,1.5497208E-06,1
0.281046258052811,10:00:39.341348,10:00:32.483774,0,,0.11361298,-0.04001575,0.03300859,0.5912521,-0.40505582,-0.69738865,-0.42421073,-0.89163315,0.158227,-0.6859055,0.20228773,-0.69900894,,0.099694915,-0.0004798174,-0.002396077,-0.6311757,0.11664191,0.7668194,0.21438116,0.9763502,0.027945101,-0.74542475,0.1820299,-0.64125437,,0.20660138,1.3419893,0.5569048,0.9942004,-0.047298063,-0.096583694,-0.08006571,-0.92512405,-0.3711267,-0.071798325,0.37670738,-0.92354566,,-0.06778341,0.12386095,-0.090665504,-0.5551975,0.36263865,0.74849784,-0.6545139,-0.74578536,-0.1241605,0.5131933,-0.5588358,0.65141016,,-0.028234495,0.2552531,-0.31969717,0.7118435,-0.15126905,-0.6858546,-0.10567571,0.94234496,-0.3175195,0.6943425,0.29850236,0.6548166,,0.937794621115705,-0.134058919963663,0.17197620172,-1.39737378338087,0.686598411321338,0.2677757077698,0.658113242455011,,-0.800237303160018,-0.423561007219718,0.23894902457,1.97402112796331,0.147294146747145,0.131298661967908,1.06173642987282,,-0.129819771424903,-0.40618175017038,0.08760750076,0.052333711583684,,1.8708408E-05,1.9073486E-06,-3.0994415E-06,1,-2.0084903E-05,-8.188188E-06,2.0092353E-05,1,-1.5795231E-06,8.188188E-06,1.5497208E-06,1
0.299662714009173,10:00:39.358222,10:00:32.483774,0,,0.11361122,-0.04002075,0.03301516,0.59125245,-0.40503436,-0.6974008,-0.42421618,-0.8916364,0.1581939,-0.6859018,0.2023162,-0.6990043,,0.099445164,-0.000608623,-0.0020971596,-0.63097346,0.11602756,0.767079,0.2144567,0.97631085,0.02872917,-0.74557424,0.18263257,-0.6409092,,0.20660138,1.3419893,0.5569048,0.9942004,-0.047298063,-0.096583694,-0.08006571,-0.92512405,-0.3711267,-0.071798325,0.37670738,-0.92354566,,-0.06778225,0.123858854,-0.090673596,-0.55519825,0.3626152,0.74850863,-0.65451753,-0.74577737,-0.12418928,0.5131878,-0.5588617,0.6513923,,-0.028020062,0.25529104,-0.32004488,0.7116593,-0.15072985,-0.6861644,-0.105689965,0.9426246,-0.31668347,0.6945291,0.29789144,0.654897,,0.937786898382831,-0.134074365429412,0.17197360914,-1.39737378338087,0.686461774821573,0.267805446933355,0.649129318817626,,-0.800190966762773,-0.423754075541573,0.23875846994,1.97485988773725,0.149070421244096,0.127399867015638,1.08362453473481,,-0.129819771424903,-0.40618175017038,0.08760750076,0.052333711583684,,1.8708408E-05,1.9073486E-06,-3.0994415E-06,1,-2.0084903E-05,-8.188188E-06,2.0092353E-05,1,-1.5795231E-06,8.188188E-06,1.5497208E-06,1
0.316557083046064,10:00:39.376635,10:00:32.483774,0,,0.11360875,-0.040026657,0.033027053,0.59124845,-0.4050108,-0.69741786,-0.42423862,-0.8916348,0.15814224,-0.68589133,0.20237029,-0.6989989,,0.09916256,-0.00074875355,-0.0017405152,-0.63058347,0.11580804,0.76743275,0.21461737,0.97626674,0.02902487,-0.7458579,0.183007,-0.6404722,,0.20660138,1.3419893,0.5569048,0.9942004,-0.047298063,-0.096583694,-0.08006571,-0.92512405,-0.3711267,-0.071798325,0.37670738,-0.92354566,,-0.067780785,0.123857975,-0.090687,-0.55519575,0.36258796,0.74852365,-0.6545342,-0.7457551,-0.12423494,0.5131692,-0.55890906,0.65136623,,-0.027779697,0.2553473,-0.320452,0.71130335,-0.1505556,-0.6865716,-0.10570204,0.9427701,-0.31624603,0.6948918,0.29751888,0.65468156,,0.937802343848579,-0.134082088162286,0.17197101656,-1.39737378338087,0.686461774821573,0.267397053232653,0.652559544206446,,-0.800152353098402,-0.424016648459297,0.23846291582,1.97506957768073,0.148523875245034,0.128008896110705,1.07970427714759,,-0.129819771424903,-0.40618175017038,0.08760750076,0.052333711583684,,1.8708408E-05,1.9073486E-06,-3.0994415E-06,1,-2.0084903E-05,-8.188188E-06,2.0092353E-05,1,-1.5795231E-06,8.188188E-06,1.5497208E-06,1
0.334975586039945,10:00:39.393200,10:00:32.483774,0,,0.113605216,-0.040036663,0.033040196,0.59124917,-0.4049679,-0.6974421,-0.42424962,-0.8916414,0.15807605,-0.68588394,0.2024273,-0.6989896,,0.09876874,-0.0009506494,-0.0012249649,-0.6297884,0.11604995,0.7680489,0.21457718,0.97629297,0.028435022,-0.7465409,0.1827138,-0.6397597,,0.20660138,1.3419893,0.5569048,0.9942004,-0.047298063,-0.096583694,-0.08006571,-0.92512405,-0.3711267,-0.071798325,0.37670738,-0.92354566,,-0.06777848,0.123853795,-0.0907032,-0.55519724,0.36254108,0.7485452,-0.6545415,-0.7457391,-0.1242925,0.5131583,-0.5589608,0.6513305,,-0.02744682,0.25542828,-0.32103878,0.71059537,-0.15076144,-0.6872592,-0.10610096,0.9426441,-0.31648794,0.69555503,0.2978137,0.6538426,,0.937794621115705,-0.134082088162286,0.17196712769,-1.39737378338087,0.686461774821573,0.267478731972793,0.652069512008043,,-0.800098293968282,-0.424364171438637,0.23810125091,1.97527926762422,0.148250602245503,0.129048519319503,1.08068434154439,,-0.129819771424903,-0.40618175017038,0.08760750076,0.052333711583684,,1.8708408E-05,1.9073486E-06,-3.0994415E-06,1,-2.0084903E-05,-8.188188E-06,2.0092353E-05,1,-1.5795231E-06,8.188188E-06,1.5497208E-06,1
0.351514606038109,10:00:39.412712,10:00:32.483774,0,,0.11360562,-0.040048614,0.033059105,0.5912212,-0.40503645,-0.6974261,-0.42434603,-0.8915954,0.15807596,-0.68584836,0.20249218,-0.6990058,,0.098445155,-0.0011372715,-0.00078749657,-0.62923425,0.11591285,0.7685236,0.21453585,0.9763031,0.028401554,-0.7470199,0.1827471,-0.6391908,,0.20660138,1.3419893,0.5569048,0.9942004,-0.047298063,-0.096583694,-0.08006571,-0.92512405,-0.3711267,-0.071798325,0.37670738,-0.92354566,,-0.067780554,0.12385003,-0.09072515,-0.5551748,0.36260638,0.74853027,-0.65461683,-0.7456719,-0.124298766,0.51308644,-0.55900806,0.6513465,,-0.027174657,0.25548267,-0.32154265,0.71010244,-0.1506294,-0.6877974,-0.10639215,0.9426774,-0.31629115,0.6960138,0.29777536,0.6533717,,0.937810066581453,-0.13408981089516,0.17196064624,-1.39737378338087,0.686598411321338,0.267285635328956,0.651906167941908,,-0.799943839310797,-0.424904762739832,0.23770458617,1.97632771734164,0.148250602245503,0.129865306720909,1.08068434154439,,-0.129819771424903,-0.40618175017038,0.08760750076,0.052333711583684,,1.8708408E-05,1.9073486E-06,-3.0994415E-06,1,-2.0084903E-05,-8.188188E-06,2.0092353E-05,1,-1.5795231E-06,8.188188E-06,1.5497208E-06,1
0.370886735036038,10:00:39.431367,10:00:32.483774,0,,0.1136049,-0.040049538,0.033064425,0.591217,-0.40503424,-0.69743085,-0.42436302,-0.89159065,0.15805739,-0.68584144,0.20251775,-0.6990051,,0.098298,-0.0012239963,-0.0005851388,-0.62935597,0.11473864,0.76860005,0.21454066,0.97625613,0.029935092,-0.74691594,0.18373582,-0.6390288,,0.20660138,1.3419893,0.5569048,0.9942004,-0.047298063,-0.096583694,-0.08006571,-0.92512405,-0.3711267,-0.071798325,0.37670738,-0.92354566,,-0.06778024,0.12385124,-0.09073046,-0.55517155,0.36260256,0.7485345,-0.6546299,-0.7456576,-0.12431564,0.51307327,-0.5590296,0.6513384,,-0.027051263,0.2555073,-0.32177565,0.710211,-0.14957993,-0.6879144,-0.10633258,0.94316304,-0.31486014,0.6959122,0.29676485,0.6539395,,0.937810066581453,-0.134105256360909,0.17195805366,-1.39737378338087,0.686598411321338,0.267285635328956,0.651906167941908,,-0.799897502913552,-0.425221394787676,0.23751532783,1.97653740728513,0.148250602245503,0.130437057901893,1.08117437374279,,-0.129819771424903,-0.40618175017038,0.08760750076,0.052333711583684,,1.8708408E-05,1.9073486E-06,-3.0994415E-06,1,-2.0084903E-05,-8.188188E-06,2.0092353E-05,1,-1.5795231E-06,8.188188E-06,1.5497208E-06,1
0.38970491202781,10:00:39.451963,10:00:32.483774,0,,0.1136031,-0.040049084,0.033084497,0.59119534,-0.40504476,-0.6974432,-0.42444277,-0.8915633,0.15799773,-0.6858108,0.2026172,-0.6990064,,0.09778385,-0.0015569627,0.00010621548,-0.62879336,0.11359659,0.76923007,0.21446288,0.9762355,0.031142592,-0.747412,0.18455356,-0.6382127,,0.20660138,1.3419893,0.5569048,0.9942004,-0.047298063,-0.096583694,-0.08006571,-0.92512405,-0.3711267,-0.071798325,0.37670738,-0.92354566,,-0.06777981,0.123859376,-0.09074889,-0.55515456,0.362607,0.748545,-0.6546917,-0.7455941,-0.12437122,0.5130128,-0.5591115,0.65131575,,-0.026617862,0.25555965,-0.32258967,0.70971215,-0.14854251,-0.68865365,-0.10666446,0.9435922,-0.3134589,0.6963701,0.29592043,0.65383464,,0.937810066581453,-0.134128424559531,0.17195027592,-1.39737378338087,0.686598411321338,0.267285635328956,0.651906167941908,,-0.799727602790319,-0.426240795527073,0.23678422027,1.97653740728513,0.147840692746207,0.132976637596777,1.08133771780893,,-0.129819771424903,-0.40618175017038,0.08760750076,0.052333711583684,,1.8708408E-05,1.9073486E-06,-3.0994415E-06,1,-2.0084903E-05,-8.188188E-06,2.0092353E-05,1,-1.5795231E-06,8.188188E-06,1.5497208E-06,1
0.410252056026366,10:00:39.465195,10:00:32.483774,0,,0.11359991,-0.0400559,0.033101723,0.5911871,-0.40501893,-0.69746506,-0.4244823,-0.89155686,0.15792754,-0.6857934,0.20269686,-0.6990004,,0.097606614,-0.0016798526,0.0003389418,-0.6288595,0.112405255,0.7693508,0.21435952,0.97621095,0.032586932,-0.747386,0.18541029,-0.6379949,,0.20660138,1.3419893,0.5569048,0.9942004,-0.047298063,-0.096583694,-0.08006571,-0.92512405,-0.3711267,-0.071798325,0.37670738,-0.92354566,,-0.06777803,0.12385971,-0.09076761,-0.5551488,0.36257595,0.7485643,-0.6547215,-0.7455575,-0.12443374,0.512981,-0.5591804,0.65128165,,-0.02646769,0.25556794,-0.32286906,0.7097763,-0.14746071,-0.68881994,-0.10674003,0.944039,-0.31208476,0.6962932,0.29503503,0.65431654,,0.937786898382831,-0.134151592758154,0.17194249818,-1.39737378338087,0.686461774821573,0.267397053232653,0.651906167941908,,-0.799719880057445,-0.426634654903659,0.23651848082,1.97653740728513,0.147567419746676,0.134179618285857,1.08101102967666,,-0.129819771424903,-0.40618175017038,0.08760750076,0.052333711583684,,1.8708408E-05,1.9073486E-06,-3.0994415E-06,1,-2.0084903E-05,-8.188188E-06,2.0092353E-05,1,-1.5795231E-06,8.188188E-06,1.5497208E-06,1
0.423534307046793,10:00:39.482807,10:00:32.483774,0,,0.11359489,-0.040052578,0.033110693,0.59116584,-0.4050563,-0.6974614,-0.42454132,-0.89152956,0.15792316,-0.6857752,0.20274249,-0.69900495,,0.09745308,-0.0017885566,0.0005379021,-0.6274063,0.106920734,0.7713165,0.20895475,0.9773168,0.034491867,-0.7501328,0.18281066,-0.6355164,,0.20660138,1.3419893,0.5569048,0.9942004,-0.047298063,-0.096583694,-0.08006571,-0.92512405,-0.3711267,-0.071798325,0.37670738,-0.92354566,,-0.06777354,0.12386622,-0.09077496,-0.5551306,0.3626109,0.74856085,-0.65476906,-0.74551475,-0.12443952,0.51294005,-0.55921465,0.65128446,,-0.02633724,0.25557193,-0.32310975,0.7087356,-0.14172338,-0.69109213,-0.112886354,0.9442082,-0.30939862,0.6963839,0.2972967,0.6531953,,0.937786898382831,-0.134167038223902,0.17193860931,-1.39737378338087,0.686325138321807,0.267508471136349,0.651906167941908,,-0.799688989125948,-0.427128909807609,0.23626700056,1.97632771734164,0.14743078324691,0.13527118107124,1.08101102967666,,-0.129819771424903,-0.40618175017038,0.08760750076,0.052333711583684,,1.8708408E-05,1.9073486E-06,-3.0994415E-06,1,-2.0084903E-05,-8.188188E-06,2.0092353E-05,1,-1.5795231E-06,8.188188E-06,1.5497208E-06,1
0.441115130030084,10:00:39.497994,10:00:32.483774,0,,0.113588825,-0.040053338,0.033120915,0.59114915,-0.40507445,-0.69746506,-0.42458883,-0.89151037,0.15790427,-0.68576026,0.20279095,-0.69900554,,0.097099334,-0.002045393,0.0009846687,-0.6275468,0.10460171,0.77152026,0.2088556,0.97723144,0.03738925,-0.750043,0.18459985,-0.63510513,,0.20660138,1.3419893,0.5569048,0.9942004,-0.047298063,-0.096583694,-0.08006571,-0.92512405,-0.3711267,-0.071798325,0.37670738,-0.92354566,,-0.06776822,0.12386944,-0.090785116,-0.5551164,0.36262622,0.74856395,-0.65480715,-0.7454784,-0.1244572,0.5129068,-0.5592533,0.6512775,,-0.026035236,0.25557017,-0.323657,0.70886576,-0.13963144,-0.6913844,-0.1129243,0.9450996,-0.30665112,0.6962452,0.29544857,0.65418094,,0.937794621115705,-0.134197929155399,0.17192823899,-1.39737378338087,0.686325138321807,0.267508471136349,0.651906167941908,,-0.799681266393074,-0.428148310547007,0.23568885522,1.97171453858498,0.147704056246441,0.140030748412422,1.07202710603927,,-0.129819771424903,-0.40618175017038,0.08760750076,0.052333711583684,,1.8708408E-05,1.9073486E-06,-3.0994415E-06,1,-2.0084903E-05,-8.188188E-06,2.0092353E-05,1,-1.5795231E-06,8.188188E-06,1.5497208E-06,1
0.456336987030227,10:00:39.513789,10:00:32.483774,0,,0.113583475,-0.04005319,0.033125803,0.59113663,-0.40509474,-0.69746387,-0.42461923,-0.8914958,0.15790394,-0.6857523,0.20281383,-0.6990069,,0.09674774,-0.0023415089,0.001416266,-0.62950265,0.092460275,0.77147746,0.19711114,0.9794175,0.043455273,-0.7515808,0.17942202,-0.634771,,0.20660138,1.3419893,0.5569048,0.9942004,-0.047298063,-0.096583694,-0.08006571,-0.92512405,-0.3711267,-0.071798325,0.37670738,-0.92354566,,-0.06776322,0.12387145,-0.09078996,-0.55510545,0.36264533,0.7485628,-0.6548321,-0.7454563,-0.124458015,0.51288676,-0.5592703,0.6512787,,-0.02573301,0.25552648,-0.32420868,0.71115714,-0.12699492,-0.6914679,-0.12392688,0.9455035,-0.30110672,0.69202435,0.29982564,0.6566635,,0.937794621115705,-0.134213374621148,0.17192435012,-1.39737378338087,0.686325138321807,0.267508471136349,0.651906167941908,,-0.7996735436602,-0.429237215882272,0.23518719099,1.9687788793762,0.148660511744799,0.14709198214004,1.05503932316131,,-0.129819771424903,-0.40618175017038,0.08760750076,0.052333711583684,,1.8708408E-05,1.9073486E-06,-3.0994415E-06,1,-2.0084903E-05,-8.188188E-06,2.0092353E-05,1,-1.5795231E-06,8.188188E-06,1.5497208E-06,1
0.472113380033989,10:00:39.530370,10:00:32.483774,0,,0.113574535,-0.0400479,0.03312899,0.5911114,-0.4051568,-0.69744927,-0.42467463,-0.8914637,0.15793636,-0.68573964,0.20283106,-0.6990142,,0.09663183,-0.002449289,0.0015495718,-0.6298065,0.0909161,0.771413,0.19709547,0.97932804,0.045494854,-0.75133026,0.18069494,-0.6347065,,0.20660138,1.3419893,0.5569048,0.9942004,-0.047298063,-0.096583694,-0.08006571,-0.92512405,-0.3711267,-0.071798325,0.37670738,-0.92354566,,-0.067754366,0.123877555,-0.09079155,-0.5550828,0.362707,0.74854976,-0.6548785,-0.7454201,-0.124430865,0.5128521,-0.55927855,0.6512989,,-0.025632164,0.25549898,-0.32438725,0.7114294,-0.12561114,-0.6914405,-0.12380676,0.94610506,-0.2992609,0.6917659,0.29850802,0.6575355,,0.937794621115705,-0.13423654281977,0.17191786867,-1.39758347332435,0.686325138321807,0.267508471136349,0.651906167941908,,-0.799696711858822,-0.429746916251971,0.23497978459,1.96416570061954,0.148797148244565,0.149675962660983,1.05193578590476,,-0.129819771424903,-0.40618175017038,0.08760750076,0.052333711583684,,1.8708408E-05,1.9073486E-06,-3.0994415E-06,1,-2.0084903E-05,-8.188188E-06,2.0092353E-05,1,-1.5795231E-06,8.188188E-06,1.5497208E-06,1
0.48871315701399,10:00:39.552756,10:00:32.483774,0,,0.11356559,-0.040042594,0.033132195,0.5910861,-0.40521884,-0.6974346,-0.42472997,-0.8914316,0.15796876,-0.68572724,0.20284829,-0.6990214,,0.096320346,-0.0027568638,0.0018869638,-0.63111395,0.08065083,0.77148604,0.18548986,0.9814165,0.049143046,-0.7531858,0.17411771,-0.6343456,,0.20660138,1.3419893,0.5569048,0.9942004,-0.047298063,-0.096583694,-0.08006571,-0.92512405,-0.3711267,-0.071798325,0.37670738,-0.92354566,,-0.06774551,0.12388366,-0.09079314,-0.55506015,0.36276865,0.74853665,-0.6549248,-0.7453839,-0.124403715,0.51281744,-0.5592868,0.6513191,,-0.025358455,0.25539967,-0.32485703,0.7131125,-0.114670396,-0.6916078,-0.13487354,0.94566154,-0.29586044,0.6879533,0.30426133,0.658897,,0.937802343848579,-0.134251988285519,0.17191138722,-1.39758347332435,0.686325138321807,0.267508471136349,0.651906167941908,,-0.799650375461577,-0.431098394504961,0.23446515746,1.95577810288016,0.14893378474433,0.153811839244595,1.05585604349198,,-0.129819771424903,-0.40618175017038,0.08760750076,0.052333711583684,,1.8708408E-05,1.9073486E-06,-3.0994415E-06,1,-2.0084903E-05,-8.188188E-06,2.0092353E-05,1,-1.5795231E-06,8.188188E-06,1.5497208E-06,1
0.509118232002948,10:00:39.564452,10:00:32.483774,0,,0.11356095,-0.040041536,0.033131763,0.59107786,-0.4052413,-0.6974286,-0.42474335,-0.891422,0.157987,-0.6857259,0.2028456,-0.69902337,,0.09598635,-0.0031078458,0.0022011697,-0.63086176,0.08009243,0.77175033,0.18560527,0.9813577,0.049876153,-0.7533685,0.17470595,-0.63396674,,0.20660138,1.3419893,0.5569048,0.9942004,-0.047298063,-0.096583694,-0.08006571,-0.92512405,-0.3711267,-0.071798325,0.37670738,-0.92354566,,-0.06774081,0.12388446,-0.09079268,-0.55505246,0.36279157,0.7485313,-0.65493673,-0.7453761,-0.12438765,0.5128105,-0.5592823,0.6513284,,-0.02505902,0.25525278,-0.32532844,0.7128821,-0.11418475,-0.6919255,-0.13487081,0.9459136,-0.29505473,0.68819255,0.3036598,0.6589247,,0.937825512047202,-0.134259711018393,0.17190620206,-1.39737378338087,0.686188501822042,0.267619889040045,0.651906167941908,,-0.799503643536967,-0.432612050148309,0.2340062708,1.94655174536684,0.150026876742454,0.156269324360787,1.04507533512712,,-0.129819771424903,-0.40618175017038,0.08760750076,0.052333711583684,,1.8708408E-05,1.9073486E-06,-3.0994415E-06,1,-2.0084903E-05,-8.188188E-06,2.0092353E-05,1,-1.5795231E-06,8.188188E-06,1.5497208E-06,1
0.522792046016548,10:00:39.585465,10:00:32.483774,0,,0.113555975,-0.040043652,0.033127233,0.59107846,-0.40524676,-0.6974248,-0.42472818,-0.8914253,0.1580092,-0.68573487,0.20282018,-0.69902205,,0.09575538,-0.00338763,0.0024000704,-0.630974,0.07876275,0.7717955,0.18556015,0.981279,0.0515621,-0.75328565,0.17574885,-0.6337769,,0.20660138,1.3419893,0.5569048,0.9942004,-0.047298063,-0.096583694,-0.08006571,-0.92512405,-0.3711267,-0.071798325,0.37670738,-0.92354566,,-0.067735605,0.12388075,-0.090789706,-0.555052,0.36279866,0.7485282,-0.6549261,-0.745389,-0.124366626,0.5128246,-0.5592606,0.65133595,,-0.024849262,0.2551099,-0.32565522,0.7129844,-0.11298686,-0.6920168,-0.13486579,0.94640607,-0.2934736,0.6880876,0.30257148,0.6595347,,0.937825512047202,-0.134267433751267,0.17190490577,-1.39737378338087,0.686188501822042,0.267619889040045,0.651906167941908,,-0.79927196155074,-0.434025310264292,0.2336044209,1.94990678446259,0.150163513242219,0.157628123779621,1.0478521842514,,-0.129819771424903,-0.40618175017038,0.08760750076,0.052333711583684,,1.8708408E-05,1.9073486E-06,-3.0994415E-06,1,-2.0084903E-05,-8.188188E-06,2.0092353E-05,1,-1.5795231E-06,8.188188E-06,1.5497208E-06,1
0.543803378008306,10:00:39.601618,10:00:32.483774,0,,0.113555975,-0.040043652,0.033127233,0.59107846,-0.40524676,-0.6974248,-0.42472818,-0.8914253,0.1580092,-0.68573487,0.20282018,-0.69902205,,0.09563661,-0.0035439432,0.0024935603,-0.6306787,0.0793773,0.7719738,0.18571481,0.98128843,0.05082342,-0.7534948,0.17542022,-0.63361937,,0.20660138,1.3419893,0.5569048,0.9942004,-0.047298063,-0.096583694,-0.08006571,-0.92512405,-0.3711267,-0.071798325,0.37670738,-0.92354566,,-0.067735605,0.12388075,-0.090789706,-0.555052,0.36279866,0.7485282,-0.6549261,-0.745389,-0.124366626,0.5128246,-0.5592606,0.65133595,,-0.024740173,0.2550214,-0.32582116,0.7127138,-0.11355828,-0.692202,-0.13484304,0.9462241,-0.29407033,0.6883723,0.3029266,0.6590744,,0.937825512047202,-0.134275156484142,0.17190360948,-1.39737378338087,0.686188501822042,0.267619889040045,0.651906167941908,,-0.799040279564513,-0.434843919948959,0.23340868111,1.95095523418001,0.150163513242219,0.158444911181026,1.04719880798686,,-0.129819771424903,-0.40618175017038,0.08760750076,0.052333711583684,,1.8708408E-05,1.9073486E-06,-3.0994415E-06,1,-2.0084903E-05,-8.188188E-06,2.0092353E-05,1,-1.5795231E-06,8.188188E-06,1.5497208E-06,1
0.559945641027298,10:00:39.614829,10:00:32.795676,0,,0.113546684,-0.040041536,0.033126354,0.59106207,-0.40529177,-0.6974126,-0.42475492,-0.8914061,0.15804562,-0.6857324,0.20281473,-0.699026,,0.095392704,-0.0038866103,0.002652973,-0.63017315,0.080388136,0.77228206,0.18597117,0.9813022,0.049604923,-0.7538545,0.1748819,-0.6333402,,0.20660138,1.3419893,0.5569048,0.9942004,-0.047298063,-0.096583694,-0.08006571,-0.92512405,-0.3711267,-0.071798325,0.37670738,-0.92354566,,-0.067726225,0.12388235,-0.09078878,-0.5550366,0.3628445,0.74851733,-0.6549499,-0.7453734,-0.124334514,0.5128108,-0.5592516,0.6513545,,-0.024511985,0.2548056,-0.32614318,0.7122507,-0.114498384,-0.6925237,-0.13481234,0.9459244,-0.29504693,0.68885744,0.3035081,0.6582995,,0.937833234780076,-0.134275156484142,0.17190231319,-1.39737378338087,0.686188501822042,0.267619889040045,0.651906167941908,,-0.798329788140084,-0.436457971119672,0.23305090507,1.94990678446259,0.150163513242219,0.160323522204259,1.047362152053,,-0.129819771424903,-0.40618175017038,0.08760750076,0.052333711583684,,1.8708408E-05,1.9073486E-06,-3.0994415E-06,1,-2.0084903E-05,-8.188188E-06,2.0092353E-05,1,-1.5795231E-06,8.188188E-06,1.5497208E-06,1
0.572665271000005,10:00:39.632020,10:00:32.795676,0,,0.113546684,-0.040041536,0.033126354,0.59106207,-0.40529177,-0.6974126,-0.42475492,-0.8914061,0.15804562,-0.6857324,0.20281473,-0.699026,,0.09526586,-0.004068956,0.0027181804,-0.62990576,0.08109688,0.77242607,0.18629627,0.981276,0.048898786,-0.7539977,0.17470175,-0.63321954,,0.20660138,1.3419893,0.5569048,0.9942004,-0.047298063,-0.096583694,-0.08006571,-0.92512405,-0.3711267,-0.071798325,0.37670738,-0.92354566,,-0.067726225,0.12388235,-0.09078878,-0.5550366,0.3628445,0.74851733,-0.6549499,-0.7453734,-0.124334514,0.5128108,-0.5592516,0.6513545,,-0.024391161,0.25468165,-0.32629693,0.71199757,-0.11518038,-0.6926709,-0.13460635,0.94577193,-0.2956292,0.6891594,0.30372515,0.6578833,,0.937833234780076,-0.134275156484142,0.17190231319,-1.39737378338087,0.686188501822042,0.267619889040045,0.651906167941908,,-0.797982265160744,-0.437361530865957,0.23291349833,1.95032616434956,0.150300149741985,0.161028891701969,1.04050170127536,,-0.129819771424903,-0.40618175017038,0.08760750076,0.052333711583684,,1.8708408E-05,1.9073486E-06,-3.0994415E-06,1,-2.0084903E-05,-8.188188E-06,2.0092353E-05,1,-1.5795231E-06,8.188188E-06,1.5497208E-06,1
0.59035977703752,10:00:39.651334,10:00:32.795676,0,,0.11354205,-0.040040493,0.033125907,0.59105384,-0.4053143,-0.69740653,-0.42476833,-0.8913964,0.15806386,-0.68573123,0.20281196,-0.699028,,0.09504693,-0.0044177026,0.0028010607,-0.6299593,0.078365944,0.7726643,0.1810247,0.98230827,0.04796222,-0.755236,0.17008558,-0.6330005,,0.20660138,1.3419893,0.5569048,0.9942004,-0.047298063,-0.096583694,-0.08006571,-0.92512405,-0.3711267,-0.071798325,0.37670738,-0.92354566,,-0.06772154,0.12388315,-0.09078832,-0.5550289,0.36286741,0.74851197,-0.6549618,-0.7453656,-0.12431846,0.512804,-0.5592471,0.6513638,,-0.024178632,0.25442404,-0.32655165,0.71227235,-0.11193729,-0.69292,-0.13984881,0.9447764,-0.29637787,0.6878302,0.3080058,0.65728384,,0.937825512047202,-0.13429060194989,0.1719010169,-1.39737378338087,0.686188501822042,0.267619889040045,0.651906167941908,,-0.797094150880209,-0.438936968372299,0.23268535129,1.95221337384092,0.151119968740577,0.162565710263585,1.03315121829932,,-0.129819771424903,-0.40618175017038,0.08760750076,0.052333711583684,,1.8708408E-05,1.9073486E-06,-3.0994415E-06,1,-2.0084903E-05,-8.188188E-06,2.0092353E-05,1,-1.5795231E-06,8.188188E-06,1.5497208E-06,1
0.609639619011432,10:00:39.663594,10:00:32.795676,0,,0.113537416,-0.04003942,0.033125475,0.5910456,-0.4053368,-0.6974004,-0.4247817,-0.8913868,0.15808207,-0.68573,0.20280927,-0.69903,,0.094966866,-0.004550934,0.0028265119,-0.6298134,0.0788529,0.7727336,0.18131918,0.9822741,0.047548205,-0.75528705,0.17005798,-0.632947,,0.20660138,1.3419893,0.5569048,0.9942004,-0.047298063,-0.096583694,-0.08006571,-0.92512405,-0.3711267,-0.071798325,0.37670738,-0.92354566,,-0.06771685,0.12388395,-0.09078786,-0.5550212,0.36289033,0.74850655,-0.65497375,-0.7453578,-0.124302395,0.5127971,-0.5592426,0.651373,,-0.024100253,0.25432256,-0.3266431,0.71212935,-0.11241702,-0.6929893,-0.13962008,0.94470096,-0.2967261,0.6880247,0.30806258,0.6570536,,0.937825512047202,-0.134298324682764,0.1719010169,-1.39737378338087,0.686188501822042,0.267619889040045,0.651906167941908,,-0.79673118243512,-0.43961656886523,0.23258812954,1.95158430401047,0.151803151239404,0.16298876562679,1.0249840149926,,-0.129819771424903,-0.40618175017038,0.08760750076,0.052333711583684,,1.8708408E-05,1.9073486E-06,-3.0994415E-06,1,-2.0084903E-05,-8.188188E-06,2.0092353E-05,1,-1.5795231E-06,8.188188E-06,1.5497208E-06,1
0.621936571027618,10:00:39.681945,10:00:32.795676,0,,0.11352814,-0.040037304,0.033124596,0.59102917,-0.40538177,-0.6973882,-0.42480856,-0.8913676,0.15811849,-0.6857276,0.20280382,-0.6990339,,0.09476829,-0.004898876,0.0028515756,-0.6299693,0.07606673,0.7728858,0.1762041,0.9832379,0.04685229,-0.7563669,0.16570118,-0.63281304,,0.20660138,1.3419893,0.5569048,0.9942004,-0.047298063,-0.096583694,-0.08006571,-0.92512405,-0.3711267,-0.071798325,0.37670738,-0.92354566,,-0.06770747,0.12388555,-0.090786934,-0.5550058,0.36293617,0.74849576,-0.6549976,-0.74534225,-0.12427028,0.51278335,-0.5592336,0.65139157,,-0.0239011,0.25403804,-0.3268444,0.71248484,-0.10914881,-0.69314635,-0.14464474,0.943766,-0.2972938,0.68661726,0.31207728,0.6566312,,0.937825512047202,-0.134306047415638,0.1719010169,-1.39737378338087,0.686051865322276,0.267731306943742,0.651906167941908,,-0.795804454490213,-0.441161115440075,0.23240664894,1.94550329564942,0.15371606223612,0.164941100801084,1.00652613551943,,-0.129819771424903,-0.40618175017038,0.08760750076,0.052333711583684,,1.8708408E-05,1.9073486E-06,-3.0994415E-06,1,-2.0084903E-05,-8.188188E-06,2.0092353E-05,1,-1.5795231E-06,8.188188E-06,1.5497208E-06,1
0.640282575041056,10:00:39.696798,10:00:32.795676,0,,0.1135235,-0.040036254,0.03312415,0.591021,-0.40540427,-0.69738203,-0.42482185,-0.891358,0.1581367,-0.6857264,0.20280111,-0.6990359,,0.09457661,-0.005236134,0.002861321,-0.6301467,0.07324116,0.7730142,0.17110567,0.9841672,0.046234757,-0.75738907,0.16140178,-0.63270175,,0.20660138,1.3419893,0.5569048,0.9942004,-0.047298063,-0.096583694,-0.08006571,-0.92512405,-0.3711267,-0.071798325,0.37670738,-0.92354566,,-0.067702785,0.12388635,-0.09078647,-0.5549981,0.3629591,0.74849033,-0.65500945,-0.7453345,-0.12425423,0.5127765,-0.55922914,0.65140086,,-0.02370714,0.25375563,-0.3270266,0.71285456,-0.10584778,-0.69327813,-0.14962696,0.9428291,-0.29780054,0.68516433,0.3160216,0.65626234,,0.937848680245824,-0.134313770148513,0.1719010169,-1.39737378338087,0.686051865322276,0.267731306943742,0.651906167941908,,-0.794723271887822,-0.442674771083423,0.23224590898,1.94319670627109,0.155765609732602,0.165475158229433,0.988884976376927,,-0.129819771424903,-0.40618175017038,0.08760750076,0.052333711583684,,1.8708408E-05,1.9073486E-06,-3.0994415E-06,1,-2.0084903E-05,-8.188188E-06,2.0092353E-05,1,-1.5795231E-06,8.188188E-06,1.5497208E-06,1
0.65513077104697,10:00:39.712799,10:00:32.795676,0,,0.11351885,-0.04003519,0.033123717,0.5910127,-0.40542677,-0.69737595,-0.42483532,-0.8913484,0.15815489,-0.6857251,0.20279837,-0.69903785,,0.0945043,-0.0053699017,0.002857685,-0.630472,0.06972888,0.77307373,0.16550703,0.9851295,0.046121836,-0.7583617,0.15702769,-0.63263726,,0.20660138,1.3419893,0.5569048,0.9942004,-0.047298063,-0.096583694,-0.08006571,-0.92512405,-0.3711267,-0.071798325,0.37670738,-0.92354566,,-0.06769809,0.12388715,-0.09078602,-0.5549904,0.362982,0.74848497,-0.65502137,-0.7453267,-0.12423817,0.5127696,-0.5592246,0.6514101,,-0.023633003,0.25363997,-0.32709187,0.7133725,-0.10185657,-0.6933433,-0.1550213,0.9419334,-0.29787558,0.68342376,0.31997922,0.65615946,,0.937864125711573,-0.134313770148513,0.1719010169,-1.39737378338087,0.686051865322276,0.267731306943742,0.651906167941908,,-0.794182680586626,-0.443362094309229,0.23218498335,1.94089011689276,0.156175519231898,0.165630976959187,0.983331278128361,,-0.129819771424903,-0.40618175017038,0.08760750076,0.052333711583684,,1.8708408E-05,1.9073486E-06,-3.0994415E-06,1,-2.0084903E-05,-8.188188E-06,2.0092353E-05,1,-1.5795231E-06,8.188188E-06,1.5497208E-06,1
0.671118718048092,10:00:39.729372,10:00:32.795676,0,,0.11351387,-0.04003731,0.033119187,0.59101343,-0.40543222,-0.69737214,-0.42482013,-0.8913517,0.15817714,-0.68573403,0.20277297,-0.6990366,,0.09436711,-0.00563173,0.0028561056,-0.6307049,0.06658384,0.77316105,0.1601963,0.9860236,0.045764506,-0.75930804,0.15272146,-0.63255644,,0.20660138,1.3419893,0.5569048,0.9942004,-0.047298063,-0.096583694,-0.08006571,-0.92512405,-0.3711267,-0.071798325,0.37670738,-0.92354566,,-0.06769288,0.12388344,-0.09078304,-0.55499,0.3629891,0.7484818,-0.65501076,-0.7453395,-0.124217145,0.51278365,-0.5592029,0.65141773,,-0.023492867,0.25341576,-0.32722408,0.7137914,-0.09823705,-0.6934345,-0.160154,0.94098353,-0.29816225,0.681801,0.32388192,0.65593284,,0.937864125711573,-0.134329215614261,0.1719010169,-1.39737378338087,0.686051865322276,0.267731306943742,0.651906167941908,,-0.793209616244474,-0.444535949706111,0.23210979853,1.93061530966202,0.157268611230022,0.164494597509194,0.964056678324516,,-0.129819771424903,-0.40618175017038,0.08760750076,0.052333711583684,,1.8708408E-05,1.9073486E-06,-3.0994415E-06,1,-2.0084903E-05,-8.188188E-06,2.0092353E-05,1,-1.5795231E-06,8.188188E-06,1.5497208E-06,1
0.687697662040591,10:00:39.743259,10:00:32.795676,0,,0.11351387,-0.04003731,0.033119187,0.59101343,-0.40543222,-0.69737214,-0.42482013,-0.8913517,0.15817714,-0.68573403,0.20277297,-0.6990366,,0.0943065,-0.0057439506,0.0028567016,-0.63065434,0.066820174,0.7731819,0.16039398,0.9859984,0.04561484,-0.7593082,0.15278095,-0.6325418,,0.20660138,1.3419893,0.5569048,0.9942004,-0.047298063,-0.096583694,-0.08006571,-0.92512405,-0.3711267,-0.071798325,0.37670738,-0.92354566,,-0.06769288,0.12388344,-0.09078304,-0.55499,0.3629891,0.7484818,-0.65501076,-0.7453395,-0.124217145,0.51278365,-0.5592029,0.65141773,,-0.023431165,0.25332037,-0.32728204,0.71373844,-0.09847837,-0.69345474,-0.15998182,0.9409723,-0.29828995,0.6818968,0.32384115,0.65585333,,0.937864125711573,-0.134336938347135,0.1719010169,-1.39737378338087,0.685915228822511,0.267842724847438,0.651906167941908,,-0.792777143203517,-0.445061095541558,0.23207868757,1.93019592977505,0.157405247729787,0.164628215825919,0.950172432703102,,-0.129819771424903,-0.40618175017038,0.08760750076,0.052333711583684,,1.8708408E-05,1.9073486E-06,-3.0994415E-06,1,-2.0084903E-05,-8.188188E-06,2.0092353E-05,1,-1.5795231E-06,8.188188E-06,1.5497208E-06,1
0.701427169027738,10:00:39.761842,10:00:32.795676,0,,0.11350785,-0.04004351,0.03311591,0.5910187,-0.40541843,-0.6973758,-0.42479336,-0.8913631,0.15818483,-0.6857461,0.20275047,-0.6990313,,0.09418992,-0.00596866,0.0028639138,-0.6305734,0.06711954,0.773222,0.16064787,0.9859659,0.045423806,-0.7593218,0.15285951,-0.6325065,,0.20660138,1.3419893,0.5569048,0.9942004,-0.047298063,-0.096583694,-0.08006571,-0.92512405,-0.3711267,-0.071798325,0.37670738,-0.92354566,,-0.06768683,0.123876445,-0.09078286,-0.55499357,0.36297655,0.74848527,-0.6549907,-0.7453587,-0.12420802,0.5128054,-0.5591855,0.6514155,,-0.023313073,0.2531318,-0.327403,0.713656,-0.09878444,-0.69349605,-0.15976784,0.9409591,-0.2984464,0.68203324,0.3237864,0.65573853,,0.937879571177321,-0.134336938347135,0.1719010169,-1.39737378338087,0.685915228822511,0.267842724847438,0.651906167941908,,-0.791889028922981,-0.44608821901383,0.23199442872,1.92935717000111,0.158088430228615,0.165541343629967,0.935144778618749,,-0.129819771424903,-0.40618175017038,0.08760750076,0.052333711583684,,1.8708408E-05,1.9073486E-06,-3.0994415E-06,1,-2.0084903E-05,-8.188188E-06,2.0092353E-05,1,-1.5795231E-06,8.188188E-06,1.5497208E-06,1
0.720174312999006,10:00:39.777228,10:00:32.956466,0,,0.11350785,-0.04004351,0.03311591,0.5910187,-0.40541843,-0.6973758,-0.42479336,-0.8913631,0.15818483,-0.6857461,0.20275047,-0.6990313,,0.09410431,-0.0061520785,0.0028705895,-0.63049346,0.06747344,0.7732563,0.16093522,0.9859297,0.045191407,-0.75932723,0.15293708,-0.6324812,,0.20660138,1.3419893,0.5569048,0.9942004,-0.047298063,-0.096583694,-0.08006571,-0.92512405,-0.3711267,-0.071798325,0.37670738,-0.92354566,,-0.06768683,0.123876445,-0.09078286,-0.55499357,0.36297655,0.74848527,-0.6549907,-0.7453587,-0.12420802,0.5128054,-0.5591855,0.6514155,,-0.02322625,0.25297758,-0.32750145,0.7135733,-0.09914448,-0.6935298,-0.15952031,0.9409385,-0.29864368,0.6821777,0.32373622,0.655613,,0.937910462108818,-0.13434466108001,0.1719010169,-1.39737378338087,0.685915228822511,0.267842724847438,0.651906167941908,,-0.791062696505439,-0.447030392424486,0.23192572535,1.92998623983156,0.158908249227207,0.167731592112708,0.925180790584558,,-0.129819771424903,-0.40618175017038,0.08760750076,0.052333711583684,,1.8708408E-05,1.9073486E-06,-3.0994415E-06,1,-2.0084903E-05,-8.188188E-06,2.0092353E-05,1,-1.5795231E-06,8.188188E-06,1.5497208E-06,1
0.735567336028907,10:00:39.796122,10:00:32.956466,0,,0.11350321,-0.04004246,0.03311546,0.59101045,-0.40544096,-0.69736964,-0.4248067,-0.8913535,0.15820304,-0.6857449,0.20274779,-0.69903326,,0.094041675,-0.0062907636,0.002890259,-0.6304234,0.06766717,0.7732965,0.16105147,0.98591846,0.045023233,-0.7593608,0.15292427,-0.63244414,,0.20660138,1.3419893,0.5569048,0.9942004,-0.047298063,-0.096583694,-0.08006571,-0.92512405,-0.3711267,-0.071798325,0.37670738,-0.92354566,,-0.06768215,0.12387724,-0.0907824,-0.5549859,0.36299947,0.74847984,-0.6550026,-0.7453509,-0.12419196,0.51279855,-0.55918103,0.6514248,,-0.023164403,0.25286746,-0.3275886,0.71350604,-0.09933515,-0.6935716,-0.15943693,0.9409097,-0.29877895,0.68226755,0.32376152,0.6555071,,0.937910462108818,-0.134352383812884,0.1719010169,-1.39737378338087,0.685915228822511,0.267842724847438,0.651906167941908,,-0.790344482348136,-0.447779497513286,0.2318673923,1.93061530966202,0.1597280682258,0.168941695713763,0.918647027939186,,-0.129819771424903,-0.40618175017038,0.08760750076,0.052333711583684,,1.8708408E-05,1.9073486E-06,-3.0994415E-06,1,-2.0084903E-05,-8.188188E-06,2.0092353E-05,1,-1.5795231E-06,8.188188E-06,1.5497208E-06,1
0.754460601019673,10:00:39.815532,10:00:32.956466,0,,0.11350321,-0.04004246,0.03311546,0.59101045,-0.40544096,-0.69736964,-0.4248067,-0.8913535,0.15820304,-0.6857449,0.20274779,-0.69903326,,0.094017535,-0.006340757,0.0029088557,-0.63038486,0.06770672,0.7733245,0.1610321,0.98592514,0.04494676,-0.7593969,0.1528638,-0.6324153,,0.20660138,1.3419893,0.5569048,0.9942004,-0.047298063,-0.096583694,-0.08006571,-0.92512405,-0.3711267,-0.071798325,0.37670738,-0.92354566,,-0.06768215,0.12387724,-0.0907824,-0.5549859,0.36299947,0.74847984,-0.6550026,-0.7453509,-0.12419196,0.51279855,-0.55918103,0.6514248,,-0.023141934,0.2528331,-0.32763034,0.7134723,-0.099367365,-0.6936018,-0.15947314,0.9408855,-0.29883572,0.68229437,0.32382184,0.65544933,,0.937902739375944,-0.134367829278632,0.1719010169,-1.39737378338087,0.685915228822511,0.267842724847438,0.651906167941908,,-0.790035573033167,-0.44808068409538,0.23184535537,1.93061530966202,0.159864704725565,0.169483707731191,0.913256673756755,,-0.129819771424903,-0.40618175017038,0.08760750076,0.052333711583684,,1.8708408E-05,1.9073486E-06,-3.0994415E-06,1,-2.0084903E-05,-8.188188E-06,2.0092353E-05,1,-1.5795231E-06,8.188188E-06,1.5497208E-06,1
0.773861653055064,10:00:39.831191,10:00:32.956466,0,,0.11350321,-0.04004246,0.03311546,0.59101045,-0.40544096,-0.69736964,-0.4248067,-0.8913535,0.15820304,-0.6857449,0.20274779,-0.69903326,,0.09399299,-0.006419152,0.0029416978,-0.6303149,0.0678322,0.7733705,0.16104023,0.9859316,0.044775605,-0.7594533,0.15276647,-0.6323711,,0.20660138,1.3419893,0.5569048,0.9942004,-0.047298063,-0.096583694,-0.08006571,-0.92512405,-0.3711267,-0.071798325,0.37670738,-0.92354566,,-0.06768215,0.12387724,-0.0907824,-0.5549859,0.36299947,0.74847984,-0.6550026,-0.7453509,-0.12419196,0.51279855,-0.55918103,0.6514248,,-0.023120336,0.25278,-0.32769772,0.71340936,-0.099480525,-0.6936503,-0.15949617,0.9408387,-0.29897082,0.6823548,0.32392314,0.6553363,,0.937918184841692,-0.134375552011506,0.1719010169,-1.39737378338087,0.685915228822511,0.267842724847438,0.651906167941908,,-0.789587654526462,-0.448605829930828,0.23181294812,1.93040561971853,0.160274614224862,0.169639526460945,0.909009728037264,,-0.129819771424903,-0.40618175017038,0.08760750076,0.052333711583684,,1.8708408E-05,1.9073486E-06,-3.0994415E-06,1,-2.0084903E-05,-8.188188E-06,2.0092353E-05,1,-1.5795231E-06,8.188188E-06,1.5497208E-06,1
0.789533460047096,10:00:39.853547,10:00:32.956466,0,,0.1135032,-0.04004246,0.033115387,0.59101045,-0.40544096,-0.69736964,-0.4248067,-0.8913535,0.15820304,-0.6857449,0.20274764,-0.69903326,,0.09397973,-0.006483361,0.0029640198,-0.6302712,0.06791143,0.7733992,0.16104847,0.985935,0.044670284,-0.75948775,0.15270919,-0.6323435,,0.20663767,1.3419868,0.5569012,0.99419624,-0.047346275,-0.096603036,-0.08011752,-0.92512155,-0.37112167,-0.071798325,0.37670738,-0.92354566,,-0.06771449,0.12388097,-0.09078219,-0.55500734,0.36295262,0.74848664,-0.6549739,-0.7453705,-0.12422554,0.5128119,-0.5591853,0.6514106,,-0.0231397,0.2527347,-0.32774937,0.7133757,-0.099500805,-0.693682,-0.1595392,0.9408164,-0.29901794,0.68237996,0.32398158,0.65528125,,0.937918184841692,-0.134383274744381,0.1719010169,-1.39737378338087,0.685915228822511,0.267842724847438,0.651906167941908,,-0.789394586204607,-0.449022857506036,0.23177794829,1.93061530966202,0.160411250724627,0.169283072336827,0.911786577161547,,-0.129819771424903,-0.40618175017038,0.08760750076,0.052333711583684,,5.524233E-05,1.0728836E-06,-2.3841858E-06,1,-6.821938E-05,-2.7827919E-05,6.821938E-05,1,-5.3048134E-06,2.7820468E-05,5.275011E-06,1
0.807592406054027,10:00:39.864024,10:00:32.956466,0,,0.11349857,-0.040041402,0.03311497,0.59100217,-0.40546346,-0.6973636,-0.42482013,-0.89134383,0.15822123,-0.68574363,0.20274496,-0.6990352,,0.09398016,-0.006511271,0.0029680133,-0.630281,0.067835175,0.773398,0.16099533,0.9859412,0.044725716,-0.75949097,0.15270323,-0.63234115,,0.20663767,1.3419868,0.5569012,0.99419624,-0.047346275,-0.096603036,-0.08011752,-0.92512155,-0.37112167,-0.071798325,0.37670738,-0.92354566,,-0.067709796,0.12388177,-0.090781726,-0.5549996,0.36297554,0.7484813,-0.65498585,-0.7453627,-0.124209486,0.512805,-0.55918086,0.6514198,,-0.023140209,0.25271168,-0.32776567,0.7133865,-0.099424474,-0.69368184,-0.15958723,0.9408243,-0.2989675,0.68235743,0.32398215,0.65530443,,0.937918184841692,-0.134390997477255,0.1719010169,-1.39737378338087,0.685915228822511,0.267924403587579,0.651742823875774,,-0.789386863471732,-0.449185034896394,0.2317636891,1.93103468954899,0.160411250724627,0.169364751076968,0.919790436402126,,-0.129819771424903,-0.40618175017038,0.08760750076,0.052333711583684,,5.524233E-05,1.0728836E-06,-2.3841858E-06,1,-6.821938E-05,-2.7827919E-05,6.821938E-05,1,-5.3048134E-06,2.7820468E-05,5.275011E-06,1
0.822365200030617,10:00:39.883991,10:00:32.956466,0,,0.11349961,-0.040037304,0.033113718,0.59099764,-0.40548268,-0.6973562,-0.4248317,-0.8913357,0.15823579,-0.6857405,0.20274207,-0.6990392,,0.093982406,-0.006557137,0.0029748082,-0.63061976,0.06408176,0.7734418,0.15516761,0.986874,0.04474953,-0.76042205,0.14823306,-0.63228583,,0.20663767,1.3419868,0.5569012,0.99419624,-0.047346275,-0.096603036,-0.08011752,-0.92512155,-0.37112167,-0.071798325,0.37670738,-0.92354566,,-0.06771064,0.123885065,-0.09077893,-0.5549956,0.36299518,0.7484747,-0.6549953,-0.7453564,-0.12419759,0.5127973,-0.5591765,0.65142965,,-0.023142586,0.25267386,-0.3277925,0.7139159,-0.09518201,-0.69373226,-0.16516536,0.9398748,-0.29892418,0.68047374,0.32798728,0.6552708,,0.937933630307441,-0.134406442943003,0.1719010169,-1.39737378338087,0.685915228822511,0.267924403587579,0.651742823875774,,-0.789425477136104,-0.449416716882621,0.23174165217,1.92705058062278,0.160411250724627,0.170589932179076,0.937268251478494,,-0.129819771424903,-0.40618175017038,0.08760750076,0.052333711583684,,5.524233E-05,1.0728836E-06,-2.3841858E-06,1,-6.821938E-05,-2.7827919E-05,6.821938E-05,1,-5.3048134E-06,2.7820468E-05,5.275011E-06,1
0.842294040019624,10:00:39.896144,10:00:32.956466,0,,0.11349961,-0.040037304,0.033113718,0.59099764,-0.40548268,-0.6973562,-0.4248317,-0.8913357,0.15823579,-0.6857405,0.20274207,-0.6990392,,0.093987174,-0.006569192,0.0029773116,-0.6306292,0.064019516,0.7734393,0.15512326,0.9868789,0.04479438,-0.76042336,0.1482271,-0.63228565,,0.20663767,1.3419868,0.5569012,0.99419624,-0.047346275,-0.096603036,-0.08011752,-0.92512155,-0.37112167,-0.071798325,0.37670738,-0.92354566,,-0.06771064,0.123885065,-0.09077893,-0.5549956,0.36299518,0.7484747,-0.6549953,-0.7453564,-0.12419759,0.5127973,-0.5591765,0.65142965,,-0.023147445,0.25266394,-0.32779974,0.71392596,-0.09511959,-0.6937305,-0.16520472,0.93988067,-0.2988841,0.6804536,0.32798865,0.655291,,0.937956798506064,-0.134406442943003,0.1719010169,-1.39737378338087,0.685915228822511,0.267924403587579,0.651742823875774,,-0.789456368067601,-0.449486221478489,0.23173517072,1.92327616164006,0.160957796723689,0.17006258182415,0.946252175115879,,-0.129819771424903,-0.40618175017038,0.08760750076,0.052333711583684,,5.524233E-05,1.0728836E-06,-2.3841858E-06,1,-6.821938E-05,-2.7827919E-05,6.821938E-05,1,-5.3048134E-06,2.7820468E-05,5.275011E-06,1
0.854486258001998,10:00:39.914043,10:00:32.956466,0,,0.11349961,-0.040037304,0.033113718,0.59099764,-0.40548268,-0.6973562,-0.4248317,-0.8913357,0.15823579,-0.6857405,0.20274207,-0.6990392,,0.093998685,-0.0065995604,0.002988547,-0.63062143,0.0640185,0.7734457,0.15510505,0.9868825,0.044778615,-0.7604335,0.1482037,-0.632279,,0.20663767,1.3419868,0.5569012,0.99419624,-0.047346275,-0.096603036,-0.08011752,-0.92512155,-0.37112167,-0.071798325,0.37670738,-0.92354566,,-0.06771064,0.123885065,-0.09077893,-0.5549956,0.36299518,0.7484747,-0.6549953,-0.7453564,-0.12419759,0.5127973,-0.5591765,0.65142965,,-0.023159778,0.25264132,-0.32782248,0.71391976,-0.09511587,-0.6937374,-0.16522601,0.93987334,-0.2988955,0.68045497,0.32801086,0.6552785,,0.938003134903309,-0.134414165675878,0.1719010169,-1.39737378338087,0.685915228822511,0.267924403587579,0.651742823875774,,-0.78951042719772,-0.449571171540106,0.23173128185,1.9253730610749,0.161504342722751,0.169453552729083,0.972387225697364,,-0.129819771424903,-0.40618175017038,0.08760750076,0.052333711583684,,5.524233E-05,1.0728836E-06,-2.3841858E-06,1,-6.821938E-05,-2.7827919E-05,6.821938E-05,1,-5.3048134E-06,2.7820468E-05,5.275011E-06,1
0.872382689034566,10:00:39.931839,10:00:32.956466,0,,0.11349961,-0.040037304,0.033113718,0.59099764,-0.40548268,-0.6973562,-0.4248317,-0.8913357,0.15823579,-0.6857405,0.20274207,-0.6990392,,0.09401226,-0.00663127,0.0029848814,-0.6306645,0.06383687,0.7734256,0.15501063,0.9868899,0.044942558,-0.760417,0.1482329,-0.6322919,,0.20663767,1.3419868,0.5569012,0.99419624,-0.047346275,-0.096603036,-0.08011752,-0.92512155,-0.37112167,-0.071798325,0.37670738,-0.92354566,,-0.06771064,0.123885065,-0.09077893,-0.5549956,0.36299518,0.7484747,-0.6549953,-0.7453564,-0.12419759,0.5127973,-0.5591765,0.65142965,,-0.023172364,0.25261056,-0.32783243,0.7139619,-0.09493909,-0.6937182,-0.16529955,0.9399053,-0.29875433,0.68039286,0.32797053,0.65536314,,0.93804174856768,-0.134429611141626,0.1719010169,-1.39737378338087,0.685915228822511,0.267924403587579,0.651742823875774,,-0.789556763594965,-0.449632953403099,0.23172998556,1.9253730610749,0.161504342722751,0.169290195248802,0.997215523749775,,-0.129819771424903,-0.40618175017038,0.08760750076,0.052333711583684,,5.524233E-05,1.0728836E-06,-2.3841858E-06,1,-6.821938E-05,-2.7827919E-05,6.821938E-05,1,-5.3048134E-06,2.7820468E-05,5.275011E-06,1
0.890145374054555,10:00:39.955174,10:00:33.115487,0,,0.11350392,-0.04004155,0.033110067,0.59101474,-0.4054431,-0.69736475,-0.42478967,-0.8913584,0.15822159,-0.68575174,0.20272213,-0.6990339,,0.094031975,-0.006665081,0.0029824674,-0.6309919,0.060136676,0.77345514,0.14924966,0.9877769,0.04495898,-0.76129746,0.1438067,-0.63225466,,0.20663767,1.3419868,0.5569012,0.99419624,-0.047346275,-0.096603036,-0.08011752,-0.92512155,-0.37112167,-0.071798325,0.37670738,-0.92354566,,-0.0677148,0.12387976,-0.090776876,-0.55501056,0.3629564,0.7484824,-0.6549609,-0.7453848,-0.124208674,0.5128251,-0.5591638,0.6514187,,-0.02319118,0.2525781,-0.32784387,0.71447295,-0.090754025,-0.69375217,-0.17079614,0.9389314,-0.29872486,0.6784962,0.33192104,0.6553407,,0.938072639499177,-0.134429611141626,0.1719010169,-1.39737378338087,0.685915228822511,0.267924403587579,0.651742823875774,,-0.789587654526462,-0.449694735266093,0.23172998556,1.92348585158354,0.16123106972322,0.168451207434367,1.03135443357184,,-0.129819771424903,-0.40618175017038,0.08760750076,0.052333711583684,,5.524233E-05,1.0728836E-06,-2.3841858E-06,1,-6.821938E-05,-2.7827919E-05,6.821938E-05,1,-5.3048134E-06,2.7820468E-05,5.275011E-06,1
0.913480331015307,10:00:39.965432,10:00:33.115487,0,,0.11350392,-0.04004155,0.033110067,0.59101474,-0.4054431,-0.69736475,-0.42478967,-0.8913584,0.15822159,-0.68575174,0.20272213,-0.6990339,,0.094038345,-0.006681189,0.0029857755,-0.63130164,0.056284543,0.7734924,0.14334217,0.9886472,0.04505104,-0.7621753,0.13931483,-0.6322026,,0.20663767,1.3419868,0.5569012,0.99419624,-0.047346275,-0.096603036,-0.08011752,-0.92512155,-0.37112167,-0.071798325,0.37670738,-0.92354566,,-0.0677148,0.12387976,-0.090776876,-0.55501056,0.3629564,0.7484824,-0.6549609,-0.7453848,-0.124208674,0.5128251,-0.5591638,0.6514187,,-0.02319766,0.25256488,-0.32785353,0.71496826,-0.08641011,-0.6937966,-0.17642297,0.9379232,-0.29862192,0.6765318,0.33590686,0.6553406,,0.938088084964926,-0.134429611141626,0.1719010169,-1.39737378338087,0.685915228822511,0.267924403587579,0.651742823875774,,-0.789587654526462,-0.44972562619759,0.23172868927,1.91803391305294,0.16123106972322,0.168124492473805,1.04180845380443,,-0.129819771424903,-0.40618175017038,0.08760750076,0.052333711583684,,5.524233E-05,1.0728836E-06,-2.3841858E-06,1,-6.821938E-05,-2.7827919E-05,6.821938E-05,1,-5.3048134E-06,2.7820468E-05,5.275011E-06,1
0.923763609025627,10:00:39.982062,10:00:33.115487,0,,0.11350392,-0.04004155,0.033110067,0.59101474,-0.4054431,-0.69736475,-0.42478967,-0.8913584,0.15822159,-0.68575174,0.20272213,-0.6990339,,0.09405266,-0.0067173243,0.0029931664,-0.6293487,0.052061193,0.7753773,0.13778865,0.98942024,0.045405954,-0.7648102,0.13541445,-0.6298638,,0.20663767,1.3419868,0.5569012,0.99419624,-0.047346275,-0.096603036,-0.08011752,-0.92512155,-0.37112167,-0.071798325,0.37670738,-0.92354566,,-0.0677148,0.12387976,-0.090776876,-0.55501056,0.3629564,0.7484824,-0.6549609,-0.7453848,-0.124208674,0.5128251,-0.5591638,0.6514187,,-0.023212237,0.25253516,-0.32787523,0.7134199,-0.081766225,-0.6959499,-0.18268389,0.93712175,-0.29737085,0.6765047,0.33928913,0.65362394,,0.938088084964926,-0.134429611141626,0.1719010169,-1.39737378338087,0.685915228822511,0.267924403587579,0.651742823875774,,-0.789572209060714,-0.44977968532771,0.23172998556,1.91090445497447,0.161504342722751,0.167819977926272,1.04295186226737,,-0.129819771424903,-0.40618175017038,0.08760750076,0.052333711583684,,5.524233E-05,1.0728836E-06,-2.3841858E-06,1,-6.821938E-05,-2.7827919E-05,6.821938E-05,1,-5.3048134E-06,2.7820468E-05,5.275011E-06,1
0.940403088054154,10:00:39.997596,10:00:33.115487,0,,0.11350962,-0.04003852,0.033109277,0.5910183,-0.40543988,-0.6973637,-0.42478788,-0.89135987,0.15821792,-0.6857497,0.20272195,-0.699036,,0.09404783,-0.0067358464,0.0030105412,-0.6293229,0.052060705,0.77539825,0.13773642,0.9894298,0.045357674,-0.7648408,0.13534522,-0.6298415,,0.20663767,1.3419868,0.5569012,0.99419624,-0.047346275,-0.096603036,-0.08011752,-0.92512155,-0.37112167,-0.071798325,0.37670738,-0.92354566,,-0.06772033,0.12388226,-0.09077455,-0.55501425,0.36295313,0.7484813,-0.6549584,-0.74538624,-0.12421283,0.5128242,-0.559164,0.6514192,,-0.023209237,0.2525269,-0.32789955,0.7133987,-0.081757694,-0.6959727,-0.18274596,0.9370988,-0.29740503,0.67651033,0.33935454,0.6535842,,0.9380958076978,-0.1344373338745,0.1719010169,-1.39737378338087,0.685915228822511,0.267924403587579,0.651742823875774,,-0.789556763594965,-0.449818298992081,0.23172998556,1.91153352480492,0.16273407122064,0.166980574273285,1.04458530292872,,-0.129819771424903,-0.40618175017038,0.08760750076,0.052333711583684,,5.524233E-05,1.0728836E-06,-2.3841858E-06,1,-6.821938E-05,-2.7827919E-05,6.821938E-05,1,-5.3048134E-06,2.7820468E-05,5.275011E-06,1
0.955936539045069,10:00:40.015613,10:00:33.115487,0,,0.11350962,-0.04003852,0.033109277,0.5910183,-0.40543988,-0.6973637,-0.42478788,-0.89135987,0.15821792,-0.6857497,0.20272195,-0.699036,,0.094038546,-0.006775126,0.0030507743,-0.6294955,0.048445832,0.7754924,0.13185881,0.99023855,0.045173407,-0.7657341,0.13069198,-0.6297388,,0.20663767,1.3419868,0.5569012,0.99419624,-0.047346275,-0.096603036,-0.08011752,-0.92512155,-0.37112167,-0.071798325,0.37670738,-0.92354566,,-0.06772033,0.12388226,-0.09077455,-0.55501425,0.36295313,0.7484813,-0.6549584,-0.74538624,-0.12421283,0.5128242,-0.559164,0.6514192,,-0.023204224,0.25251088,-0.327954,0.71375924,-0.07762937,-0.69607574,-0.18836235,0.9359468,-0.29752845,0.6745868,0.34347814,0.65341824,,0.938088084964926,-0.1344373338745,0.1719010169,-1.39737378338087,0.685915228822511,0.267924403587579,0.651742823875774,,-0.789525872663469,-0.449949585450943,0.23173128185,1.90482344661342,0.166149983714776,0.165828701483686,1.04948562491274,,-0.129819771424903,-0.40618175017038,0.08760750076,0.052333711583684,,5.524233E-05,1.0728836E-06,-2.3841858E-06,1,-6.821938E-05,-2.7827919E-05,6.821938E-05,1,-5.3048134E-06,2.7820468E-05,5.275011E-06,1
0.973955297027715,10:00:40.030655,10:00:33.115487,0,,0.11350995,-0.040035345,0.033113346,0.59100944,-0.4054569,-0.69736123,-0.42481646,-0.89134693,0.15821391,-0.6857397,0.20274466,-0.6990392,,0.09400517,-0.006820187,0.0031396449,-0.6270861,0.04823972,0.77745485,0.1320275,0.9902216,0.045050353,-0.76767945,0.13089588,-0.6273234,,0.20663767,1.3419868,0.5569012,0.99419624,-0.047346275,-0.096603036,-0.08011752,-0.92512155,-0.37112167,-0.071798325,0.37670738,-0.92354566,,-0.06772085,0.12388676,-0.09077706,-0.555007,0.36296895,0.74847895,-0.65498096,-0.7453656,-0.1242178,0.5128033,-0.5591812,0.6514209,,-0.023180967,0.25251344,-0.32805645,0.7115949,-0.07744862,-0.6983083,-0.1892565,0.93603814,-0.29667246,0.67662007,0.34326997,0.6514223,,0.938080362232051,-0.1344373338745,0.1719010169,-1.39737378338087,0.685915228822511,0.267924403587579,0.651742823875774,,-0.789518149930594,-0.450158099238547,0.23172350411,1.90041995780024,0.168199531211257,0.16717954631344,1.05552935535971,,-0.129819771424903,-0.40618175017038,0.08760750076,0.052333711583684,,5.524233E-05,1.0728836E-06,-2.3841858E-06,1,-6.821938E-05,-2.7827919E-05,6.821938E-05,1,-5.3048134E-06,2.7820468E-05,5.275011E-06,1
0.988993696053512,10:00:40.054587,10:00:33.115487,0,,0.11350995,-0.040035345,0.033113346,0.59100944,-0.4054569,-0.69736123,-0.42481646,-0.89134693,0.15821391,-0.6857397,0.20274466,-0.6990392,,0.093958504,-0.0068662763,0.0032575428,-0.62460625,0.048149243,0.7794542,0.13217136,0.9902164,0.044745237,-0.7696739,0.1309697,-0.6248593,,0.20663767,1.3419868,0.5569012,0.99419624,-0.047346275,-0.096603036,-0.08011752,-0.92512155,-0.37112167,-0.071798325,0.37670738,-0.92354566,,-0.06772085,0.12388676,-0.09077706,-0.555007,0.36296895,0.74847895,-0.65498096,-0.7453656,-0.1242178,0.5128033,-0.5591812,0.6514209,,-0.023147928,0.2525291,-0.3281863,0.7093666,-0.07736745,-0.70058066,-0.19019969,0.93607295,-0.29595864,0.67869216,0.3431934,0.6493037,,0.938080362232051,-0.134445056607375,0.1719010169,-1.39737378338087,0.685915228822511,0.267924403587579,0.651742823875774,,-0.789525872663469,-0.450389781224773,0.23169757831,1.90419437678297,0.17052235170727,0.165775514391444,1.0535692265661,,-0.129819771424903,-0.40618175017038,0.08760750076,0.052333711583684,,5.524233E-05,1.0728836E-06,-2.3841858E-06,1,-6.821938E-05,-2.7827919E-05,6.821938E-05,1,-5.3048134E-06,2.7820468E-05,5.275011E-06,1
1.01292733900482,10:00:40.066061,10:00:33.115487,0,,0.11351029,-0.040032163,0.03311743,0.59100056,-0.40547398,-0.6973588,-0.42484504,-0.89133394,0.15820989,-0.6857296,0.20276737,-0.6990425,,0.093924135,-0.0068928003,0.0033332705,-0.6221775,0.04812955,0.78139544,0.1325051,0.9901821,0.044516116,-0.7715813,0.13123581,-0.6224464,,0.20663767,1.3419868,0.5569012,0.99419624,-0.047346275,-0.096603036,-0.08011752,-0.92512155,-0.37112167,-0.071798325,0.37670738,-0.92354566,,-0.067721374,0.123891264,-0.09077957,-0.5549997,0.36298478,0.7484767,-0.6550035,-0.745345,-0.12422276,0.5127824,-0.55919844,0.65142256,,-0.023122389,0.25254223,-0.32826877,0.7071762,-0.07737891,-0.7027904,-0.19093122,0.9361646,-0.2951967,0.68076944,0.34294072,0.6472593,,0.938088084964926,-0.134445056607375,0.1719010169,-1.39737378338087,0.685915228822511,0.267924403587579,0.651742823875774,,-0.789533595396343,-0.450521067683635,0.23166517106,1.903774996896,0.170932261206566,0.165522939420496,1.05373257063224,,-0.129819771424903,-0.40618175017038,0.08760750076,0.052333711583684,,5.524233E-05,1.0728836E-06,-2.3841858E-06,1,-6.821938E-05,-2.7827919E-05,6.821938E-05,1,-5.3048134E-06,2.7820468E-05,5.275011E-06,1
1.02437046804698,10:00:40.091505,10:00:33.115487,0,,0.11351029,-0.040032163,0.03311743,0.59100056,-0.40547398,-0.6973588,-0.42484504,-0.89133394,0.15820989,-0.6857296,0.20276737,-0.6990425,,0.09377183,-0.0069603026,0.0036233068,-0.61702746,0.04830871,0.78545755,0.13280764,0.99018985,0.04342842,-0.7756542,0.1311113,-0.6173901,,0.20663767,1.3419868,0.5569012,0.99419624,-0.047346275,-0.096603036,-0.08011752,-0.92512155,-0.37112167,-0.071798325,0.37670738,-0.92354566,,-0.067721374,0.123891264,-0.09077957,-0.5549997,0.36298478,0.7484767,-0.6550035,-0.745345,-0.12422276,0.5127824,-0.55919844,0.65142256,,-0.023004537,0.25262406,-0.32857087,0.70254064,-0.077542156,-0.70740646,-0.19285528,0.936103,-0.2941394,0.68501353,0.34307194,0.64269596,,0.9380958076978,-0.134452779340249,0.17189972061,-1.39737378338087,0.685915228822511,0.267924403587579,0.651742823875774,,-0.789549040862091,-0.45096898619034,0.2314785053,1.903774996896,0.174621446700233,0.16365815838266,1.0540592587645,,-0.129819771424903,-0.40618175017038,0.08760750076,0.052333711583684,,5.524233E-05,1.0728836E-06,-2.3841858E-06,1,-6.821938E-05,-2.7827919E-05,6.821938E-05,1,-5.3048134E-06,2.7820468E-05,5.275011E-06,1
1.04984499601414,10:00:40.109513,10:00:33.115487,0,,0.11351493,-0.04003322,0.033117875,0.5910088,-0.40545148,-0.6973649,-0.4248317,-0.8913436,0.15819167,-0.6857308,0.20277005,-0.6990405,,0.0935925,-0.007015258,0.003969133,-0.611717,0.04875375,0.78957295,0.13306656,0.9902189,0.04194951,-0.7798049,0.13072702,-0.61222124,,0.20663767,1.3419868,0.5569012,0.99419624,-0.047346275,-0.096603036,-0.08011752,-0.92512155,-0.37112167,-0.071798325,0.37670738,-0.92354566,,-0.06772606,0.12389047,-0.090780035,-0.5550074,0.3629619,0.7484821,-0.65499157,-0.7453528,-0.12423883,0.51278925,-0.5592029,0.65141326,,-0.022866633,0.2527442,-0.3289192,0.69775563,-0.07793896,-0.7120833,-0.19486415,0.9359246,-0.29338217,0.6893222,0.34346855,0.6378591,,0.938088084964926,-0.134452779340249,0.17189972061,-1.39737378338087,0.685915228822511,0.267924403587579,0.651742823875774,,-0.789541318129217,-0.451270172772435,0.23128276551,1.90608158627433,0.1783106321939,0.163590309627917,1.05471263502904,,-0.129819771424903,-0.40618175017038,0.08760750076,0.052333711583684,,5.524233E-05,1.0728836E-06,-2.3841858E-06,1,-6.821938E-05,-2.7827919E-05,6.821938E-05,1,-5.3048134E-06,2.7820468E-05,5.275011E-06,1
1.06782622804167,10:00:40.128127,10:00:33.115487,0,,0.11351852,-0.04003837,0.03311956,0.5910216,-0.40540975,-0.6973783,-0.4248067,-0.8913613,0.15815894,-0.6857352,0.20277566,-0.69903463,,0.09351906,-0.007032156,0.004125029,-0.60910577,0.048802797,0.7915861,0.13313116,0.99023366,0.041391313,-0.7818353,0.13059649,-0.60965425,,0.20663767,1.3419868,0.5569012,0.99419624,-0.047346275,-0.096603036,-0.08011752,-0.92512155,-0.37112167,-0.071798325,0.37670738,-0.92354566,,-0.06772991,0.12388637,-0.09078329,-0.55501914,0.36291933,0.748494,-0.6549702,-0.7453669,-0.12426678,0.51280385,-0.55921173,0.65139425,,-0.022811925,0.25280485,-0.32907188,0.6954023,-0.07797242,-0.71437794,-0.19590282,0.93587524,-0.29284742,0.6914027,0.34359545,0.6355348,,0.938088084964926,-0.134452779340249,0.17189972061,-1.39737378338087,0.685915228822511,0.267924403587579,0.651742823875774,,-0.789533595396343,-0.451401459231297,0.23117776602,1.90629127621781,0.180633452689912,0.163166422587608,1.05503932316131,,-0.129819771424903,-0.40618175017038,0.08760750076,0.052333711583684,,5.524233E-05,1.0728836E-06,-2.3841858E-06,1,-6.821938E-05,-2.7827919E-05,6.821938E-05,1,-5.3048134E-06,2.7820468E-05,5.275011E-06,1
1.08645775902551,10:00:40.145182,10:00:33.319498,0,,0.11351886,-0.04003519,0.033123642,0.5910128,-0.40542677,-0.6973759,-0.4248353,-0.8913484,0.15815492,-0.6857251,0.2027984,-0.6990379,,0.09333035,-0.007089868,0.0045213103,-0.60366035,0.049341936,0.7957133,0.13324709,0.99028814,0.0396792,-0.78602767,0.12997925,-0.60437244,,0.20663767,1.3419868,0.5569012,0.99419624,-0.047346275,-0.096603036,-0.08011752,-0.92512155,-0.37112167,-0.071798325,0.37670738,-0.92354566,,-0.067730434,0.12389088,-0.09078581,-0.55501187,0.36293516,0.74849176,-0.65499276,-0.74534625,-0.12427175,0.51278293,-0.55922896,0.6513959,,-0.02267065,0.25294608,-0.32946697,0.6904903,-0.078435436,-0.7190765,-0.19806668,0.93560743,-0.29224694,0.6956959,0.34421876,0.63049245,,0.938088084964926,-0.134452779340249,0.17189842432,-1.39716409343739,0.685915228822511,0.267924403587579,0.651742823875774,,-0.789518149930594,-0.45171809127914,0.23082906401,1.9065009661613,0.188011823677246,0.163194082558403,1.05438594689677,,-0.129819771424903,-0.40618175017038,0.08760750076,0.052333711583684,,5.524233E-05,1.0728836E-06,-2.3841858E-06,1,-6.821938E-05,-2.7827919E-05,6.821938E-05,1,-5.3048134E-06,2.7820468E-05,5.275011E-06,1
1.10351286403602,10:00:40.165412,10:00:33.319498,0,,0.11352024,-0.040027924,0.033126473,0.5909993,-0.40546307,-0.69736624,-0.42487544,-0.8913274,0.15816543,-0.68571186,0.20281821,-0.6990451,,0.09307362,-0.007171914,0.0050497055,-0.5979093,0.050245926,0.7999875,0.13309926,0.9904015,0.037272662,-0.790436,0.12876344,-0.598858,,0.20663767,1.3419868,0.5569012,0.99419624,-0.047346275,-0.096603036,-0.08011752,-0.92512155,-0.37112167,-0.071798325,0.37670738,-0.92354566,,-0.06773179,0.12389868,-0.090785526,-0.5550006,0.36297062,0.74848294,-0.6550247,-0.7453193,-0.124264814,0.5127543,-0.5592419,0.65140736,,-0.022477113,0.25313017,-0.32999656,0.68530405,-0.0791907,-0.72393864,-0.20058335,0.9350959,-0.2921677,0.70008904,0.34543374,0.6249407,,0.938080362232051,-0.134452779340249,0.17189842432,-1.3969544034939,0.685915228822511,0.267924403587579,0.651742823875774,,-0.789549040862091,-0.45206561425848,0.23045832507,1.90838817565266,0.194707012165753,0.164350583228664,1.05520266722744,,-0.129819771424903,-0.40618175017038,0.08760750076,0.052333711583684,,5.524233E-05,1.0728836E-06,-2.3841858E-06,1,-6.821938E-05,-2.7827919E-05,6.821938E-05,1,-5.3048134E-06,2.7820468E-05,5.275011E-06,1
1.12375024502398,10:00:40.189206,10:00:33.319498,0,,0.113521285,-0.040023834,0.03312522,0.59099466,-0.40548232,-0.69735897,-0.42488703,-0.89131933,0.15817997,-0.68570864,0.2028153,-0.6990491,,0.092759505,-0.007307738,0.0056697726,-0.58960515,0.05103053,0.806078,0.13309863,0.9904969,0.034649283,-0.79664963,0.12771732,-0.59079415,,0.20663767,1.3419868,0.5569012,0.99419624,-0.047346275,-0.096603036,-0.08011752,-0.92512155,-0.37112167,-0.071798325,0.37670738,-0.92354566,,-0.067732625,0.12390197,-0.09078273,-0.55499655,0.36299026,0.7484764,-0.6550342,-0.745313,-0.124252915,0.5127466,-0.55923754,0.65141714,,-0.022236692,0.25331193,-0.33063745,0.6777945,-0.07984726,-0.7309029,-0.20395924,0.93465334,-0.29124522,0.7063959,0.3464788,0.6172173,,0.938080362232051,-0.134445056607375,0.17189712803,-1.3969544034939,0.685915228822511,0.267924403587579,0.651742823875774,,-0.789610822725085,-0.452482641833688,0.22999295696,1.90859786559614,0.203451748150741,0.163509100382916,1.05471263502904,,-0.129819771424903,-0.40618175017038,0.08760750076,0.052333711583684,,5.524233E-05,1.0728836E-06,-2.3841858E-06,1,-6.821938E-05,-2.7827919E-05,6.821938E-05,1,-5.3048134E-06,2.7820468E-05,5.275011E-06,1
1.14754314301535,10:00:40.199715,10:00:33.319498,0,,0.113521285,-0.040023834,0.03312522,0.59099466,-0.40548232,-0.69735897,-0.42488703,-0.89131933,0.15817997,-0.68570864,0.2028153,-0.6990491,,0.09258841,-0.007394165,0.0060061812,-0.5865464,0.051695872,0.8082641,0.13287927,0.99058026,0.03307207,-0.7989408,0.12679988,-0.5878906,,0.20663767,1.3419868,0.5569012,0.99419624,-0.047346275,-0.096603036,-0.08011752,-0.92512155,-0.37112167,-0.071798325,0.37670738,-0.92354566,,-0.067732625,0.12390197,-0.09078273,-0.55499655,0.36299026,0.7484764,-0.6550342,-0.745313,-0.124252915,0.5127466,-0.55923754,0.65141714,,-0.022105405,0.25339928,-0.33099112,0.6750319,-0.08040047,-0.7333946,-0.2053985,0.9342665,-0.29147476,0.7086207,0.34739292,0.6141456,,0.938088084964926,-0.134452779340249,0.17189712803,-1.3969544034939,0.685915228822511,0.267924403587579,0.651742823875774,,-0.78965715912233,-0.452745214751412,0.22972332864,1.90901724548311,0.207687479643469,0.163158937493668,1.05471263502904,,-0.129819771424903,-0.40618175017038,0.08760750076,0.052333711583684,,5.524233E-05,1.0728836E-06,-2.3841858E-06,1,-6.821938E-05,-2.7827919E-05,6.821938E-05,1,-5.3048134E-06,2.7820468E-05,5.275011E-06,1
1.15804914402543,10:00:40.223973,10:00:33.319498,0,,0.11352373,-0.040012486,0.03312683,0.5909766,-0.40553784,-0.697342,-0.4249387,-0.8912902,0.15820506,-0.6856922,0.20283219,-0.6990604,,0.092024885,-0.007740721,0.007057458,-0.5772468,0.05378357,0.8147966,0.1320887,0.99083734,0.02817516,-0.8058156,0.123889446,-0.579062,,0.20663767,1.3419868,0.5569012,0.99419624,-0.047346275,-0.096603036,-0.08011752,-0.92512155,-0.37112167,-0.071798325,0.37670738,-0.92354566,,-0.06773482,0.12391307,-0.09077966,-0.5549813,0.36304533,0.748461,-0.6550756,-0.7452797,-0.12423408,0.5127102,-0.5592461,0.6514384,,-0.021665394,0.2536062,-0.33213407,0.6666234,-0.08213248,-0.74085593,-0.20984294,0.93303436,-0.29225475,0.71524763,0.35028723,0.60474765,,0.938088084964926,-0.134445056607375,0.17189712803,-1.3969544034939,0.685915228822511,0.267924403587579,0.651742823875774,,-0.789827059245563,-0.453695110894941,0.22880166645,1.91090445497447,0.218208490125408,0.163237705363943,1.05242581810316,,-0.129819771424903,-0.40618175017038,0.08760750076,0.052333711583684,,5.524233E-05,1.0728836E-06,-2.3841858E-06,1,-6.821938E-05,-2.7827919E-05,6.821938E-05,1,-5.3048134E-06,2.7820468E-05,5.275011E-06,1
1.18230321805459,10:00:40.240667,10:00:33.319498,0,,0.11352478,-0.040008396,0.03312558,0.59097195,-0.4055571,-0.6973347,-0.42495033,-0.89128214,0.15821958,-0.685689,0.2028293,-0.6990644,,0.09185241,-0.007859632,0.007373333,-0.5741956,0.054467566,0.81690437,0.13193245,0.9908999,0.026665464,-0.80801815,0.123087406,-0.57615656,,0.20663767,1.3419868,0.5569012,0.99419624,-0.047346275,-0.096603036,-0.08011752,-0.92512155,-0.37112167,-0.071798325,0.37670738,-0.92354566,,-0.06773566,0.123916365,-0.09077687,-0.55497724,0.36306497,0.74845445,-0.6550851,-0.7452734,-0.12422218,0.51270247,-0.55924183,0.6514482,,-0.02152984,0.25365543,-0.33248457,0.6638569,-0.08271757,-0.74327105,-0.21118541,0.9326802,-0.29241815,0.7174223,0.3510918,0.60169744,,0.9380958076978,-0.1344373338745,0.17189583174,-1.3969544034939,0.685915228822511,0.267924403587579,0.651742823875774,,-0.789896563841431,-0.454135306668772,0.2284711125,1.91090445497447,0.22176103911931,0.163199595772756,1.04507533512712,,-0.129819771424903,-0.40618175017038,0.08760750076,0.052333711583684,,5.524233E-05,1.0728836E-06,-2.3841858E-06,1,-6.821938E-05,-2.7827919E-05,6.821938E-05,1,-5.3048134E-06,2.7820468E-05,5.275011E-06,1
1.19900772103574,10:00:40.259453,10:00:33.319498,0,,0.11352654,-0.040003404,0.033119023,0.59097165,-0.4055785,-0.6973225,-0.42494488,-0.89127874,0.15825269,-0.68569267,0.20280081,-0.699069,,0.09145882,-0.008167103,0.008065522,-0.5703215,0.056441057,0.81948024,0.13122375,0.9910844,0.023065686,-0.81087226,0.12069017,-0.5726431,,0.20663767,1.3419868,0.5569012,0.99419624,-0.047346275,-0.096603036,-0.08011752,-0.92512155,-0.37112167,-0.071798325,0.37670738,-0.92354566,,-0.06773681,0.12391845,-0.09076878,-0.5549765,0.3630884,0.74844366,-0.65508145,-0.74528134,-0.12419341,0.51270795,-0.55921596,0.65146613,,-0.021216609,0.25372273,-0.33327574,0.6603582,-0.08439589,-0.74619323,-0.21336953,0.93162405,-0.29419398,0.7200003,0.35348833,0.59719807,,0.938088084964926,-0.1344373338745,0.17189583174,-1.3969544034939,0.685915228822511,0.267924403587579,0.651742823875774,,-0.790020127567419,-0.45515470740817,0.2277840788,1.91174321474841,0.228456227607816,0.1619057342388,1.04556536732552,,-0.129819771424903,-0.40618175017038,0.08760750076,0.052333711583684,,5.524233E-05,1.0728836E-06,-2.3841858E-06,1,-6.821938E-05,-2.7827919E-05,6.821938E-05,1,-5.3048134E-06,2.7820468E-05,5.275011E-06,1
1.21774777700193,10:00:40.277247,10:00:33.319498,0,,0.1135297,-0.03999114,0.033115298,0.5909253,-0.4057723,-0.6972491,-0.42506137,-0.8911972,0.15839913,-0.6856604,0.2027717,-0.6991091,,0.09101839,-0.008558407,0.008795708,-0.56637454,0.058494724,0.8220695,0.13042401,0.99126995,0.019322932,-0.8137626,0.11816165,-0.5690592,,0.20663767,1.3419868,0.5569012,0.99419624,-0.047346275,-0.096603036,-0.08011752,-0.92512155,-0.37112167,-0.071798325,0.37670738,-0.92354566,,-0.06773932,0.12392834,-0.0907604,-0.55493605,0.36328617,0.7483777,-0.65517664,-0.7452176,-0.12407354,0.51263005,-0.55917245,0.6515647,,-0.020860188,0.25373593,-0.33414355,0.6567928,-0.0861383,-0.7491351,-0.21565582,0.93050396,-0.29606572,0.7225758,0.3560092,0.5925721,,0.938080362232051,-0.1344373338745,0.17189453545,-1.3969544034939,0.686051865322276,0.267812985683882,0.651742823875774,,-0.790128245827658,-0.45654479932553,0.22701797141,1.91279166446583,0.233238505099607,0.161763329655891,1.03609141148973,,-0.129819771424903,-0.40618175017038,0.08760750076,0.052333711583684,,5.524233E-05,1.0728836E-06,-2.3841858E-06,1,-6.821938E-05,-2.7827919E-05,6.821938E-05,1,-5.3048134E-06,2.7820468E-05,5.275011E-06,1
1.2355861570104,10:00:40.295833,10:00:33.319498,0,,0.11353749,-0.03997995,0.033112004,0.5909197,-0.40580752,-0.6972333,-0.42508262,-0.8911826,0.15842453,-0.6856521,0.20276567,-0.69911903,,0.09053785,-0.009032726,0.009539932,-0.56481206,0.0608536,0.82297283,0.12923636,0.9914944,0.015381128,-0.8150371,0.11504549,-0.5678725,,0.20663767,1.3419868,0.5569012,0.99419624,-0.047346275,-0.096603036,-0.08011752,-0.92512155,-0.37112167,-0.071798325,0.37670738,-0.92354566,,-0.06774652,0.12393742,-0.09075249,-0.5549317,0.36332214,0.74836344,-0.6551931,-0.7452065,-0.1240539,0.5126138,-0.559164,0.6515848,,-0.020464415,0.2536844,-0.33506575,0.65540916,-0.08811475,-0.7501164,-0.21739401,0.9291314,-0.29908985,0.72331095,0.35909703,0.5898056,,0.938088084964926,-0.1344373338745,0.17189453545,-1.3969544034939,0.685915228822511,0.267924403587579,0.651742823875774,,-0.790190027690652,-0.458313305153728,0.22624408628,1.91258197452235,0.236381144594212,0.160670935193404,1.03935829281242,,-0.129819771424903,-0.40618175017038,0.08760750076,0.052333711583684,,5.524233E-05,1.0728836E-06,-2.3841858E-06,1,-6.821938E-05,-2.7827919E-05,6.821938E-05,1,-5.3048134E-06,2.7820468E-05,5.275011E-06,1
1.25417432101676,10:00:40.308937,10:00:33.319498,0,,0.11353959,-0.03997177,0.033109516,0.59091043,-0.405846,-0.6972187,-0.4251058,-0.8911664,0.15845361,-0.68564564,0.20275983,-0.699127,,0.09028356,-0.009301722,0.009900421,-0.56402725,0.06222765,0.82340825,0.1288245,0.99157804,0.013306826,-0.8156455,0.113580614,-0.5672935,,0.20663767,1.3419868,0.5569012,0.99419624,-0.047346275,-0.096603036,-0.08011752,-0.92512155,-0.37112167,-0.071798325,0.37670738,-0.92354566,,-0.0677482,0.123944014,-0.09074691,-0.55492365,0.3633614,0.7483503,-0.655212,-0.7451938,-0.124030106,0.5125983,-0.55915534,0.6516044,,-0.020250775,0.25362602,-0.33553258,0.65470785,-0.08930683,-0.75058776,-0.21808857,0.9284489,-0.3006992,0.7237369,0.3605647,0.58838594,,0.938088084964926,-0.1344373338745,0.17189453545,-1.39653502360693,0.685778592322746,0.268035821491275,0.651742823875774,,-0.7902054731564,-0.459355874091748,0.22586427331,1.91258197452235,0.236791054093508,0.160418360222455,1.03919494874628,,-0.129819771424903,-0.40618175017038,0.08760750076,0.052333711583684,,5.524233E-05,1.0728836E-06,-2.3841858E-06,1,-6.821938E-05,-2.7827919E-05,6.821938E-05,1,-5.3048134E-06,2.7820468E-05,5.275011E-06,1
1.2672799960128,10:00:40.327673,10:00:33.319498,0,,0.11354667,-0.039961472,0.033111557,0.5881407,-0.40935507,-0.6975092,-0.43031305,-0.88862395,0.1586762,-0.6847783,0.20682347,-0.69878674,,0.08978936,-0.009848744,0.010549545,-0.56320393,0.058318228,0.8242575,0.11658026,0.9931368,0.009390891,-0.8180528,0.10138118,-0.5661373,,0.20663767,1.3419868,0.5569012,0.99419624,-0.047346275,-0.096603036,-0.08011752,-0.92512155,-0.37112167,-0.071798325,0.37670738,-0.92354566,,-0.06775508,0.12395432,-0.0907443,-0.55238134,0.36665788,0.7486233,-0.6596891,-0.7412894,-0.1236942,0.50959307,-0.56218505,0.6513547,,-0.019829161,0.25346765,-0.33640552,0.65434915,-0.08400361,-0.7515122,-0.23011573,0.92455757,-0.30371055,0.72032905,0.37166753,0.5856529,,0.9380958076978,-0.1344373338745,0.17189453545,-1.38982494541543,0.683729044826264,0.270197162487565,0.651742823875774,,-0.790213195889274,-0.461734475817009,0.2251007585,1.9104850750875,0.238020782591397,0.159088884128625,1.02988433697663,,-0.129819771424903,-0.40618175017038,0.08760750076,0.052333711583684,,5.524233E-05,1.0728836E-06,-2.3841858E-06,1,-6.821938E-05,-2.7827919E-05,6.821938E-05,1,-5.3048134E-06,2.7820468E-05,5.275011E-06,1
1.28601176501252,10:00:40.341332,10:00:33.319498,0,,0.113555945,-0.039963596,0.033112437,0.58815736,-0.4093102,-0.6975215,-0.43028647,-0.8886433,0.15863974,-0.6847807,0.20682892,-0.69878274,,0.089528866,-0.010150388,0.010864854,-0.56281114,0.05635462,0.8246623,0.11048311,0.99384975,0.0074855983,-0.81916857,0.09532425,-0.56557596,,0.20663767,1.3419868,0.5569012,0.99419624,-0.047346275,-0.096603036,-0.08011752,-0.92512155,-0.37112167,-0.071798325,0.37670738,-0.92354566,,-0.06776445,0.12395272,-0.090745226,-0.552397,0.36661217,0.74863416,-0.65966547,-0.7413051,-0.123726316,0.5096068,-0.5621941,0.6513361,,-0.019603556,0.25336015,-0.336848,0.6541778,-0.0813473,-0.7519535,-0.23606597,0.92257285,-0.3051757,0.71855706,0.3771498,0.58432335,,0.9380958076978,-0.1344373338745,0.17189453545,-1.38626021637619,0.681952770329313,0.272053988936321,0.65157947980964,,-0.790182304957778,-0.462916053946766,0.22476631568,1.90419437678297,0.240070330087879,0.157499294313319,1.02890427257983,,-0.129819771424903,-0.40618175017038,0.08760750076,0.052333711583684,,5.524233E-05,1.0728836E-06,-2.3841858E-06,1,-6.821938E-05,-2.7827919E-05,6.821938E-05,1,-5.3048134E-06,2.7820468E-05,5.275011E-06,1
1.29967160505475,10:00:40.360621,10:00:33.319498,0,,0.113575175,-0.039961457,0.033122376,0.5881729,-0.40925443,-0.6975412,-0.4302902,-0.88865596,0.15855889,-0.684765,0.20688516,-0.6987815,,0.088989004,-0.010782108,0.011447668,-0.56208503,0.052552935,0.82540816,0.09853488,0.9951264,0.0037413836,-0.821189,0.08343449,-0.564524,,0.20663767,1.3419868,0.5569012,0.99419624,-0.047346275,-0.096603036,-0.08011752,-0.92512155,-0.37112167,-0.071798325,0.37670738,-0.92354566,,-0.06778424,0.123958535,-0.090752095,-0.55241364,0.36655226,0.7486512,-0.65966284,-0.74129504,-0.12380049,0.50959206,-0.5622465,0.6513024,,-0.019127553,0.25309947,-0.33770573,0.65386564,-0.0761837,-0.7527654,-0.24764797,0.91856426,-0.3080749,0.7149337,0.38786042,0.58175087,,0.938103530430674,-0.1344373338745,0.17189453545,-1.3902443253024,0.68236267982861,0.271883092705513,0.65157947980964,,-0.790027850300293,-0.466043760760827,0.2239600233,1.8861610416433,0.245262517078966,0.153510450193277,1.02596407938941,,-0.129819771424903,-0.40618175017038,0.08760750076,0.052333711583684,,5.524233E-05,1.0728836E-06,-2.3841858E-06,1,-6.821938E-05,-2.7827919E-05,6.821938E-05,1,-5.3048134E-06,2.7820468E-05,5.275011E-06,1
1.3189412089996,10:00:40.376362,10:00:33.549859,0,,0.11360037,-0.039947674,0.033149064,0.58816075,-0.40924415,-0.69755733,-0.43039465,-0.88862586,0.15844378,-0.68470967,0.20703453,-0.69879144,,0.08844542,-0.011440501,0.011975557,-0.5616456,0.045704402,0.82611465,0.08109015,0.9967067,-1.2069941E-05,-0.8233946,0.066983014,-0.5635022,,0.20663767,1.3419868,0.5569012,0.99419624,-0.047346275,-0.096603036,-0.08011752,-0.92512155,-0.37112167,-0.071798325,0.37670738,-0.92354566,,-0.067810796,0.12398158,-0.09076947,-0.55240864,0.36653262,0.7486645,-0.659738,-0.74120975,-0.12391059,0.50950015,-0.56237173,0.6512662,,-0.01864096,0.25279042,-0.3385275,0.6539382,-0.06745941,-0.75353444,-0.26417872,0.91295826,-0.31099334,0.7089249,0.40243816,0.5791969,,0.938103530430674,-0.1344373338745,0.17189453545,-1.38919587558497,0.68263595282814,0.27166025689812,0.65157947980964,,-0.789703495519576,-0.46924869490363,0.22325743412,1.87693468412998,0.249361612071929,0.150576306783087,1.02041038114084,,-0.129819771424903,-0.40618175017038,0.08760750076,0.052333711583684,,5.524233E-05,1.0728836E-06,-2.3841858E-06,1,-6.821938E-05,-2.7827919E-05,6.821938E-05,1,-5.3048134E-06,2.7820468E-05,5.275011E-06,1
1.33470450504683,10:00:40.392175,10:00:33.549859,0,,0.11361374,-0.039917074,0.033185437,0.58809215,-0.40937135,-0.6975406,-0.43063623,-0.8885192,0.15838584,-0.68461686,0.20724082,-0.6988213,,0.0878159,-0.012195781,0.012499988,-0.5609026,0.04289317,0.82676995,0.06999001,0.99753845,-0.0042696,-0.82491803,0.055470794,-0.56252414,,0.20663767,1.3419868,0.5569012,0.99419624,-0.047346275,-0.096603036,-0.08011752,-0.92512155,-0.37112167,-0.071798325,0.37670738,-0.92354566,,-0.06782569,0.12402385,-0.090790205,-0.552354,0.36664852,0.74864805,-0.65992534,-0.7410321,-0.12397554,0.50931686,-0.5625302,0.6512727,,-0.018067278,0.25239944,-0.33939916,0.65353835,-0.063317575,-0.75424033,-0.27478272,0.9086595,-0.31437612,0.70525324,0.41270906,0.5764453,,0.938088084964926,-0.134429611141626,0.17188675771,-1.388776495698,0.682772589327906,0.271467160254283,0.651416135743506,,-0.789170626951254,-0.47268531103266,0.22257817816,1.86162731825561,0.253050797565596,0.147894738343846,1.02302388619899,,-0.129819771424903,-0.40618175017038,0.08760750076,0.052333711583684,,5.524233E-05,1.0728836E-06,-2.3841858E-06,1,-6.821938E-05,-2.7827919E-05,6.821938E-05,1,-5.3048134E-06,2.7820468E-05,5.275011E-06,1
1.34984638600145,10:00:40.411392,10:00:33.549859,0,,0.11361968,-0.039899945,0.0332157,0.5880425,-0.40944862,-0.6975371,-0.43081093,-0.8884453,0.15832503,-0.68454957,0.20740479,-0.69883853,,0.0874524,-0.01262863,0.012760758,-0.56068444,0.038631704,0.82712793,0.05886647,0.99824315,-0.0067199767,-0.8259345,0.044922292,-0.56197363,,0.20663767,1.3419868,0.5569012,0.99419624,-0.047346275,-0.096603036,-0.08011752,-0.92512155,-0.37112167,-0.071798325,0.37670738,-0.92354566,,-0.067833185,0.12405131,-0.09081104,-0.55231446,0.3667165,0.74864393,-0.6600608,-0.74090093,-0.124038294,0.5091841,-0.56265867,0.6512655,,-0.01773108,0.25215748,-0.33986384,0.6536,-0.057848085,-0.75462615,-0.28514233,0.9047822,-0.3163274,0.70107126,0.42192745,0.5748707,,0.938088084964926,-0.134414165675878,0.17187897997,-1.38898618564149,0.682772589327906,0.271467160254283,0.651742823875774,,-0.788699540245927,-0.474739557977203,0.22219188374,1.85617537972501,0.255373618061608,0.145837276500726,1.02204382180219,,-0.129819771424903,-0.40618175017038,0.08760750076,0.052333711583684,,5.524233E-05,1.0728836E-06,-2.3841858E-06,1,-6.821938E-05,-2.7827919E-05,6.821938E-05,1,-5.3048134E-06,2.7820468E-05,5.275011E-06,1
1.36972480005352,10:00:40.429525,10:00:33.549859,0,,0.11362833,-0.03985735,0.033278584,0.5879544,-0.40952593,-0.697566,-0.4311324,-0.8883242,0.15812927,-0.6844228,0.20777056,-0.698854,,0.08673598,-0.013472393,0.013215542,-0.5599945,0.036719907,0.82768214,0.048608303,0.9987526,-0.011421859,-0.82706916,0.033836067,-0.561081,,0.20663767,1.3419868,0.5569012,0.99419624,-0.047346275,-0.096603036,-0.08011752,-0.92512155,-0.37112167,-0.071798325,0.37670738,-0.92354566,,-0.067844845,0.12411484,-0.090851925,-0.55224526,0.36677206,0.7486678,-0.6603089,-0.74064857,-0.12422499,0.5089375,-0.56295466,0.6512025,,-0.01706161,0.25166208,-0.34072313,0.65319496,-0.054645102,-0.75521535,-0.2948182,0.90033025,-0.32013702,0.6974371,0.4317631,0.57198083,,0.938088084964926,-0.134390997477255,0.17185305417,-1.38856680575452,0.682499316328375,0.272098389762379,0.65157947980964,,-0.787587466712038,-0.478469637955454,0.22148799827,1.84569088255078,0.259882622553868,0.142160485678744,1.02171713366992,,-0.129819771424903,-0.40618175017038,0.08760750076,0.052333711583684,,5.524233E-05,1.0728836E-06,-2.3841858E-06,1,-6.821938E-05,-2.7827919E-05,6.821938E-05,1,-5.3048134E-06,2.7820468E-05,5.275011E-06,1
1.38786816800712,10:00:40.448776,10:00:33.549859,0,,0.11363263,-0.039799556,0.03337206,0.587838,-0.40957025,-0.69763803,-0.4315622,-0.8881755,0.15779176,-0.68425184,0.2083183,-0.69885844,,0.086007684,-0.0143084675,0.013597786,-0.55715525,0.031233601,0.8298208,0.032833874,0.9993395,-0.015568882,-0.82975906,0.018571943,-0.5578128,,0.20663767,1.3419868,0.5569012,0.99419624,-0.047346275,-0.096603036,-0.08011752,-0.92512155,-0.37112167,-0.071798325,0.37670738,-0.92354566,,-0.06785381,0.12420416,-0.09091546,-0.5521542,0.36678296,0.7487296,-0.66064,-0.7403006,-0.12453831,0.50860643,-0.5634051,0.6510716,,-0.016371872,0.25114137,-0.34151605,0.65091825,-0.047399744,-0.75766665,-0.310245,0.8942896,-0.3224812,0.69285893,0.44497117,0.5674039,,0.938103530430674,-0.13434466108001,0.17179990628,-1.3875183560371,0.682226043328844,0.272974655490896,0.65157947980964,,-0.785734010822224,-0.48308783221424,0.22073485378,1.83289979599823,0.264801536545424,0.138067762405532,1.0182869082811,,-0.129819771424903,-0.40618175017038,0.08760750076,0.052333711583684,,5.524233E-05,1.0728836E-06,-2.3841858E-06,1,-6.821938E-05,-2.7827919E-05,6.821938E-05,1,-5.3048134E-06,2.7820468E-05,5.275011E-06,1
1.40709548903396,10:00:40.464302,10:00:33.549859,0,,0.11363724,-0.039733052,0.03348303,0.58974373,-0.4095707,-0.6960275,-0.43257385,-0.88799745,0.156014,-0.6819694,0.20907512,-0.7008605,,0.08496408,-0.01547873,0.014072776,-0.5565258,0.027867053,0.83036286,0.017801285,0.9996078,-0.021616131,-0.8306396,0.0027516484,-0.5568037,,0.20663767,1.3419868,0.5569012,0.99419624,-0.047346275,-0.096603036,-0.08011752,-0.92512155,-0.37112167,-0.071798325,0.37670738,-0.92354566,,-0.06786402,0.12430826,-0.09099173,-0.554243,0.36673665,0.7472074,-0.660692,-0.739845,-0.12694688,0.5062616,-0.5640334,0.6523539,,-0.015375313,0.2503869,-0.34257522,0.65061104,-0.042188685,-0.7582384,-0.3240437,0.88757175,-0.3274325,0.6868049,0.45873356,0.563793,,0.938149866827919,-0.134267433751267,0.17171824001,-1.38730866609361,0.681406224330251,0.273888199133497,0.651742823875774,,-0.783285904501095,-0.487760085603146,0.22004133863,1.82388312842839,0.270950179034868,0.133789065400458,1.01060973717279,,-0.129819771424903,-0.40618175017038,0.08760750076,0.052333711583684,,5.524233E-05,1.0728836E-06,-2.3841858E-06,1,-6.821938E-05,-2.7827919E-05,6.821938E-05,1,-5.3048134E-06,2.7820468E-05,5.275011E-06,1
1.42264327203156,10:00:40.482394,10:00:33.549859,0,,0.113639206,-0.039702967,0.033534437,0.589679,-0.40960014,-0.696065,-0.4328109,-0.8879137,0.15583324,-0.681875,0.209373,-0.7008635,,0.08451087,-0.015977591,0.014262199,-0.55381685,0.027163036,0.8321954,0.013189495,0.9996284,-0.02385062,-0.8325341,-0.0022326112,-0.5539693,,0.20663767,1.3419868,0.5569012,0.99419624,-0.047346275,-0.096603036,-0.08011752,-0.92512155,-0.37112167,-0.071798325,0.37670738,-0.92354566,,-0.06786862,0.124355815,-0.09102734,-0.5541923,0.366748,0.7472395,-0.66087455,-0.73965305,-0.1271149,0.50607884,-0.56427765,0.65228444,,-0.014940665,0.2500599,-0.34301603,0.648211,-0.0409001,-0.76036155,-0.32918242,0.8853747,-0.3282538,0.6866305,0.46307537,0.560446,,0.938196203225165,-0.134213374621148,0.17167157357,-1.3875183560371,0.679903222832832,0.275358832294579,0.65157947980964,,-0.78159462600164,-0.490408982979005,0.21964726647,1.8169633602934,0.273546272530412,0.133142342552756,1.01436665069387,,-0.129819771424903,-0.40618175017038,0.08760750076,0.052333711583684,,5.524233E-05,1.0728836E-06,-2.3841858E-06,1,-6.821938E-05,-2.7827919E-05,6.821938E-05,1,-5.3048134E-06,2.7820468E-05,5.275011E-06,1
1.4407347960514,10:00:40.497644,10:00:33.549859,0,,0.113637745,-0.039626107,0.033682436,0.5853584,-0.4099595,-0.6994919,-0.4325775,-0.88760626,0.15821445,-0.6857349,0.20997229,-0.696907,,0.08339767,-0.017143026,0.014714241,-0.55318,0.027309861,0.83261406,0.0042074025,0.9995412,-0.02998972,-0.8330512,-0.013086587,-0.55304116,,0.20663767,1.3419868,0.5569012,0.99419624,-0.047346275,-0.096603036,-0.08011752,-0.92512155,-0.37112167,-0.071798325,0.37670738,-0.92354566,,-0.06787503,0.12448371,-0.09113419,-0.5496104,0.36707437,0.7504564,-0.6621522,-0.73913926,-0.1234004,0.5093947,-0.56473845,0.6492977,,-0.013872354,0.24930394,-0.3440596,0.6477674,-0.039760076,-0.7607999,-0.33744058,0.8803606,-0.33331525,0.6830309,0.47263554,0.5568523,,0.938288876019655,-0.134097533628034,0.17155750005,-1.38521176665877,0.678673494334943,0.276361593427847,0.65157947980964,,-0.777910882420635,-0.495575491271861,0.21888634424,1.81130173181932,0.279968188019387,0.130601099503663,1.00750619991623,,-0.129819771424903,-0.40618175017038,0.08760750076,0.052333711583684,,5.524233E-05,1.0728836E-06,-2.3841858E-06,1,-6.821938E-05,-2.7827919E-05,6.821938E-05,1,-5.3048134E-06,2.7820468E-05,5.275011E-06,1
