AlexandreBanks6/ExpertPlaybackApp/resources/Motions/P_12/PC1/Data_PC1_6.csv
Task Time,PC1 Time,PC2 Time,Gaze Calib,s_T_psm1,Tx,Ty,Tz,R00,R01,R02,R10,R11,R12,R20,R21,R22,s_T_psm3,Tx,Ty,Tz,R00,R01,R02,R10,R11,R12,R20,R21,R22,cart_T_ecm,Tx,Ty,Tz,R00,R01,R02,R10,R11,R12,R20,R21,R22,ecm_T_psm1,Tx,Ty,Tz,R00,R01,R02,R10,R11,R12,R20,R21,R22,ecm_T_psm3,Tx,Ty,Tz,R00,R01,R02,R10,R11,R12,R20,R21,R22,psm1_joints,q1,q2,q3,q4,q5,q6,jaw,psm3_joints,q1,q2,q3,q4,q5,q6,jaw,ecm_joints,q1,q2,q3,q4,ecmi_T_ecm,Tx,Ty,Tz,R00,R01,R02,R10,R11,R12,R20,R21,R22,Sample #,Task Duration (s),Collisions (binary),Collisions (increments),Cumulative Collision Time (s),Clutch Press,MTMR Angle,MTML Angle
""
lci_T_si,,,,,-0.05509644,0.014836536,0.20329654,0.97799796,-0.10343062,0.18116859,0.031866997,-0.78417623,-0.6197194,0.20616606,0.61185765,-0.76362675
rci_T_si,,,,,-0.06411915,0.018600209,0.2114436,0.9733347,-0.124126814,0.19290416,0.02867328,-0.7685155,-0.63918835,0.22759025,0.6276754,-0.74446374
ecm_T_lc,,,,,-4.4061628e-05,-0.00034663224,-0.01840835,-0.99912,0.030754527,0.028518902,-0.031987965,-0.99852574,-0.043852776,0.027128186,-0.04472645,0.9986309
ecm_T_rc,,,,,-0.0043358393,0.01870579,-0.007592615,-0.99555075,-0.052743673,-0.078081585,0.04863213,-0.9973746,0.053654674,-0.08070653,0.04961868,0.9955021
cart_T_ecmi,,,,,0.09844024,1.2953911,0.42710486,0.98261136,0.0074690743,-0.185524,-0.10493582,-0.8019738,-0.58807015,-0.15317772,0.5973125,-0.7872448
ecmac_T_ecmrep_psm1,,,,,0.044880565,-0.23049864,-0.32052848,0.99797076,0.0626086,0.011601057,-0.061749555,0.99606305,-0.0636032,-0.015537491,0.06275777,0.9979078
ecmac_T_ecmrep_psm3,,,,,0.047327206,-0.4153428,-0.56493527,0.997773,0.014750276,0.065049894,-0.025394045,0.985803,0.16597453,-0.061678212,-0.16725679,0.9839822
""
0,17:02:56.543623,17:01:40.726163,0,,0.12241944,0.0030727386,0.029593125,-0.9143611,0.21679027,-0.34197307,-0.19899452,0.49494356,0.8458321,0.3526256,0.8414468,-0.40941712,,0.018250458,-0.039657682,0.061582386,0.4573669,-0.6853537,0.56666195,-0.5484062,0.284248,0.78641814,-0.70004714,-0.6704427,-0.24584681,,0.09840039,1.2953986,0.42710134,0.9826194,0.00753063,-0.18547887,-0.104860395,-0.8019732,-0.5880844,-0.15317772,0.5973125,-0.7872448,,-0.12755948,0.25059086,-0.11826677,0.8034609,-0.29033697,0.51976436,0.055755228,0.90588635,0.41983476,-0.592741,-0.30834123,0.7440321,,-0.058433864,0.4009318,-0.43109652,-0.3767732,0.8051802,-0.4579594,-0.92203563,-0.27858073,0.26878068,0.08883822,0.5235242,0.8473666,,1.0428237882051583,0.5823095041822764,0.21596969174000002,1.1304384853250709,-0.6111750634508152,0.34473457302969546,-0.42518460414752884,,-1.3750480337214224,0.12784211999991255,0.12952400051000001,0.14175040179553847,0.42712569826676683,-0.37099905671408967,0.7755576260055579,,-0.11698505643804993,-0.12851077448590748,0.09694439508,-0.1167695939710949,,-3.939867e-05,-8.34465e-06,5.722046e-06,1.0,6.043166e-05,4.5835972e-05,-6.042421e-05,1.0,1.1742115e-05,-4.5850873e-05,-1.1771917e-05,1.0,37,0.112,1,1,0.088,False,-0.2616653671792948,0.9509750975678524
0.13451961800456047,17:02:56.570693,17:01:40.799215,0,,0.12227348,0.0032006055,0.029820606,-0.9131531,0.21340042,-0.3472917,-0.20591246,0.49380153,0.84484315,0.35178322,0.8429829,-0.4069747,,0.018249981,-0.039657027,0.061582625,0.45720384,-0.68530047,0.56685793,-0.54840463,0.28454,0.78631365,-0.7001549,-0.67037326,-0.24572939,,0.09840039,1.2953986,0.42710134,0.9826194,0.00753063,-0.18547887,-0.104860395,-0.8019732,-0.5880844,-0.15317772,0.5973125,-0.7872448,,-0.12743926,0.25083068,-0.1183988,0.8014879,-0.28745303,0.5243929,0.049761966,0.90591234,0.42053133,-0.595937,-0.31095594,0.740382,,-0.058433384,0.40093243,-0.43109626,-0.37659505,0.80513847,-0.45817924,-0.9221044,-0.27834544,0.2687886,0.08887995,0.5237135,0.8472452,,1.044090316396531,0.5832130639285608,0.21587246999,1.123728407133566,-0.614864248944482,0.3475794989492177,-0.4248579160152603,,-1.375040310988548,0.12784984273278677,0.12952400051000001,0.141960091739023,0.42712569826676683,-0.37116241419437074,0.7758843141378264,,-0.11698505643804993,-0.12851077448590748,0.09694439508,-0.1167695939710949,,-3.939867e-05,-8.34465e-06,5.722046e-06,1.0,6.043166e-05,4.5835972e-05,-6.042421e-05,1.0,1.1742115e-05,-4.5850873e-05,-1.1771917e-05,1.0,45,0.137,1,1,0.113,False,-0.2618441003348577,0.9499129331507041
0.16158021986484528,17:02:56.606074,17:01:40.799215,0,,0.12219058,0.0031818748,0.029875591,-0.9126326,0.21087787,-0.35018876,-0.20829363,0.49721628,0.8422527,0.35173213,0.8416094,-0.40985137,,0.018249568,-0.03965625,0.061583042,0.45720556,-0.68530256,0.56685406,-0.54839826,0.28454098,0.78631777,-0.7001587,-0.6703708,-0.24572518,,0.09840039,1.2953986,0.42710134,0.9826194,0.00753063,-0.18547887,-0.104860395,-0.8019732,-0.5880844,-0.15317772,0.5973125,-0.7872448,,-0.1273705,0.25084922,-0.11847074,0.80066514,-0.28428942,0.527366,0.047844954,0.9077756,0.41671854,-0.59719867,-0.3084202,0.74042606,,-0.058432985,0.40093324,-0.43109596,-0.37659568,0.80514014,-0.4581758,-0.9221034,-0.27834275,0.26879475,0.08888752,0.5237124,0.84724516,,1.0444764530402422,0.5831976184628123,0.21581154436000002,1.1214218177552364,-0.6162306139421364,0.34436470475873215,-0.42502126008139457,,-1.375040310988548,0.127857565465661,0.12952400051000001,0.141960091739023,0.42712569826676683,-0.37116241419437074,0.7758843141378264,,-0.11698505643804993,-0.12851077448590748,0.09694439508,-0.1167695939710949,,-3.939867e-05,-8.34465e-06,5.722046e-06,1.0,6.043166e-05,4.5835972e-05,-6.042421e-05,1.0,1.1742115e-05,-4.5850873e-05,-1.1771917e-05,1.0,62,0.189,1,1,0.165,False,-0.2629164992682367,0.9502508945561605
0.1969535939861089,17:02:56.648577,17:01:40.799215,0,,0.122112684,0.002987437,0.02989532,-0.9107505,0.20984581,-0.35566583,-0.21115214,0.50352657,0.83778024,0.35489196,0.8381085,-0.41427767,,0.018248986,-0.03965974,0.061579883,0.4571874,-0.68526375,0.5669155,-0.54842675,0.2845916,0.7862796,-0.70014834,-0.67038894,-0.24570549,,0.09840039,1.2953986,0.42710134,0.9826194,0.00753063,-0.18547887,-0.104860395,-0.8019732,-0.5880844,-0.15317772,0.5973125,-0.7872448,,-0.1273244,0.25070703,-0.118618794,0.7978914,-0.2818159,0.53286874,0.047511,0.9106381,0.4104644,-0.600926,-0.30218887,0.7399796,,-0.058432158,0.40092868,-0.43109676,-0.37658167,0.8051088,-0.45824236,-0.92211217,-0.27832744,0.26878065,0.08885624,0.5237687,0.8472136,,1.044121207328028,0.5825566316342516,0.21567543391000002,1.1212121278117517,-0.6208762549341614,0.33753467726613723,-0.4256746363459317,,-1.3750171427899256,0.12782667453416408,0.12952400051000001,0.141960091739023,0.42712569826676683,-0.37124409293451127,0.7757209700716922,,-0.11698505643804993,-0.12851077448590748,0.09694439508,-0.1167695939710949,,-3.939867e-05,-8.34465e-06,5.722046e-06,1.0,6.043166e-05,4.5835972e-05,-6.042421e-05,1.0,1.1742115e-05,-4.5850873e-05,-1.1771917e-05,1.0,70,0.214,1,1,0.19,False,-0.26255903295711036,0.9500577737530425
0.2394548850134015,17:02:56.676401,17:01:40.799215,0,,0.12205068,0.002785474,0.02987744,-0.9095162,0.20979846,-0.35883826,-0.21294257,0.50622624,0.83569753,0.35698146,0.83649236,-0.41574597,,0.018246118,-0.039659113,0.06158042,0.4571835,-0.68523186,0.5669571,-0.54841596,0.2846512,0.78626555,-0.7001593,-0.6703961,-0.2456545,,0.09840039,1.2953986,0.42710134,0.9826194,0.00753063,-0.18547887,-0.104860395,-0.8019732,-0.5880844,-0.15317772,0.5973125,-0.7872448,,-0.12728831,0.250536,-0.11873878,0.7960808,-0.2811216,0.5359347,0.0473692,0.9117913,0.4079126,-0.60333365,-0.2993446,0.7391761,,-0.058429386,0.40092972,-0.43109712,-0.3765752,0.80508316,-0.4582927,-0.9221134,-0.2782974,0.26880747,0.08887072,0.52382404,0.84717786,,1.0437350706843167,0.5818693084084456,0.21557302700000003,1.1210024378682673,-0.6238822579290011,0.335983612880571,-0.4251846041475289,,-1.375001697324177,0.12784211999991255,0.12952270422,0.141960091739023,0.42712569826676683,-0.37132577167465186,0.7755576260055579,,-0.11698505643804993,-0.12851077448590748,0.09694439508,-0.1167695939710949,,-3.939867e-05,-8.34465e-06,5.722046e-06,1.0,6.043166e-05,4.5835972e-05,-6.042421e-05,1.0,1.1742115e-05,-4.5850873e-05,-1.1771917e-05,1.0,78,0.239,1,1,0.215,False,-0.26327396557936344,0.9504440153592784
0.2672944099176675,17:02:56.702001,17:01:40.799215,0,,0.12199783,0.0026578754,0.029870525,-0.9094564,0.20851514,-0.35973674,-0.21357603,0.50805056,0.8344278,0.35675535,0.8357069,-0.417516,,0.018242601,-0.03965828,0.06157708,0.45716673,-0.68526006,0.5669367,-0.54841447,0.2846359,0.78627205,-0.70017135,-0.67037386,-0.24568075,,0.09840039,1.2953986,0.42710134,0.9826194,0.00753063,-0.18547887,-0.104860395,-0.8019732,-0.5880844,-0.15317772,0.5973125,-0.7872448,,-0.12725292,0.25043058,-0.118820995,0.79597557,-0.27948523,0.53694594,0.04672944,0.91275537,0.4058251,-0.60352236,-0.2979357,0.7395911,,-0.058425315,0.40092796,-0.43109497,-0.3765566,0.80510604,-0.45826778,-0.9221204,-0.27828792,0.26879317,0.088876635,0.52379394,0.84719586,,1.0436269524240775,0.5813827762373696,0.21548876815,1.1199539881508445,-0.6240188944287666,0.33470649220187776,-0.4256746363459317,,-1.374963083659806,0.12784984273278677,0.12952400051000001,0.141960091739023,0.42712569826676683,-0.37132577167465186,0.7755576260055579,,-0.11698505643804993,-0.12851077448590748,0.09694439508,-0.1167695939710949,,-3.939867e-05,-8.34465e-06,5.722046e-06,1.0,6.043166e-05,4.5835972e-05,-6.042421e-05,1.0,1.1742115e-05,-4.5850873e-05,-1.1771917e-05,1.0,91,0.279,1,1,0.255,False,-0.2626186106756321,0.9505405757608372
0.2928999059367925,17:02:56.743851,17:01:40.938834,0,,0.12187973,0.0025467798,0.029956952,-0.9086894,0.20761341,-0.3621881,-0.21528605,0.51027554,0.8326287,0.35768074,0.834575,-0.41898578,,0.0182412,-0.039660215,0.061574697,0.45715207,-0.6852716,0.56693447,-0.5484302,0.28462422,0.7862654,-0.7001686,-0.67036694,-0.24570742,,0.09840039,1.2953986,0.42710134,0.9826194,0.00753063,-0.18547887,-0.104860395,-0.8019732,-0.5880844,-0.15317772,0.5973125,-0.7872448,,-0.12716787,0.25039506,-0.11897992,0.7948341,-0.27810633,0.53934747,0.045940384,0.9138263,0.40349847,-0.6050854,-0.2959365,0.73911655,,-0.05842369,0.40092498,-0.43109518,-0.37654382,0.80511546,-0.45826173,-0.9221272,-0.27828917,0.26876864,0.0888605,0.5237788,0.84720695,,1.0439281390061723,0.581089312388149,0.21534099109000002,1.1189055384334219,-0.6256585324259518,0.33269467870047187,-0.4251846041475289,,-1.3749399154611832,0.1278343972670383,0.12952400051000001,0.141960091739023,0.42712569826676683,-0.37132577167465186,0.7755576260055579,,-0.11698505643804993,-0.12851077448590748,0.09694439508,-0.1167695939710949,,-3.939867e-05,-8.34465e-06,5.722046e-06,1.0,6.043166e-05,4.5835972e-05,-6.042421e-05,1.0,1.1742115e-05,-4.5850873e-05,-1.1771917e-05,1.0,99,0.304,1,1,0.28,False,-0.2622611443645053,0.9505405757608372
0.33474831795319915,17:02:56.763725,17:01:40.938834,0,,0.12179134,0.0025006235,0.030024722,-0.9080509,0.20746276,-0.36387187,-0.21612787,0.51206774,0.8313094,0.35879284,0.83351415,-0.42014512,,0.018240798,-0.03965944,0.061575055,0.4571538,-0.6852737,0.5669306,-0.5484238,0.28462517,0.7862694,-0.70017254,-0.67036444,-0.24570316,,0.09840039,1.2953986,0.42710134,0.9826194,0.00753063,-0.18547887,-0.104860395,-0.8019732,-0.5880844,-0.15317772,0.5973125,-0.7872448,,-0.12709971,0.25039965,-0.11907927,0.7939035,-0.27753118,0.5410117,0.04595294,0.9145989,0.40174273,-0.6063048,-0.29408386,0.7388566,,-0.058423292,0.4009258,-0.43109488,-0.37654445,0.80511713,-0.45825833,-0.92212623,-0.2782865,0.26877478,0.08886807,0.52377766,0.84720683,,1.0442524937868898,0.5809657486621614,0.21525154708000002,1.1189055384334219,-0.6268882609238408,0.33059364770839816,-0.4251846041475289,,-1.3749476381940575,0.12784211999991255,0.12952400051000001,0.141960091739023,0.42712569826676683,-0.37132577167465186,0.7755576260055579,,-0.11698505643804993,-0.12851077448590748,0.09694439508,-0.1167695939710949,,-3.939867e-05,-8.34465e-06,5.722046e-06,1.0,6.043166e-05,4.5835972e-05,-6.042421e-05,1.0,1.1742115e-05,-4.5850873e-05,-1.1771917e-05,1.0,116,0.357,1,1,0.333,False,-0.2636314318904893,0.9498646529499246
0.3546192778740078,17:02:56.810139,17:01:40.938834,0,,0.12154489,0.0023919046,0.03024064,-0.9071772,0.20775992,-0.36587596,-0.21636128,0.5154507,0.8291552,0.36085635,0.8313522,-0.42265397,,0.018241938,-0.039660066,0.061575294,0.45715576,-0.68526644,0.5669378,-0.5484292,0.28462744,0.7862649,-0.700167,-0.67037094,-0.24570131,,0.09840039,1.2953986,0.42710134,0.9826194,0.00753063,-0.18547887,-0.104860395,-0.8019732,-0.5880844,-0.15317772,0.5973125,-0.7872448,,-0.12691166,0.25044477,-0.11936524,0.792661,-0.27698505,0.54310936,0.047028396,0.91596115,0.3985016,-0.6078461,-0.29033512,0.73907286,,-0.0584245,0.40092546,-0.43109533,-0.37654766,0.8051112,-0.45826605,-0.9221256,-0.27829054,0.26877272,0.088860825,0.5237846,0.8472033,,1.045325953656407,0.5806954530115636,0.21498191876000003,1.1199539881508445,-0.6278447164221989,0.3259010974448555,-0.42600132447820027,,-1.3749476381940575,0.1278343972670383,0.12952400051000001,0.141960091739023,0.42712569826676683,-0.37132577167465186,0.7755576260055579,,-0.11698505643804993,-0.12851077448590748,0.09694439508,-0.1167695939710949,,-3.939867e-05,-8.34465e-06,5.722046e-06,1.0,6.043166e-05,4.5835972e-05,-6.042421e-05,1.0,1.1742115e-05,-4.5850873e-05,-1.1771917e-05,1.0,120,0.369,1,1,0.345,False,-0.26148663402373185,0.9505405757608372
0.4010389749892056,17:02:56.842816,17:01:41.061252,0,,0.12128363,0.0023110807,0.030421987,-0.90683025,0.20770082,-0.3667685,-0.21557339,0.5191945,0.82702184,0.36219743,0.82903403,-0.42604658,,0.018240128,-0.03965944,0.06157458,0.45731497,-0.6852416,0.5668394,-0.54841995,0.28445932,0.78633213,-0.7000703,-0.6704676,-0.24571297,,0.09840039,1.2953986,0.42710134,0.9826194,0.00753063,-0.18547887,-0.104860395,-0.8019732,-0.5880844,-0.15317772,0.5973125,-0.7872448,,-0.12669934,0.25049087,-0.11961113,0.79219675,-0.27601522,0.5442792,0.04847142,0.91751343,0.39474,-0.60833776,-0.28632975,0.74023,,-0.05842257,0.40092552,-0.43109474,-0.37671936,0.80508995,-0.4581623,-0.9220581,-0.27847382,0.26881444,0.08883359,0.52371985,0.84724617,,1.0465693136491572,0.580332484566475,0.21474599398000002,1.1212121278117517,-0.6272981704231372,0.3205547014216362,-0.4250212600813946,,-1.3749399154611832,0.12784211999991255,0.12952400051000001,0.14175040179553847,0.42712569826676683,-0.37132577167465186,0.7755576260055579,,-0.11698505643804993,-0.12851077448590748,0.09694439508,-0.1167695939710949,,-3.939867e-05,-8.34465e-06,5.722046e-06,1.0,6.043166e-05,4.5835972e-05,-6.042421e-05,1.0,1.1742115e-05,-4.5850873e-05,-1.1771917e-05,1.0,137,0.423,1,1,0.399,False,-0.2623802998015474,0.9503474549577193
0.43370914785191417,17:02:56.880105,17:01:41.061252,0,,0.12085987,0.0022808388,0.030630186,-0.9053525,0.2109294,-0.36857224,-0.2156207,0.5193904,0.8268865,0.36584765,0.8280957,-0.4247507,,0.018241122,-0.039658546,0.06157595,0.45715928,-0.6852706,0.56693006,-0.5484165,0.28462937,0.7862731,-0.7001747,-0.6703659,-0.24569291,,0.09840039,1.2953986,0.42710134,0.9826194,0.00753063,-0.18547887,-0.104860395,-0.8019732,-0.5880844,-0.15317772,0.5973125,-0.7872448,,-0.12632632,0.25059313,-0.1198836,0.7901147,-0.27897447,0.54579484,0.0506634,0.9171021,0.39541999,-0.6108617,-0.28477532,0.7387496,,-0.0584237,0.40092704,-0.4310947,-0.37654892,0.80511457,-0.4582592,-0.9221236,-0.27828518,0.268785,0.088875964,0.5237823,0.84720314,,1.048700787922443,0.5797996159981536,0.21450358775000003,1.123309027246597,-0.6285278989210261,0.3190254216105465,-0.4245312278829918,,-1.3749476381940575,0.12784984273278677,0.12952400051000001,0.141960091739023,0.42712569826676683,-0.37132577167465186,0.7755576260055579,,-0.11698505643804993,-0.12851077448590748,0.09694439508,-0.1167695939710949,,-3.939867e-05,-8.34465e-06,5.722046e-06,1.0,6.043166e-05,4.5835972e-05,-6.042421e-05,1.0,1.1742115e-05,-4.5850873e-05,-1.1771917e-05,1.0,145,0.448,1,1,0.424,False,-0.26178452261633733,0.950202614355381
0.4710051480215043,17:02:56.905682,17:01:41.061252,0,,0.120454125,0.002318576,0.030801997,-0.90454674,0.21125564,-0.3703596,-0.21603334,0.5217945,0.82526356,0.36759326,0.8264996,-0.42634928,,0.0182417,-0.03965786,0.061575055,0.45715928,-0.68531686,0.5668741,-0.5484165,0.28456515,0.78629637,-0.7001747,-0.6703459,-0.24574769,,0.09840039,1.2953986,0.42710134,0.9826194,0.00753063,-0.18547887,-0.104860395,-0.8019732,-0.5880844,-0.15317772,0.5973125,-0.7872448,,-0.12595531,0.25072712,-0.12008354,0.7889693,-0.27868822,0.5475951,0.05140278,0.918034,0.39315554,-0.61227876,-0.28203973,0.73862594,,-0.058424063,0.40092674,-0.4310935,-0.37654892,0.805152,-0.45819342,-0.9221236,-0.27830714,0.26876226,0.088875964,0.5237131,0.84724593,,1.0509789941203393,0.5794134793544423,0.2143285886,1.1235187171900813,-0.6283912624212606,0.3152384604005248,-0.4240411956845889,,-1.3749476381940575,0.12784984273278677,0.12952529680000002,0.141960091739023,0.42712569826676683,-0.37124409293451127,0.7757209700716922,,-0.11698505643804993,-0.12851077448590748,0.09694439508,-0.1167695939710949,,-3.939867e-05,-8.34465e-06,5.722046e-06,1.0,6.043166e-05,4.5835972e-05,-6.042421e-05,1.0,1.1742115e-05,-4.5850873e-05,-1.1771917e-05,1.0,158,0.488,0,1,0.452,False,-0.2616653671792948,0.9502991747569398
0.49655857984907925,17:02:56.945725,17:01:41.061252,0,,0.11982385,0.0024895594,0.03102003,-0.90297276,0.21362098,-0.3728351,-0.21543625,0.5256703,0.8229568,0.37178928,0.82342994,-0.4286443,,0.018242106,-0.039658606,0.061574697,0.45715752,-0.68531483,0.56687796,-0.5484229,0.2845642,0.7862922,-0.7001709,-0.67034835,-0.24575186,,0.09840039,1.2953986,0.42710134,0.9826194,0.00753063,-0.18547887,-0.104860395,-0.8019732,-0.5880844,-0.15317772,0.5973125,-0.7872448,,-0.12535521,0.25099444,-0.120289505,0.7867862,-0.2799345,0.55009466,0.054438483,0.91923684,0.38992316,-0.61482024,-0.27683985,0.7384821,,-0.05842446,0.40092593,-0.4310938,-0.3765483,0.80515033,-0.45819685,-0.9221246,-0.27830982,0.26875612,0.088868394,0.52371424,0.847246,,1.054747687762961,0.5789269471833661,0.21416784864000002,1.1262446864553803,-0.6283912624212606,0.3080507312681554,-0.424694571949126,,-1.3749476381940575,0.12784211999991255,0.12952529680000002,0.141960091739023,0.42712569826676683,-0.37124409293451127,0.7757209700716922,,-0.11698505643804993,-0.12851077448590748,0.09694439508,-0.1167695939710949,,-3.939867e-05,-8.34465e-06,5.722046e-06,1.0,6.043166e-05,4.5835972e-05,-6.042421e-05,1.0,1.1742115e-05,-4.5850873e-05,-1.1771917e-05,1.0,166,0.513,1,2,0.453,False,-0.262797343831195,0.9497198123475863
0.5366166429594159,17:02:56.977373,17:01:41.198347,0,,0.119324386,0.0026474819,0.03114684,-0.90142196,0.21481892,-0.37588727,-0.21709067,0.5269027,0.821733,0.37457988,0.8223298,-0.42832655,,0.018240958,-0.03965798,0.06157446,0.4571556,-0.68532205,0.56687075,-0.5484175,0.2845619,0.7862968,-0.70017636,-0.67034197,-0.2457537,,0.09840039,1.2953986,0.42710134,0.9826194,0.00753063,-0.18547887,-0.104860395,-0.8019732,-0.5880844,-0.15317772,0.5973125,-0.7872448,,-0.12486862,0.25119603,-0.12040388,0.78456354,-0.28074405,0.5528497,0.054832753,0.9195445,0.38914168,-0.61761916,-0.2749921,0.73683506,,-0.058423255,0.4009263,-0.4310934,-0.37654507,0.80515623,-0.45818913,-0.9221252,-0.27830577,0.26875818,0.08887564,0.52370733,0.8472495,,1.0577363853852857,0.5785330878067807,0.21409655269000002,1.1260349965118959,-0.6294843544193841,0.3055932461519637,-0.42551129227979745,,-1.3749399154611832,0.12784984273278677,0.12952529680000002,0.141960091739023,0.42712569826676683,-0.37124409293451127,0.7757209700716922,,-0.11698505643804993,-0.12851077448590748,0.09694439508,-0.1167695939710949,,-3.939867e-05,-8.34465e-06,5.722046e-06,1.0,6.043166e-05,4.5835972e-05,-6.042421e-05,1.0,1.1742115e-05,-4.5850873e-05,-1.1771917e-05,1.0,179,0.554,1,2,0.493,False,-0.2623802998015474,0.949768092548366
0.5682691908441484,17:02:57.011236,17:01:41.198347,0,,0.118902706,0.0027734563,0.031217143,-0.9007896,0.21163258,-0.37919593,-0.22107348,0.52809787,0.8199019,0.3737706,0.8223893,-0.42891884,,0.018242106,-0.039658606,0.061574697,0.45715752,-0.68508327,0.56715775,-0.5484229,0.28488526,0.78617597,-0.7001709,-0.67044866,-0.2454781,,0.09840039,1.2953986,0.42710134,0.9826194,0.00753063,-0.18547887,-0.104860395,-0.8019732,-0.5880844,-0.15317772,0.5973125,-0.7872448,,-0.12445241,0.25133795,-0.12047637,0.7835456,-0.277484,0.5559306,0.05118431,0.92052203,0.38732335,-0.6192224,-0.27503058,0.7354739,,-0.05842446,0.40092593,-0.4310938,-0.3765483,0.8049631,-0.45852563,-0.9221246,-0.27820003,0.26886976,0.088868394,0.5240602,0.84703207,,1.060292609966654,0.5781701193616922,0.21405636770000003,1.1207927479247826,-0.6296209909191496,0.3052145916148167,-0.42518460414752884,,-1.3749476381940575,0.12784211999991255,0.12952529680000002,0.141960091739023,0.42712569826676683,-0.37165248663521405,0.7752309378732893,,-0.11698505643804993,-0.12851077448590748,0.09694439508,-0.1167695939710949,,-3.939867e-05,-8.34465e-06,5.722046e-06,1.0,6.043166e-05,4.5835972e-05,-6.042421e-05,1.0,1.1742115e-05,-4.5850873e-05,-1.1771917e-05,1.0,187,0.578,1,2,0.517,False,-0.2616653671792948,0.9496232519460277
0.6021371418610215,17:02:57.041520,17:01:41.198347,0,,0.11856489,0.0028290376,0.0312462,-0.90119404,0.20166184,-0.38364273,-0.22924024,0.52943295,0.8167922,0.36782902,0.8240347,-0.43089297,,0.018244084,-0.039659142,0.061574757,0.4569619,-0.68515056,0.56723416,-0.5485399,0.28493956,0.7860746,-0.7002069,-0.67035687,-0.24562609,,0.09840039,1.2953986,0.42710134,0.9826194,0.00753063,-0.18547887,-0.104860395,-0.8019732,-0.5880844,-0.15317772,0.5973125,-0.7872448,,-0.124120414,0.2513991,-0.12054034,0.7838615,-0.26786342,0.56018776,0.041087892,0.92256534,0.38364688,-0.6195748,-0.2777091,0.7341694,,-0.058426462,0.40092552,-0.43109396,-0.37635878,0.8050184,-0.45858416,-0.9222115,-0.27808976,0.2686857,0.088769384,0.52403384,0.8470588,,1.0623314114454494,0.5778612100467232,0.21401229384000003,1.1075822814852576,-0.6289378084203223,0.307761294221676,-0.42518460414752884,,-1.3749553609269316,0.12784211999991255,0.12952529680000002,0.14216978168250752,0.4269890617670014,-0.37154106873151765,0.7752309378732893,,-0.11698505643804993,-0.12851077448590748,0.09694439508,-0.1167695939710949,,-3.939867e-05,-8.34465e-06,5.722046e-06,1.0,6.043166e-05,4.5835972e-05,-6.042421e-05,1.0,1.1742115e-05,-4.5850873e-05,-1.1771917e-05,1.0,200,0.619,1,2,0.558,False,-0.26190367805337944,0.9493335707413508
0.6324121858924627,17:02:57.077678,17:01:41.198347,0,,0.11818191,0.002838038,0.031209663,-0.90245867,0.1869393,-0.3881005,-0.2407156,0.5283079,0.8142153,0.3572455,0.8282175,-0.43177697,,0.018243916,-0.039658606,0.061573267,0.45695817,-0.6851558,0.5672308,-0.54854095,0.28493628,0.7860751,-0.70020854,-0.6703528,-0.2456322,,0.09840039,1.2953986,0.42710134,0.9826194,0.00753063,-0.18547887,-0.104860395,-0.8019732,-0.5880844,-0.15317772,0.5973125,-0.7872448,,-0.1237393,0.25138324,-0.12059126,0.785373,-0.2543839,0.5643387,0.025536543,0.92419857,0.38105756,-0.61849594,-0.28486103,0.73233664,,-0.058426015,0.40092474,-0.43109265,-0.37635493,0.80502266,-0.45857987,-0.92221314,-0.2780884,0.26868162,0.08876905,0.524028,0.8470624,,1.0645478357803517,0.577235668683911,0.21397210885,1.087242356967259,-0.6264783514245444,0.31580225699242953,-0.4256746363459317,,-1.3749476381940575,0.12784211999991255,0.12952659309,0.14216978168250752,0.4269890617670014,-0.37154106873151765,0.7752309378732893,,-0.11698505643804993,-0.12851077448590748,0.09694439508,-0.1167695939710949,,-3.939867e-05,-8.34465e-06,5.722046e-06,1.0,6.043166e-05,4.5835972e-05,-6.042421e-05,1.0,1.1742115e-05,-4.5850873e-05,-1.1771917e-05,1.0,208,0.644,1,2,0.583,False,-0.2636314318904893,0.9498163727491455
0.6685791099444032,17:02:57.110548,17:01:41.321779,0,,0.11787716,0.0028799102,0.031179443,-0.90456784,0.1816891,-0.38567606,-0.241168,0.5279169,0.8143351,0.35156083,0.8296342,-0.43371913,,0.018243179,-0.039658725,0.06157279,0.45695442,-0.685161,0.5672275,-0.54854196,0.284933,0.7860756,-0.70021015,-0.6703489,-0.24563831,,0.09840039,1.2953986,0.42710134,0.9826194,0.00753063,-0.18547887,-0.104860395,-0.8019732,-0.5880844,-0.15317772,0.5973125,-0.7872448,,-0.123431124,0.25139743,-0.12061025,0.7883565,-0.24956253,0.56232786,0.021706339,0.92474324,0.37997216,-0.6148357,-0.28734744,0.7344444,,-0.058425207,0.4009243,-0.43109253,-0.37635106,0.8050269,-0.45857558,-0.92221475,-0.27808705,0.26867753,0.08876871,0.5240222,0.847066,,1.0664244598687884,0.5765251772594823,0.21394229418000002,1.0811613486062075,-0.6203297089350996,0.31756778675775726,-0.4264913566766031,,-1.3749399154611832,0.12784211999991255,0.12952659309,0.14216978168250752,0.4269890617670014,-0.37154106873151765,0.7752309378732893,,-0.11698505643804993,-0.12851077448590748,0.09694439508,-0.1167695939710949,,-3.939867e-05,-8.34465e-06,5.722046e-06,1.0,6.043166e-05,4.5835972e-05,-6.042421e-05,1.0,1.1742115e-05,-4.5850873e-05,-1.1771917e-05,1.0,221,0.685,1,2,0.624,False,-0.26196325577190027,0.9497198123475863
0.7014485159888864,17:02:57.144722,17:01:41.321779,0,,0.11746163,0.0029168501,0.031136617,-0.90516955,0.17704803,-0.38642204,-0.24329624,0.52964747,0.8125764,0.34853262,0.82953453,-0.4363457,,0.018244661,-0.03965646,0.061571777,0.4569599,-0.6851578,0.56722695,-0.5485345,0.28493726,0.7860792,-0.7002124,-0.6703503,-0.245628,,0.09840039,1.2953986,0.42710134,0.9826194,0.00753063,-0.18547887,-0.104860395,-0.8019732,-0.5880844,-0.15317772,0.5973125,-0.7872448,,-0.12301337,0.25139982,-0.12064689,0.78918004,-0.24478316,0.5632726,0.018171579,0.9260452,0.3769749,-0.613893,-0.28726554,0.73526454,,-0.05842634,0.40092492,-0.43108994,-0.37635553,0.8050243,-0.45857644,-0.9222121,-0.2780857,0.26868775,0.08877662,0.5240269,0.8470623,,1.0686872206009361,0.5755212219858331,0.21391766467000004,1.0754997201321255,-0.6171870694404945,0.31688378599597244,-0.42665470074273737,,-1.3749476381940575,0.12784984273278677,0.12952918567000002,0.14216978168250752,0.4269890617670014,-0.37154106873151765,0.7752309378732893,,-0.11698505643804993,-0.12851077448590748,0.09694439508,-0.1167695939710949,,-3.939867e-05,-8.34465e-06,5.722046e-06,1.0,6.043166e-05,4.5835972e-05,-6.042421e-05,1.0,1.1742115e-05,-4.5850873e-05,-1.1771917e-05,1.0,229,0.709,1,2,0.648,False,-0.2612483231496481,0.9494784113436892
0.7356231159064919,17:02:57.164849,17:01:41.321779,0,,0.11713209,0.0029396415,0.031110063,-0.90493834,0.17307368,-0.388757,-0.2466728,0.53106815,0.8106288,0.346755,0.82946503,-0.43789136,,0.018247541,-0.039655387,0.061571836,0.45676968,-0.6852683,0.5672467,-0.54864407,0.2849316,0.7860048,-0.7002506,-0.67023987,-0.24582052,,0.09840039,1.2953986,0.42710134,0.9826194,0.00753063,-0.18547887,-0.104860395,-0.8019732,-0.5880844,-0.15317772,0.5973125,-0.7872448,,-0.12268424,0.25140107,-0.12068552,0.7888041,-0.24070144,0.5655536,0.014412104,0.92712116,0.3744845,-0.61447567,-0.2872441,0.734786,,-0.058429107,0.40092543,-0.43108872,-0.37617043,0.8051145,-0.45857003,-0.9222964,-0.277996,0.2684912,0.08868553,0.523936,0.8471281,,1.0704171127647624,0.5747798396299075,0.21389822032000003,1.070047781601528,-0.6165038869416672,0.3167350901781931,-0.42616466854433455,,-1.374963083659806,0.127857565465661,0.12953048196,0.14237947162599204,0.42685242526723594,-0.3713479720876807,0.7753942819394235,,-0.11698505643804993,-0.12851077448590748,0.09694439508,-0.1167695939710949,,-3.939867e-05,-8.34465e-06,5.722046e-06,1.0,6.043166e-05,4.5835972e-05,-6.042421e-05,1.0,1.1742115e-05,-4.5850873e-05,-1.1771917e-05,1.0,242,0.75,1,2,0.689,False,-0.26232072208302704,0.9491887301390125
0.7557372050359845,17:02:57.210246,17:01:41.321779,0,,0.116167955,0.0030287951,0.030991897,-0.9045851,0.16969505,-0.3910617,-0.24893056,0.5344322,0.80772257,0.34606254,0.82800114,-0.44119716,,0.01824902,-0.039653122,0.061570883,0.4567752,-0.68526506,0.5672462,-0.5486368,0.2849358,0.7860083,-0.7002528,-0.67024136,-0.24581021,,0.09840039,1.2953986,0.42710134,0.9826194,0.00753063,-0.18547887,-0.104860395,-0.8019732,-0.5880844,-0.15317772,0.5973125,-0.7872448,,-0.1217112,0.25139785,-0.12075392,0.7882728,-0.23669407,0.5679806,0.012201334,0.92888755,0.37016085,-0.615205,-0.2848576,0.73510474,,-0.05843024,0.40092602,-0.43108615,-0.3761749,0.8051119,-0.45857093,-0.92229384,-0.2779947,0.26850146,0.08869343,0.5239406,0.84712434,,1.0753982754686373,0.5722776741786588,0.21388007226000003,1.0645958430709301,-0.612678064948235,0.31377874635497444,-0.42616466854433455,,-1.3749708063926802,0.1278652881985352,0.12953307454000001,0.14237947162599204,0.42685242526723594,-0.3713479720876807,0.7753942819394235,,-0.11698505643804993,-0.12851077448590748,0.09694439508,-0.1167695939710949,,-3.939867e-05,-8.34465e-06,5.722046e-06,1.0,6.043166e-05,4.5835972e-05,-6.042421e-05,1.0,1.1742115e-05,-4.5850873e-05,-1.1771917e-05,1.0,250,0.775,1,2,0.714,False,-0.2626781883941529,0.9498646529499246
0.8011422690469772,17:02:57.243551,17:01:41.454140,0,,0.11561038,0.0030751452,0.030910447,-0.9048784,0.16365726,-0.39295208,-0.25217685,0.5376016,0.8046063,0.34293142,0.82716435,-0.44519353,,0.01825191,-0.03965068,0.061571002,0.45662317,-0.6853349,0.5672841,-0.54863214,0.2850449,0.785972,-0.7003555,-0.67012346,-0.24583891,,0.09840039,1.2953986,0.42710134,0.9826194,0.00753063,-0.18547887,-0.104860395,-0.8019732,-0.5880844,-0.15317772,0.5973125,-0.7872448,,-0.12114693,0.25138387,-0.120786466,0.78866124,-0.23022856,0.57009494,0.0077184555,0.9308774,0.36525023,-0.61477953,-0.28365844,0.73592395,,-0.0584329,0.4009274,-0.43108383,-0.37600824,0.8051696,-0.45860627,-0.9223577,-0.2778293,0.26845333,0.08873619,0.52393967,0.84712046,,1.0783329139608424,0.570841245864053,0.21387359081,1.0574663849924564,-0.6095354254536298,0.3117062070108001,-0.4274714210734088,,-1.3749862518584286,0.12787301093140943,0.12953566712,0.14258916156947654,0.42685242526723594,-0.3712662933475402,0.7752309378732893,,-0.11698505643804993,-0.12851077448590748,0.09694439508,-0.1167695939710949,,-3.939867e-05,-8.34465e-06,5.722046e-06,1.0,6.043166e-05,4.5835972e-05,-6.042421e-05,1.0,1.1742115e-05,-4.5850873e-05,-1.1771917e-05,1.0,267,0.828,1,2,0.767,False,-0.261427056305211,0.9496232519460277
0.8344516379293054,17:02:57.285850,17:01:41.454140,0,,0.11492149,0.0031497031,0.030821249,-0.90560627,0.15500095,-0.39478087,-0.2566382,0.54079837,0.80104554,0.33765972,0.8267478,-0.44997126,,0.018258732,-0.039647162,0.06156993,0.45644405,-0.6853834,0.5673697,-0.5487388,0.28511322,0.7858728,-0.7003888,-0.67004484,-0.24595848,,0.09840039,1.2953986,0.42710134,0.9826194,0.00753063,-0.18547887,-0.104860395,-0.8019732,-0.5880844,-0.15317772,0.5973125,-0.7872448,,-0.12044938,0.25138727,-0.120825216,0.78968036,-0.22127838,0.57222444,0.0009661576,0.93314046,0.35951078,-0.6135177,-0.28334576,0.7370965,,-0.058439173,0.4009283,-0.4310794,-0.3758346,0.8052096,-0.4586784,-0.9224371,-0.27772167,0.26829177,0.08864616,0.5239353,0.8471326,,1.0820707166719672,0.5691576900974722,0.21386581307000002,1.0471915777617147,-0.6047531479618394,0.31017526384550165,-0.426981388875006,,-1.3750248655227997,0.12788073366428365,0.12954085228,0.1427988515129611,0.4267157887674705,-0.3711548754438437,0.7752309378732893,,-0.11698505643804993,-0.12851077448590748,0.09694439508,-0.1167695939710949,,-3.939867e-05,-8.34465e-06,5.722046e-06,1.0,6.043166e-05,4.5835972e-05,-6.042421e-05,1.0,1.1742115e-05,-4.5850873e-05,-1.1771917e-05,1.0,288,0.894,1,2,0.833,False,-0.2632143878608417,0.9496232519460277
0.876714191865176,17:02:57.347171,17:01:41.454140,0,,0.1138996,0.0032979697,0.030717298,-0.9060403,0.1414415,-0.39885467,-0.26475638,0.5458145,0.7949783,0.33014366,0.82588184,-0.4570825,,0.01826676,-0.039644808,0.06157124,0.45647198,-0.6853397,0.5674001,-0.54873717,0.2851383,0.7858648,-0.7003718,-0.67007893,-0.24591392,,0.09840039,1.2953986,0.42710134,0.9826194,0.00753063,-0.18547887,-0.104860395,-0.8019732,-0.5880844,-0.15317772,0.5973125,-0.7872448,,-0.119414456,0.25143945,-0.1208822,0.7903055,-0.20722036,0.5766082,-0.010052347,0.936562,0.35035774,-0.61263055,-0.2826859,0.73808706,,-0.05844711,0.40093014,-0.4310771,-0.37586477,0.805174,-0.4587162,-0.92242527,-0.27773523,0.26831836,0.088641286,0.5239828,0.8471037,,1.087770093533145,0.566848592968079,0.21386970194000002,1.0310454521134063,-0.5988777784719255,0.3073445837499291,-0.427634765139543,,-1.3750866473857934,0.12787301093140943,0.12954474115,0.1427988515129611,0.4267157887674705,-0.3711548754438437,0.7752309378732893,,-0.11698505643804993,-0.12851077448590748,0.09694439508,-0.1167695939710949,,-3.939867e-05,-8.34465e-06,5.722046e-06,1.0,6.043166e-05,4.5835972e-05,-6.042421e-05,1.0,1.1742115e-05,-4.5850873e-05,-1.1771917e-05,1.0,305,0.947,1,2,0.886,False,-0.2618441003348577,0.9496232519460277
0.9379893690347672,17:02:57.410609,17:01:41.587278,0,,0.112515084,0.0034680292,0.03062521,-0.8991263,0.13166869,-0.41741496,-0.28357807,0.5511985,0.7847061,0.33339974,0.8239197,-0.45825866,,0.018271927,-0.039643317,0.06157309,0.4564577,-0.6853973,0.5673419,-0.5488391,0.28497988,0.7858511,-0.7003013,-0.67008734,-0.24609178,,0.09840039,1.2953986,0.42710134,0.9826194,0.00753063,-0.18547887,-0.104860395,-0.8019732,-0.5880844,-0.15317772,0.5973125,-0.7872448,,-0.11802494,0.2515155,-0.121015444,0.7804353,-0.19661507,0.59351766,-0.022967212,0.9396132,0.34146675,-0.6248145,-0.28012416,0.72879165,,-0.058452383,0.40093216,-0.43107626,-0.37586993,0.8052201,-0.45863095,-0.9224351,-0.27783823,0.26817793,0.08851705,0.5238573,0.8471943,,1.0946047121268336,0.5640838545991066,0.21391118322000002,1.0130121169737372,-0.6088522429548027,0.30592167812332216,-0.4251846041475289,,-1.3751329837830388,0.12788073366428365,0.12954603744,0.1427988515129611,0.4265791522677051,-0.37096177880000675,0.775067593807155,,-0.11698505643804993,-0.12851077448590748,0.09694439508,-0.1167695939710949,,-3.939867e-05,-8.34465e-06,5.722046e-06,1.0,6.043166e-05,4.5835972e-05,-6.042421e-05,1.0,1.1742115e-05,-4.5850873e-05,-1.1771917e-05,1.0,313,0.971,1,2,0.91,False,-0.2622015666459845,0.9494784113436892
1.0015073148533702,17:02:57.437260,17:01:41.587278,0,,0.11212992,0.003510639,0.030585602,-0.8969573,0.1299676,-0.42258257,-0.2883555,0.5525677,0.7819973,0.33513993,0.8232722,-0.45815283,,0.01827145,-0.03964266,0.061573267,0.45629454,-0.68543655,0.56742585,-0.54883736,0.28514344,0.78579295,-0.70040894,-0.66997766,-0.246084,,0.09840039,1.2953986,0.42710134,0.9826194,0.00753063,-0.18547887,-0.104860395,-0.8019732,-0.5880844,-0.15317772,0.5973125,-0.7872448,,-0.11763659,0.2515244,-0.12104447,0.7773674,-0.19465715,0.59817094,-0.025687207,0.94030017,0.33937547,-0.6285221,-0.2791848,0.7259585,,-0.058451902,0.4009328,-0.43107596,-0.3756917,0.8052531,-0.4587191,-0.9225037,-0.2776468,0.26814023,0.08855886,0.52390814,0.84715855,,1.096512227146767,0.5632034630514451,0.21393451644000003,1.0088183181040467,-0.6119948824494077,0.3054621765231389,-0.4263280126104688,,-1.3751252610501647,0.12788845639715787,0.12954603744,0.14300854145644562,0.4265791522677051,-0.37096177880000675,0.775067593807155,,-0.11698505643804993,-0.12851077448590748,0.09694439508,-0.1167695939710949,,-3.939867e-05,-8.34465e-06,5.722046e-06,1.0,6.043166e-05,4.5835972e-05,-6.042421e-05,1.0,1.1742115e-05,-4.5850873e-05,-1.1771917e-05,1.0,326,1.012,1,2,0.951,False,-0.2620824112089424,0.9490921697374535
1.0281294309534132,17:02:57.469305,17:01:41.587278,0,,0.11151249,0.0035817325,0.030456215,-0.8950867,0.124221444,-0.42823908,-0.29523987,0.55460656,0.77797484,0.33414552,0.82278824,-0.45974594,,0.018270936,-0.03965167,0.061579823,0.45629916,-0.6854286,0.5674315,-0.5488552,0.28513098,0.785785,-0.700392,-0.6699909,-0.24609625,,0.09845635,1.2953898,0.4271027,0.982611,0.0074663763,-0.18552598,-0.104939125,-0.8019738,-0.5880695,-0.15317772,0.5973125,-0.7872448,,-0.11704786,0.25149828,-0.12102963,0.774747,-0.18864514,0.60347337,-0.031802054,0.9416184,0.3351768,-0.6314711,-0.2788689,0.7235167,,-0.058504175,0.4009221,-0.43108281,-0.37575436,0.80525416,-0.45866585,-0.9224776,-0.27770984,0.2681647,0.08856472,0.52387303,0.84717965,,1.099578152097834,0.5616434710108517,0.21398896062000003,1.0002210304211812,-0.6130879744475313,0.3052100173907425,-0.42600132447820027,,-1.3751252610501647,0.12788845639715787,0.12954733373000002,0.14300854145644562,0.4265791522677051,-0.37096177880000675,0.775067593807155,,-0.11698505643804993,-0.12851077448590748,0.09694439508,-0.1167695939710949,,1.629442e-05,-5.9604645e-08,-5.9604645e-07,1.0,-2.644956e-06,-2.026558e-06,2.6524067e-06,1.0,-5.662441e-07,1.9967556e-06,5.066395e-07,1.0,335,1.041,1,2,0.98,False,-0.2622015666459845,0.9493818509421303
1.0601992888841778,17:02:57.504762,17:01:41.732717,0,,0.11111379,0.0036064535,0.030380845,-0.89327586,0.12130215,-0.43283254,-0.30027735,0.5555155,0.77539396,0.33450228,0.8226106,-0.45980442,,0.018268384,-0.03965298,0.0615772,0.45628256,-0.68540114,0.56747806,-0.54886556,0.2851812,0.78575957,-0.70039475,-0.6699977,-0.24607006,,0.09845635,1.2953898,0.4271027,0.982611,0.0074663763,-0.18552598,-0.104939125,-0.8019738,-0.5880695,-0.15317772,0.5973125,-0.7872448,,-0.11664253,0.25147113,-0.12104466,0.77223307,-0.18564324,0.6076123,-0.0355726,0.9422247,0.33308735,-0.63434273,-0.27883542,0.72101325,,-0.058501344,0.4009195,-0.4310826,-0.37573835,0.805232,-0.45871785,-0.922485,-0.27768517,0.26816487,0.0885558,0.5239202,0.8471514,,1.1014547761862707,0.5606086248057056,0.21402266416000001,0.9947690918905835,-0.6151375219440128,0.3057377835842208,-0.4253479482136632,,-1.3750943701186678,0.12788073366428365,0.12954733373000002,0.14300854145644562,0.4265791522677051,-0.3710434575401473,0.7749042497410208,,-0.11698505643804993,-0.12851077448590748,0.09694439508,-0.1167695939710949,,1.629442e-05,-5.9604645e-08,-5.9604645e-07,1.0,-2.644956e-06,-2.026558e-06,2.6524067e-06,1.0,-5.662441e-07,1.9967556e-06,5.066395e-07,1.0,344,1.07,1,2,1.009,False,-0.26232072208302704,0.949043889536674
1.0956005018670112,17:02:57.536889,17:01:41.732717,0,,0.11079551,0.0036277026,0.030331224,-0.8906709,0.11960748,-0.43863356,-0.30592078,0.5560358,0.77281076,0.33633003,0.82250726,-0.4586545,,0.018264558,-0.039647497,0.061581016,0.45629668,-0.6854173,0.5674472,-0.54881454,0.2851889,0.7857924,-0.7004255,-0.66997784,-0.24603647,,0.09845635,1.2953898,0.4271027,0.982611,0.0074663763,-0.18552598,-0.104939125,-0.8019738,-0.5880695,-0.15317772,0.5973125,-0.7872448,,-0.11632059,0.2514571,-0.12106391,0.7686065,-0.18390161,0.61271876,-0.038924377,0.9425707,0.33173096,-0.6385366,-0.27882025,0.7173076,,-0.058497794,0.4009262,-0.4310814,-0.3757433,0.8052453,-0.4586905,-0.9224772,-0.27766374,0.268214,0.08861635,0.5239111,0.8471507,,1.1028834817680022,0.5598749651826542,0.21405636770000003,0.990155913133924,-0.6193732534367417,0.3067413763945932,-0.4253479482136632,,-1.3750943701186678,0.12794251552727745,0.12954603744,0.14300854145644562,0.4265791522677051,-0.3710434575401473,0.7749042497410208,,-0.11698505643804993,-0.12851077448590748,0.09694439508,-0.1167695939710949,,1.629442e-05,-5.9604645e-08,-5.9604645e-07,1.0,-2.644956e-06,-2.026558e-06,2.6524067e-06,1.0,-5.662441e-07,1.9967556e-06,5.066395e-07,1.0,353,1.098,1,2,1.037,False,-0.26148663402373185,0.9491887301390125
1.1277547788340598,17:02:57.559992,17:01:41.732717,0,,0.11061923,0.0036518276,0.030302078,-0.89017713,0.11725223,-0.44026878,-0.3079207,0.5574021,0.77103025,0.3358119,0.82192135,-0.4600823,,0.018264484,-0.03964583,0.061582327,0.4563039,-0.68541616,0.5674428,-0.5488008,0.2851941,0.78580016,-0.7004315,-0.66997683,-0.24602196,,0.09845635,1.2953898,0.4271027,0.982611,0.0074663763,-0.18552598,-0.104939125,-0.8019738,-0.5880695,-0.15317772,0.5973125,-0.7872448,,-0.11614031,0.2514581,-0.12106596,0.76794267,-0.18131664,0.6143194,-0.040824186,0.9432914,0.32944602,-0.63921624,-0.27807474,0.71699166,,-0.058497805,0.40092826,-0.43108094,-0.3757484,0.8052444,-0.45868793,-0.9224736,-0.27765974,0.26823038,0.08863183,0.52391464,0.84714687,,1.1037870415142865,0.5594579376074461,0.21407321947000002,0.9874299438686253,-0.6195098899365069,0.3056276131961811,-0.42583798041206594,,-1.375102092851542,0.1279579609930259,0.12954603744,0.14300854145644562,0.4265791522677051,-0.3710434575401473,0.7749042497410208,,-0.11698505643804993,-0.12851077448590748,0.09694439508,-0.1167695939710949,,1.629442e-05,-5.9604645e-08,-5.9604645e-07,1.0,-2.644956e-06,-2.026558e-06,2.6524067e-06,1.0,-5.662441e-07,1.9967556e-06,5.066395e-07,1.0,367,1.143,1,2,1.082,False,-0.2618441003348577,0.9493335707413508
1.1508120859507471,17:02:57.599290,17:01:41.732717,0,,0.110180624,0.0036495253,0.030201703,-0.887126,0.10114102,-0.45030856,-0.3211498,0.5654603,0.75968236,0.33146685,0.8185506,-0.4691532,,0.0182622,-0.039644517,0.06158191,0.45629993,-0.68543065,0.5674284,-0.54879,0.28518957,0.78580934,-0.70044255,-0.66996396,-0.24602574,,0.09845635,1.2953898,0.4271027,0.982611,0.0074663763,-0.18552598,-0.104939125,-0.8019738,-0.5880695,-0.15317772,0.5973125,-0.7872448,,-0.115695395,0.2513942,-0.121086545,0.76392114,-0.1639202,0.6241431,-0.05395141,0.9475897,0.31490165,-0.6430504,-0.27423343,0.71504,,-0.058495395,0.40092897,-0.43108007,-0.37574193,0.8052562,-0.4586725,-0.92247486,-0.27765164,0.26823446,0.08864629,0.5239008,0.84715396,,1.105872179390327,0.5584462596009228,0.21411470075000003,0.9704450584463787,-0.6233357119299393,0.29984433182435966,-0.45213637505968496,,-1.3750866473857934,0.12797340645877436,0.12954603744,0.14300854145644562,0.4265791522677051,-0.3710434575401473,0.7749042497410208,,-0.11698505643804993,-0.12851077448590748,0.09694439508,-0.1167695939710949,,1.629442e-05,-5.9604645e-08,-5.9604645e-07,1.0,-2.644956e-06,-2.026558e-06,2.6524067e-06,1.0,-5.662441e-07,1.9967556e-06,5.066395e-07,1.0,376,1.172,0,2,1.105,False,-0.2617249448978165,0.9488024885327766
1.1901594018563628,17:02:57.642269,17:01:41.732717,0,,0.109320246,0.0035719723,0.030018061,-0.87849414,0.10849899,-0.46526974,-0.3270293,0.57338375,0.75118756,0.34828138,0.8120707,-0.468232,,0.01826401,-0.039645113,0.061582565,0.45614067,-0.6854553,0.56752664,-0.54879904,0.2853576,0.78574204,-0.7005392,-0.6698671,-0.24601421,,0.09845635,1.2953898,0.4271027,0.982611,0.0074663763,-0.18552598,-0.104939125,-0.8019738,-0.5880695,-0.15317772,0.5973125,-0.7872448,,-0.11483488,0.2512191,-0.1211806,0.7517798,-0.16889197,0.6374187,-0.04833647,0.9499291,0.3087041,-0.6576403,-0.2628881,0.7059739,,-0.058497325,0.4009289,-0.43108064,-0.37557015,0.8052773,-0.4587761,-0.92254215,-0.2774683,0.26819265,0.08867364,0.5239654,0.8471111,,1.108860877012652,0.5556274621018308,0.21418210783000002,0.9756873070334918,-0.6385023634039032,0.2908935679579757,-0.43988557009961404,,-1.3750943701186678,0.12796568372590011,0.12954603744,0.14321823139993015,0.4265791522677051,-0.3710434575401473,0.7749042497410208,,-0.11698505643804993,-0.12851077448590748,0.09694439508,-0.1167695939710949,,1.629442e-05,-5.9604645e-08,-5.9604645e-07,1.0,-2.644956e-06,-2.026558e-06,2.6524067e-06,1.0,-5.662441e-07,1.9967556e-06,5.066395e-07,1.0,399,1.246,0,2,1.105,False,-0.2612483231496481,0.9493818509421303
1.2331701728980988,17:02:57.702497,17:01:41.879715,0,,0.10832458,0.0033854842,0.029610574,-0.88086146,0.11045976,-0.46030605,-0.32334548,0.569794,0.7555014,0.34573227,0.81433004,-0.46619296,,0.018261384,-0.039646752,0.06158328,0.45613328,-0.6854658,0.56752,-0.548801,0.28535113,0.785743,-0.7005425,-0.6698592,-0.24602637,,0.09845635,1.2953898,0.4271027,0.982611,0.0074663763,-0.18552598,-0.104939125,-0.8019738,-0.5880695,-0.15317772,0.5973125,-0.7872448,,-0.11381834,0.25082088,-0.12119626,0.75503314,-0.17168565,0.63281035,-0.046977032,0.9484666,0.3133756,-0.6540016,-0.2663365,0.7080585,,-0.058494985,0.40092865,-0.4310828,-0.37556246,0.8052858,-0.4587675,-0.9225454,-0.27746558,0.26818445,0.08867296,0.52395386,0.8471183,,1.1128458071757519,0.5511173861032836,0.21420673734,0.9738000975421311,-0.6282546259214952,0.296912683445483,-0.4349852481155856,,-1.3750789246529194,0.12796568372590011,0.12954344486000002,0.14321823139993015,0.4265791522677051,-0.3710434575401473,0.7749042497410208,,-0.11698505643804993,-0.12851077448590748,0.09694439508,-0.1167695939710949,,1.629442e-05,-5.9604645e-08,-5.9604645e-07,1.0,-2.644956e-06,-2.026558e-06,2.6524067e-06,1.0,-5.662441e-07,1.9967556e-06,5.066395e-07,1.0,408,1.275,0,2,1.105,False,-0.2617249448978165,0.9491887301390125
1.2933647008612752,17:02:57.731792,17:01:41.879715,0,,0.10787686,0.0032947287,0.029435366,-0.88037777,0.113273814,-0.46054745,-0.32203412,0.57011485,0.7558193,0.34817967,0.8137186,-0.4654385,,0.018260006,-0.03964389,0.061582923,0.45613483,-0.6854771,0.5675051,-0.5487829,0.28535074,0.78575575,-0.7005557,-0.6698477,-0.24601984,,0.09845635,1.2953898,0.4271027,0.982611,0.0074663763,-0.18552598,-0.104939125,-0.8019738,-0.5880695,-0.15317772,0.5973125,-0.7872448,,-0.11336358,0.2506412,-0.1212136,0.7543146,-0.17428033,0.632958,-0.04444399,0.94835323,0.3140873,-0.65500706,-0.2650518,0.70761096,,-0.058493346,0.4009303,-0.43108055,-0.37556046,0.80529505,-0.45875293,-0.922544,-0.27745616,0.2681988,0.088695325,0.5239446,0.84712166,,1.1144598583464647,0.5491094755559853,0.21422747798000003,0.9754776170900072,-0.6271615339233717,0.2969198063574578,-0.4366186887769284,,-1.375071201920045,0.1279888519245228,0.12954474115,0.14321823139993015,0.4265791522677051,-0.3710434575401473,0.7749042497410208,,-0.11698505643804993,-0.12851077448590748,0.09694439508,-0.1167695939710949,,1.629442e-05,-5.9604645e-08,-5.9604645e-07,1.0,-2.644956e-06,-2.026558e-06,2.6524067e-06,1.0,-5.662441e-07,1.9967556e-06,5.066395e-07,1.0,422,1.32,0,2,1.105,False,-0.26136747858668974,0.949140449938233
1.3226200370118022,17:02:57.776588,17:01:41.879715,0,,0.10755209,0.003263265,0.02936235,-0.8796996,0.114179775,-0.46161848,-0.32239997,0.5703687,0.7554717,0.34955248,0.81341404,-0.46494168,,0.018261146,-0.039644517,0.0615831,0.45613676,-0.68546987,0.5675123,-0.54878825,0.28535306,0.78575116,-0.7005502,-0.6698543,-0.24601793,,0.09845635,1.2953898,0.4271027,0.982611,0.0074663763,-0.18552598,-0.104939125,-0.8019738,-0.5880695,-0.15317772,0.5973125,-0.7872448,,-0.11303841,0.25057113,-0.12124757,0.7533648,-0.17507645,0.6338689,-0.043895174,0.94837034,0.3141129,-0.6561362,-0.2644654,0.7067838,,-0.05849455,0.40092993,-0.431081,-0.37556368,0.80528915,-0.45876065,-0.9225434,-0.27746022,0.26819676,0.08868809,0.5239516,0.84711814,,1.11580361386658,0.5479510656248516,0.21422747798000003,0.9752679271465229,-0.6270248974236062,0.2969717459340425,-0.4361286565785256,,-1.3750789246529194,0.12798112919164858,0.12954474115,0.14321823139993015,0.4265791522677051,-0.3710434575401473,0.7749042497410208,,-0.11698505643804993,-0.12851077448590748,0.09694439508,-0.1167695939710949,,1.629442e-05,-5.9604645e-08,-5.9604645e-07,1.0,-2.644956e-06,-2.026558e-06,2.6524067e-06,1.0,-5.662441e-07,1.9967556e-06,5.066395e-07,1.0,431,1.348,0,2,1.105,False,-0.26160578946077395,0.9496715321468068
1.3674881949555129,17:02:57.807806,17:01:42.037544,0,,0.10744688,0.0033122078,0.029372185,-0.88071287,0.11344816,-0.45986333,-0.3209486,0.57107854,0.7555535,0.34833437,0.8130183,-0.4665453,,0.01825666,-0.03964264,0.06158364,0.45596772,-0.6853916,0.5677426,-0.5487703,0.2857022,0.78563684,-0.7006743,-0.6697854,-0.24585178,,0.09845635,1.2953898,0.4271027,0.982611,0.0074663763,-0.18552598,-0.104939125,-0.8019738,-0.5880695,-0.15317772,0.5973125,-0.7872448,,-0.11293085,0.25061572,-0.1212493,0.7547623,-0.1741975,0.6324469,-0.04349016,0.94868994,0.3132028,-0.65455514,-0.2638989,0.70845956,,-0.05849009,0.40093192,-0.4310806,-0.37537575,0.8052273,-0.45902297,-0.9226138,-0.27719092,0.2682331,0.08875159,0.5241891,0.84696454,,1.116537273489631,0.5477811655016187,0.21422618169000002,0.9754776170900072,-0.6242921674282974,0.2953968177812386,-0.4367820328430627,,-1.3750480337214224,0.12801202012314547,0.12954344486000002,0.14342792134341464,0.4265791522677051,-0.371288493760569,0.7744142175426179,,-0.11698505643804993,-0.12851077448590748,0.09694439508,-0.1167695939710949,,1.629442e-05,-5.9604645e-08,-5.9604645e-07,1.0,-2.644956e-06,-2.026558e-06,2.6524067e-06,1.0,-5.662441e-07,1.9967556e-06,5.066395e-07,1.0,440,1.377,0,2,1.105,False,-0.2617249448978165,0.9487059281312178
1.3987031418364495,17:02:57.835280,17:01:42.037544,0,,0.10744417,0.003330484,0.029380918,-0.88103443,0.114871606,-0.458893,-0.32007295,0.5695435,0.7570821,0.34832692,0.8138947,-0.4650203,,0.018255271,-0.039642937,0.06158191,0.45575875,-0.68548185,0.5678014,-0.54888463,0.28574446,0.78554153,-0.7007207,-0.6696751,-0.24602014,,0.09845635,1.2953898,0.4271027,0.982611,0.0074663763,-0.18552598,-0.104939125,-0.8019738,-0.5880695,-0.15317772,0.5973125,-0.7872448,,-0.11292723,0.2506355,-0.121245764,0.75519645,-0.1759471,0.63144356,-0.042801466,0.948011,0.31534615,-0.65409964,-0.265175,0.70840377,,-0.058488462,0.40093052,-0.43107998,-0.37517124,0.80530113,-0.45906055,-0.9227059,-0.27707237,0.26803872,0.0886589,0.5241383,0.84700567,,1.1166222235512477,0.5478197791659898,0.21422747798000003,0.9763163768639453,-0.6236089849294703,0.2970450542465517,-0.43596531251239135,,-1.3750248655227997,0.1280197428560197,0.12954344486000002,0.1436376112868992,0.4264425157679396,-0.37117707585687265,0.7740875294103493,,-0.11698505643804993,-0.12851077448590748,0.09694439508,-0.1167695939710949,,1.629442e-05,-5.9604645e-08,-5.9604645e-07,1.0,-2.644956e-06,-2.026558e-06,2.6524067e-06,1.0,-5.662441e-07,1.9967556e-06,5.066395e-07,1.0,454,1.422,0,2,1.105,False,-0.2620824112089424,0.9487059281312178
1.4261500190477818,17:02:57.884276,17:01:42.037544,0,,0.107500955,0.0033824071,0.029423356,-0.8817835,0.11405325,-0.45765674,-0.31932956,0.569739,0.75724894,0.34711182,0.81387293,-0.46596593,,0.018258963,-0.03964228,0.06158471,0.45577732,-0.68545574,0.56781805,-0.54887974,0.28576076,0.7855391,-0.7007125,-0.66969484,-0.24598968,,0.09845635,1.2953898,0.4271027,0.982611,0.0074663763,-0.18552598,-0.104939125,-0.8019738,-0.5880695,-0.15317772,0.5973125,-0.7872448,,-0.11298292,0.25070265,-0.12123517,0.75623935,-0.17511854,0.63042486,-0.04295512,0.94815105,0.3149038,-0.6528835,-0.2652226,0.7095069,,-0.058492497,0.40093276,-0.4310806,-0.37519047,0.8052799,-0.45908204,-0.9226979,-0.27707916,0.2680592,0.08866061,0.5241673,0.84698755,,1.1166067780854991,0.5482136385425753,0.21422747798000003,0.9763163768639453,-0.6222426199318158,0.29625759017014974,-0.4366186887769285,,-1.3750634791871708,0.1280197428560197,0.12954344486000002,0.1436376112868992,0.4264425157679396,-0.37117707585687265,0.7740875294103493,,-0.11698505643804993,-0.12851077448590748,0.09694439508,-0.1167695939710949,,1.629442e-05,-5.9604645e-08,-5.9604645e-07,1.0,-2.644956e-06,-2.026558e-06,2.6524067e-06,1.0,-5.662441e-07,1.9967556e-06,5.066395e-07,1.0,463,1.451,0,2,1.105,False,-0.26190367805337944,0.9489956093358944
1.4751067778561264,17:02:57.912086,17:01:42.037544,0,,0.10747751,0.0033805296,0.029425353,-0.8817322,0.11409801,-0.45774424,-0.31935668,0.56979996,0.75719166,0.3472168,0.81382406,-0.4659731,,0.018257651,-0.039643086,0.06158507,0.4557736,-0.6854609,0.5678147,-0.5488807,0.2857575,0.7855396,-0.7007142,-0.66969097,-0.24599579,,0.09845635,1.2953898,0.4271027,0.982611,0.0074663763,-0.18552598,-0.104939125,-0.8019738,-0.5880695,-0.15317772,0.5973125,-0.7872448,,-0.11296066,0.25070232,-0.12124299,0.7561675,-0.17514542,0.6305036,-0.04291239,0.9481696,0.31485388,-0.65296954,-0.2651387,0.7094591,,-0.05849133,0.40093264,-0.43108168,-0.37518662,0.8052842,-0.45907775,-0.9226995,-0.27707782,0.26805508,0.08866027,0.5241615,0.8469912,,1.1167148963457383,0.5481518566795814,0.21422229282000002,0.9763163768639453,-0.6222426199318158,0.2961759114300092,-0.4364553447107942,,-1.3750557564542967,0.1280197428560197,0.12954214857000002,0.1436376112868992,0.4264425157679396,-0.37117707585687265,0.7740875294103493,,-0.11698505643804993,-0.12851077448590748,0.09694439508,-0.1167695939710949,,1.629442e-05,-5.9604645e-08,-5.9604645e-07,1.0,-2.644956e-06,-2.026558e-06,2.6524067e-06,1.0,-5.662441e-07,1.9967556e-06,5.066395e-07,1.0,472,1.479,0,2,1.105,False,-0.26112916771260597,0.949043889536674
1.5029673769604415,17:02:57.943120,17:01:42.037544,0,,0.10741231,0.003389828,0.029454023,-0.88153887,0.114414275,-0.45803773,-0.3192709,0.5702265,0.7569066,0.34778637,0.81348073,-0.46614784,,0.01825086,-0.03964091,0.061582625,0.45575464,-0.6854592,0.56783205,-0.54886216,0.2858027,0.78553617,-0.70074105,-0.66967344,-0.24596688,,0.09845635,1.2953898,0.4271027,0.982611,0.0074663763,-0.18552598,-0.104939125,-0.8019738,-0.5880695,-0.15317772,0.5973125,-0.7872448,,-0.112900786,0.25072706,-0.12127404,0.75589156,-0.17533612,0.6307814,-0.04249666,0.9482988,0.31452087,-0.65331614,-0.26454976,0.7093599,,-0.058484085,0.4009327,-0.4310796,-0.37516218,0.805283,-0.45909977,-0.9227068,-0.27703568,0.26807365,0.08868814,0.52418554,0.8469734,,1.1170778647908268,0.5480823520837135,0.21420025589000002,0.9767357567509145,-0.6223792564315813,0.2953888631921594,-0.43596531251239135,,-1.375001697324177,0.1280506337875166,0.12954214857000002,0.1436376112868992,0.4264425157679396,-0.3712587545970132,0.7742508734764836,,-0.11698505643804993,-0.12851077448590748,0.09694439508,-0.1167695939710949,,1.629442e-05,-5.9604645e-08,-5.9604645e-07,1.0,-2.644956e-06,-2.026558e-06,2.6524067e-06,1.0,-5.662441e-07,1.9967556e-06,5.066395e-07,1.0,486,1.524,0,2,1.105,False,-0.2611887454311268,0.9488024885327766
1.5340200178325176,17:02:57.978256,17:01:42.178099,0,,0.10740242,0.0034171343,0.029521614,-0.8808434,0.11461292,-0.45932427,-0.32017398,0.5704694,0.75634193,0.34871715,0.81328255,-0.46579823,,0.018249143,-0.03964097,0.0615834,0.45575267,-0.6855592,0.56771284,-0.54885674,0.28567207,0.78558743,-0.70074654,-0.6696267,-0.2460782,,0.09845635,1.2953898,0.4271027,0.982611,0.0074663763,-0.18552598,-0.104939125,-0.8019738,-0.5880695,-0.15317772,0.5973125,-0.7872448,,-0.11289917,0.25078994,-0.12131224,0.7549285,-0.17546237,0.63189864,-0.042643066,0.9483707,0.3142843,-0.65441924,-0.26420826,0.7084698,,-0.05848252,0.40093336,-0.43108037,-0.37515894,0.8053639,-0.45896047,-0.9227074,-0.2770754,0.26803043,0.08869537,0.5240402,0.8470625,,1.1172477649140597,0.5483603704671856,0.21417303380000002,0.9767357567509145,-0.6238822579290011,0.29489920658986823,-0.43612865657852556,,-1.374993974591303,0.12805835652039083,0.12954085228,0.1436376112868992,0.4264425157679396,-0.371095397116732,0.7745775616087522,,-0.11698505643804993,-0.12851077448590748,0.09694439508,-0.1167695939710949,,1.629442e-05,-5.9604645e-08,-5.9604645e-07,1.0,-2.644956e-06,-2.026558e-06,2.6524067e-06,1.0,-5.662441e-07,1.9967556e-06,5.066395e-07,1.0,495,1.553,0,2,1.105,False,-0.2617249448978165,0.9490921697374535
1.5691562739666551,17:02:58.015789,17:01:42.178099,0,,0.10750119,0.0034588426,0.029671937,-0.8811896,0.11544162,-0.45845187,-0.31892648,0.5706804,0.7567097,0.34898543,0.8130172,-0.46606037,,0.018251762,-0.039641358,0.06158471,0.4557621,-0.6854952,0.5677827,-0.54886013,0.28574502,0.78555846,-0.7007378,-0.66966116,-0.24600944,,0.09845635,1.2953898,0.4271027,0.982611,0.0074663763,-0.18552598,-0.104939125,-0.8019738,-0.5880695,-0.15317772,0.5973125,-0.7872448,,-0.11301595,0.25091487,-0.12138186,0.7553894,-0.1761958,0.63114333,-0.0414916,0.9483776,0.31441745,-0.65396124,-0.26369476,0.7090838,,-0.05848534,0.40093392,-0.43108106,-0.37516987,0.80531204,-0.45904258,-0.92270356,-0.2770603,0.2680592,0.08868883,0.52412796,0.84700894,,1.1170933102565754,0.549132643754608,0.21409525640000002,0.9786229662422752,-0.6237456214292356,0.29348092884392274,-0.43645534471079417,,-1.3750171427899256,0.1280506337875166,0.12954085228,0.1436376112868992,0.4264425157679396,-0.3711770758568726,0.7744142175426179,,-0.11698505643804993,-0.12851077448590748,0.09694439508,-0.1167695939710949,,1.629442e-05,-5.9604645e-08,-5.9604645e-07,1.0,-2.644956e-06,-2.026558e-06,2.6524067e-06,1.0,-5.662441e-07,1.9967556e-06,5.066395e-07,1.0,518,1.627,0,2,1.105,False,-0.2621419889274632,0.9488990489343356
1.60667364904657,17:02:58.088155,17:01:42.313341,0,,0.107753456,0.0035104975,0.029901206,-0.88180053,0.11476757,-0.45744526,-0.31868052,0.57001096,0.75731766,0.34766454,0.81358206,-0.4660619,,0.018241413,-0.03962768,0.061590314,0.45574778,-0.6855457,0.56773317,-0.5488497,0.28570402,0.7855807,-0.70075524,-0.66962695,-0.2460528,,0.09845635,1.2953898,0.4271027,0.982611,0.0074663763,-0.18552598,-0.104939125,-0.8019738,-0.5880695,-0.15317772,0.5973125,-0.7872448,,-0.1132948,0.25109613,-0.12147267,0.7562483,-0.17572767,0.6302446,-0.04210366,0.94819045,0.31490013,-0.65292865,-0.2646783,0.70966864,,-0.05847505,0.40094775,-0.43107575,-0.37515214,0.80535305,-0.4589851,-0.92270917,-0.27705628,0.268044,0.08870535,0.52406704,0.84704494,,1.1163828188321467,0.5506076857335849,0.21398118288,0.9788326561857598,-0.6237456214292356,0.29331757136364156,-0.4364553447107942,,-1.374993974591303,0.1282050884450011,0.12953955599,0.1436376112868992,0.4263058792681742,-0.3711473366933168,0.7742508734764836,,-0.11698505643804993,-0.12851077448590748,0.09694439508,-0.1167695939710949,,1.629442e-05,-5.9604645e-08,-5.9604645e-07,1.0,-2.644956e-06,-2.026558e-06,2.6524067e-06,1.0,-5.662441e-07,1.9967556e-06,5.066395e-07,1.0,527,1.655,0,2,1.105,False,-0.2620824112089424,0.9486093677296588
1.6790467570535839,17:02:58.119154,17:01:42.313341,0,,0.10783223,0.0035039485,0.029943585,-0.8819171,0.11368796,-0.45749027,-0.3189441,0.5707287,0.7566658,0.34712672,0.8132304,-0.46707544,,0.018241495,-0.03962756,0.061590433,0.45591274,-0.6855549,0.5675895,-0.5488452,0.28547734,0.78566635,-0.7006515,-0.66971415,-0.24611095,,0.09845635,1.2953898,0.4271027,0.982611,0.0074663763,-0.18552598,-0.104939125,-0.8019738,-0.5880695,-0.15317772,0.5973125,-0.7872448,,-0.11337989,0.25111693,-0.12149194,0.75641954,-0.17451586,0.63037586,-0.042640787,0.9485426,0.3137653,-0.65269536,-0.2642179,0.7100547,,-0.058475137,0.40094793,-0.43107572,-0.37533104,0.8053593,-0.4588278,-0.9226397,-0.27726695,0.2680653,0.08867111,0.523946,0.8471234,,1.1160584640514293,0.5509320405143023,0.21395396079,0.9784132762987906,-0.6238822579290011,0.2923671656455108,-0.4366186887769284,,-1.375001697324177,0.1282050884450011,0.12953955599,0.14342792134341464,0.4263058792681742,-0.3710656579531762,0.7744142175426179,,-0.11698505643804993,-0.12851077448590748,0.09694439508,-0.1167695939710949,,1.629442e-05,-5.9604645e-08,-5.9604645e-07,1.0,-2.644956e-06,-2.026558e-06,2.6524067e-06,1.0,-5.662441e-07,1.9967556e-06,5.066395e-07,1.0,550,1.729,0,2,1.105,False,-0.26196325577190027,0.9488024885327766
1.7100506108254194,17:02:58.189424,17:01:42.313341,0,,0.107998945,0.0033765659,0.029973894,-0.88148123,0.11242482,-0.4586408,-0.32054213,0.5707551,0.75597036,0.34676158,0.8133875,-0.4670731,,0.0182444,-0.03962592,0.061591685,0.45543435,-0.68560094,0.56791794,-0.54884845,0.28604302,0.78545827,-0.70096,-0.66942567,-0.2460174,,0.09845635,1.2953898,0.4271027,0.982611,0.0074663763,-0.18552598,-0.104939125,-0.8019738,-0.5880695,-0.15317772,0.5973125,-0.7872448,,-0.113565095,0.25103483,-0.121554345,0.75584036,-0.1733076,0.631403,-0.04412894,0.948657,0.3132134,-0.65326715,-0.26460248,0.70938534,,-0.058478076,0.40094972,-0.43107477,-0.37481028,0.8054001,-0.45918187,-0.92284065,-0.27668148,0.26797855,0.08878282,0.5241928,0.846959,,1.1149309450517924,0.551163722500529,0.21387618339000003,0.976945446694399,-0.6256585324259518,0.2933255259527209,-0.4362920006446599,,-1.3750094200570513,0.1282128111778753,0.12954085228,0.14405699117386822,0.4263058792681742,-0.3711473366933168,0.7742508734764836,,-0.11698505643804993,-0.12851077448590748,0.09694439508,-0.1167695939710949,,1.629442e-05,-5.9604645e-08,-5.9604645e-07,1.0,-2.644956e-06,-2.026558e-06,2.6524067e-06,1.0,-5.662441e-07,1.9967556e-06,5.066395e-07,1.0,559,1.758,0,2,1.105,False,-0.2621419889274632,0.9491887301390125
1.780320901889354,17:02:58.217994,17:01:42.313341,0,,0.108063884,0.0033034682,0.029955953,-0.8812345,0.111343205,-0.45937824,-0.32162392,0.5709499,0.75536346,0.34638667,0.8133995,-0.46733034,,0.018243413,-0.039625205,0.06159103,0.4553958,-0.6856045,0.5679445,-0.54895085,0.28599113,0.7854056,-0.70090485,-0.6694442,-0.24612424,,0.09845635,1.2953898,0.4271027,0.982611,0.0074663763,-0.18552598,-0.104939125,-0.8019738,-0.5880695,-0.15317772,0.5973125,-0.7872448,,-0.113635264,0.25096607,-0.12156959,0.75551766,-0.17222822,0.63208425,-0.045214392,0.9488166,0.31257427,-0.6535661,-0.2647347,0.70906055,,-0.058476936,0.40094972,-0.43107393,-0.37478912,0.8054027,-0.4591945,-0.9228607,-0.27672845,0.26786098,0.08866378,0.52416396,0.84698933,,1.1143903537505968,0.5511173861032836,0.21385414646000003,0.9756873070334918,-0.6264783514245444,0.29383067589461825,-0.4366186887769285,,-1.375001697324177,0.12822825664362375,0.12954085228,0.14405699117386822,0.42616924276840873,-0.3711175975297608,0.7740875294103493,,-0.11698505643804993,-0.12851077448590748,0.09694439508,-0.1167695939710949,,1.629442e-05,-5.9604645e-08,-5.9604645e-07,1.0,-2.644956e-06,-2.026558e-06,2.6524067e-06,1.0,-5.662441e-07,1.9967556e-06,5.066395e-07,1.0,582,1.832,0,2,1.105,False,-0.26148663402373185,0.9484162469265409
1.8088660119101405,17:02:58.292147,17:01:42.477180,0,,0.10820382,0.0031553209,0.029944688,-0.8808315,0.10903916,-0.46070194,-0.3235796,0.5716866,0.7539698,0.34558952,0.8131942,-0.46827683,,0.018242192,-0.03962291,0.061592102,0.4554011,-0.6855178,0.5680449,-0.54893166,0.28612232,0.7853711,-0.70091635,-0.66947687,-0.24600232,,0.09845635,1.2953898,0.4271027,0.982611,0.0074663763,-0.18552598,-0.104939125,-0.8019738,-0.5880695,-0.15317772,0.5973125,-0.7872448,,-0.11378997,0.25084206,-0.12161808,0.7549969,-0.16984506,0.63335013,-0.047249597,0.9492707,0.31089002,-0.6540238,-0.26464653,0.70867133,,-0.05847574,0.4009521,-0.43107304,-0.37479097,0.80533266,-0.4593158,-0.92285776,-0.27667665,0.2679246,0.08868649,0.5242989,0.84690344,,1.1132937256824569,0.5511096633704095,0.21379062825000003,0.973380717655162,-0.6279813529219643,0.29423948543387335,-0.43433187185104855,,-1.375001697324177,0.12825142484224644,0.12954085228,0.14405699117386822,0.42616924276840873,-0.371280955010042,0.7744142175426179,,-0.11698505643804993,-0.12851077448590748,0.09694439508,-0.1167695939710949,,1.629442e-05,-5.9604645e-08,-5.9604645e-07,1.0,-2.644956e-06,-2.026558e-06,2.6524067e-06,1.0,-5.662441e-07,1.9967556e-06,5.066395e-07,1.0,591,1.86,0,2,1.105,False,-0.17718416231647005,0.9492852905405713
1.8830444649793208,17:02:58.320946,17:01:42.477180,0,,0.10822503,0.0031513795,0.029971689,-0.88039994,0.11846426,-0.45919728,-0.3180992,0.5706356,0.75709164,0.35172278,0.8126138,-0.46470422,,0.018241614,-0.03962291,0.06159103,0.4553608,-0.68551946,0.56807536,-0.54904044,0.28606945,0.7853143,-0.70085734,-0.66949785,-0.24611336,,0.09845635,1.2953898,0.4271027,0.982611,0.0074663763,-0.18552598,-0.104939125,-0.8019738,-0.5880695,-0.15317772,0.5973125,-0.7872448,,-0.113815874,0.25085545,-0.121636614,0.7542561,-0.17907985,0.6316867,-0.039164726,0.94810176,0.31554592,-0.6554112,-0.26274228,0.70809793,,-0.058475003,0.40095133,-0.4310725,-0.37476918,0.8053337,-0.45933187,-0.92287874,-0.2767263,0.26780093,0.08855989,0.52427113,0.84693384,,1.1130002618332364,0.5510478815074157,0.21377766535000003,0.9834458349424192,-0.6294843544193841,0.29342311387101994,-0.4302482701976915,,-1.374993974591303,0.12825914757512066,0.12954085228,0.14405699117386822,0.4260326062686433,-0.3712512158464861,0.7745775616087522,,-0.11698505643804993,-0.12851077448590748,0.09694439508,-0.1167695939710949,,1.629442e-05,-5.9604645e-08,-5.9604645e-07,1.0,-2.644956e-06,-2.026558e-06,2.6524067e-06,1.0,-5.662441e-07,1.9967556e-06,5.066395e-07,1.0,605,1.905,0,2,1.105,False,0.2523116105016583,0.9494301311429094
1.911821903893724,17:02:58.368096,17:01:42.477180,0,,0.10819768,0.0031419322,0.030030757,-0.8764131,0.13834123,-0.46126097,-0.308731,0.5736886,0.7586609,0.36957446,0.807306,-0.46007806,,0.018242832,-0.039623417,0.061591387,0.45552778,-0.6854751,0.5679949,-0.5490414,0.28590927,0.785372,-0.70074815,-0.66961163,-0.24611482,,0.09845635,1.2953898,0.4271027,0.982611,0.0074663763,-0.18552598,-0.104939125,-0.8019738,-0.5880695,-0.15317772,0.5973125,-0.7872448,,-0.11380075,0.25088397,-0.12169395,0.74854064,-0.19712849,0.63310915,-0.020843977,0.9473207,0.31960756,-0.6627612,-0.25243574,0.70499915,,-0.05847629,0.40095115,-0.43107292,-0.37495136,0.8052966,-0.45924813,-0.92280877,-0.27691913,0.26784292,0.088518396,0.52422625,0.84696597,,1.1124982841964117,0.5507930313225663,0.21376988761000001,1.006511728725717,-0.6383657269041378,0.28465624454373717,-0.40149971455805844,,-1.3750094200570513,0.12825142484224644,0.12954085228,0.14384730123038372,0.4260326062686433,-0.37125121584648624,0.7749042497410208,,-0.11698505643804993,-0.12851077448590748,0.09694439508,-0.1167695939710949,,1.629442e-05,-5.9604645e-08,-5.9604645e-07,1.0,-2.644956e-06,-2.026558e-06,2.6524067e-06,1.0,-5.662441e-07,1.9967556e-06,5.066395e-07,1.0,614,1.934,0,2,1.105,False,0.5733163578929852,0.9524235035912361
1.9589681779034436,17:02:58.395169,17:01:42.477180,0,,0.10813713,0.0031321347,0.030078918,-0.87180334,0.15495482,-0.46470186,-0.30218047,0.5765255,0.75914764,0.3855462,0.80225146,-0.45579267,,0.018242907,-0.03962148,0.061588883,0.45514655,-0.685448,0.5683331,-0.54967976,0.28584012,0.78495055,-0.7004953,-0.6696689,-0.24667794,,0.09845635,1.2953898,0.4271027,0.982611,0.0074663763,-0.18552598,-0.104939125,-0.8019738,-0.5880695,-0.15317772,0.5973125,-0.7872448,,-0.1137514,0.25090545,-0.12175036,0.74216074,-0.21206763,0.6357867,-0.0059014685,0.9465167,0.32260093,-0.67019594,-0.24317384,0.70121604,,-0.058475815,0.4009505,-0.43106988,-0.37466586,0.80527407,-0.45952058,-0.92299235,-0.27700925,0.2671161,0.087810226,0.52421325,0.8470477,,1.112197097614317,0.5504918447404715,0.21376859132000003,1.0255935135828087,-0.6475203723884223,0.2768473196851121,-0.36572736407465123,,-1.375001697324177,0.12831320670524024,0.12954085228,0.14405699117386822,0.42521278727005063,-0.37115445960529153,0.777354410733035,,-0.11698505643804993,-0.12851077448590748,0.09694439508,-0.1167695939710949,,1.629442e-05,-5.9604645e-08,-5.9604645e-07,1.0,-2.644956e-06,-2.026558e-06,2.6524067e-06,1.0,-5.662441e-07,1.9967556e-06,5.066395e-07,1.0,637,2.008,0,2,1.105,False,0.684130914342107,0.9559479582481367
1.9860496788751334,17:02:58.462206,17:01:42.682635,0,,0.10805668,0.0031274706,0.030219376,-0.8576354,0.2100423,-0.4694078,-0.27587616,0.5824119,0.7646493,0.43399754,0.7852888,-0.4415515,,0.01823917,-0.039604224,0.06159097,0.4544591,-0.6846241,0.5698742,-0.55074286,0.28686506,0.78383064,-0.70010644,-0.67007333,-0.2466836,,0.09845635,1.2953898,0.4271027,0.982611,0.0074663763,-0.18552598,-0.104939125,-0.8019738,-0.5880695,-0.15317772,0.5973125,-0.7872448,,-0.11369798,0.2509873,-0.121879496,0.7235031,-0.26204708,0.6386506,0.044525087,0.9409379,0.3356389,-0.6888837,-0.21439981,0.69243914,,-0.058471184,0.4009634,-0.43105856,-0.3741334,0.80460703,-0.46112007,-0.9233186,-0.27672997,0.26627657,0.08664227,0.5253837,0.8464426,,1.110930569422944,0.5495419485969418,0.21377507277000002,1.0912264658934647,-0.6707485773485472,0.25176352237774086,-0.25873700075669837,,-1.3750094200570513,0.12855261142434118,0.12954214857000002,0.14447637106083727,0.4237097857726308,-0.3723792248688478,0.7848682377752119,,-0.11698505643804993,-0.12851077448590748,0.09694439508,-0.1167695939710949,,1.629442e-05,-5.9604645e-08,-5.9604645e-07,1.0,-2.644956e-06,-2.026558e-06,2.6524067e-06,1.0,-5.662441e-07,1.9967556e-06,5.066395e-07,1.0,646,2.036,0,2,1.105,False,0.8583957410161296,0.9657488390063664
2.0531064809765667,17:02:58.494863,17:01:42.682635,0,,0.10803242,0.003084816,0.030276716,-0.84609485,0.24832128,-0.4716565,-0.2558067,0.58713615,0.7680064,0.4676391,0.7704593,-0.4332508,,0.018229298,-0.039571054,0.06160283,0.45363355,-0.6843776,0.5708272,-0.5512531,0.28780058,0.78312886,-0.7002404,-0.6699239,-0.24670953,,0.09845635,1.2953898,0.4271027,0.982611,0.0074663763,-0.18552598,-0.104939125,-0.8019738,-0.5880695,-0.15317772,0.5973125,-0.7872448,,-0.113690086,0.25098842,-0.12195453,0.709133,-0.29616153,0.6398583,0.0809719,0.9357075,0.3433584,-0.70040977,-0.19167624,0.6875219,,-0.05846091,0.40099442,-0.4310421,-0.37333792,0.80441076,-0.46210617,-0.9236819,-0.2760381,0.26573431,0.08620062,0.5260478,0.8460752,,1.109787604957559,0.548545716056167,0.21378285051,1.1398745327818744,-0.6855053193232148,0.23055340873974542,-0.18539551506240692,,-1.3750248655227997,0.12891557986942975,0.12954474115,0.14531513083477537,0.42275333027427275,-0.37290615938522176,0.7910753122883144,,-0.11698505643804993,-0.12851077448590748,0.09694439508,-0.1167695939710949,,1.629442e-05,-5.9604645e-08,-5.9604645e-07,1.0,-2.644956e-06,-2.026558e-06,2.6524067e-06,1.0,-5.662441e-07,1.9967556e-06,5.066395e-07,1.0,660,2.081,0,2,1.105,False,0.9700443855245457,0.9916753068249358
2.0857631058897823,17:02:58.545462,17:01:42.682635,0,,0.108015366,0.0029705986,0.030310273,-0.82053554,0.33055785,-0.4663185,-0.20187157,0.5956584,0.7774566,0.5347611,0.7320672,-0.42202872,,0.018206455,-0.039518513,0.06161976,0.45316848,-0.68299675,0.5728469,-0.552552,0.28905535,0.78175,-0.6995173,-0.67079234,-0.24640068,,0.09845635,1.2953898,0.4271027,0.982611,0.0074663763,-0.18552598,-0.104939125,-0.8019738,-0.5880695,-0.15317772,0.5973125,-0.7872448,,-0.11369484,0.25091836,-0.12205216,0.6798817,-0.36853746,0.6339882,0.16470379,0.9191962,0.35770243,-0.7145863,-0.13877507,0.68564415,,-0.05843724,0.4010427,-0.43101606,-0.37309664,0.80328906,-0.46424738,-0.92392,-0.27601144,0.2649331,0.08468029,0.5277731,0.84515375,,1.1075789033555308,0.5455338502352194,0.21378285051,1.252897412320033,-0.7034047007924874,0.17719244232702885,-0.033158845425258654,,-1.375040310988548,0.12955656669799037,0.12954474115,0.14531513083477537,0.4204305097782603,-0.3749326345491296,0.8190071475972762,,-0.11698505643804993,-0.12851077448590748,0.09694439508,-0.1167695939710949,,1.629442e-05,-5.9604645e-08,-5.9604645e-07,1.0,-2.644956e-06,-2.026558e-06,2.6524067e-06,1.0,-5.662441e-07,1.9967556e-06,5.066395e-07,1.0,669,2.11,0,2,1.105,False,0.9986416904146416,1.0194364222731245
2.136354509042576,17:02:58.572277,17:01:42.682635,0,,0.107951105,0.0028217882,0.030243129,-0.79961157,0.38741842,-0.45883358,-0.16103318,0.5977475,0.7853445,0.5785237,0.7018581,-0.4155787,,0.018186063,-0.039489575,0.061622202,0.45522836,-0.6818291,0.5726047,-0.55355597,0.28697908,0.78180474,-0.69738287,-0.6728686,-0.24678978,,0.09845635,1.2953898,0.4271027,0.982611,0.0074663763,-0.18552598,-0.104939125,-0.8019738,-0.5880695,-0.15317772,0.5973125,-0.7872448,,-0.11364074,0.25075936,-0.122102916,0.657428,-0.4184611,0.6266408,0.22379941,0.902531,0.36790156,-0.71951526,-0.10162696,0.6870005,,-0.058415398,0.4010646,-0.43099868,-0.37554744,0.8023232,-0.4639414,-0.9230865,-0.279018,0.2646889,0.08291804,0.52766126,0.84539825,,1.1063973252257744,0.5425683208115172,0.21376729503000003,1.3338377305050595,-0.7096899797816977,0.13943632732326913,0.051616724898432165,,-1.3750634791871708,0.12991953514307894,0.12954474115,0.14216978168250752,0.4189275082808404,-0.3758306848521237,0.8351782101445697,,-0.11698505643804993,-0.12851077448590748,0.09694439508,-0.1167695939710949,,1.629442e-05,-5.9604645e-08,-5.9604645e-07,1.0,-2.644956e-06,-2.026558e-06,2.6524067e-06,1.0,-5.662441e-07,1.9967556e-06,5.066395e-07,1.0,692,2.184,0,2,1.105,False,1.001084376874004,1.0275957762048529
2.1631699190475047,17:02:58.646788,17:01:42.867497,0,,0.10780898,0.0023407713,0.030073151,-0.7205787,0.5543148,-0.41653487,-0.029503435,0.5756811,0.8171418,0.69274515,0.6011042,-0.39846942,,0.018258363,-0.039410155,0.061603725,0.4646517,-0.6754179,0.5726336,-0.5570589,0.27972364,0.78194624,-0.6883196,-0.68232346,-0.24627367,,0.09847753,1.2953954,0.4271032,0.98260885,0.0074499887,-0.185538,-0.104959205,-0.801974,-0.58806574,-0.15317772,0.5973125,-0.7872448,,-0.1135557,0.2502798,-0.12228081,0.5783978,-0.5667217,0.58675593,0.39783752,0.8239093,0.40360722,-0.7121666,-1.20075465e-05,0.70201045,,-0.058496464,0.40109923,-0.4309076,-0.3865764,0.7970168,-0.46402898,-0.9191094,-0.29140377,0.26518238,0.076135,0.52900666,0.8451955,,1.1048991150481748,0.5332547049652024,0.21355211089,1.578336204608015,-0.7023116087943639,0.03826402825990735,0.2125106300406973,,-1.3751098155844161,0.13052963104014267,0.12952011164000002,0.1283302454125289,0.41359868478998824,-0.38185858660581457,0.8575563472049661,,-0.11698505643804993,-0.12851077448590748,0.09694439508,-0.1167695939710949,,3.645569e-05,-4.172325e-06,-8.106232e-06,1.0,-1.873076e-05,-1.4223158e-05,1.874566e-05,1.0,-3.6656857e-06,1.4215708e-05,3.6656857e-06,1.0,701,2.213,0,2,1.105,False,1.0184810706821454,1.0360448113412584
2.237670499831438,17:02:58.672104,17:01:42.867497,0,,0.10772799,0.002057448,0.029932305,-0.6695792,0.62705994,-0.39806956,0.029830456,0.5582183,0.82915765,0.74214137,0.5433121,-0.39247692,,0.018219505,-0.039420377,0.06160164,0.4697069,-0.672609,0.57181513,-0.55849576,0.27523315,0.7825146,-0.6837088,-0.6869089,-0.24637055,,0.09847753,1.2953954,0.4271032,0.98260885,0.0074499887,-0.185538,-0.104959205,-0.801974,-0.58806574,-0.15317772,0.5973125,-0.7872448,,-0.113490805,0.24996924,-0.12235829,0.52815056,-0.63000643,0.56934077,0.47508317,0.7749566,0.41681927,-0.7038132,0.050340895,0.7085992,,-0.058458675,0.40109414,-0.43092045,-0.39241108,0.7946645,-0.46316507,-0.91688955,-0.29800144,0.26553482,0.07298725,0.52887,0.84555864,,1.1048296104523068,0.5284897787818059,0.21343025963,1.6949238131854105,-0.6953431473063264,-0.011933198205216627,0.26494407526980096,,-1.375071201920045,0.13070725389624982,0.12949159326,0.12099109739057055,0.4114125007937412,-0.38407815841355936,0.8616399488583231,,-0.11698505643804993,-0.12851077448590748,0.09694439508,-0.1167695939710949,,3.645569e-05,-4.172325e-06,-8.106232e-06,1.0,-1.873076e-05,-1.4223158e-05,1.874566e-05,1.0,-3.6656857e-06,1.4215708e-05,3.6656857e-06,1.0,715,2.258,0,2,1.105,False,1.0267623735565694,1.0356102895342432
2.262973138829693,17:02:58.713103,17:01:42.867497,0,,0.10791266,0.0017370582,0.029760316,-0.5715257,0.73560274,-0.3636577,0.11959681,0.51310825,0.8499508,0.81182206,0.44227648,-0.38123035,,0.018212736,-0.039414924,0.061606348,0.46783143,-0.6722997,0.57371306,-0.55924743,0.27747047,0.78118646,-0.6843799,-0.68631124,-0.24617273,,0.09847753,1.2953954,0.4271032,0.98260885,0.0074499887,-0.185538,-0.104959205,-0.801974,-0.58806574,-0.15317772,0.5973125,-0.7872448,,-0.11368464,0.2496108,-0.122375056,0.43262854,-0.72445476,0.53665435,0.58890694,0.6777856,0.4402219,-0.6826574,0.1255869,0.7198658,,-0.05845238,0.40110177,-0.43092033,-0.3905133,0.7944314,-0.46516457,-0.9177361,-0.29614073,0.2646905,0.07252426,0.5302635,0.8447253,,1.1048218877194327,0.5224814926056592,0.21328118628000003,1.8830156924910286,-0.6781269483358809,-0.08649580051512232,0.3350186796414068,,-1.375001697324177,0.13085398582086008,0.12948511181000003,0.12308799682541581,0.4104560452953831,-0.3850951653707768,0.8593531319324431,,-0.11698505643804993,-0.12851077448590748,0.09694439508,-0.1167695939710949,,3.645569e-05,-4.172325e-06,-8.106232e-06,1.0,-1.873076e-05,-1.4223158e-05,1.874566e-05,1.0,-3.6656857e-06,1.4215708e-05,3.6656857e-06,1.0,724,2.286,0,2,1.105,False,1.0381417177940864,1.0355137291326841
2.3039796999655664,17:02:58.752412,17:01:42.867497,0,,0.10832654,0.0012847334,0.029447332,-0.44158363,0.8332802,-0.33263767,0.1986284,0.45233542,0.8694477,0.87495756,0.3178626,-0.36525714,,0.018196438,-0.03939722,0.061610937,0.4677757,-0.6723826,0.5736614,-0.55931014,0.27737087,0.7811769,-0.68436676,-0.6862704,-0.24632332,,0.09847753,1.2953954,0.4271032,0.98260885,0.0074499887,-0.185538,-0.104959205,-0.801974,-0.58806574,-0.15317772,0.5973125,-0.7872448,,-0.1140955,0.24906226,-0.122310705,0.30568063,-0.8063756,0.5062783,0.69029313,0.5539215,0.46547437,-0.6557856,0.20719391,0.72595865,,-0.05843576,0.40111786,-0.43091226,-0.39046535,0.79449874,-0.46508983,-0.9177617,-0.29616645,0.26457313,0.07245901,0.53014827,0.8448033,,1.1044434738085955,0.5164037018336445,0.21318266824,2.0876730773319245,-0.6606374763659045,-0.16928575516619593,0.40215309082259565,,-1.3749399154611832,0.13106249960846417,0.12948381552000002,0.12308799682541581,0.4101827722958522,-0.3850356870436652,0.8603331963292488,,-0.11698505643804993,-0.12851077448590748,0.09694439508,-0.1167695939710949,,3.645569e-05,-4.172325e-06,-8.106232e-06,1.0,-1.873076e-05,-1.4223158e-05,1.874566e-05,1.0,-3.6656857e-06,1.4215708e-05,3.6656857e-06,1.0,747,2.36,0,2,1.105,False,1.046244287512947,1.0359482509396993
2.343308941926807,17:02:58.814995,17:01:42.983932,0,,0.10909261,0.000117085874,0.02836074,-0.23773016,0.92044765,-0.31025842,0.2813682,0.37097746,0.8849901,0.92968607,0.123091936,-0.3471774,,0.018171564,-0.039328318,0.061641097,0.46708885,-0.67296165,0.57354206,-0.55943495,0.27739456,0.78107923,-0.6847338,-0.6856929,-0.2469106,,0.09847753,1.2953954,0.4271032,0.98260885,0.0074499887,-0.185538,-0.104959205,-0.801974,-0.58806574,-0.15317772,0.5973125,-0.7872448,,-0.11481281,0.24747565,-0.1219959,0.10861067,-0.8686217,0.4834253,0.7896307,0.3708064,0.48886186,-0.6038932,0.32863185,0.7261639,,-0.058411025,0.40118688,-0.43088222,-0.3897391,0.79497576,-0.4648838,-0.91806865,-0.29566348,0.26407015,0.07248021,0.5297137,0.845074,,1.1023197222681838,0.5067348402751154,0.21318914969000002,2.3636250429575587,-0.6272981704231372,-0.29938693624523116,0.49395245599006055,,-1.3749862518584286,0.13176526830001858,0.12948770439,0.1239267565993539,0.40936295329725964,-0.38428550088134605,0.8598431641308459,,-0.11698505643804993,-0.12851077448590748,0.09694439508,-0.1167695939710949,,3.645569e-05,-4.172325e-06,-8.106232e-06,1.0,-1.873076e-05,-1.4223158e-05,1.874566e-05,1.0,-3.6656857e-06,1.4215708e-05,3.6656857e-06,1.0,770,2.434,0,2,1.105,False,1.0463634429499895,1.0352723281287868
2.4058912908658385,17:02:58.893105,17:01:42.983932,0,,0.10990244,-0.0024667531,0.025261566,0.040098496,0.95092726,-0.30680507,0.3480808,0.2745245,0.89636815,0.9366065,-0.14273606,-0.3199916,,0.018103942,-0.039180588,0.061705768,0.4663157,-0.6734698,0.5735748,-0.5601754,0.27701524,0.7806829,-0.6846553,-0.6853473,-0.2480849,,0.09847753,1.2953954,0.4271032,0.98260885,0.0074499887,-0.185538,-0.104959205,-0.801974,-0.58806574,-0.15317772,0.5973125,-0.7872448,,-0.11541586,0.24353924,-0.12095766,-0.15448327,-0.8652853,0.4768819,0.847246,0.13227464,0.5144683,-0.50824124,0.48351303,0.7126752,,-0.058343936,0.40133595,-0.43082014,-0.3890473,0.7953904,-0.464754,-0.91842026,-0.29560083,0.2629151,0.07173851,0.52912587,0.8455054,,1.0964349998180247,0.4896521551573308,0.21376599874000002,2.695354533550076,-0.5629423790336147,-0.47364777043582396,0.6006161311757449,,-1.375032588255674,0.13336387400498306,0.12948770439,0.12455582642980746,0.40690349630148165,-0.3835051597169188,0.8596798200647118,,-0.11698505643804993,-0.12851077448590748,0.09694439508,-0.1167695939710949,,3.645569e-05,-4.172325e-06,-8.106232e-06,1.0,-1.873076e-05,-1.4223158e-05,1.874566e-05,1.0,-3.6656857e-06,1.4215708e-05,3.6656857e-06,1.0,779,2.462,0,2,1.105,False,1.04642302066851,1.0355137291326841
2.48399587883614,17:02:58.916447,17:01:42.983932,0,,0.11001676,-0.0036226586,0.023587659,0.13048023,0.94003963,-0.31511933,0.36622512,0.24966037,0.8964088,0.9213328,-0.23236836,-0.31169048,,0.018062927,-0.039099526,0.061740696,0.4655469,-0.67368644,0.5739447,-0.56091344,0.27702856,0.78014815,-0.68457437,-0.685129,-0.24891019,,0.09847753,1.2953954,0.4271032,0.98260885,0.0074499887,-0.185538,-0.104959205,-0.801974,-0.58806574,-0.15317772,0.5973125,-0.7872448,,-0.11539386,0.24160242,-0.12032573,-0.2375105,-0.8424751,0.483554,0.85247874,0.05787364,0.5195485,-0.46569172,0.53561777,0.7044465,,-0.058303174,0.4014176,-0.43078634,-0.38836,0.7955689,-0.4650233,-0.91876864,-0.29540807,0.26191273,0.07099797,0.52896523,0.8456684,,1.0934694703943226,0.48206843147484235,0.21424692233000003,2.796005706422648,-0.5320625300866252,-0.5343584686323598,0.6350817291300777,,-1.3750248655227997,0.1342828792170158,0.12948511181000003,0.12518489626026105,0.4051272218045309,-0.3832002293308332,0.8606598844615173,,-0.11698505643804993,-0.12851077448590748,0.09694439508,-0.1167695939710949,,3.645569e-05,-4.172325e-06,-8.106232e-06,1.0,-1.873076e-05,-1.4223158e-05,1.874566e-05,1.0,-3.6656857e-06,1.4215708e-05,3.6656857e-06,1.0,793,2.507,0,2,1.105,False,1.0471975310092834,1.036334492545935
2.5073081799782813,17:02:58.965175,17:01:42.983932,0,,0.110124186,-0.005298756,0.020909384,0.25905842,0.9088136,-0.3270267,0.39214444,0.2104568,0.8955058,0.8826729,-0.36023012,-0.3018657,,0.018002536,-0.0389737,0.06180811,0.46467778,-0.67388546,0.574415,-0.56199414,0.27685788,0.7794307,-0.6842785,-0.6850021,-0.2500702,,0.09847753,1.2953954,0.4271032,0.98260885,0.0074499887,-0.185538,-0.104959205,-0.801974,-0.58806574,-0.15317772,0.5973125,-0.7872448,,-0.115261406,0.2386407,-0.119228154,-0.3526692,-0.795137,0.49333724,0.8496792,-0.051249687,0.5248036,-0.39200735,0.60426044,0.69368553,,-0.058245298,0.40155426,-0.4307416,-0.38763496,0.7957311,-0.46535048,-0.9191631,-0.2954041,0.26052943,0.069844946,0.5287233,0.8459157,,1.0888281079369135,0.4714110601084125,0.21512969582000002,2.9335623093484955,-0.4742652906858438,-0.6148948466134361,0.6773878422588561,,-1.3751175383172904,0.13578108939461533,0.1294734452,0.12581396609071463,0.4023944918092221,-0.3827688035399972,0.8616399488583231,,-0.11698505643804993,-0.12851077448590748,0.09694439508,-0.1167695939710949,,3.645569e-05,-4.172325e-06,-8.106232e-06,1.0,-1.873076e-05,-1.4223158e-05,1.874566e-05,1.0,-3.6656857e-06,1.4215708e-05,3.6656857e-06,1.0,802,2.536,0,2,1.105,False,1.0463634429499895,1.035706849935802
2.5559570249170065,17:02:58.996121,17:01:42.983932,0,,0.11011696,-0.006533578,0.018648788,0.3453734,0.876209,-0.3361172,0.40971175,0.18144226,0.8939882,0.84430647,-0.446471,-0.29632792,,0.017937444,-0.038826507,0.061908543,0.4628448,-0.6739464,0.57582194,-0.5631959,0.27805656,0.77813554,-0.68453264,-0.6844566,-0.250867,,0.09847753,1.2953954,0.4271032,0.98260885,0.0074499887,-0.185538,-0.104959205,-0.801974,-0.58806574,-0.15317772,0.5973125,-0.7872448,,-0.11502961,0.2362832,-0.118216395,-0.4277955,-0.7523001,0.5010345,0.84035975,-0.12691212,0.5269619,-0.33284616,0.64648116,0.6864951,,-0.05818659,0.4017302,-0.4307018,-0.385881,0.7957922,-0.46670184,-0.9199807,-0.29421684,0.2589825,0.068784714,0.5292931,0.8456462,,1.0849281278354301,0.46325585419323145,0.21602543221000003,3.022890225272903,-0.4265791522677051,-0.6656231123238685,0.7056463657000863,,-1.3753183293720204,0.13748009062694472,0.12944751940000002,0.12770117558207533,0.39925185231461696,-0.38281991143947747,0.8606598844615173,,-0.11698505643804993,-0.12851077448590748,0.09694439508,-0.1167695939710949,,3.645569e-05,-4.172325e-06,-8.106232e-06,1.0,-1.873076e-05,-1.4223158e-05,1.874566e-05,1.0,-3.6656857e-06,1.4215708e-05,3.6656857e-06,1.0,816,2.581,0,2,1.105,False,1.0464825983870312,1.0359482509396993
2.5869962768629193,17:02:59.044252,17:01:42.983932,0,,0.11007142,-0.008368336,0.014657572,0.47094348,0.80344987,-0.36425316,0.4400087,0.1439397,0.88638234,0.7645943,-0.5777107,-0.2857375,,0.017845381,-0.038650047,0.06205237,0.46139878,-0.6744059,0.57644403,-0.5642377,0.27834585,0.7772768,-0.6846509,-0.6838862,-0.25209698,,0.09847753,1.2953954,0.4271032,0.98260885,0.0074499887,-0.185538,-0.104959205,-0.801974,-0.58806574,-0.15317772,0.5973125,-0.7872448,,-0.114541404,0.23239453,-0.11623192,-0.5322902,-0.66363496,0.5256004,0.81597996,-0.23682776,0.5273417,-0.22548565,0.7095782,0.6675739,,-0.058106214,0.40196013,-0.4306708,-0.3845179,0.7961728,-0.46717754,-0.92062247,-0.29355925,0.2574437,0.06782536,0.5290859,0.8458533,,1.0778927181870117,0.45080680879998153,0.21788949723000003,3.1482848114766484,-0.33598915292321807,-0.7469259478273871,0.7469724144320591,,-1.3756117932212408,0.13966562403035027,0.1293956678,0.12916900518646698,0.395835939820481,-0.382076432350581,0.860496540395383,,-0.11698505643804993,-0.12851077448590748,0.09694439508,-0.1167695939710949,,3.645569e-05,-4.172325e-06,-8.106232e-06,1.0,-1.873076e-05,-1.4223158e-05,1.874566e-05,1.0,-3.6656857e-06,1.4215708e-05,3.6656857e-06,1.0,825,2.61,0,2,1.105,False,1.0460059766388632,1.0353206083295663
2.6351519010495394,17:02:59.072005,17:01:43.273047,0,,0.11003679,-0.009023771,0.01305674,0.5126996,0.77085024,-0.37805927,0.45379895,0.13049942,0.88149667,0.7288385,-0.623506,-0.2829041,,0.01775232,-0.03851525,0.062196374,0.46094495,-0.67543316,0.5756038,-0.56567556,0.27613473,0.7770204,-0.6837695,-0.68376875,-0.2547934,,0.09847753,1.2953954,0.4271032,0.98260885,0.0074499887,-0.185538,-0.104959205,-0.801974,-0.58806574,-0.15317772,0.5973125,-0.7872448,,-0.11431867,0.23089856,-0.11539174,-0.56492496,-0.62571114,0.5379083,0.8051749,-0.2754765,0.5251725,-0.18042517,0.7297933,0.65943044,,-0.05802805,0.40216374,-0.43067208,-0.38432404,0.7969973,-0.46592957,-0.92082876,-0.2947991,0.2552801,0.066101946,0.52715164,0.8471964,,1.0749889706263034,0.4463121782671829,0.21871134509,3.1883355906821924,-0.29663784099077123,-0.7748486883447878,0.7700039277569924,,-1.375897534337587,0.14158858451603215,0.12931918669,0.12916900518646698,0.39214675432681406,-0.37972157887190205,0.8608232285276516,,-0.11698505643804993,-0.12851077448590748,0.09694439508,-0.1167695939710949,,3.645569e-05,-4.172325e-06,-8.106232e-06,1.0,-1.873076e-05,-1.4223158e-05,1.874566e-05,1.0,-3.6656857e-06,1.4215708e-05,3.6656857e-06,1.0,848,2.684,0,2,1.105,False,1.046244287512947,1.0355620093334637
2.6629044299479574,17:02:59.139453,17:01:43.273047,0,,0.109932974,-0.011543028,0.007929236,0.65625185,0.63062334,-0.41430348,0.4813712,0.07291892,0.8734784,0.58104646,-0.77265584,-0.25571084,,0.017465219,-0.038173478,0.062633395,0.46134248,-0.6762564,0.5743172,-0.56287646,0.27727666,0.7786447,-0.6858082,-0.68249166,-0.25272956,,0.09847753,1.2953954,0.4271032,0.98260885,0.0074499887,-0.185538,-0.104959205,-0.801974,-0.58806574,-0.15317772,0.5973125,-0.7872448,,-0.11366934,0.22577423,-0.11294871,-0.6754982,-0.47086403,0.5674409,0.7371398,-0.41235638,0.5353383,-0.018083649,0.7799034,0.6256386,,-0.057791293,0.40273914,-0.43072826,-0.38417068,0.7976845,-0.4648788,-0.92063653,-0.2930277,0.25799826,0.06957887,0.5270998,0.8469502,,1.0638914034860427,0.4317779949978923,0.22124429575000001,3.3359573108952976,-0.15262297023799698,-0.8640223147521815,0.8085531273646823,,-1.376546243899022,0.146330342500806,0.12908066933,0.1300077649604051,0.3907803893291597,-0.37950586597648406,0.8606598844615174,,-0.11698505643804993,-0.12851077448590748,0.09694439508,-0.1167695939710949,,3.645569e-05,-4.172325e-06,-8.106232e-06,1.0,-1.873076e-05,-1.4223158e-05,1.874566e-05,1.0,-3.6656857e-06,1.4215708e-05,3.6656857e-06,1.0,857,2.712,0,2,1.105,False,1.0468996424166788,1.0349343667233308
2.730320069938898,17:02:59.168065,17:01:43.273047,0,,0.10991794,-0.012592174,0.006248966,0.70003676,0.57362455,-0.42532712,0.48681107,0.05242291,0.87193274,0.522459,-0.8174391,-0.24254891,,0.017343607,-0.03804944,0.062796116,0.46249357,-0.67640054,0.5732207,-0.5613913,0.27700344,0.7798133,-0.6862502,-0.68245983,-0.2516132,,0.09847753,1.2953954,0.4271032,0.98260885,0.0074499887,-0.185538,-0.104959205,-0.801974,-0.58806574,-0.15317772,0.5973125,-0.7872448,,-0.113505505,0.22391786,-0.112276904,-0.7072808,-0.41027948,0.5756949,0.7057939,-0.45602527,0.54212165,0.04011003,0.7897542,0.6121107,,-0.05768891,0.40295246,-0.43075407,-0.38511863,0.7978004,-0.46389455,-0.9201181,-0.2931663,0.2596849,0.07117846,0.52684724,0.8469744,,1.0592268728300112,0.42667326856802995,0.22201429201000003,3.3850247576706765,-0.09960800832900608,-0.8923869306808105,0.8252142221103788,,-1.3767161440222548,0.1480911255961292,0.12898604016,0.12916900518646698,0.3907803893291597,-0.3795875447166247,0.860496540395383,,-0.11698505643804993,-0.12851077448590748,0.09694439508,-0.1167695939710949,,3.645569e-05,-4.172325e-06,-8.106232e-06,1.0,-1.873076e-05,-1.4223158e-05,1.874566e-05,1.0,-3.6656857e-06,1.4215708e-05,3.6656857e-06,1.0,871,2.757,0,2,1.105,False,1.0464825983870312,1.0345964053178744
2.7589557159226388,17:02:59.212531,17:01:43.415300,0,,0.11001812,-0.013925999,0.004460022,0.7432103,0.5101435,-0.43288782,0.488393,0.028555065,0.8721564,0.45728612,-0.85961515,-0.22792819,,0.017173287,-0.03794239,0.06297523,0.46601775,-0.67591846,0.5709305,-0.5588112,0.27544042,0.7822164,-0.68597186,-0.6835692,-0.24935082,,0.09847753,1.2953954,0.4271032,0.98260885,0.0074499887,-0.185538,-0.104959205,-0.801974,-0.58806574,-0.15317772,0.5973125,-0.7872448,,-0.113473944,0.22176985,-0.111664936,-0.7378479,-0.34428483,0.5805587,0.66737276,-0.5007878,0.5512034,0.10096572,0.79415333,0.59927154,,-0.057542566,0.40317127,-0.4308109,-0.3884361,0.7973896,-0.4618303,-0.91853535,-0.295051,0.2631306,0.073554106,0.52641684,0.847039,,1.053033241064883,0.420827159782242,0.22277521424000002,3.4378666234287767,-0.043313770425644625,-0.9193416392911258,0.841711972789941,,-1.3766929758236321,0.14986735415720084,0.12885381858,0.12560427614723008,0.39201011782704864,-0.38050862710975186,0.8606598844615174,,-0.11698505643804993,-0.12851077448590748,0.09694439508,-0.1167695939710949,,3.645569e-05,-4.172325e-06,-8.106232e-06,1.0,-1.873076e-05,-1.4223158e-05,1.874566e-05,1.0,-3.6656857e-06,1.4215708e-05,3.6656857e-06,1.0,880,2.786,0,2,1.105,False,1.0461847097944261,1.0350309271248894
2.803405864862725,17:02:59.246494,17:01:43.415300,0,,0.11027518,-0.014933184,0.0034162104,0.76476103,0.47226226,-0.43830198,0.48869967,0.018159688,0.872263,0.41989633,-0.881271,-0.2169067,,0.017059918,-0.03790621,0.06304997,0.4700528,-0.6749282,0.5687901,-0.55691975,0.2731511,0.7843652,-0.68475586,-0.68546355,-0.24748564,,0.09847753,1.2953954,0.4271032,0.98260885,0.0074499887,-0.185538,-0.104959205,-0.801974,-0.58806574,-0.15317772,0.5973125,-0.7872448,,-0.113680385,0.22033553,-0.11140016,-0.7523276,-0.3049901,0.5839385,0.6448481,-0.5223082,0.558001,0.13481104,0.7963512,0.58961916,,-0.057440538,0.40326053,-0.43084797,-0.3924613,0.79655254,-0.45986757,-0.9167136,-0.29804027,0.26609805,0.07490203,0.526,0.84717983,,1.0479285146350206,0.4171202480026142,0.22314336060000003,3.4665941456861566,-0.011340829480531557,-0.9378989846631567,0.8520026489564005,,-1.3764767393031538,0.15063190471174906,0.12877863376,0.12099109739057055,0.39337648282470306,-0.38178616362699724,0.8606598844615174,,-0.11698505643804993,-0.12851077448590748,0.09694439508,-0.1167695939710949,,3.645569e-05,-4.172325e-06,-8.106232e-06,1.0,-1.873076e-05,-1.4223158e-05,1.874566e-05,1.0,-3.6656857e-06,1.4215708e-05,3.6656857e-06,1.0,894,2.831,0,2,1.105,False,1.0463634429499895,1.0352723281287868
2.837393295019865,17:02:59.286232,17:01:43.415300,0,,0.11056957,-0.015599035,0.0029947907,0.77674854,0.44972593,-0.44091728,0.48585775,0.017590761,0.87386084,0.40075392,-0.8929934,-0.20483929,,0.016924247,-0.03792764,0.06308389,0.46961415,-0.67492384,0.5691575,-0.5562431,0.27443868,0.7843959,-0.68560624,-0.6849535,-0.24654168,,0.09847753,1.2953954,0.4271032,0.98260885,0.0074499887,-0.185538,-0.104959205,-0.801974,-0.58806574,-0.15317772,0.5973125,-0.7872448,,-0.11398493,0.21955141,-0.11140531,-0.7610797,-0.2810501,0.5846097,0.63094175,-0.5299531,0.5666235,0.15056613,0.8001003,0.5806628,,-0.057314247,0.40328348,-0.43090752,-0.39183974,0.79656196,-0.460381,-0.9168992,-0.29682857,0.26681206,0.0758781,0.5266706,0.84667623,,1.0443528893142546,0.4153517421744168,0.22318354559000003,3.4842081009388566,0.004099094992963213,-0.9535113211660531,0.859353131932443,,-1.3757044660157314,0.15103348682120873,0.12868659717,0.1214104772775396,0.3939230288237648,-0.3832119801234696,0.8606598844615174,,-0.11698505643804993,-0.12851077448590748,0.09694439508,-0.1167695939710949,,3.645569e-05,-4.172325e-06,-8.106232e-06,1.0,-1.873076e-05,-1.4223158e-05,1.874566e-05,1.0,-3.6656857e-06,1.4215708e-05,3.6656857e-06,1.0,903,2.86,0,2,1.105,False,1.046244287512947,1.0352240479280073
2.8771311310119927,17:02:59.317577,17:01:43.415300,0,,0.11072391,-0.015939616,0.0029477924,0.783905,0.4344767,-0.4435343,0.48430598,0.019114912,0.87468976,0.3885104,-0.9004803,-0.19543546,,0.016833685,-0.037962597,0.063058734,0.470258,-0.6749383,0.5686084,-0.5557643,0.27400964,0.78488505,-0.68555325,-0.6851109,-0.24625164,,0.09847753,1.2953954,0.4271032,0.98260885,0.0074499887,-0.185538,-0.104959205,-0.801974,-0.58806574,-0.15317772,0.5973125,-0.7872448,,-0.11417367,0.21925317,-0.11153745,-0.7661432,-0.26466855,0.5856408,0.622257,-0.5333418,0.573012,0.16068846,0.80342835,0.57330805,,-0.057223696,0.40324906,-0.43093336,-0.39244562,0.7965696,-0.45985138,-0.9166036,-0.29722166,0.26738933,0.07631642,0.5264372,0.8467819,,1.0426229971504284,0.4149424373320829,0.22306428691000002,3.4946925981130827,0.01462010547490213,-0.9646225406950351,0.8644167979826056,,-1.374963083659806,0.15098715042396338,0.12864770847,0.12036202756011699,0.394606211322592,-0.3839324271222329,0.8606598844615173,,-0.11698505643804993,-0.12851077448590748,0.09694439508,-0.1167695939710949,,3.645569e-05,-4.172325e-06,-8.106232e-06,1.0,-1.873076e-05,-1.4223158e-05,1.874566e-05,1.0,-3.6656857e-06,1.4215708e-05,3.6656857e-06,1.0,917,2.905,0,2,1.105,False,1.0463634429499895,1.0354654489319046
2.908433574019,17:02:59.363518,17:01:43.566222,0,,0.110742226,-0.01647804,0.0032010972,0.7882985,0.41898134,-0.45059943,0.48714626,0.022368282,0.8730339,0.3758641,-0.90771925,-0.18647239,,0.016697437,-0.038018357,0.06301606,0.4701696,-0.67549187,0.5680239,-0.55549204,0.27363902,0.78520715,-0.6858345,-0.68471336,-0.24657384,,0.09847753,1.2953954,0.4271032,0.98260885,0.0074499887,-0.185538,-0.104959205,-0.801974,-0.58806574,-0.15317772,0.5973125,-0.7872448,,-0.114308864,0.21898109,-0.1120494,-0.7678439,-0.24785456,0.59074855,0.61680126,-0.53520966,0.5771541,0.17312403,0.8075387,0.5638345,,-0.057086904,0.40319145,-0.43097165,-0.39229214,0.79702115,-0.45919946,-0.91663855,-0.29711008,0.26739374,0.07668568,0.5258164,0.8471343,,1.0412251825001937,0.4143400641678934,0.22257428929000003,3.5003542265871648,0.02719066345332265,-0.9770783138189009,0.8691537759004998,,-1.3737892282629238,0.15091764582809536,0.12858937542,0.11994264767314793,0.3951527573216537,-0.38437809873701845,0.860986572593786,,-0.11698505643804993,-0.12851077448590748,0.09694439508,-0.1167695939710949,,3.645569e-05,-4.172325e-06,-8.106232e-06,1.0,-1.873076e-05,-1.4223158e-05,1.874566e-05,1.0,-3.6656857e-06,1.4215708e-05,3.6656857e-06,1.0,926,2.933,0,2,1.105,False,1.0468400646981575,1.0351757677272282
2.95438921591267,17:02:59.394178,17:01:43.566222,0,,0.11065641,-0.016905516,0.003333956,0.78403646,0.4166984,-0.46005338,0.49711412,0.02230379,0.86739844,0.37170446,-0.90877116,-0.18965977,,0.016590651,-0.03805382,0.06297845,0.4701018,-0.67596686,0.5675147,-0.55546683,0.27310073,0.7854123,-0.68590134,-0.68445945,-0.24709228,,0.09847753,1.2953954,0.4271032,0.98260885,0.0074499887,-0.185538,-0.104959205,-0.801974,-0.58806574,-0.15317772,0.5973125,-0.7872448,,-0.11430644,0.21872325,-0.11242524,-0.76160705,-0.24545391,0.5997559,0.62215394,-0.5359068,0.5707262,0.18132627,0.8078096,0.5608605,,-0.056978386,0.40314835,-0.43099272,-0.3922126,0.7974063,-0.45859835,-0.91666836,-0.29722166,0.2671673,0.076735534,0.525169,0.84753126,,1.0405301365415136,0.4133669998257411,0.22223206873,3.492386008734753,0.03470567094042187,-0.9794490764757382,0.8717672809586484,,-1.3728625003180168,0.15092536856096958,0.12855048672000002,0.11952326778617889,0.3952893938214192,-0.38457119538085555,0.8608232285276516,,-0.11698505643804993,-0.12851077448590748,0.09694439508,-0.1167695939710949,,3.645569e-05,-4.172325e-06,-8.106232e-06,1.0,-1.873076e-05,-1.4223158e-05,1.874566e-05,1.0,-3.6656857e-06,1.4215708e-05,3.6656857e-06,1.0,949,3.007,0,2,1.105,False,1.046244287512947,1.034741245920213
2.9850546000525355,17:02:59.461181,17:01:43.686203,0,,0.11046851,-0.018032111,0.0035199076,0.7744028,0.4188375,-0.47421002,0.5184759,0.009453297,0.85503983,0.36260563,-0.908012,-0.20983656,,0.016427029,-0.038101833,0.06291056,0.46958587,-0.6765786,0.5672128,-0.55560315,0.27283025,0.7854099,-0.68614435,-0.6839627,-0.24779218,,0.09847753,1.2953954,0.4271032,0.98260885,0.0074499887,-0.185538,-0.104959205,-0.801974,-0.58806574,-0.15317772,0.5973125,-0.7872448,,-0.11430887,0.21794364,-0.11328041,-0.74772155,-0.24942173,0.6153871,0.6335115,-0.545622,0.54859805,0.19893648,0.80005336,0.56598485,,-0.056809958,0.40307853,-0.43101385,-0.39167568,0.7979064,-0.45818716,-0.91690105,-0.29696563,0.26665315,0.076698415,0.52455384,0.8479155,,1.0384527213983472,0.4103319658061709,0.22147633166000003,3.475191433369022,0.050145595413916645,-0.9708028271568877,0.8734007216199913,,-1.37138745833904,0.15096398222534071,0.12850122770000003,0.11931357784269435,0.3952893938214192,-0.38522462530198004,0.8608232285276516,,-0.11698505643804993,-0.12851077448590748,0.09694439508,-0.1167695939710949,,3.645569e-05,-4.172325e-06,-8.106232e-06,1.0,-1.873076e-05,-1.4223158e-05,1.874566e-05,1.0,-3.6656857e-06,1.4215708e-05,3.6656857e-06,1.0,972,3.081,0,2,1.105,False,1.0444569559573162,1.0354654489319046
3.052079993998632,17:02:59.540160,17:01:43.686203,0,,0.11083019,-0.019130915,0.003941819,0.7283775,0.48011,-0.48883575,0.5582096,-0.0020860136,0.8296974,0.3973263,-0.8772058,-0.26952147,,0.016417712,-0.038104605,0.06292367,0.46946746,-0.6764098,0.56751215,-0.5554607,0.27336937,0.7853232,-0.6863407,-0.68391454,-0.24738121,,0.09847753,1.2953954,0.4271032,0.98260885,0.0074499887,-0.185538,-0.104959205,-0.801974,-0.58806574,-0.15317772,0.5973125,-0.7872448,,-0.11488455,0.21733105,-0.11418014,-0.7034559,-0.31610706,0.63657373,0.68608797,-0.5358554,0.4920796,0.18556164,0.7829018,0.5938279,,-0.056803145,0.40308756,-0.43102562,-0.3915164,0.7977731,-0.45855534,-0.9169513,-0.29659805,0.26688927,0.07691047,0.52496445,0.8476421,,1.0348462051460843,0.40801514594390353,0.2205896693,3.4078809615104895,0.034432397940890994,-0.9308724265051326,0.8714405928263799,,-1.3713797356061657,0.15101031862258607,0.12848696851000002,0.11952326778617889,0.3954260303211847,-0.38566275816623885,0.8614766047921888,,-0.11698505643804993,-0.12851077448590748,0.09694439508,-0.1167695939710949,,3.645569e-05,-4.172325e-06,-8.106232e-06,1.0,-1.873076e-05,-1.4223158e-05,1.874566e-05,1.0,-3.6656857e-06,1.4215708e-05,3.6656857e-06,1.0,995,3.155,0,2,1.105,False,1.0344478992457824,1.0369621351560678
3.1310320259071887,17:02:59.612693,17:01:43.828613,0,,0.11149737,-0.018949576,0.0047400743,0.69860446,0.5282833,-0.48256427,0.5559523,0.023773968,0.8308741,0.45040935,-0.84873533,-0.27709186,,0.01641962,-0.03811304,0.0629555,0.46948138,-0.6762053,0.56774426,-0.5556237,0.2734705,0.7851726,-0.6861992,-0.6840762,-0.24732664,,0.09847753,1.2953954,0.4271032,0.98260885,0.0074499887,-0.185538,-0.104959205,-0.801974,-0.58806574,-0.15317772,0.5973125,-0.7872448,,-0.115649305,0.21796297,-0.11454215,-0.68394965,-0.3645187,0.63193274,0.7166246,-0.49790445,0.48840588,0.13660903,0.7869036,0.6017647,,-0.056810856,0.4031064,-0.43105155,-0.3915655,0.79760605,-0.4588039,-0.91694796,-0.29667348,0.26681685,0.0766998,0.5251756,0.84753036,,1.0337418543450703,0.41011572928569257,0.22007893104,3.373282120835543,-0.013117103977482282,-0.9219934149102238,0.8652335183132773,,-1.3715419129965245,0.15106437775270565,0.12845974642000002,0.11952326778617889,0.3951527573216537,-0.38576663731940813,0.8621299810567258,,-0.11698505643804993,-0.12851077448590748,0.09694439508,-0.1167695939710949,,3.645569e-05,-4.172325e-06,-8.106232e-06,1.0,-1.873076e-05,-1.4223158e-05,1.874566e-05,1.0,-3.6656857e-06,1.4215708e-05,3.6656857e-06,1.0,1009,3.2,0,2,1.105,False,1.0345074769643037,1.0372035361599652
