AlexandreBanks6/ExpertPlaybackApp/resources/Motions/P_12/PC1/Data_PC1_7.csv
Task Time,PC1 Time,PC2 Time,Gaze Calib,s_T_psm1,Tx,Ty,Tz,R00,R01,R02,R10,R11,R12,R20,R21,R22,s_T_psm3,Tx,Ty,Tz,R00,R01,R02,R10,R11,R12,R20,R21,R22,cart_T_ecm,Tx,Ty,Tz,R00,R01,R02,R10,R11,R12,R20,R21,R22,ecm_T_psm1,Tx,Ty,Tz,R00,R01,R02,R10,R11,R12,R20,R21,R22,ecm_T_psm3,Tx,Ty,Tz,R00,R01,R02,R10,R11,R12,R20,R21,R22,psm1_joints,q1,q2,q3,q4,q5,q6,jaw,psm3_joints,q1,q2,q3,q4,q5,q6,jaw,ecm_joints,q1,q2,q3,q4,ecmi_T_ecm,Tx,Ty,Tz,R00,R01,R02,R10,R11,R12,R20,R21,R22,Sample #,Task Duration (s),Collisions (binary),Collisions (increments),Cumulative Collision Time (s),Clutch Press,MTMR Angle,MTML Angle
""
lci_T_si,,,,,-0.05509644,0.014836536,0.20329654,0.97799796,-0.10343062,0.18116859,0.031866997,-0.78417623,-0.6197194,0.20616606,0.61185765,-0.76362675
rci_T_si,,,,,-0.06411915,0.018600209,0.2114436,0.9733347,-0.124126814,0.19290416,0.02867328,-0.7685155,-0.63918835,0.22759025,0.6276754,-0.74446374
ecm_T_lc,,,,,-4.4061628e-05,-0.00034663224,-0.01840835,-0.99912,0.030754527,0.028518902,-0.031987965,-0.99852574,-0.043852776,0.027128186,-0.04472645,0.9986309
ecm_T_rc,,,,,-0.0043358393,0.01870579,-0.007592615,-0.99555075,-0.052743673,-0.078081585,0.04863213,-0.9973746,0.053654674,-0.08070653,0.04961868,0.9955021
cart_T_ecmi,,,,,0.09844024,1.2953911,0.42710486,0.98261136,0.0074690743,-0.185524,-0.10493582,-0.8019738,-0.58807015,-0.15317772,0.5973125,-0.7872448
ecmac_T_ecmrep_psm1,,,,,0.044880565,-0.23049864,-0.32052848,0.99797076,0.0626086,0.011601057,-0.061749555,0.99606305,-0.0636032,-0.015537491,0.06275777,0.9979078
ecmac_T_ecmrep_psm3,,,,,0.047327206,-0.4153428,-0.56493527,0.997773,0.014750276,0.065049894,-0.025394045,0.985803,0.16597453,-0.061678212,-0.16725679,0.9839822
""
0,17:03:48.229508,17:02:32.399481,0,,0.11885894,0.002052255,0.029713973,0.768253,0.5766282,-0.27800542,0.41021734,-0.110064626,0.90532166,0.49143547,-0.80955887,-0.3211006,,0.015596654,-0.035972763,0.060450494,0.2967723,-0.668254,0.682175,-0.552231,0.4627035,0.6935029,-0.7790809,-0.58253074,-0.23171315,,0.098442174,1.2953962,0.42710906,0.98261493,0.007496591,-0.18550383,-0.1049021,-0.8019735,-0.58807653,-0.15317772,0.5973125,-0.7872448,,-0.12428143,0.24984597,-0.11973889,-0.77888054,-0.43669805,0.45015547,0.62627244,-0.5799897,0.5209556,0.03358522,0.68768215,0.7252346,,-0.055398256,0.4026155,-0.42798743,-0.20619936,0.7874464,-0.5808701,-0.9724177,-0.09876441,0.2113041,0.10902134,0.6084191,0.7860919,,1.0842408046096244,0.5604232792167242,0.21305563182,3.4774980227473518,0.011204192980766118,-0.6890301010331467,-0.4282881414040801,,-1.352057457954856,0.16233184501619918,0.13117288139000002,0.31998685375738417,0.3838119278411222,-0.4499481386989705,0.8760142266781396,,-0.11698505643804993,-0.12851077448590748,0.09694439508,-0.1167695939710949,,7.227063e-07,-1.4901161e-06,-6.67572e-06,1.0,2.7008355e-05,2.0481646e-05,-2.7008355e-05,1.0,5.275011e-06,-2.0503998e-05,-5.275011e-06,1.0,33,0.099,0,0,0.0,False,-0.2621419889274632,1.0499012289649627
0.1201585519593209,17:03:48.251528,17:02:32.468931,0,,0.11867248,0.0020021796,0.029945776,0.767714,0.57765526,-0.27736145,0.4095236,-0.10938302,0.9057183,0.49285427,-0.80891883,-0.32053846,,0.015602294,-0.03600319,0.06044954,0.29676557,-0.6681745,0.68225574,-0.5523044,0.4627344,0.6934238,-0.7790314,-0.5825973,-0.23171228,,0.098442174,1.2953962,0.42710906,0.98261493,0.007496591,-0.18550383,-0.1049021,-0.8019735,-0.58807653,-0.15317772,0.5973125,-0.7872448,,-0.12414667,0.24994734,-0.119989045,-0.7786958,-0.43771818,0.4494837,0.6265872,-0.5790572,0.521614,0.031956848,0.68781936,0.72517806,,-0.055405933,0.40259486,-0.42800924,-0.20620641,0.7873814,-0.5809556,-0.97242606,-0.098801926,0.21124798,0.108933195,0.6084971,0.7860438,,1.085337432677764,0.56041555648385,0.21281841075000002,3.4764495730299294,0.009291281984049951,-0.6882870377828023,-0.42796145327181156,,-1.3520497352219818,0.16210016302997246,0.13115862220000002,0.31998685375738417,0.3839485643408877,-0.44997787786252647,0.8758508826120054,,-0.11698505643804993,-0.12851077448590748,0.09694439508,-0.1167695939710949,,7.227063e-07,-1.4901161e-06,-6.67572e-06,1.0,2.7008355e-05,2.0481646e-05,-2.7008355e-05,1.0,5.275011e-06,-2.0503998e-05,-5.275011e-06,1.0,45,0.135,0,0,0.0,False,-0.26309523242380006,1.050046069567301
0.14216428110376,17:03:48.283990,17:02:32.468931,0,,0.118439846,0.0019346848,0.030268267,0.76457083,0.5816871,-0.27761757,0.41042,-0.10726407,0.905566,0.49697766,-0.8063092,-0.32074708,,0.015606575,-0.0360197,0.06044942,0.29674494,-0.6681259,0.68231225,-0.55240136,0.46272695,0.6933515,-0.7789705,-0.58265895,-0.23176199,,0.098442174,1.2953962,0.42710906,0.98261493,0.007496591,-0.18550383,-0.1049021,-0.8019735,-0.58807653,-0.15317772,0.5973125,-0.7872448,,-0.12398499,0.25009015,-0.12032982,-0.7762247,-0.44181567,0.44974902,0.629807,-0.5757787,0.5213656,0.028608423,0.68795186,0.72519225,,-0.055411376,0.40258393,-0.42802113,-0.20620337,0.78734314,-0.58100855,-0.97243965,-0.09885772,0.21115933,0.10881767,0.60853755,0.7860285,,1.0867584155266214,0.5604464474153469,0.21249433825000003,3.4714170143863003,0.005875369489913939,-0.687135164993203,-0.42828814140408017,,-1.352057457954856,0.16197659930398486,0.13115084446000003,0.31998685375738417,0.3839485643408877,-0.44997787786252647,0.8758508826120054,,-0.11698505643804993,-0.12851077448590748,0.09694439508,-0.1167695939710949,,7.227063e-07,-1.4901161e-06,-6.67572e-06,1.0,2.7008355e-05,2.0481646e-05,-2.7008355e-05,1.0,5.275011e-06,-2.0503998e-05,-5.275011e-06,1.0,53,0.16,1,1,0.022,False,-0.2632143878608417,1.0503840309727575
0.1746195370797068,17:03:48.308894,17:02:32.468931,0,,0.1182635,0.0018871129,0.030599132,0.76196,0.58506966,-0.27768743,0.41050744,-0.10469437,0.90582705,0.5008996,-0.80419683,-0.3199485,,0.015605491,-0.036020715,0.06044793,0.2967349,-0.66813314,0.6823095,-0.5524106,0.46272033,0.6933485,-0.7789678,-0.58265585,-0.23177877,,0.098442174,1.2953962,0.42710906,0.98261493,0.007496591,-0.18550383,-0.1049021,-0.8019735,-0.58807653,-0.15317772,0.5973125,-0.7872448,,-0.123876974,0.25025398,-0.12065284,-0.7743479,-0.44513223,0.4497139,0.63226396,-0.5724476,0.52205944,0.02505216,0.6885935,0.7247147,,-0.055410147,0.40258223,-0.42802116,-0.20619462,0.7873492,-0.58100337,-0.9724427,-0.09885904,0.21114482,0.10880728,0.6085294,0.7860362,,1.087978607320749,0.5607012976001963,0.21218582123000002,3.467432905460095,0.002459456995777928,-0.6868000796050094,-0.42926820580088587,,-1.3520420124891075,0.16196887657111064,0.13115084446000003,0.31998685375738417,0.3839485643408877,-0.44997787786252647,0.8758508826120054,,-0.11698505643804993,-0.12851077448590748,0.09694439508,-0.1167695939710949,,7.227063e-07,-1.4901161e-06,-6.67572e-06,1.0,2.7008355e-05,2.0481646e-05,-2.7008355e-05,1.0,5.275011e-06,-2.0503998e-05,-5.275011e-06,1.0,61,0.184,1,1,0.046,False,-0.2632143878608417,1.0505771517758753
0.19950086600147188,17:03:48.337403,17:02:32.468931,0,,0.118173204,0.0018607602,0.030945674,0.75989515,0.5885876,-0.2759056,0.4093642,-0.10359272,0.90647084,0.5049556,-0.80176884,-0.31966642,,0.015600931,-0.03601714,0.060450137,0.29673573,-0.6681595,0.68228346,-0.55237675,0.4627183,0.6933769,-0.77899146,-0.58262736,-0.23177087,,0.098442174,1.2953962,0.42710906,0.98261493,0.007496591,-0.18550383,-0.1049021,-0.8019735,-0.58807653,-0.15317772,0.5973125,-0.7872448,,-0.123852715,0.25044432,-0.120956354,-0.77319443,-0.4488354,0.44801465,0.63382846,-0.57008696,0.522745,0.020780832,0.688148,0.7252727,,-0.05540574,0.40258655,-0.4280205,-0.20618902,0.7873703,-0.58097684,-0.9724393,-0.09883641,0.211171,0.10884811,0.60850585,0.7860488,,1.088874444334159,0.5612650571000147,0.21189285969000002,3.464706936194796,-0.0013663649976544045,-0.6851505956240397,-0.4276347651395431,,-1.352026567023359,0.162015212968356,0.13114954817000002,0.31998685375738417,0.3839485643408877,-0.44997787786252647,0.8758508826120054,,-0.11698505643804993,-0.12851077448590748,0.09694439508,-0.1167695939710949,,7.227063e-07,-1.4901161e-06,-6.67572e-06,1.0,2.7008355e-05,2.0481646e-05,-2.7008355e-05,1.0,5.275011e-06,-2.0503998e-05,-5.275011e-06,1.0,69,0.209,1,1,0.071,False,-0.26386974276457353,1.049804668563404
0.22798940492793918,17:03:48.364809,17:02:32.583602,0,,0.11814874,0.0018437207,0.031169966,0.7579403,0.59091824,-0.2763007,0.41020694,-0.10242078,0.90622294,0.5072047,-0.8002035,-0.32002777,,0.015598651,-0.036008406,0.06045413,0.29604983,-0.6682434,0.6824992,-0.5522208,0.46327043,0.6931324,-0.77936286,-0.58209217,-0.23186693,,0.098442174,1.2953962,0.42710906,0.98261493,0.007496591,-0.18550383,-0.1049021,-0.8019735,-0.58807653,-0.15317772,0.5973125,-0.7872448,,-0.12387015,0.2505676,-0.12114526,-0.77156395,-0.4512211,0.44842905,0.6358646,-0.5681991,0.5223274,0.019111805,0.6881492,0.7253175,,-0.055403497,0.40259534,-0.4280167,-0.20544188,0.787407,-0.5811918,-0.9725706,-0.098067604,0.21092454,0.109087355,0.6085828,0.7859561,,1.0892683037107445,0.5617747574697135,0.21170878651000002,3.4617712769860125,-0.002459456995777928,-0.6845859673550305,-0.42763476513954296,,-1.352018844290485,0.16210016302997246,0.13115084446000003,0.3208256135313223,0.3839485643408877,-0.44989619912238593,0.875687538545871,,-0.11698505643804993,-0.12851077448590748,0.09694439508,-0.1167695939710949,,7.227063e-07,-1.4901161e-06,-6.67572e-06,1.0,2.7008355e-05,2.0481646e-05,-2.7008355e-05,1.0,5.275011e-06,-2.0503998e-05,-5.275011e-06,1.0,77,0.234,1,1,0.096,False,-0.262797343831195,1.0499495091657423
0.25539291091263294,17:03:48.394877,17:02:32.583602,0,,0.11817842,0.0018188432,0.031535044,0.75538284,0.5957385,-0.2729329,0.40807027,-0.10176954,0.9072604,0.51271373,-0.7967049,-0.31997824,,0.015595615,-0.036001373,0.060458124,0.2960681,-0.66826296,0.6824721,-0.55216384,0.46327925,0.69317186,-0.77939636,-0.58206266,-0.2318286,,0.098442174,1.2953962,0.42710906,0.98261493,0.007496591,-0.18550383,-0.1049021,-0.8019735,-0.58807653,-0.15317772,0.5973125,-0.7872448,,-0.12396593,0.25077066,-0.121435754,-0.77031773,-0.45644182,0.44527686,0.6375274,-0.5655398,0.523186,0.013017804,0.6868956,0.72663945,,-0.055400647,0.40260318,-0.4280143,-0.20545006,0.78742206,-0.5811685,-0.9725613,-0.09803786,0.21098118,0.10915472,0.6085681,0.7859581,,1.0896389948887073,0.5626474262845009,0.21142230642,3.459045307720714,-0.007651643986864665,-0.6821490192976589,-0.4279614532718117,,-1.352026567023359,0.16216966762584048,0.13115084446000003,0.3208256135313223,0.3839485643408877,-0.44989619912238593,0.875687538545871,,-0.11698505643804993,-0.12851077448590748,0.09694439508,-0.1167695939710949,,7.227063e-07,-1.4901161e-06,-6.67572e-06,1.0,2.7008355e-05,2.0481646e-05,-2.7008355e-05,1.0,5.275011e-06,-2.0503998e-05,-5.275011e-06,1.0,89,0.272,1,1,0.134,False,-0.2632143878608417,1.050335750771978
0.28550379909574986,17:03:48.422941,17:02:32.583602,0,,0.118259065,0.0017735884,0.03195156,0.75030756,0.6040783,-0.2685663,0.40577048,-0.10009664,0.90847725,0.5219088,-0.79061365,-0.3202206,,0.015594862,-0.036001522,0.060457647,0.29606384,-0.6682679,0.6824691,-0.5521654,0.46327627,0.69317263,-0.77939683,-0.5820593,-0.23183528,,0.098442174,1.2953962,0.42710906,0.98261493,0.007496591,-0.18550383,-0.1049021,-0.8019735,-0.58807653,-0.15317772,0.5973125,-0.7872448,,-0.12412312,0.25098902,-0.12176687,-0.7672785,-0.46540686,0.4412257,0.6413049,-0.56048286,0.5240105,0.003421371,0.6850222,0.7285142,,-0.055399828,0.40260273,-0.4280142,-0.2054459,0.7874262,-0.58116436,-0.9725624,-0.0980368,0.21097682,0.10915319,0.6085629,0.78596234,,1.0898243404776886,0.5636127678937789,0.21109304876,3.453383679246632,-0.015986470472556535,-0.6789463917383619,-0.42730807700727447,,-1.352018844290485,0.16216966762584048,0.13115084446000003,0.3208256135313223,0.3839485643408877,-0.44989619912238593,0.875687538545871,,-0.11698505643804993,-0.12851077448590748,0.09694439508,-0.1167695939710949,,7.227063e-07,-1.4901161e-06,-6.67572e-06,1.0,2.7008355e-05,2.0481646e-05,-2.7008355e-05,1.0,5.275011e-06,-2.0503998e-05,-5.275011e-06,1.0,102,0.311,1,1,0.17,False,-0.2621419889274632,1.049804668563404
0.313590913079679,17:03:48.464391,17:02:32.583602,0,,0.11834888,0.001645349,0.032493934,0.7456641,0.6125614,-0.26220852,0.40231544,-0.10020596,0.91000044,0.5311563,-0.78404546,-0.321163,,0.015594862,-0.036001522,0.060457647,0.29606384,-0.6682679,0.6824691,-0.5521654,0.46327627,0.69317263,-0.77939683,-0.5820593,-0.23183528,,0.098442174,1.2953962,0.42710906,0.98261493,0.007496591,-0.18550383,-0.1049021,-0.8019735,-0.58807653,-0.15317772,0.5973125,-0.7872448,,-0.12432244,0.25121844,-0.1222426,-0.76482695,-0.47483703,0.4353958,0.6441998,-0.5565468,0.52465445,-0.006807221,0.6817518,0.7315519,,-0.055399828,0.40260273,-0.4280142,-0.2054459,0.7874262,-0.58116436,-0.9725624,-0.0980368,0.21097682,0.10915319,0.6085629,0.78596234,,1.089909290539305,0.564717118694793,0.21061860662,3.448770500489972,-0.024867842957310163,-0.6739912327220303,-0.4266547007427374,,-1.352018844290485,0.16216966762584048,0.13115084446000003,0.3208256135313223,0.3839485643408877,-0.44989619912238593,0.875687538545871,,-0.11698505643804993,-0.12851077448590748,0.09694439508,-0.1167695939710949,,7.227063e-07,-1.4901161e-06,-6.67572e-06,1.0,2.7008355e-05,2.0481646e-05,-2.7008355e-05,1.0,5.275011e-06,-2.0503998e-05,-5.275011e-06,1.0,110,0.336,0,1,0.17,False,-0.2639888982016152,1.0504805913743163
0.3550183610059321,17:03:48.490898,17:02:32.583602,0,,0.118356965,0.0015182421,0.03282951,0.7432627,0.61611843,-0.26068854,0.4021628,-0.10008606,0.91008115,0.5346264,-0.7812687,-0.32217032,,0.015594643,-0.036002208,0.06045693,0.296237,-0.66826695,0.68239486,-0.55219406,0.46312448,0.69325125,-0.77931076,-0.5821812,-0.23181859,,0.098442174,1.2953962,0.42710906,0.98261493,0.007496591,-0.18550383,-0.1049021,-0.8019735,-0.58807653,-0.15317772,0.5973125,-0.7872448,,-0.124405935,0.25132245,-0.122575834,-0.76310855,-0.47877252,0.43409932,0.64619124,-0.5547513,0.52410674,-0.010110756,0.6804615,0.73271406,,-0.05539955,0.40260178,-0.42801434,-0.20563245,0.7874337,-0.5810882,-0.9725283,-0.09822707,0.21104553,0.10910578,0.6085225,0.7860002,,1.09000968606667,0.5652808781946115,0.21027638606000001,3.445834841281189,-0.02760057295261897,-0.6718445533882424,-0.4268180448088717,,-1.352018844290485,0.16216194489296626,0.13115084446000003,0.32061592358783775,0.3839485643408877,-0.44989619912238593,0.875687538545871,,-0.11698505643804993,-0.12851077448590748,0.09694439508,-0.1167695939710949,,7.227063e-07,-1.4901161e-06,-6.67572e-06,1.0,2.7008355e-05,2.0481646e-05,-2.7008355e-05,1.0,5.275011e-06,-2.0503998e-05,-5.275011e-06,1.0,127,0.389,0,1,0.17,False,-0.2634526987349264,1.0505288715750958
0.3815405850764364,17:03:48.539673,17:02:32.729413,0,,0.11825878,0.0011618212,0.03345634,0.7417132,0.6190072,-0.25824678,0.40091777,-0.100500435,0.9105847,0.5377046,-0.7789286,-0.32271367,,0.015591849,-0.036001045,0.06045443,0.29640046,-0.66817486,0.68241405,-0.55221486,0.46307832,0.6932655,-0.7792338,-0.58232355,-0.2317197,,0.098442174,1.2953962,0.42710906,0.98261493,0.007496591,-0.18550383,-0.1049021,-0.8019735,-0.58807653,-0.15317772,0.5973125,-0.7872448,,-0.12446761,0.25142223,-0.123294055,-0.7623016,-0.48205313,0.43188074,0.6470796,-0.5536466,0.5241788,-0.013572735,0.6790436,0.7339725,,-0.055396307,0.40260085,-0.42801234,-0.20580743,0.78736293,-0.5811221,-0.97249544,-0.09837285,0.21112888,0.10906841,0.6085905,0.78595275,,1.090388099977507,0.5657365194341907,0.20957250059000002,3.4441573217333126,-0.03046993944769322,-0.6695864561507581,-0.426981388875006,,-1.3519956760918623,0.16216966762584048,0.13115214075,0.3204062336443532,0.3839485643408877,-0.450059556602667,0.8760142266781396,,-0.11698505643804993,-0.12851077448590748,0.09694439508,-0.1167695939710949,,7.227063e-07,-1.4901161e-06,-6.67572e-06,1.0,2.7008355e-05,2.0481646e-05,-2.7008355e-05,1.0,5.275011e-06,-2.0503998e-05,-5.275011e-06,1.0,135,0.414,0,1,0.17,False,-0.2639888982016152,1.0500943497680806
0.4302637290675193,17:03:48.565751,17:02:32.729413,0,,0.11817476,0.0009563565,0.03385614,0.7403692,0.6213392,-0.25649732,0.39973614,-0.10018301,0.911139,0.5404296,-0.7771107,-0.32254434,,0.015592564,-0.035999317,0.06045693,0.29645476,-0.66816497,0.68240017,-0.55209285,0.46313837,0.69332254,-0.7792996,-0.5822872,-0.2315897,,0.098442174,1.2953962,0.42710906,0.98261493,0.007496591,-0.18550383,-0.1049021,-0.8019735,-0.58807653,-0.15317772,0.5973125,-0.7872448,,-0.1244831,0.25150317,-0.12374386,-0.7616252,-0.4846003,0.43022045,0.6478031,-0.5522818,0.5247246,-0.01667877,0.6783416,0.73455733,,-0.055397283,0.40260378,-0.42801243,-0.20584089,0.7873518,-0.5811254,-0.9724723,-0.09830744,0.21126595,0.10921167,0.6086155,0.78591347,,1.0908128502855894,0.5660068150847886,0.20912787312000003,3.4426894921289213,-0.03333930594276747,-0.66822682505482,-0.42730807700727463,,-1.3520111215576107,0.1621773903587147,0.13115214075,0.3204062336443532,0.38408520084065306,-0.45008929576622286,0.8758508826120054,,-0.11698505643804993,-0.12851077448590748,0.09694439508,-0.1167695939710949,,7.227063e-07,-1.4901161e-06,-6.67572e-06,1.0,2.7008355e-05,2.0481646e-05,-2.7008355e-05,1.0,5.275011e-06,-2.0503998e-05,-5.275011e-06,1.0,152,0.467,0,1,0.17,False,-0.26339312101640555,1.0502391903704191
0.456374746048823,17:03:48.614835,17:02:32.729413,0,,0.118082896,0.00076208264,0.034384504,0.7373997,0.6261764,-0.25326797,0.39724764,-0.098780036,0.9123797,0.54629284,-0.7733987,-0.32158762,,0.015597109,-0.035987634,0.060461164,0.29628694,-0.66821176,0.6824272,-0.5521033,0.46321043,0.69326615,-0.7793561,-0.5821761,-0.23167887,,0.098442174,1.2953962,0.42710906,0.98261493,0.007496591,-0.18550383,-0.1049021,-0.8019735,-0.58807653,-0.15317772,0.5973125,-0.7872448,,-0.12451176,0.25167137,-0.12428814,-0.7600864,-0.4897724,0.42707333,0.6494025,-0.5488967,0.52629733,-0.0233468,0.67737395,0.7352683,,-0.055401567,0.40261412,-0.4280054,-0.20566735,0.7873851,-0.58114165,-0.972509,-0.09817271,0.21115956,0.109211646,0.6085941,0.78593004,,1.0915387871757665,0.56653968365311,0.20859380164000002,3.4395441429766533,-0.03948794843221229,-0.6662351327736818,-0.4268180448088717,,-1.3520729034206045,0.16226234042033116,0.13115732591,0.32061592358783775,0.3839485643408877,-0.44997787786252647,0.8758508826120054,,-0.11698505643804993,-0.12851077448590748,0.09694439508,-0.1167695939710949,,7.227063e-07,-1.4901161e-06,-6.67572e-06,1.0,2.7008355e-05,2.0481646e-05,-2.7008355e-05,1.0,5.275011e-06,-2.0503998e-05,-5.275011e-06,1.0,160,0.492,0,1,0.17,False,-0.2629164992682367,1.0502874705711984
0.505436500068754,17:03:48.646546,17:02:32.857920,0,,0.11806778,0.00067324936,0.034951195,0.73271257,0.6341739,-0.24689181,0.3930988,-0.09825736,0.9142312,0.5555226,-0.7669217,-0.3212876,,0.015594203,-0.0359747,0.06046468,0.29613826,-0.66829896,0.6824063,-0.551993,0.46331695,0.6932827,-0.77949065,-0.5819912,-0.2316907,,0.098442174,1.2953962,0.42710906,0.98261493,0.007496591,-0.18550383,-0.1049021,-0.8019735,-0.58807653,-0.15317772,0.5973125,-0.7872448,,-0.12460758,0.25194666,-0.12478238,-0.7576835,-0.49862713,0.42105427,0.65173674,-0.5445164,0.5279594,-0.03398393,0.67444265,0.7375447,,-0.05539831,0.4026253,-0.42799813,-0.20549078,0.7874487,-0.5811179,-0.9725301,-0.097956255,0.21116273,0.10935568,0.60854673,0.7859467,,1.0922956149974403,0.5675513616596335,0.20811287805000003,3.434930964219993,-0.04905250341579312,-0.6615396716402737,-0.4264913566766031,,-1.3520806261534788,0.16237045868057032,0.13116121478,0.3208256135313223,0.3839485643408877,-0.44989619912238593,0.875687538545871,,-0.11698505643804993,-0.12851077448590748,0.09694439508,-0.1167695939710949,,7.227063e-07,-1.4901161e-06,-6.67572e-06,1.0,2.7008355e-05,2.0481646e-05,-2.7008355e-05,1.0,5.275011e-06,-2.0503998e-05,-5.275011e-06,1.0,177,0.545,0,1,0.17,False,-0.26297607698675796,1.0499495091657423
0.5371891290415078,17:03:48.694291,17:02:32.857920,0,,0.11811467,0.0006919876,0.035445347,0.7283555,0.64140844,-0.24102579,0.3880249,-0.09618187,0.9166163,0.5647431,-0.76114666,-0.3189372,,0.015588928,-0.0359595,0.060469806,0.29577407,-0.6684057,0.68245983,-0.5519438,0.46352133,0.69318527,-0.77966374,-0.5817058,-0.23182496,,0.098442174,1.2953962,0.42710906,0.98261493,0.007496591,-0.18550383,-0.1049021,-0.8019735,-0.58807653,-0.15317772,0.5973125,-0.7872448,,-0.12473665,0.25226304,-0.12514293,-0.75572675,-0.5064043,0.41524908,0.6533329,-0.53933537,0.5312941,-0.045091085,0.67280906,0.73844075,,-0.05539282,0.40263936,-0.42799056,-0.20510055,0.78752244,-0.5811559,-0.9726028,-0.097598836,0.2109935,0.10944198,0.6085087,0.78596413,,1.0929597700246236,0.568810167118132,0.20776676862000001,3.431156545237272,-0.05889033139890483,-0.6587450219431273,-0.42616466854433455,,-1.3520806261534788,0.16251719060518058,0.13116380736000002,0.3212449934182913,0.3838119278411222,-0.4497847812186894,0.875687538545871,,-0.11698505643804993,-0.12851077448590748,0.09694439508,-0.1167695939710949,,7.227063e-07,-1.4901161e-06,-6.67572e-06,1.0,2.7008355e-05,2.0481646e-05,-2.7008355e-05,1.0,5.275011e-06,-2.0503998e-05,-5.275011e-06,1.0,185,0.569,0,1,0.17,False,-0.26351227645344677,1.0501909101696396
0.584941647015512,17:03:48.721193,17:02:32.857920,0,,0.11818754,0.0007415116,0.035735562,0.7249974,0.6458647,-0.23924334,0.38647085,-0.093957424,0.91750324,0.5701043,-0.75764817,-0.31772694,,0.015586421,-0.035951782,0.060472965,0.29579234,-0.6684253,0.68243265,-0.5518868,0.46353012,0.6932247,-0.7796971,-0.5816763,-0.23178664,,0.098442174,1.2953962,0.42710906,0.98261493,0.007496591,-0.18550383,-0.1049021,-0.8019735,-0.58807653,-0.15317772,0.5973125,-0.7872448,,-0.12485141,0.25247946,-0.12532176,-0.75359464,-0.51105595,0.41342098,0.6553657,-0.53543025,0.53273845,-0.050901085,0.6724108,0.7384259,,-0.055390283,0.4026469,-0.42798695,-0.20510875,0.7875376,-0.58113253,-0.9725935,-0.09756909,0.21105014,0.10950934,0.6084939,0.78596616,,1.0932146202094732,0.5698295678575297,0.20759565834000002,3.4275918161980354,-0.06353597239092981,-0.6578972478625094,-0.4264913566766031,,-1.3520883488863529,0.1625866952010486,0.13116510365,0.3212449934182913,0.3838119278411222,-0.4497847812186894,0.875687538545871,,-0.11698505643804993,-0.12851077448590748,0.09694439508,-0.1167695939710949,,7.227063e-07,-1.4901161e-06,-6.67572e-06,1.0,2.7008355e-05,2.0481646e-05,-2.7008355e-05,1.0,5.275011e-06,-2.0503998e-05,-5.275011e-06,1.0,198,0.61,0,1,0.17,False,-0.26351227645344677,1.05014262996886
0.6118393659126014,17:03:48.757038,17:02:32.985902,0,,0.118304506,0.0008196011,0.035915032,0.72148204,0.6510359,-0.23583005,0.3849619,-0.094035596,0.9181293,0.5755588,-0.7531995,-0.31846917,,0.015586663,-0.03594919,0.06047529,0.29580548,-0.66842353,0.68242866,-0.55186534,0.46353802,0.69323665,-0.77970743,-0.5816721,-0.23176283,,0.098442174,1.2953962,0.42710906,0.98261493,0.007496591,-0.18550383,-0.1049021,-0.8019735,-0.58807653,-0.15317772,0.5973125,-0.7872448,,-0.12498606,0.25265104,-0.12538825,-0.7513192,-0.5168833,0.41030607,0.65749085,-0.5327687,0.53278816,-0.05679109,0.6700665,0.7401254,,-0.0553907,0.40265027,-0.42798635,-0.20511839,0.7875357,-0.5811316,-0.97258866,-0.097560935,0.21107627,0.10953437,0.6084976,0.78595984,,1.093176006545102,0.570702236672317,0.20753343642000002,3.424027087158798,-0.06831824988272023,-0.6547327298943997,-0.42665470074273737,,-1.3521037943521015,0.1626175861325455,0.13116510365,0.3212449934182913,0.3838119278411222,-0.4497847812186894,0.875687538545871,,-0.11698505643804993,-0.12851077448590748,0.09694439508,-0.1167695939710949,,7.227063e-07,-1.4901161e-06,-6.67572e-06,1.0,2.7008355e-05,2.0481646e-05,-2.7008355e-05,1.0,5.275011e-06,-2.0503998e-05,-5.275011e-06,1.0,206,0.635,0,1,0.17,False,-0.26249945523859,1.0508185527797727
0.6476212220732123,17:03:48.794812,17:02:32.985902,0,,0.11850604,0.00087560713,0.036078736,0.7175865,0.65618306,-0.23343784,0.3819696,-0.09051767,0.91973126,0.5823819,-0.749153,-0.3155964,,0.015587095,-0.035949934,0.060474813,0.29580393,-0.6683093,0.6825412,-0.5518715,0.4636506,0.69315636,-0.7797037,-0.58171356,-0.2316713,,0.098442174,1.2953962,0.42710906,0.98261493,0.007496591,-0.18550383,-0.1049021,-0.8019735,-0.58807653,-0.15317772,0.5973125,-0.7872448,,-0.12520343,0.25279564,-0.125437,-0.7491127,-0.522128,0.4076916,0.6592749,-0.5275031,0.53581446,-0.06470517,0.67016625,0.7393852,,-0.055391107,0.40264943,-0.42798662,-0.20511794,0.78743863,-0.5812633,-0.97258955,-0.09752987,0.2110864,0.10952705,0.6086282,0.7858597,,1.092658583442529,0.5715980736857271,0.20748417740000002,3.42088173800653,-0.07501343837122681,-0.6553991581238172,-0.42616466854433455,,-1.3521037943521015,0.16260214066679704,0.13116510365,0.3212449934182913,0.3838119278411222,-0.44994813869897055,0.8756875385458711,,-0.11698505643804993,-0.12851077448590748,0.09694439508,-0.1167695939710949,,7.227063e-07,-1.4901161e-06,-6.67572e-06,1.0,2.7008355e-05,2.0481646e-05,-2.7008355e-05,1.0,5.275011e-06,-2.0503998e-05,-5.275011e-06,1.0,223,0.688,0,1,0.17,False,-0.26309523242380006,1.05014262996886
0.6854550431016833,17:03:48.841175,17:02:32.985902,0,,0.11876439,0.00084812194,0.036143467,0.71123886,0.6643015,-0.22987527,0.38166136,-0.09031272,0.9198793,0.59031665,-0.74198854,-0.3177723,,0.015588034,-0.03595789,0.060470045,0.29573447,-0.6683609,0.6825208,-0.5520381,0.4635265,0.6931067,-0.77961195,-0.58175325,-0.23188016,,0.098442174,1.2953962,0.42710906,0.98261493,0.007496591,-0.18550383,-0.1049021,-0.8019735,-0.58807653,-0.15317772,0.5973125,-0.7872448,,-0.12547041,0.25281385,-0.1254464,-0.7443425,-0.53126335,0.4046152,0.6638592,-0.522955,0.5346111,-0.072423756,0.6665413,0.7419417,,-0.05539185,0.4026406,-0.42798957,-0.20507717,0.7874865,-0.5812128,-0.9726202,-0.097635396,0.21089631,0.10933106,0.60854936,0.7859481,,1.09145383711415,0.5721000513225517,0.20746473305000002,3.41438134975851,-0.08143535386020251,-0.6517144127127561,-0.4266547007427375,,-1.3520806261534788,0.16254035880380324,0.13116380736000002,0.3212449934182913,0.3836752913413568,-0.44983672079527426,0.8756875385458711,,-0.11698505643804993,-0.12851077448590748,0.09694439508,-0.1167695939710949,,7.227063e-07,-1.4901161e-06,-6.67572e-06,1.0,2.7008355e-05,2.0481646e-05,-2.7008355e-05,1.0,5.275011e-06,-2.0503998e-05,-5.275011e-06,1.0,231,0.713,0,1,0.17,False,-0.2632143878608417,1.0503840309727575
0.7318195039406419,17:03:48.867244,17:02:32.985902,0,,0.11888328,0.00083212554,0.036178395,0.70734906,0.67012125,-0.22493285,0.37898338,-0.090919375,0.9209262,0.5966814,-0.7366622,-0.3182767,,0.015587069,-0.035966385,0.060468614,0.2961057,-0.6682914,0.68242794,-0.5520289,0.46332258,0.69325036,-0.77947766,-0.5819954,-0.23172385,,0.098442174,1.2953962,0.42710906,0.98261493,0.007496591,-0.18550383,-0.1049021,-0.8019735,-0.58807653,-0.15317772,0.5973125,-0.7872448,,-0.12559462,0.2528227,-0.12545665,-0.7420192,-0.5379477,0.4000248,0.6656127,-0.5201756,0.5351421,-0.07979536,0.6633473,0.7440451,,-0.055391304,0.40263417,-0.42799535,-0.20546359,0.7874423,-0.5811362,-0.9725405,-0.09795649,0.211115,0.10931482,0.6085549,0.785946,,1.0909518594773253,0.5721618331855455,0.20745306644000003,3.411236000606242,-0.08840381534823998,-0.6482374256080338,-0.4264913566766031,,-1.3520651806877302,0.16247085420793522,0.13115991849,0.3208256135313223,0.3838119278411222,-0.4499481386989705,0.8760142266781396,,-0.11698505643804993,-0.12851077448590748,0.09694439508,-0.1167695939710949,,7.227063e-07,-1.4901161e-06,-6.67572e-06,1.0,2.7008355e-05,2.0481646e-05,-2.7008355e-05,1.0,5.275011e-06,-2.0503998e-05,-5.275011e-06,1.0,248,0.766,0,1,0.17,False,-0.2632143878608417,1.0501909101696396
0.757889763917774,17:03:48.914554,17:02:33.123529,0,,0.119122945,0.00081060827,0.036285803,0.69499505,0.6847154,-0.21942346,0.37624502,-0.086271435,0.9224949,0.6127164,-0.72368646,-0.31757915,,0.015594881,-0.03599553,0.06046194,0.29604903,-0.66821676,0.6825255,-0.5522228,0.4632966,0.6931133,-0.77936184,-0.5821019,-0.23184618,,0.098442174,1.2953962,0.42710906,0.98261493,0.007496591,-0.18550383,-0.1049021,-0.8019735,-0.58807653,-0.15317772,0.5973125,-0.7872448,,-0.12584996,0.2528716,-0.12549958,-0.73312914,-0.5538043,0.39474356,0.67320156,-0.5085498,0.53682095,-0.09654698,0.65930104,0.74565464,,-0.055400096,0.40260988,-0.42801228,-0.20544139,0.7873844,-0.5812226,-0.97257096,-0.098060474,0.21092616,0.10908499,0.6086132,0.78593284,,1.0900019633337958,0.5723626242402753,0.20741158516000002,3.3988642939406555,-0.10384373982173474,-0.6446318639057999,-0.42551129227979745,,-1.3520497352219818,0.16223144948883428,0.13115084446000003,0.3208256135313223,0.3838119278411222,-0.4499481386989705,0.8760142266781396,,-0.11698505643804993,-0.12851077448590748,0.09694439508,-0.1167695939710949,,7.227063e-07,-1.4901161e-06,-6.67572e-06,1.0,2.7008355e-05,2.0481646e-05,-2.7008355e-05,1.0,5.275011e-06,-2.0503998e-05,-5.275011e-06,1.0,256,0.791,0,1,0.17,False,-0.26351227645344677,1.0508668329805522
0.8051676710601896,17:03:48.944180,17:02:33.123529,0,,0.11916354,0.00080741197,0.036381647,0.68868303,0.6904441,-0.2213649,0.37975618,-0.08340117,0.92131937,0.6176575,-0.7185618,-0.3196376,,0.015598044,-0.03600787,0.060459793,0.29606727,-0.6681251,0.6826074,-0.5521977,0.46339455,0.69306785,-0.7793726,-0.5821291,-0.2317414,,0.098442174,1.2953962,0.42710906,0.98261493,0.007496591,-0.18550383,-0.1049021,-0.8019735,-0.58807653,-0.15317772,0.5973125,-0.7872448,,-0.12590665,0.25292763,-0.12556662,-0.72735363,-0.55989176,0.39683485,0.67898613,-0.5031386,0.5346301,-0.09967206,0.65831053,0.7461184,,-0.055403784,0.40260005,-0.42801988,-0.20545568,0.787306,-0.5813236,-0.9725647,-0.09802604,0.21097103,0.10911392,0.60872006,0.78584605,,1.089909290539305,0.5726483653566217,0.20734677066,3.390476696201274,-0.10602992381798179,-0.6435026073677816,-0.42551129227979734,,-1.3520420124891075,0.16212333122859512,0.13114695559,0.3208256135313223,0.3839485643408877,-0.450059556602667,0.8760142266781396,,-0.11698505643804993,-0.12851077448590748,0.09694439508,-0.1167695939710949,,7.227063e-07,-1.4901161e-06,-6.67572e-06,1.0,2.7008355e-05,2.0481646e-05,-2.7008355e-05,1.0,5.275011e-06,-2.0503998e-05,-5.275011e-06,1.0,273,0.844,0,1,0.17,False,-0.2635718541719685,1.0509151131813312
0.8348035330418497,17:03:48.996175,17:02:33.123529,0,,0.11921232,0.00086873025,0.036673144,0.67888653,0.700925,-0.21867128,0.37737492,-0.07761812,0.922802,0.6298421,-0.70899904,-0.3172055,,0.01559322,-0.036049057,0.060454905,0.29599607,-0.6680382,0.6827234,-0.552328,0.4634395,0.6929339,-0.7793073,-0.58219314,-0.23180011,,0.098442174,1.2953962,0.42710906,0.98261493,0.007496591,-0.18550383,-0.1049021,-0.8019735,-0.58807653,-0.15317772,0.5973125,-0.7872448,,-0.12599653,0.25315413,-0.12574473,-0.72024035,-0.5709889,0.3939868,0.6845139,-0.49270305,0.5372936,-0.11267018,0.65667,0.7457144,,-0.055401344,0.40257046,-0.42804918,-0.20540613,0.78723437,-0.58143824,-0.97259223,-0.09805326,0.21083152,0.108961895,0.6088084,0.7857987,,1.0903494863131358,0.5733279658495534,0.20718862328,3.3802018889705328,-0.11778066279780966,-0.641843505443524,-0.4263280126104688,,-1.3519338942288683,0.16184531284512305,0.13112491866,0.3208256135313223,0.38408520084065306,-0.4501709745063634,0.8760142266781396,,-0.11698505643804993,-0.12851077448590748,0.09694439508,-0.1167695939710949,,7.227063e-07,-1.4901161e-06,-6.67572e-06,1.0,2.7008355e-05,2.0481646e-05,-2.7008355e-05,1.0,5.275011e-06,-2.0503998e-05,-5.275011e-06,1.0,281,0.868,0,1,0.17,False,-0.26351227645344677,1.0507219923782136
0.8868099350947887,17:03:49.033953,17:02:33.123529,0,,0.11919008,0.00095102936,0.0370882,0.66920257,0.710222,-0.2185235,0.36812833,-0.061415285,0.9277444,0.64548373,-0.7012937,-0.30255222,,0.015585903,-0.036064554,0.060455024,0.29598498,-0.6679945,0.6827709,-0.55229676,0.46351558,0.6929079,-0.7793337,-0.5821827,-0.23173776,,0.098442174,1.2953962,0.42710906,0.98261493,0.007496591,-0.18550383,-0.1049021,-0.8019735,-0.58807653,-0.15317772,0.5973125,-0.7872448,,-0.12603578,0.25347248,-0.12602158,-0.7147718,-0.5791906,0.3919688,0.68671095,-0.47514644,0.550149,-0.13239858,0.66240025,0.7373578,,-0.055395342,0.40256128,-0.42806235,-0.20538855,0.78719544,-0.58149713,-0.97259164,-0.098000154,0.21085902,0.10900044,0.6088673,0.78574777,,1.0914770053127727,0.5739535072123656,0.20695010592000002,3.372443361061605,-0.13677313626520587,-0.6504516451711873,-0.4264913566766031,,-1.3518643896330005,0.16176036278350658,0.13111325205000002,0.3208256135313223,0.38422183734041854,-0.4502823924100598,0.8760142266781396,,-0.11698505643804993,-0.12851077448590748,0.09694439508,-0.1167695939710949,,7.227063e-07,-1.4901161e-06,-6.67572e-06,1.0,2.7008355e-05,2.0481646e-05,-2.7008355e-05,1.0,5.275011e-06,-2.0503998e-05,-5.275011e-06,1.0,298,0.922,0,1,0.17,False,-0.26381016504605226,1.0505288715750958
0.9245993359945714,17:03:49.074846,17:02:33.267200,0,,0.118987545,0.0009916052,0.037437826,0.6585396,0.7203567,-0.2177421,0.36669946,-0.05450067,0.9287417,0.6571582,-0.69145924,-0.3000454,,0.015589021,-0.036078725,0.06045723,0.2959425,-0.6680665,0.68271875,-0.5523542,0.46343163,0.69291824,-0.77930915,-0.58216673,-0.23186052,,0.09844108,1.295396,0.42710972,0.9826126,0.0074789445,-0.18551676,-0.104923725,-0.8019737,-0.5880724,-0.15317772,0.5973125,-0.7872448,,-0.1258896,0.25371876,-0.12631153,-0.70658505,-0.58984274,0.39092603,0.6926923,-0.4636368,0.5524657,-0.14462017,0.6611554,0.73617834,,-0.05539733,0.40255257,-0.4280745,-0.20537053,0.78726375,-0.581411,-0.9726022,-0.098047376,0.21078838,0.10894023,0.6087713,0.78583044,,1.0930910564834855,0.5741234073355985,0.20669473679000003,3.3602813443395028,-0.14838723874526832,-0.6487406036703449,-0.4256746363459316,,-1.3518103305028808,0.16172174911913545,0.13110417802000002,0.3208256135313223,0.38422183734041854,-0.45020071366991926,0.8758508826120054,,-0.11698505643804993,-0.12851077448590748,0.09694439508,-0.1167695939710949,,-4.246831e-07,-9.536743e-07,-6.7949295e-06,0.99999994,9.693205e-06,7.338822e-06,-9.678304e-06,1.0,1.8775463e-06,-7.353723e-06,-1.9073486e-06,1.0,306,0.946,0,1,0.17,False,-0.2631548101423209,1.0501909101696396
0.9654757590033114,17:03:49.100648,17:02:33.267200,0,,0.1188317,0.0009983554,0.037636936,0.65338707,0.7255493,-0.21601668,0.36607188,-0.053051263,0.9290731,0.6626285,-0.6861223,-0.3002663,,0.015586983,-0.03607968,0.06045705,0.29593396,-0.6680765,0.6827127,-0.5523573,0.4634257,0.6929198,-0.77931017,-0.58216,-0.23187381,,0.09844108,1.295396,0.42710972,0.9826126,0.0074789445,-0.18551676,-0.104923725,-0.8019737,-0.5880724,-0.15317772,0.5973125,-0.7872448,,-0.12577128,0.25384527,-0.12649584,-0.7025957,-0.5956375,0.3893267,0.6955223,-0.45922276,0.5525968,-0.15035968,0.65903753,0.7369271,,-0.055395376,0.40255198,-0.4280755,-0.20536223,0.787272,-0.5814028,-0.9726043,-0.09804527,0.21077968,0.108937144,0.608761,0.7858389,,1.0941954072844997,0.5741002391369758,0.20653270054000003,3.3542003359784514,-0.1539893352356514,-0.6456426869413218,-0.4266547007427375,,-1.3517948850371324,0.16172174911913545,0.13110288173,0.3208256135313223,0.38422183734041854,-0.45020071366991926,0.8758508826120054,,-0.11698505643804993,-0.12851077448590748,0.09694439508,-0.1167695939710949,,-4.246831e-07,-9.536743e-07,-6.7949295e-06,0.99999994,9.693205e-06,7.338822e-06,-9.678304e-06,1.0,1.8775463e-06,-7.353723e-06,-1.9073486e-06,1.0,319,0.987,0,1,0.17,False,-0.2630356547052788,1.050432311173537
0.9912935378961265,17:03:49.138055,17:02:33.267200,0,,0.11849144,0.0010717213,0.03813818,0.6370565,0.741676,-0.20994143,0.35783392,-0.043322533,0.93277967,0.6827252,-0.6693578,-0.29299587,,0.015584014,-0.036077473,0.06045896,0.29593596,-0.66809237,0.6826962,-0.55233425,0.46342534,0.69293845,-0.7793258,-0.5821421,-0.2318663,,0.09844108,1.295396,0.42710972,0.9826126,0.0074789445,-0.18551676,-0.104923725,-0.8019737,-0.5880724,-0.15317772,0.5973125,-0.7872448,,-0.12551653,0.25420853,-0.12691483,-0.6912817,-0.6129555,0.38264233,0.7012235,-0.4412567,0.55998045,-0.17439961,0.65542203,0.73485154,,-0.055392608,0.4025551,-0.4280755,-0.20535988,0.7872847,-0.58138645,-0.97260165,-0.098030515,0.21079858,0.10896486,0.608747,0.7858459,,1.0969678683863462,0.5739071708151202,0.20618659111,3.3380542103301427,-0.17790072269460347,-0.6416635144211548,-0.4250212600813946,,-1.351787162304258,0.16175264005063236,0.13110158544,0.3208256135313223,0.38422183734041854,-0.45020071366991926,0.8758508826120054,,-0.11698505643804993,-0.12851077448590748,0.09694439508,-0.1167695939710949,,-4.246831e-07,-9.536743e-07,-6.7949295e-06,0.99999994,9.693205e-06,7.338822e-06,-9.678304e-06,1.0,1.8775463e-06,-7.353723e-06,-1.9073486e-06,1.0,332,1.028,0,1,0.17,False,-0.26386974276457353,1.0505288715750958
1.0287007088772953,17:03:49.178788,17:02:33.267200,0,,0.11802897,0.0011966899,0.03872186,0.61424416,0.76000595,-0.21235512,0.3501616,-0.021349281,0.93644583,0.70717096,-0.64956534,-0.27923867,,0.015584569,-0.036075894,0.060460627,0.29576862,-0.668091,0.68277013,-0.55229783,0.4635807,0.69286346,-0.7794151,-0.5820199,-0.23187286,,0.09844108,1.295396,0.42710972,0.9826126,0.0074789445,-0.18551676,-0.104923725,-0.8019737,-0.5880724,-0.15317772,0.5973125,-0.7872448,,-0.12514989,0.25466275,-0.12739383,-0.6743246,-0.6312821,0.38310477,0.71001375,-0.41173708,0.5712732,-0.20289609,0.65723324,0.7258634,,-0.055393297,0.40255734,-0.4280752,-0.20517793,0.787275,-0.5814637,-0.9726338,-0.09783792,0.21073996,0.10902111,0.6087904,0.78580445,,1.1005589391728607,0.5735982615001513,0.20580677814,3.314359246716392,-0.2060478416462842,-0.6456654105060775,-0.4243678838168574,,-1.3517948850371324,0.1617680855163808,0.13110158544,0.32103530347480674,0.38422183734041854,-0.45020071366991926,0.8758508826120054,,-0.11698505643804993,-0.12851077448590748,0.09694439508,-0.1167695939710949,,-4.246831e-07,-9.536743e-07,-6.7949295e-06,0.99999994,9.693205e-06,7.338822e-06,-9.678304e-06,1.0,1.8775463e-06,-7.353723e-06,-1.9073486e-06,1.0,345,1.069,0,1,0.17,False,-0.26339312101640555,1.050432311173537
1.0694290809333324,17:03:49.223829,17:02:33.411411,0,,0.117294624,0.0014411286,0.039467067,0.5814096,0.7852526,-0.21293426,0.34510535,-0.0010127127,0.93856335,0.73679376,-0.6191747,-0.2715838,,0.015584063,-0.036077563,0.06046635,0.29436275,-0.66765106,0.6838072,-0.5521027,0.4652346,0.6919098,-0.7800852,-0.5812045,-0.23166448,,0.09844108,1.295396,0.42710972,0.9826126,0.0074789445,-0.18551676,-0.104923725,-0.8019737,-0.5880724,-0.15317772,0.5973125,-0.7872448,,-0.124529906,0.25530967,-0.12798668,-0.648136,-0.6584192,0.38262755,0.72401613,-0.37703604,0.5776196,-0.2360515,0.6514046,0.7210768,,-0.055393852,0.40256065,-0.42808008,-0.20367077,0.78683376,-0.5825898,-0.9729125,-0.096192695,0.21020995,0.1093594,0.60962254,0.785112,,1.105933961253321,0.5732198475893142,0.20535955809000003,3.2778731965500842,-0.23829405559092814,-0.6393003978280193,-0.4263280126104688,,-1.3517717168385097,0.16179125371500347,0.13109640028000002,0.32271282302268295,0.38422183734041854,-0.4508541435910438,0.8755241944797367,,-0.11698505643804993,-0.12851077448590748,0.09694439508,-0.1167695939710949,,-4.246831e-07,-9.536743e-07,-6.7949295e-06,0.99999994,9.693205e-06,7.338822e-06,-9.678304e-06,1.0,1.8775463e-06,-7.353723e-06,-1.9073486e-06,1.0,354,1.098,0,1,0.17,False,-0.26327396557936344,1.0507219923782136
1.114463564939797,17:03:49.250653,17:02:33.411411,0,,0.116963185,0.0015566722,0.03977856,0.56773496,0.79526067,-0.21269041,0.34106392,0.007917583,0.9400067,0.7492345,-0.60621595,-0.2667397,,0.0155818015,-0.03607926,0.060465455,0.2945274,-0.667493,0.68389064,-0.5521347,0.46524656,0.6918762,-0.7800004,-0.5813765,-0.23151845,,0.09844108,1.295396,0.42710972,0.9826126,0.0074789445,-0.18551676,-0.104923725,-0.8019737,-0.5880724,-0.15317772,0.5973125,-0.7872448,,-0.12424504,0.25559062,-0.12823196,-0.6375108,-0.66921693,0.38174435,0.7283772,-0.36203575,0.5817188,-0.25109094,0.6489059,0.718244,,-0.055391617,0.4025591,-0.4280812,-0.20384903,0.7867072,-0.5826983,-0.97288084,-0.096329264,0.21029389,0.109308824,0.6097642,0.785009,,1.1083357311772046,0.572972720137339,0.20518455894,3.2634045904496527,-0.25318743406536115,-0.6369572951419767,-0.4246945719491262,,-1.3517562713727613,0.16178353098212925,0.13109510399000002,0.3225031330791984,0.38422183734041854,-0.4510991798114655,0.8760142266781397,,-0.11698505643804993,-0.12851077448590748,0.09694439508,-0.1167695939710949,,-4.246831e-07,-9.536743e-07,-6.7949295e-06,0.99999994,9.693205e-06,7.338822e-06,-9.678304e-06,1.0,1.8775463e-06,-7.353723e-06,-1.9073486e-06,1.0,367,1.139,0,1,0.17,False,-0.26381016504605226,1.0505771517758753
1.1412879480049014,17:03:49.292722,17:02:33.411411,0,,0.11609696,0.0017960072,0.04053393,0.53298235,0.8185416,-0.21428753,0.32837144,0.033306748,0.94396114,0.7798088,-0.57348084,-0.25103384,,0.015569892,-0.036087874,0.060468018,0.2944833,-0.66742826,0.6839728,-0.55215627,0.46532917,0.69180334,-0.7800018,-0.5813846,-0.2314933,,0.09844108,1.295396,0.42710972,0.9826126,0.0074789445,-0.18551676,-0.104923725,-0.8019737,-0.5880724,-0.15317772,0.5973125,-0.7872448,,-0.12349888,0.2562394,-0.12886481,-0.6106563,-0.6941565,0.38111097,0.7369057,-0.3219047,0.59443027,-0.28994626,0.6438354,0.70810103,,-0.055380974,0.40255648,-0.42809135,-0.20380704,0.78665113,-0.58278865,-0.9728922,-0.096287884,0.21026027,0.109286,0.6098431,0.7849509,,1.1142899582232317,0.5719533193979414,0.20474252405,3.2277573000572835,-0.29226547299827715,-0.6340060486945593,-0.4253479482136632,,-1.3516713213111449,0.16177580824925503,0.13108343738,0.3225031330791984,0.38422183734041854,-0.4512625372917466,0.8760142266781397,,-0.11698505643804993,-0.12851077448590748,0.09694439508,-0.1167695939710949,,-4.246831e-07,-9.536743e-07,-6.7949295e-06,0.99999994,9.693205e-06,7.338822e-06,-9.678304e-06,1.0,1.8775463e-06,-7.353723e-06,-1.9073486e-06,1.0,380,1.18,0,1,0.17,False,-0.26273776611267374,1.05014262996886
1.1833249020855874,17:03:49.333472,17:02:33.553786,0,,0.115512945,0.0019306839,0.04092315,0.51258045,0.83162653,-0.2136779,0.32095012,0.04524824,0.9460145,0.79639953,-0.55348873,-0.24371737,,0.015554767,-0.03609294,0.060464323,0.2944168,-0.6675106,0.6839211,-0.5521748,0.4652822,0.69182026,-0.78001386,-0.5813277,-0.23159596,,0.09844108,1.295396,0.42710972,0.9826126,0.0074789445,-0.18551676,-0.104923725,-0.8019737,-0.5880724,-0.15317772,0.5973125,-0.7872448,,-0.122978576,0.25658247,-0.12921453,-0.5946509,-0.70876765,0.37952435,0.7411076,-0.30022207,0.6005217,-0.31168875,0.63836914,0.7038004,,-0.055365868,0.40255162,-0.42809537,-0.20374101,0.7867193,-0.58271974,-0.972908,-0.096267715,0.2101964,0.10926849,0.6097583,0.7850192,,1.1180045927357338,0.5709957005215376,0.20451437701000003,3.206578615765346,-0.3145372224600439,-0.6289135288145327,-0.42600132447820027,,-1.3515554803180314,0.16178353098212925,0.13107695593000002,0.3225031330791984,0.38422183734041854,-0.4512625372917466,0.8760142266781397,,-0.11698505643804993,-0.12851077448590748,0.09694439508,-0.1167695939710949,,-4.246831e-07,-9.536743e-07,-6.7949295e-06,0.99999994,9.693205e-06,7.338822e-06,-9.678304e-06,1.0,1.8775463e-06,-7.353723e-06,-1.9073486e-06,1.0,393,1.221,0,1,0.17,False,-0.2636910096090097,1.0501909101696396
1.224072746001184,17:03:49.369684,17:02:33.553786,0,,0.1146138,0.0020588785,0.04132265,0.49123812,0.8446511,-0.21271876,0.31601346,0.05474904,0.94717366,0.8116776,-0.53251,-0.24002635,,0.015542075,-0.03609732,0.06045705,0.29434714,-0.6675876,0.6838759,-0.5522056,0.46523392,0.691828,-0.78001827,-0.58127797,-0.23170564,,0.09844108,1.295396,0.42710972,0.9826126,0.0074789445,-0.18551676,-0.104923725,-0.8019737,-0.5880724,-0.15317772,0.5973125,-0.7872448,,-0.12215359,0.25692606,-0.1296456,-0.577162,-0.7238235,0.37810522,0.74647564,-0.27987167,0.6036936,-0.33114666,0.6306754,0.7018479,,-0.05535253,0.40254423,-0.4280963,-0.20367411,0.7867832,-0.58265686,-0.9729256,-0.0962544,0.21012095,0.109236345,0.609678,0.7850861,,1.1232097146929612,0.5692735310905855,0.20422919321000002,3.182044892377657,-0.33503269742485997,-0.6190618574318766,-0.4260013244782004,,-1.3514319165920439,0.16177580824925503,0.13107436335,0.3225031330791984,0.38422183734041854,-0.4512625372917466,0.8760142266781397,,-0.11698505643804993,-0.12851077448590748,0.09694439508,-0.1167695939710949,,-4.246831e-07,-9.536743e-07,-6.7949295e-06,0.99999994,9.693205e-06,7.338822e-06,-9.678304e-06,1.0,1.8775463e-06,-7.353723e-06,-1.9073486e-06,1.0,402,1.249,0,1,0.17,False,-0.26255903295711036,1.050335750771978
1.260334932943806,17:03:49.401538,17:02:33.553786,0,,0.11388554,0.0021874458,0.041580945,0.47547138,0.85300094,-0.21521156,0.31270683,0.06478247,0.9476379,0.82227814,-0.517873,-0.23593712,,0.015529942,-0.03609914,0.060450375,0.29446384,-0.6677181,0.68369824,-0.5522438,0.4649854,0.6919647,-0.77994716,-0.5813269,-0.23182207,,0.09844108,1.295396,0.42710972,0.9826126,0.0074789445,-0.18551676,-0.104923725,-0.8019737,-0.5880724,-0.15317772,0.5973125,-0.7872448,,-0.121470675,0.25718412,-0.12992959,-0.5640764,-0.7331453,0.37988907,0.7502925,-0.26297665,0.6065513,-0.3447883,0.6271692,0.69841236,,-0.055339646,0.40253896,-0.42809552,-0.20380342,0.7869009,-0.5824527,-0.9729047,-0.09644019,0.21013282,0.10918185,0.6094968,0.7852344,,1.1273799904450423,0.5678371027759798,0.20406197180000002,3.1633824874075342,-0.34951616639999666,-0.614520967512566,-0.4245312278829918,,-1.3513237983318047,0.16178353098212925,0.13107306706000002,0.32229344313571395,0.38422183734041854,-0.45118085855160606,0.8758508826120053,,-0.11698505643804993,-0.12851077448590748,0.09694439508,-0.1167695939710949,,-4.246831e-07,-9.536743e-07,-6.7949295e-06,0.99999994,9.693205e-06,7.338822e-06,-9.678304e-06,1.0,1.8775463e-06,-7.353723e-06,-1.9073486e-06,1.0,415,1.29,0,1,0.17,False,-0.26339312101640555,1.0504805913743163
1.2921883850358427,17:03:49.442992,17:02:33.553786,0,,0.11292032,0.0023989156,0.04186809,0.4553397,0.86322916,-0.21794708,0.30723798,0.07740775,0.9484792,0.83562577,-0.498842,-0.22996998,,0.015520625,-0.03609768,0.060446262,0.29424846,-0.66772574,0.68378353,-0.55221343,0.46516278,0.69186974,-0.78005,-0.5811763,-0.23185396,,0.09844108,1.295396,0.42710972,0.9826126,0.0074789445,-0.18551676,-0.104923725,-0.8019737,-0.5880724,-0.15317772,0.5973125,-0.7872448,,-0.12055039,0.25752503,-0.13023888,-0.5475053,-0.74470997,0.38163465,0.7540636,-0.24134392,0.61085284,-0.362803,0.62222195,0.6936957,,-0.055329688,0.40253747,-0.4280933,-0.20357247,0.7868971,-0.5825386,-0.9729472,-0.096211046,0.2100411,0.109234095,0.60953784,0.78519523,,1.1329171899158614,0.5658755286259267,0.20391549103,3.139687523793783,-0.3687819128669238,-0.6082040982075351,-0.4246945719491261,,-1.3512388482701883,0.16181442191362616,0.13107306706000002,0.3225031330791984,0.38422183734041854,-0.4512625372917466,0.8756875385458711,,-0.11698505643804993,-0.12851077448590748,0.09694439508,-0.1167695939710949,,-4.246831e-07,-9.536743e-07,-6.7949295e-06,0.99999994,9.693205e-06,7.338822e-06,-9.678304e-06,1.0,1.8775463e-06,-7.353723e-06,-1.9073486e-06,1.0,428,1.331,0,1,0.17,False,-0.26386974276457353,1.0507702725789931
1.3335897780489177,17:03:49.483084,17:02:33.685346,0,,0.11213826,0.0026524886,0.04210964,0.43221477,0.87504184,-0.21792653,0.2995127,0.088645846,0.9499652,0.8505777,-0.47586095,-0.22377217,,0.01551592,-0.036092285,0.060449183,0.2942139,-0.66764635,0.68387586,-0.5522724,0.4652252,0.6917807,-0.7800213,-0.58121747,-0.23184723,,0.09844108,1.295396,0.42710972,0.9826126,0.0074789445,-0.18551676,-0.104923725,-0.8019737,-0.5880724,-0.15317772,0.5973125,-0.7872448,,-0.11979508,0.25787184,-0.13044746,-0.5286007,-0.7586953,0.3807398,0.75701976,-0.21839766,0.6158113,-0.38406044,0.6137458,0.68979245,,-0.055325136,0.4025435,-0.42809176,-0.20354757,0.7868305,-0.58263725,-0.97296005,-0.09620901,0.20998223,0.109165475,0.60962415,0.7851378,,1.1374890477774022,0.5642769229209622,0.20387271346000002,3.114315040632156,-0.3909170258289251,-0.5989757017438957,-0.4253479482136632,,-1.351231125537314,0.16188392650949418,0.13107177077,0.3225031330791984,0.38408520084065306,-0.45139615560847185,0.8758508826120053,,-0.11698505643804993,-0.12851077448590748,0.09694439508,-0.1167695939710949,,-4.246831e-07,-9.536743e-07,-6.7949295e-06,0.99999994,9.693205e-06,7.338822e-06,-9.678304e-06,1.0,1.8775463e-06,-7.353723e-06,-1.9073486e-06,1.0,437,1.36,1,2,0.193,False,-0.2626781883941529,1.0505288715750958
1.3736992510966957,17:03:49.504295,17:02:33.685346,0,,0.11168577,0.002843164,0.04230991,0.40695095,0.88571936,-0.2233647,0.29304725,0.1050114,0.9503135,0.86516714,-0.4521876,-0.21682328,,0.015514962,-0.036085878,0.060451448,0.29419047,-0.6677728,0.68376255,-0.5523329,0.46506983,0.69183683,-0.77998734,-0.5811965,-0.232014,,0.09844108,1.295396,0.42710972,0.9826126,0.0074789445,-0.18551676,-0.104923725,-0.8019737,-0.5880724,-0.15317772,0.5973125,-0.7872448,,-0.1193626,0.25814423,-0.13058877,-0.5073755,-0.7709959,0.38488364,0.76074904,-0.19096842,0.620316,-0.4047605,0.607533,0.6834271,,-0.055324085,0.40254942,-0.42808843,-0.20353468,0.78693974,-0.5824942,-0.9729707,-0.09628215,0.20989917,0.1090942,0.60947156,0.7852661,,1.140060717824519,0.5633501949760553,0.20386363943000002,3.0876844178096214,-0.4115491372935066,-0.595056839227945,-0.4250212600813946,,-1.3512465710030626,0.16194570837248798,0.13107306706000002,0.3225031330791984,0.3839485643408877,-0.45120305896463486,0.8760142266781397,,-0.11698505643804993,-0.12851077448590748,0.09694439508,-0.1167695939710949,,-4.246831e-07,-9.536743e-07,-6.7949295e-06,0.99999994,9.693205e-06,7.338822e-06,-9.678304e-06,1.0,1.8775463e-06,-7.353723e-06,-1.9073486e-06,1.0,450,1.401,1,2,0.234,False,-0.26309523242380006,1.0505771517758753
1.3949443669989705,17:03:49.551715,17:02:33.685346,0,,0.11118142,0.0030645728,0.04254517,0.36551973,0.90181655,-0.2304821,0.28560603,0.12700906,0.94989353,0.88590324,-0.4130321,-0.21114,,0.015510753,-0.03607819,0.060455382,0.294206,-0.6678001,0.6837291,-0.55227125,0.46507636,0.6918816,-0.780025,-0.5811599,-0.2319789,,0.09844108,1.295396,0.42710972,0.9826126,0.0074789445,-0.18551676,-0.104923725,-0.8019737,-0.5880724,-0.15317772,0.5973125,-0.7872448,,-0.118881434,0.25846222,-0.13075031,-0.47158262,-0.79050636,0.3907807,0.7674242,-0.14962162,0.6234368,-0.43436152,0.5938965,0.67721266,,-0.055320006,0.40255764,-0.42808565,-0.20353912,0.78696114,-0.58246374,-0.9729616,-0.09624781,0.20995723,0.10916732,0.6094494,0.7852732,,1.1425551605428936,0.5621840623120474,0.20387789862000003,3.0438592196213556,-0.44037943874401453,-0.5843712237500681,-0.42485791601526035,,-1.3512465710030626,0.16202293570123022,0.13107306706000002,0.3225031330791984,0.3839485643408877,-0.45120305896463486,0.8760142266781397,,-0.11698505643804993,-0.12851077448590748,0.09694439508,-0.1167695939710949,,-4.246831e-07,-9.536743e-07,-6.7949295e-06,0.99999994,9.693205e-06,7.338822e-06,-9.678304e-06,1.0,1.8775463e-06,-7.353723e-06,-1.9073486e-06,1.0,459,1.43,1,2,0.263,False,-0.2639888982016152,1.0505288715750958
1.4423628190997988,17:03:49.576146,17:02:33.685346,0,,0.11084786,0.00320784,0.042676568,0.33580738,0.91232425,-0.23430234,0.28069556,0.14052004,0.94945455,0.89913476,-0.38460165,-0.20889777,,0.015510894,-0.036075864,0.06045741,0.29404005,-0.66780114,0.6837995,-0.55222857,0.46523225,0.6918109,-0.78011787,-0.581034,-0.23198223,,0.09844108,1.295396,0.42710972,0.9826126,0.0074789445,-0.18551676,-0.104923725,-0.8019737,-0.5880724,-0.15317772,0.5973125,-0.7872448,,-0.11855944,0.25865528,-0.13084033,-0.44557098,-0.80385655,0.39405727,0.77154887,-0.12155262,0.6244496,-0.45406923,0.58227104,0.67437494,,-0.055320293,0.40256065,-0.4280851,-0.20335753,0.7869533,-0.5825378,-0.9729925,-0.09605183,0.20990406,0.10923087,0.60949045,0.7852325,,1.1440224797889962,0.5613654526273796,0.20390771329000001,3.012196038155192,-0.45950854871117625,-0.5741635140818464,-0.4258379804120659,,-1.3512542937359366,0.16204610389985288,0.13107306706000002,0.32271282302268295,0.3839485643408877,-0.45120305896463486,0.8760142266781397,,-0.11698505643804993,-0.12851077448590748,0.09694439508,-0.1167695939710949,,-4.246831e-07,-9.536743e-07,-6.7949295e-06,0.99999994,9.693205e-06,7.338822e-06,-9.678304e-06,1.0,1.8775463e-06,-7.353723e-06,-1.9073486e-06,1.0,472,1.471,1,2,0.304,False,-0.2634526987349264,1.0501909101696396
1.4667857149615884,17:03:49.622146,17:02:33.816983,0,,0.11032351,0.0034247115,0.042801857,0.29336917,0.924293,-0.24416527,0.27311152,0.16372862,0.94794667,0.9161575,-0.3447829,-0.20440221,,0.015510898,-0.036074553,0.060456574,0.29386252,-0.6677507,0.68392503,-0.5522012,0.46543735,0.69169474,-0.7802041,-0.58092767,-0.23195842,,0.09844108,1.295396,0.42710972,0.9826126,0.0074789445,-0.18551676,-0.104923725,-0.8019737,-0.5880724,-0.15317772,0.5973125,-0.7872448,,-0.118040286,0.25890258,-0.13092397,-0.4081701,-0.8192909,0.40269044,0.7758438,-0.078849465,0.6259786,-0.4811066,0.56793064,0.66782576,,-0.05532007,0.40256086,-0.4280836,-0.20316674,0.7869018,-0.5826739,-0.97302717,-0.09584348,0.20983839,0.1092767,0.60958976,0.785149,,1.146184844993779,0.5599985289086419,0.20400104617000003,2.9664836304755657,-0.4860160296656717,-0.5630033195027326,-0.42420453975072314,,-1.3512465710030626,0.1620538266327271,0.13107436335,0.3229225129661675,0.3839485643408877,-0.45128473770477545,0.8758508826120053,,-0.11698505643804993,-0.12851077448590748,0.09694439508,-0.1167695939710949,,-4.246831e-07,-9.536743e-07,-6.7949295e-06,0.99999994,9.693205e-06,7.338822e-06,-9.678304e-06,1.0,1.8775463e-06,-7.353723e-06,-1.9073486e-06,1.0,481,1.499,1,2,0.332,False,-0.26381016504605226,1.0503840309727575
1.5127684250473976,17:03:49.646761,17:02:33.816983,0,,0.10985255,0.0035974085,0.0428136,0.2652613,0.92944556,-0.2564508,0.26985958,0.1837802,0.94519866,0.92564154,-0.3199305,-0.20207012,,0.015510984,-0.03607622,0.060455263,0.2938552,-0.6677501,0.6839287,-0.5522151,0.46543306,0.6916866,-0.780197,-0.58093166,-0.23197204,,0.09844108,1.295396,0.42710972,0.9826126,0.0074789445,-0.18551676,-0.104923725,-0.8019737,-0.5880724,-0.15317772,0.5973125,-0.7872448,,-0.117559485,0.2590457,-0.13093431,-0.38284636,-0.82590604,0.41389358,0.7789995,-0.04779066,0.6252006,-0.49657673,0.56177866,0.6616769,,-0.055320065,0.40255877,-0.42808405,-0.2031617,0.7869016,-0.5826759,-0.97303003,-0.095849305,0.20982243,0.10926052,0.60958904,0.7851518,,1.1481232509452095,0.5587628916487659,0.20411252711000002,2.9346107590659183,-0.5010460446398701,-0.5594052965510259,-0.42551129227979745,,-1.3512388482701883,0.16203838116697866,0.13107436335,0.3229225129661675,0.3839485643408877,-0.45128473770477545,0.8758508826120053,,-0.11698505643804993,-0.12851077448590748,0.09694439508,-0.1167695939710949,,-4.246831e-07,-9.536743e-07,-6.7949295e-06,0.99999994,9.693205e-06,7.338822e-06,-9.678304e-06,1.0,1.8775463e-06,-7.353723e-06,-1.9073486e-06,1.0,494,1.54,1,2,0.373,False,-0.26381016504605226,1.0502874705711984
1.5373473120853305,17:03:49.693646,17:02:33.816983,0,,0.109110735,0.0038597882,0.0428423,0.22474566,0.93728894,-0.26641804,0.2607696,0.20558634,0.94325674,0.9388762,-0.28146678,-0.19821191,,0.015512601,-0.036074433,0.0604558,0.29386523,-0.66774297,0.6839314,-0.55220586,0.4654397,0.69168955,-0.78019977,-0.58093464,-0.23195532,,0.09844108,1.295396,0.42710972,0.9826126,0.0074789445,-0.18551676,-0.104923725,-0.8019737,-0.5880724,-0.15317772,0.5973125,-0.7872448,,-0.11680523,0.2592697,-0.1309642,-0.34686732,-0.8372721,0.42268017,0.779794,-0.0070331586,0.6259967,-0.5211568,0.54674125,0.6553393,,-0.05532161,0.4025602,-0.42808276,-0.20317045,0.7868955,-0.58268106,-0.97302705,-0.095847964,0.20983694,0.109270945,0.60959715,0.7851441,,1.1511968986291508,0.5568167629644614,0.20428493368000003,2.8891080413297767,-0.5257772510974149,-0.5460996701537807,-0.42551129227979734,,-1.3512542937359366,0.16204610389985288,0.13107565964,0.3229225129661675,0.3839485643408877,-0.45128473770477545,0.8758508826120053,,-0.11698505643804993,-0.12851077448590748,0.09694439508,-0.1167695939710949,,-4.246831e-07,-9.536743e-07,-6.7949295e-06,0.99999994,9.693205e-06,7.338822e-06,-9.678304e-06,1.0,1.8775463e-06,-7.353723e-06,-1.9073486e-06,1.0,503,1.569,1,2,0.402,False,-0.2635718541719685,1.0500943497680806
1.5842830950859934,17:03:49.722291,17:02:33.928697,0,,0.10849919,0.0040378943,0.042830557,0.19215858,0.94255495,-0.27324897,0.25449347,0.22105145,0.9414718,0.9477912,-0.25045216,-0.19739726,,0.01551187,-0.036071453,0.060456038,0.2938699,-0.6677512,0.68392146,-0.5521873,0.4654416,0.69170296,-0.78021115,-0.5809237,-0.23194477,,0.09844108,1.295396,0.42710972,0.9826126,0.0074789445,-0.18551676,-0.104923725,-0.8019737,-0.5880724,-0.15317772,0.5973125,-0.7872448,,-0.11618249,0.2594025,-0.13098422,-0.3174876,-0.845693,0.42895806,0.7801978,0.024150789,0.62506646,-0.538974,0.533123,0.65214026,,-0.055320706,0.40256235,-0.42808074,-0.20317179,0.7869019,-0.58267194,-0.9730243,-0.09583766,0.20985435,0.10929288,0.6095905,0.7851462,,1.1535214412242922,0.5551486526636289,0.20442104413,2.851573541446047,-0.543539996066922,-0.5325954875549326,-0.425837980412066,,-1.3512542937359366,0.16206927209847555,0.13107695593000002,0.3229225129661675,0.3839485643408877,-0.45128473770477545,0.8758508826120053,,-0.11698505643804993,-0.12851077448590748,0.09694439508,-0.1167695939710949,,-4.246831e-07,-9.536743e-07,-6.7949295e-06,0.99999994,9.693205e-06,7.338822e-06,-9.678304e-06,1.0,1.8775463e-06,-7.353723e-06,-1.9073486e-06,1.0,516,1.61,0,2,0.431,False,-0.26422720907569985,1.0502391903704191
1.6129258899018168,17:03:49.766197,17:02:33.928697,0,,0.107718416,0.0041786954,0.042730957,0.15630949,0.9475171,-0.27888793,0.24457374,0.23643547,0.94036263,0.95694876,-0.2151964,-0.1947808,,0.015514214,-0.036072705,0.060456336,0.29387534,-0.6677358,0.68393415,-0.5521966,0.46544626,0.6916925,-0.78020257,-0.5809376,-0.23193854,,0.09844108,1.295396,0.42710972,0.9826126,0.0074789445,-0.18551676,-0.104923725,-0.8019737,-0.5880724,-0.15317772,0.5973125,-0.7872448,,-0.115384504,0.25945187,-0.13099584,-0.2854644,-0.85456556,0.4338523,0.77785647,0.057857133,0.625773,-0.5598655,0.5161107,0.6482132,,-0.05532316,0.4025616,-0.4280815,-0.20317921,0.7868894,-0.5826863,-0.9730241,-0.09584662,0.20985146,0.10928137,0.6096052,0.78513634,,1.1562012295316482,0.5525538144178894,0.20460122844000003,2.810054932636111,-0.5655384725291581,-0.5151472775006521,-0.42600132447820016,,-1.351269739201685,0.1620538266327271,0.13107695593000002,0.3229225129661675,0.3839485643408877,-0.45128473770477545,0.8758508826120053,,-0.11698505643804993,-0.12851077448590748,0.09694439508,-0.1167695939710949,,-4.246831e-07,-9.536743e-07,-6.7949295e-06,0.99999994,9.693205e-06,7.338822e-06,-9.678304e-06,1.0,1.8775463e-06,-7.353723e-06,-1.9073486e-06,1.0,525,1.639,1,3,0.441,False,-0.2629164992682367,1.0502874705711984
1.6568009469192475,17:03:49.795556,17:02:33.928697,0,,0.10714648,0.004228838,0.042619646,0.12883651,0.9516911,-0.27872,0.23194686,0.24434657,0.94153875,0.96415865,-0.18595298,-0.18926108,,0.015515067,-0.036074225,0.06045556,0.2938722,-0.6677303,0.6839408,-0.5522089,0.46544498,0.6916835,-0.78019506,-0.580945,-0.23194554,,0.09844108,1.295396,0.42710972,0.9826126,0.0074789445,-0.18551676,-0.104923725,-0.8019737,-0.5880724,-0.15317772,0.5973125,-0.7872448,,-0.1148005,0.2594226,-0.1310062,-0.26164073,-0.8626418,0.43288934,0.7721976,0.08197296,0.6300725,-0.5790121,0.49912873,0.64468247,,-0.055323977,0.40255997,-0.42808205,-0.20317832,0.7868851,-0.5826924,-0.97302586,-0.09585349,0.20983984,0.10926674,0.60960966,0.7851349,,1.1577998352366128,0.5502369945556221,0.20475548695,2.7792305109438855,-0.5869904029923322,-0.49773634536045447,-0.42567463634593183,,-1.351269739201685,0.16203838116697866,0.13107695593000002,0.3229225129661675,0.3839485643408877,-0.45128473770477545,0.8758508826120053,,-0.11698505643804993,-0.12851077448590748,0.09694439508,-0.1167695939710949,,-4.246831e-07,-9.536743e-07,-6.7949295e-06,0.99999994,9.693205e-06,7.338822e-06,-9.678304e-06,1.0,1.8775463e-06,-7.353723e-06,-1.9073486e-06,1.0,538,1.68,1,3,0.482,False,-0.26309523242380006,1.0506254319766548
1.686207161983475,17:03:49.826925,17:02:33.928697,0,,0.10633652,0.0041699037,0.042263776,0.09268014,0.9535846,-0.28650737,0.22219744,0.260682,0.93950677,0.97058684,-0.15073499,-0.18772408,,0.015517607,-0.036075655,0.06045401,0.29387182,-0.66766125,0.6840085,-0.5522258,0.4655025,0.69163126,-0.7801832,-0.5809782,-0.23190197,,0.09844108,1.295396,0.42710972,0.9826126,0.0074789445,-0.18551676,-0.104923725,-0.8019737,-0.5880724,-0.15317772,0.5973125,-0.7872448,,-0.11395669,0.25915727,-0.13094491,-0.22882035,-0.86838543,0.43994093,0.76832557,0.11640435,0.6293853,-0.5977601,0.48203403,0.640567,,-0.055326335,0.40255767,-0.42808178,-0.20318115,0.78682697,-0.58276993,-0.9730276,-0.0958477,0.2098346,0.10924637,0.6096856,0.78507876,,1.1594293318730742,0.546383350851384,0.20499270802000003,2.7360343825860736,-0.60803242395621,-0.4798428795299407,-0.42567463634593183,,-1.3512774619345593,0.162015212968356,0.13107825222000002,0.3229225129661675,0.3839485643408877,-0.45136641644491604,0.8756875385458711,,-0.11698505643804993,-0.12851077448590748,0.09694439508,-0.1167695939710949,,-4.246831e-07,-9.536743e-07,-6.7949295e-06,0.99999994,9.693205e-06,7.338822e-06,-9.678304e-06,1.0,1.8775463e-06,-7.353723e-06,-1.9073486e-06,1.0,551,1.72,1,3,0.522,False,-0.2630356547052788,1.050335750771978
1.7175591269042343,17:03:49.867399,17:02:34.068609,0,,0.105717584,0.004057072,0.041884482,0.06823911,0.9544828,-0.29035437,0.21573412,0.27002996,0.93837214,0.9740647,-0.12667318,-0.18748799,,0.015516937,-0.03608105,0.060454726,0.2938614,-0.6676553,0.68401873,-0.552252,0.46549693,0.69161415,-0.7801686,-0.58098954,-0.23192263,,0.09844108,1.295396,0.42710972,0.9826126,0.0074789445,-0.18551676,-0.104923725,-0.8019737,-0.5880724,-0.15317772,0.5973125,-0.7872448,,-0.11330248,0.25883532,-0.1308554,-0.20646636,-0.87217057,0.44349757,0.76527977,0.13849156,0.62862307,-0.6096872,0.46918923,0.63886064,,-0.055326197,0.40255484,-0.42808646,-0.20317522,0.7868225,-0.582778,-0.9730323,-0.0958604,0.20980704,0.10921557,0.60968935,0.78508013,,1.1603715052837296,0.543008516585348,0.20520141071000003,2.706048720667787,-0.6221059834320504,-0.46509968584358685,-0.4258379804120661,,-1.351269739201685,0.16198432203685909,0.13107436335,0.3229225129661675,0.3839485643408877,-0.45136641644491604,0.8756875385458711,,-0.11698505643804993,-0.12851077448590748,0.09694439508,-0.1167695939710949,,-4.246831e-07,-9.536743e-07,-6.7949295e-06,0.99999994,9.693205e-06,7.338822e-06,-9.678304e-06,1.0,1.8775463e-06,-7.353723e-06,-1.9073486e-06,1.0,560,1.749,1,3,0.551,False,-0.26232072208302704,1.0499012289649627
1.7580494959838688,17:03:49.898136,17:02:34.068609,0,,0.10483471,0.003899023,0.041106194,0.04081309,0.9545656,-0.29519224,0.21161592,0.2804783,0.9362428,0.9765004,-0.10067847,-0.19055414,,0.01552273,-0.036093686,0.060453176,0.2938482,-0.66760707,0.6840714,-0.55233496,0.4654938,0.69154996,-0.7801148,-0.58104753,-0.23195854,,0.09844108,1.295396,0.42710972,0.9826126,0.0074789445,-0.18551676,-0.104923725,-0.8019737,-0.5880724,-0.15317772,0.5973125,-0.7872448,,-0.11232764,0.25823364,-0.13054258,-0.18070067,-0.8753466,0.44845912,0.7634506,0.16262825,0.62505615,-0.6200729,0.45532447,0.6388969,,-0.055332594,0.40254512,-0.42809424,-0.2031773,0.7867843,-0.5828288,-0.97304296,-0.095910594,0.20973447,0.10911633,0.6097308,0.7850618,,1.161591697077857,0.5377184445665042,0.20564603818000002,2.6704014302754175,-0.6352230874095326,-0.44672576551551746,-0.42616466854433444,,-1.3512851846674336,0.16187620377661996,0.13107047448,0.3229225129661675,0.3839485643408877,-0.45136641644491604,0.8756875385458711,,-0.11698505643804993,-0.12851077448590748,0.09694439508,-0.1167695939710949,,-4.246831e-07,-9.536743e-07,-6.7949295e-06,0.99999994,9.693205e-06,7.338822e-06,-9.678304e-06,1.0,1.8775463e-06,-7.353723e-06,-1.9073486e-06,1.0,569,1.778,1,3,0.58,False,-0.26309523242380006,1.0500943497680806
1.7887635950464755,17:03:49.935010,17:02:34.068609,0,,0.10404428,0.003763996,0.040438592,0.028283045,0.9542293,-0.29773515,0.20981663,0.2855518,0.9351134,0.97733164,-0.08891779,-0.19213694,,0.015528891,-0.036113415,0.06044966,0.29381564,-0.6675496,0.6841415,-0.5524642,0.46548015,0.69145596,-0.7800355,-0.5811245,-0.23203218,,0.09844108,1.295396,0.42710972,0.9826126,0.0074789445,-0.18551676,-0.104923725,-0.8019737,-0.5880724,-0.15317772,0.5973125,-0.7872448,,-0.11145907,0.2577179,-0.13028122,-0.16886906,-0.8763718,0.45106065,0.76250833,0.17382213,0.6231909,-0.62455124,0.44917518,0.63888764,,-0.05533957,0.4025294,-0.42810616,-0.20316797,0.78673935,-0.5828928,-0.9730621,-0.095982745,0.20961258,0.108962804,0.60977745,0.7850469,,1.1632134709814441,0.5331156957734664,0.20600899938000003,2.6519487152487797,-0.6423281853973355,-0.43611298885501043,-0.4266547007427375,,-1.3512851846674336,0.16171402638626123,0.13106399303000002,0.3229225129661675,0.3839485643408877,-0.45136641644491604,0.8756875385458711,,-0.11698505643804993,-0.12851077448590748,0.09694439508,-0.1167695939710949,,-4.246831e-07,-9.536743e-07,-6.7949295e-06,0.99999994,9.693205e-06,7.338822e-06,-9.678304e-06,1.0,1.8775463e-06,-7.353723e-06,-1.9073486e-06,1.0,582,1.819,1,3,0.621,False,-0.26392932048309437,1.0507219923782136
1.825654179090634,17:03:49.966940,17:02:34.068609,0,,0.10331492,0.0036279857,0.039765447,0.018923923,0.95334804,-0.3012791,0.20942312,0.29086906,0.93356144,0.97764206,-0.08076161,-0.19414884,,0.015533004,-0.036137704,0.060448587,0.2937757,-0.6675475,0.6841607,-0.5526072,0.46540573,0.6913917,-0.7799493,-0.5811864,-0.23216692,,0.09844108,1.295396,0.42710972,0.9826126,0.0074789445,-0.18551676,-0.104923725,-0.8019737,-0.5880724,-0.15317772,0.5973125,-0.7872448,,-0.11064923,0.25719813,-0.1300027,-0.1598483,-0.8762059,0.45465556,0.76236826,0.18300925,0.6207272,-0.62709105,0.44583714,0.63873786,,-0.055345275,0.40251273,-0.42812344,-0.20315358,0.7867418,-0.58289444,-0.9730841,-0.09607784,0.20946686,0.1087931,0.6097593,0.7850845,,1.164657622028924,0.5287137380351584,0.20637455316000003,2.637270419204863,-0.6472470993888915,-0.4288347947163167,-0.42730807700727447,,-1.3512774619345593,0.16153640353015408,0.13105232642,0.3229225129661675,0.3839485643408877,-0.45128473770477545,0.8758508826120053,,-0.11698505643804993,-0.12851077448590748,0.09694439508,-0.1167695939710949,,-4.246831e-07,-9.536743e-07,-6.7949295e-06,0.99999994,9.693205e-06,7.338822e-06,-9.678304e-06,1.0,1.8775463e-06,-7.353723e-06,-1.9073486e-06,1.0,595,1.86,1,3,0.662,False,-0.2626186106756321,1.0503840309727575
1.8575868878979236,17:03:50.005121,17:02:34.068609,0,,0.102379695,0.0034629032,0.03883955,0.008358017,0.95173246,-0.30681455,0.21179482,0.29817936,0.9307158,0.9772785,-0.07276079,-0.19907981,,0.015540894,-0.036172483,0.06044656,0.29372293,-0.6674545,0.6842741,-0.5528163,0.46538362,0.6912395,-0.779821,-0.581311,-0.23228616,,0.09844108,1.295396,0.42710972,0.9826126,0.0074789445,-0.18551676,-0.104923725,-0.8019737,-0.5880724,-0.15317772,0.5973125,-0.7872448,,-0.109598644,0.25650072,-0.12959151,-0.14915703,-0.8750256,0.46052405,0.7640058,0.19367945,0.6154539,-0.6277319,0.4436423,0.6396359,,-0.055355325,0.4024884,-0.42814755,-0.20313843,0.786669,-0.582998,-0.973115,-0.09619467,0.2092695,0.10854452,0.6098348,0.7850603,,1.1665033551858637,0.5230375293726034,0.20688529142000003,2.619656463952163,-0.6502531023837311,-0.4211561614659995,-0.4279614532718117,,-1.3512774619345593,0.16127383061243045,0.13103677094000002,0.3229225129661675,0.3839485643408877,-0.45128473770477545,0.8758508826120053,,-0.11698505643804993,-0.12851077448590748,0.09694439508,-0.1167695939710949,,-4.246831e-07,-9.536743e-07,-6.7949295e-06,0.99999994,9.693205e-06,7.338822e-06,-9.678304e-06,1.0,1.8775463e-06,-7.353723e-06,-1.9073486e-06,1.0,604,1.888,1,3,0.69,False,-0.2632143878608417,1.0506254319766548
1.895769844064489,17:03:50.038819,17:02:34.068609,0,,0.10166767,0.0033880472,0.037973374,-0.0024016947,0.9504514,-0.31086344,0.21436253,0.30412737,0.9282,0.9767512,-0.06440833,-0.20447162,,0.0155576505,-0.036195073,0.060448647,0.29373357,-0.6673795,0.6843426,-0.5529577,0.46534592,0.6911518,-0.77971673,-0.5814272,-0.23234516,,0.09844108,1.295396,0.42710972,0.9826126,0.0074789445,-0.18551676,-0.104923725,-0.8019737,-0.5880724,-0.15317772,0.5973125,-0.7872448,,-0.10876385,0.25591168,-0.12912355,-0.13822162,-0.874418,0.46506765,0.7656985,0.20348534,0.61016357,-0.62817246,0.44043937,0.64141446,,-0.055373847,0.40247422,-0.42816347,-0.2031766,0.78661144,-0.5830624,-0.9731262,-0.096313655,0.20916297,0.108373106,0.6098903,0.78504086,,1.1676540423841233,0.5184965624425594,0.20743102951000003,2.602881268473401,-0.6521660133804473,-0.41306201160300454,-0.4277981092056774,,-1.35137013472905,0.1610730395577006,0.13102899320000003,0.3229225129661675,0.3839485643408877,-0.4512030589646349,0.8756875385458711,,-0.11698505643804993,-0.12851077448590748,0.09694439508,-0.1167695939710949,,-4.246831e-07,-9.536743e-07,-6.7949295e-06,0.99999994,9.693205e-06,7.338822e-06,-9.678304e-06,1.0,1.8775463e-06,-7.353723e-06,-1.9073486e-06,1.0,613,1.917,0,3,0.71,False,-0.26249945523859,1.0499977893665218
1.9294689809903502,17:03:50.068892,17:02:34.068609,0,,0.10134798,0.0033752918,0.03743732,-0.010665238,0.95026225,-0.31126785,0.2148701,0.3061919,0.92740345,0.97658443,-0.05699131,-0.20744863,,0.0155733265,-0.036198083,0.060454667,0.29375213,-0.6673931,0.6843214,-0.55308104,0.4652262,0.6911336,-0.77962226,-0.58150744,-0.23246154,,0.09844108,1.295396,0.42710972,0.9826126,0.0074789445,-0.18551676,-0.104923725,-0.8019737,-0.5880724,-0.15317772,0.5973125,-0.7872448,,-0.108360626,0.25557396,-0.1287873,-0.13006383,-0.87524146,0.46587104,0.76598334,0.20964545,0.60771567,-0.62956566,0.43589127,0.6431531,,-0.055390473,0.4024757,-0.42816693,-0.20321962,0.78662884,-0.58302385,-0.9731339,-0.09645039,0.2090639,0.10822282,0.6098462,0.7850958,,1.167816219774482,0.5161334061830467,0.20780824990000002,2.591348321581752,-0.6543521973766943,-0.4054801345938818,-0.42747142107340874,,-1.351501421187912,0.16102670316045525,0.13102899320000003,0.3229225129661675,0.3838119278411222,-0.4510099623207979,0.8755241944797367,,-0.11698505643804993,-0.12851077448590748,0.09694439508,-0.1167695939710949,,-4.246831e-07,-9.536743e-07,-6.7949295e-06,0.99999994,9.693205e-06,7.338822e-06,-9.678304e-06,1.0,1.8775463e-06,-7.353723e-06,-1.9073486e-06,1.0,626,1.958,1,4,0.729,False,-0.26297607698675796,1.050432311173537
1.9595337680075318,17:03:50.107842,17:02:34.309269,0,,0.10111363,0.003398709,0.036893666,-0.02084627,0.94999003,-0.3115829,0.21709496,0.30851582,0.9261142,0.97592795,-0.04833719,-0.21266955,,0.015595131,-0.03618643,0.06046766,0.2928709,-0.66767913,0.6844201,-0.55320287,0.46550983,0.69084513,-0.7798673,-0.5809518,-0.233028,,0.09844108,1.295396,0.42710972,0.9826126,0.0074789445,-0.18551676,-0.104923725,-0.8019737,-0.5880724,-0.15317772,0.5973125,-0.7872448,,-0.108034395,0.2552604,-0.1284048,-0.11971703,-0.87616366,0.4669101,0.76732653,0.21676566,0.6035086,-0.6299824,0.43052274,0.6463531,,-0.055413164,0.40249136,-0.42816254,-0.20232189,0.7868408,-0.5830501,-0.97333026,-0.09582135,0.20843813,0.10813899,0.6096719,0.78524274,,1.1676231514526263,0.5141409411014968,0.20822695157,2.5775087853117737,-0.6546254703762252,-0.3965993523315894,-0.4263280126104688,,-1.3517022122426416,0.1611039304891975,0.13103417836,0.3239709626835901,0.38340201834182586,-0.4503489936491464,0.8755241944797367,,-0.11698505643804993,-0.12851077448590748,0.09694439508,-0.1167695939710949,,-4.246831e-07,-9.536743e-07,-6.7949295e-06,0.99999994,9.693205e-06,7.338822e-06,-9.678304e-06,1.0,1.8775463e-06,-7.353723e-06,-1.9073486e-06,1.0,635,1.987,1,4,0.758,False,-0.26351227645344677,1.0506254319766548
1.998465996934101,17:03:50.138241,17:02:34.309269,0,,0.101000436,0.0034148619,0.036347628,-0.02674409,0.9499907,-0.31113046,0.21995538,0.3092063,0.92520857,0.9751433,-0.0436911,-0.21722513,,0.015627533,-0.036159668,0.06048447,0.2925959,-0.6678058,0.68441415,-0.553313,0.46550667,0.690759,-0.7798923,-0.58080876,-0.23330057,,0.09844108,1.295396,0.42710972,0.9826126,0.0074789445,-0.18551676,-0.104923725,-0.8019737,-0.5880724,-0.15317772,0.5973125,-0.7872448,,-0.107826896,0.2549399,-0.12799804,-0.11343899,-0.87687767,0.46713722,0.76910335,0.22014701,0.6000128,-0.6289767,0.42734164,0.64943624,,-0.055445768,0.40251878,-0.42814726,-0.20205562,0.78694177,-0.5830062,-0.97339815,-0.09570383,0.20817484,0.10802554,0.6095601,0.78534514,,1.1670439464870594,0.5125423353965323,0.20861843115000003,2.5699599473463306,-0.6538056513776326,-0.39122363298336643,-0.42747142107340863,,-1.352026567023359,0.16125066241380775,0.13104973384000002,0.32439034257055915,0.3829921088425296,-0.44985138245777595,0.8758508826120054,,-0.11698505643804993,-0.12851077448590748,0.09694439508,-0.1167695939710949,,-4.246831e-07,-9.536743e-07,-6.7949295e-06,0.99999994,9.693205e-06,7.338822e-06,-9.678304e-06,1.0,1.8775463e-06,-7.353723e-06,-1.9073486e-06,1.0,648,2.028,1,4,0.799,False,-0.2639888982016152,1.0501909101696396
2.028891026042402,17:03:50.175914,17:02:34.309269,0,,0.10083243,0.0033992976,0.03558743,-0.0348024,0.94985753,-0.31073952,0.2248387,0.31039873,0.9236342,0.9737743,-0.037721723,-0.22436744,,0.015685245,-0.036107156,0.06053531,0.2922557,-0.66783804,0.68452805,-0.55349296,0.46559575,0.69055474,-0.77989227,-0.5807002,-0.23357093,,0.09844108,1.295396,0.42710972,0.9826126,0.0074789445,-0.18551676,-0.104923725,-0.8019737,-0.5880724,-0.15317772,0.5973125,-0.7872448,,-0.10753305,0.25446352,-0.1274567,-0.104676895,-0.8776229,0.46778286,0.77212244,0.22473311,0.5944089,-0.6267932,0.4234065,0.6541079,,-0.0555069,0.40258673,-0.42812926,-0.20173456,0.78696245,-0.5830894,-0.9734862,-0.09556135,0.2078285,0.10783242,0.60955566,0.7853751,,1.1661944458708948,0.5101251200069,0.20915379892000002,2.55926576022862,-0.6517561038811509,-0.3837468826430698,-0.42747142107340874,,-1.352713890249165,0.16161363085889632,0.13106528932,0.3250194124010128,0.3821722898439369,-0.4491828750355974,0.8761775707442738,,-0.11698505643804993,-0.12851077448590748,0.09694439508,-0.1167695939710949,,-4.246831e-07,-9.536743e-07,-6.7949295e-06,0.99999994,9.693205e-06,7.338822e-06,-9.678304e-06,1.0,1.8775463e-06,-7.353723e-06,-1.9073486e-06,1.0,657,2.056,1,4,0.827,False,-0.262797343831195,1.0501909101696396
2.0665148668922484,17:03:50.208337,17:02:34.309269,0,,0.10065693,0.0033087805,0.03500913,-0.039330624,0.95006907,-0.30955106,0.23045042,0.3100639,0.92236257,0.9722889,-0.035059154,-0.23113883,,0.015767187,-0.036047176,0.060601532,0.29246485,-0.6678815,0.6843965,-0.55365825,0.46527174,0.69064057,-0.7796965,-0.58091,-0.23370266,,0.09848609,1.2953904,0.42710587,0.98260677,0.007433943,-0.18554977,-0.10497886,-0.8019741,-0.588062,-0.15317772,0.5973125,-0.7872448,,-0.10731211,0.25403973,-0.12709874,-0.09922502,-0.8783132,0.46767548,0.7756533,0.22613491,0.58925796,-0.62331074,0.42122316,0.6588283,,-0.05563576,0.40266553,-0.42811078,-0.20202409,0.7870312,-0.5828964,-0.97344816,-0.09595483,0.20782517,0.107633166,0.6094051,0.78551924,,1.1656693000354474,0.5079550320692429,0.20949861206000003,2.5527653719805996,-0.6483401913870149,-0.3780377412608618,-0.4271447329411403,,-1.353323986146229,0.16196115383823642,0.13107306706000002,0.3250194124010128,0.38148910734510977,-0.4486257855171154,0.8761775707442738,,-0.11698505643804993,-0.12851077448590748,0.09694439508,-0.1167695939710949,,4.4971704e-05,1.6093254e-06,-8.821487e-06,1.0,-3.4481287e-05,-2.618134e-05,3.4488738e-05,1.0,-6.765127e-06,2.6151538e-05,6.7055225e-06,1.0,670,2.097,1,4,0.868,False,-0.26297607698675796,1.0500943497680806
2.098953857086599,17:03:50.248186,17:02:34.464471,0,,0.10036143,0.003119424,0.034160003,-0.045309745,0.95031625,-0.30797046,0.23854962,0.3096611,0.92043674,0.97007275,-0.031761587,-0.24072838,,0.015795503,-0.035994813,0.060661197,0.29284605,-0.66763556,0.68447334,-0.55320764,0.465569,0.6908014,-0.77987325,-0.58095455,-0.23300129,,0.09848609,1.2953904,0.42710587,0.98260677,0.007433943,-0.18554977,-0.10497886,-0.8019741,-0.588062,-0.15317772,0.5973125,-0.7872448,,-0.10690214,0.25337115,-0.12662013,-0.091905475,-0.8791823,0.4675381,0.7807075,0.2278278,0.5818851,-0.6181013,0.41848892,0.66544557,,-0.055669412,0.40274236,-0.42810312,-0.20233619,0.786819,-0.58307457,-0.973326,-0.095818624,0.20845906,0.10815015,0.60970044,0.785219,,1.164927917679522,0.5044875250087161,0.20996657275000002,2.543958394354249,-0.6435579138952244,-0.3701756293099957,-0.42665470074273737,,-1.3538645774474245,0.1624013496120672,0.13107306706000002,0.3250194124010128,0.38148910734510977,-0.448707464257256,0.8760142266781396,,-0.11698505643804993,-0.12851077448590748,0.09694439508,-0.1167695939710949,,4.4971704e-05,1.6093254e-06,-8.821487e-06,1.0,-3.4481287e-05,-2.618134e-05,3.4488738e-05,1.0,-6.765127e-06,2.6151538e-05,6.7055225e-06,1.0,679,2.126,1,4,0.897,False,-0.262797343831195,1.0500943497680806
2.1388268768787384,17:03:50.271583,17:02:34.464471,0,,0.10013909,0.0029011592,0.033516243,-0.04901474,0.95057666,-0.3065964,0.2439079,0.3090634,0.91923255,0.968559,-0.029725432,-0.24700186,,0.015800938,-0.03596936,0.060692787,0.29301536,-0.66758394,0.6844513,-0.5529678,0.46567252,0.69092363,-0.77997977,-0.58093095,-0.23270342,,0.09848609,1.2953904,0.42710587,0.98260677,0.007433943,-0.18554977,-0.10497886,-0.8019741,-0.588062,-0.15317772,0.5973125,-0.7872448,,-0.10660312,0.25280505,-0.12630132,-0.08729923,-0.8798715,0.46712413,0.7840226,0.22859684,0.5771066,-0.61456275,0.41661686,0.66988283,,-0.055677995,0.40278235,-0.42810234,-0.20246722,0.78677213,-0.58309233,-0.9732679,-0.09573855,0.208767,0.10842764,0.6097735,0.785124,,1.164171089857848,0.5015992229137561,0.21028027493,2.5385064558236516,-0.6409618203996812,-0.36469644664715534,-0.42551129227979767,,-1.3540730912350287,0.16264075433116817,0.13106788190000002,0.3250194124010128,0.38148910734510977,-0.448707464257256,0.8760142266781396,,-0.11698505643804993,-0.12851077448590748,0.09694439508,-0.1167695939710949,,4.4971704e-05,1.6093254e-06,-8.821487e-06,1.0,-3.4481287e-05,-2.618134e-05,3.4488738e-05,1.0,-6.765127e-06,2.6151538e-05,6.7055225e-06,1.0,692,2.167,1,4,0.938,False,-0.26249945523859,1.0505771517758753
2.162233982933685,17:03:50.314789,17:02:34.464471,0,,0.09993203,0.002530165,0.03258358,-0.054742828,0.9509002,-0.30461764,0.25162226,0.308367,0.91738534,0.9662761,-0.026428401,-0.25614858,,0.015791837,-0.03596978,0.06069088,0.29298177,-0.66763693,0.68441397,-0.55296326,0.46564764,0.6909441,-0.7799956,-0.58089,-0.23275265,,0.09848609,1.2953904,0.42710587,0.98260677,0.007433943,-0.18554977,-0.10497886,-0.8019741,-0.588062,-0.15317772,0.5973125,-0.7872448,,-0.10628961,0.25194174,-0.12584662,-0.08026532,-0.8808548,0.46653223,0.7887316,0.23005697,0.5700669,-0.60947514,0.41372532,0.6762924,,-0.055668764,0.40278137,-0.42810294,-0.20243126,0.7868157,-0.583046,-0.9732745,-0.09571888,0.20874521,0.1084355,0.6097204,0.7851642,,1.1624025840296506,0.49757567908628514,0.21071193950000003,2.530957617858209,-0.6374092714057796,-0.3573017908855514,-0.4256746363459315,,-1.3540035866391607,0.16266392252979084,0.13106528932,0.3250194124010128,0.38148910734510977,-0.448707464257256,0.8760142266781396,,-0.11698505643804993,-0.12851077448590748,0.09694439508,-0.1167695939710949,,4.4971704e-05,1.6093254e-06,-8.821487e-06,1.0,-3.4481287e-05,-2.618134e-05,3.4488738e-05,1.0,-6.765127e-06,2.6151538e-05,6.7055225e-06,1.0,701,2.196,0,4,0.95,False,-0.2630356547052788,1.0503840309727575
2.2054059440270066,17:03:50.350778,17:02:34.464471,0,,0.099860065,0.0022403076,0.03190814,-0.05865176,0.9516638,-0.3014894,0.25929374,0.30616677,0.915985,0.96401596,-0.024450272,-0.26471776,,0.015781753,-0.035983577,0.060679078,0.29288638,-0.6676936,0.6843995,-0.55306476,0.46558648,0.69090396,-0.77995944,-0.58087385,-0.23291412,,0.09848609,1.2953904,0.42710587,0.98260677,0.007433943,-0.18554977,-0.10497886,-0.8019741,-0.588062,-0.15317772,0.5973125,-0.7872448,,-0.106141515,0.2512999,-0.1255127,-0.075015455,-0.8822429,0.46477968,0.793424,0.22952174,0.5637359,-0.604029,0.41105625,0.682775,,-0.055657968,0.40276432,-0.42810786,-0.20235099,0.7868642,-0.5830084,-0.9733041,-0.095741056,0.20859706,0.10831972,0.6096543,0.7852315,,1.1607808101260635,0.4948804453131808,0.21100749362000001,2.526134749158065,-0.6326269939139892,-0.3509098962572154,-0.4263280126104688,,-1.3538645774474245,0.16257124973530016,0.13106140045,0.3250194124010128,0.38148910734510977,-0.448707464257256,0.8760142266781396,,-0.11698505643804993,-0.12851077448590748,0.09694439508,-0.1167695939710949,,4.4971704e-05,1.6093254e-06,-8.821487e-06,1.0,-3.4481287e-05,-2.618134e-05,3.4488738e-05,1.0,-6.765127e-06,2.6151538e-05,6.7055225e-06,1.0,714,2.237,0,4,0.95,False,-0.26297607698675796,1.050335750771978
2.2413810179568827,17:03:50.392411,17:02:34.600868,0,,0.099887416,0.0018492416,0.030901358,-0.06420046,0.9524145,-0.29796767,0.26692376,0.30409336,0.9144827,0.9615768,-0.020824552,-0.2737451,,0.015778355,-0.03599097,0.060670972,0.29283556,-0.6677165,0.684399,-0.5531279,0.46555468,0.69087493,-0.7799338,-0.5808731,-0.23300186,,0.09848609,1.2953904,0.42710587,0.98260677,0.007433943,-0.18554977,-0.10497886,-0.8019741,-0.588062,-0.15317772,0.5973125,-0.7872448,,-0.10604648,0.2503759,-0.124960855,-0.06814084,-0.8838875,0.46270904,0.7979712,0.23009208,0.5570454,-0.5988312,0.40718603,0.68963814,,-0.055653866,0.40275374,-0.42810905,-0.20230995,0.7868842,-0.5829957,-0.9733207,-0.09575898,0.20851137,0.10824722,0.60962576,0.78526366,,1.1578075579694869,0.49124303812942105,0.21150786156,2.5202634307404983,-0.6293477179196186,-0.34353744090864036,-0.4269813888750059,,-1.3537950728515566,0.16250946787230636,0.13106140045,0.3250194124010128,0.38148910734510977,-0.448707464257256,0.8760142266781396,,-0.11698505643804993,-0.12851077448590748,0.09694439508,-0.1167695939710949,,4.4971704e-05,1.6093254e-06,-8.821487e-06,1.0,-3.4481287e-05,-2.618134e-05,3.4488738e-05,1.0,-6.765127e-06,2.6151538e-05,6.7055225e-06,1.0,723,2.265,0,4,0.95,False,-0.2631548101423209,1.0506737121774343
2.2830007718876004,17:03:50.419218,17:02:34.600868,0,,0.09993169,0.0017620474,0.030536965,-0.06582862,0.9523952,-0.29767412,0.2683607,0.3042279,0.9140173,0.9610667,-0.019715577,-0.27561238,,0.015778702,-0.03598921,0.06067455,0.2926739,-0.6677126,0.6844718,-0.55308294,0.4657134,0.6908038,-0.78002626,-0.5807501,-0.23299858,,0.09848609,1.2953904,0.42710587,0.98260677,0.007433943,-0.18554977,-0.10497886,-0.8019741,-0.588062,-0.15317772,0.5973125,-0.7872448,,-0.10603821,0.25008458,-0.12472124,-0.066268556,-0.88404304,0.4626839,0.7987954,0.23087509,0.5555381,-0.5979418,0.40640447,0.69086975,,-0.055654645,0.4027575,-0.42810982,-0.20213243,0.78687227,-0.5830733,-0.9733503,-0.095563866,0.20846282,0.10831287,0.60967165,0.78521895,,1.1567109299013472,0.4901464100612812,0.21173341602,2.5187956011361066,-0.6293477179196186,-0.34231225980653196,-0.42665470074273737,,-1.353810518317305,0.16253263607092902,0.13106010416000002,0.3252291023444973,0.38148910734510977,-0.448707464257256,0.8760142266781396,,-0.11698505643804993,-0.12851077448590748,0.09694439508,-0.1167695939710949,,4.4971704e-05,1.6093254e-06,-8.821487e-06,1.0,-3.4481287e-05,-2.618134e-05,3.4488738e-05,1.0,-6.765127e-06,2.6151538e-05,6.7055225e-06,1.0,736,2.306,0,4,0.95,False,-0.2636910096090097,1.0503840309727575
2.309852221980691,17:03:50.455080,17:02:34.600868,0,,0.100000456,0.0016741678,0.029916927,-0.06843405,0.9531959,-0.29450673,0.26878637,0.301899,0.9146642,0.9607657,-0.016565293,-0.27686638,,0.015782397,-0.035983697,0.060679376,0.29271153,-0.6676915,0.6844764,-0.55304146,0.46573743,0.69082093,-0.7800416,-0.58075523,-0.23293462,,0.09848609,1.2953904,0.42710587,0.98260677,0.007433943,-0.18554977,-0.10497886,-0.8019741,-0.588062,-0.15317772,0.5973125,-0.7872448,,-0.1060095,0.24963684,-0.124278955,-0.06361715,-0.8856886,0.4599006,0.79894406,0.23095308,0.55529183,-0.59803116,0.40276092,0.69292307,,-0.055658653,0.40276444,-0.428108,-0.2021638,0.78685415,-0.5830869,-0.9733385,-0.095554106,0.20852236,0.108360335,0.6096966,0.785193,,1.1550042059361434,0.4883933496988322,0.21216637688,2.5164890117577765,-0.6312606289163348,-0.3374035808090189,-0.42681804480887175,,-1.3538645774474245,0.16257124973530016,0.13106140045,0.3252291023444973,0.38148910734510977,-0.448707464257256,0.8760142266781396,,-0.11698505643804993,-0.12851077448590748,0.09694439508,-0.1167695939710949,,4.4971704e-05,1.6093254e-06,-8.821487e-06,1.0,-3.4481287e-05,-2.618134e-05,3.4488738e-05,1.0,-6.765127e-06,2.6151538e-05,6.7055225e-06,1.0,749,2.347,0,4,0.95,False,-0.26273776611267374,1.0501909101696396
2.3456775799859315,17:03:50.496885,17:02:34.600868,0,,0.09999775,0.0016386285,0.029316232,-0.07101706,0.9536031,-0.2925707,0.2682991,0.30076355,0.9151812,0.96071446,-0.013503075,-0.2772103,,0.015782818,-0.03598444,0.06067896,0.29270995,-0.6676888,0.6844797,-0.5530476,0.46573675,0.6908164,-0.7800379,-0.58075887,-0.23293814,,0.09848609,1.2953904,0.42710587,0.98260677,0.007433943,-0.18554977,-0.10497886,-0.8019741,-0.588062,-0.15317772,0.5973125,-0.7872448,,-0.10590731,0.24924226,-0.12383633,-0.061155297,-0.8867725,0.45814255,0.7985217,0.23192222,0.55549544,-0.5988515,0.39980826,0.69392383,,-0.05565906,0.40276363,-0.42810827,-0.20216334,0.786852,-0.58309,-0.97333944,-0.09555752,0.20851655,0.10835303,0.60969883,0.7851923,,1.153784014142016,0.48664801206925745,0.21261748580000003,2.513763042492478,-0.6338567224118782,-0.33332635087541346,-0.42681804480887175,,-1.3538645774474245,0.16256352700242593,0.13106140045,0.3252291023444973,0.38148910734510977,-0.448707464257256,0.8760142266781396,,-0.11698505643804993,-0.12851077448590748,0.09694439508,-0.1167695939710949,,4.4971704e-05,1.6093254e-06,-8.821487e-06,1.0,-3.4481287e-05,-2.618134e-05,3.4488738e-05,1.0,-6.765127e-06,2.6151538e-05,6.7055225e-06,1.0,758,2.376,0,4,0.95,False,-0.26297607698675796,1.0503840309727575
2.3875309890136123,17:03:50.524700,17:02:34.730946,0,,0.09989816,0.0016024336,0.028838322,-0.073860615,0.9534722,-0.29229307,0.26983982,0.30126804,0.9145621,0.96006835,-0.01132229,-0.27953672,,0.01578138,-0.035989568,0.0606758,0.2926851,-0.667695,0.68448424,-0.5530845,0.46572173,0.690797,-0.780021,-0.5807638,-0.23298216,,0.09848609,1.2953904,0.42710587,0.98260677,0.007433943,-0.18554977,-0.10497886,-0.8019741,-0.588062,-0.15317772,0.5973125,-0.7872448,,-0.10573205,0.24892184,-0.12351034,-0.05805982,-0.88695514,0.45819172,0.7993429,0.23365206,0.5535862,-0.5980635,0.39839342,0.6954155,,-0.05565751,0.40275803,-0.42811045,-0.20214441,0.7868578,-0.58308876,-0.9733481,-0.09557042,0.20847008,0.10831026,0.60968935,0.78520554,,1.1532588683065688,0.48505712909716725,0.21295452120000002,2.5099886235097566,-0.6338567224118782,-0.3303859162303531,-0.4264913566766032,,-1.3538336865159277,0.1625249133380548,0.13106010416000002,0.3252291023444973,0.38148910734510977,-0.448707464257256,0.8760142266781396,,-0.11698505643804993,-0.12851077448590748,0.09694439508,-0.1167695939710949,,4.4971704e-05,1.6093254e-06,-8.821487e-06,1.0,-3.4481287e-05,-2.618134e-05,3.4488738e-05,1.0,-6.765127e-06,2.6151538e-05,6.7055225e-06,1.0,771,2.417,0,4,0.95,False,-0.26309523242380006,1.0508185527797727
2.4152674230281264,17:03:50.563648,17:02:34.730946,0,,0.09969331,0.0015170202,0.028159007,-0.0770955,0.9538809,-0.2901159,0.27451324,0.30004358,0.91357327,0.95848775,-0.009208351,-0.2849851,,0.01577527,-0.03598897,0.06067276,0.29265845,-0.6677911,0.68440175,-0.55308306,0.46564576,0.69084936,-0.780032,-0.58071417,-0.23306903,,0.09848609,1.2953904,0.42710587,0.98260677,0.007433943,-0.18554977,-0.10497886,-0.8019741,-0.588062,-0.15317772,0.5973125,-0.7872448,,-0.10542584,0.24843936,-0.12308118,-0.053993728,-0.8878879,0.45688045,0.80207556,0.2339722,0.5494832,-0.5947768,0.3961213,0.6995202,,-0.05565096,0.40275654,-0.42810908,-0.2021163,0.78693855,-0.58298945,-0.9733535,-0.09557329,0.20844339,0.10831392,0.6095847,0.7852863,,1.1527955043341152,0.4825935773102896,0.21339525980000001,2.5051657548096125,-0.6312606289163348,-0.32466169734709127,-0.42665470074273737,,-1.353779627385808,0.16254035880380324,0.13106010416000002,0.3252291023444973,0.38148910734510977,-0.44862578551711546,0.8758508826120054,,-0.11698505643804993,-0.12851077448590748,0.09694439508,-0.1167695939710949,,4.4971704e-05,1.6093254e-06,-8.821487e-06,1.0,-3.4481287e-05,-2.618134e-05,3.4488738e-05,1.0,-6.765127e-06,2.6151538e-05,6.7055225e-06,1.0,780,2.445,0,4,0.95,False,-0.2632143878608417,1.050432311173537
2.4542812339495867,17:03:50.595070,17:02:34.730946,0,,0.09949581,0.001454182,0.027663663,-0.079652995,0.9536811,-0.29008204,0.27740088,0.30071843,0.91247845,0.9574467,-0.0077874362,-0.28850517,,0.015773185,-0.035984293,0.06067723,0.2924988,-0.6678032,0.68445826,-0.5530151,0.46580404,0.69079703,-0.7801401,-0.5805733,-0.23305842,,0.09848609,1.2953904,0.42710587,0.98260677,0.007433943,-0.18554977,-0.10497886,-0.8019741,-0.588062,-0.15317772,0.5973125,-0.7872448,,-0.105155684,0.248087,-0.12277921,-0.050925232,-0.887848,0.4573101,0.80372363,0.2353733,0.5464684,-0.59281945,0.39538,0.701598,,-0.055649288,0.40276313,-0.42810863,-0.20193647,0.7869393,-0.5830507,-0.97338045,-0.09536345,0.20841372,0.10840723,0.6096165,0.78524876,,1.1526564951423792,0.48066289409173346,0.21371673972000002,2.5011816458834066,-0.6298942639186805,-0.3216919393770272,-0.42681804480887164,,-1.3537873501186823,0.16259441793392282,0.13105880787000002,0.3254387922879818,0.38148910734510977,-0.44862578551711546,0.8758508826120054,,-0.11698505643804993,-0.12851077448590748,0.09694439508,-0.1167695939710949,,4.4971704e-05,1.6093254e-06,-8.821487e-06,1.0,-3.4481287e-05,-2.618134e-05,3.4488738e-05,1.0,-6.765127e-06,2.6151538e-05,6.7055225e-06,1.0,793,2.486,0,4,0.95,False,-0.26255903295711036,1.0510116735828905
2.4857179280370474,17:03:50.629186,17:02:34.730946,0,,0.09930941,0.0014009774,0.027180776,-0.07941849,0.9528191,-0.29296452,0.28171322,0.30336556,0.91027844,0.9562063,-0.010239124,-0.29251465,,0.015775595,-0.035978362,0.0606817,0.2923546,-0.66773677,0.68458474,-0.55294716,0.46603,0.6906991,-0.7802423,-0.5804684,-0.23297733,,0.09848609,1.2953904,0.42710587,0.98260677,0.007433943,-0.18554977,-0.10497886,-0.8019741,-0.588062,-0.15317772,0.5973125,-0.7872448,,-0.104897216,0.24774992,-0.1224787,-0.05035118,-0.8862208,0.46051863,0.8063844,0.23597358,0.54227364,-0.5892444,0.39865914,0.70275307,,-0.055651933,0.40277013,-0.42810646,-0.2017728,0.7868738,-0.58319575,-0.9734041,-0.0951442,0.20840341,0.1084995,0.6097353,0.78514373,,1.1526564951423792,0.4781143922432394,0.21414710800000003,2.5007622659964377,-0.6262050784250136,-0.3246185440366901,-0.42665470074273726,,-1.3538259637830534,0.16264075433116817,0.13106010416000002,0.3256484822314663,0.38148910734510977,-0.448707464257256,0.8760142266781396,,-0.11698505643804993,-0.12851077448590748,0.09694439508,-0.1167695939710949,,4.4971704e-05,1.6093254e-06,-8.821487e-06,1.0,-3.4481287e-05,-2.618134e-05,3.4488738e-05,1.0,-6.765127e-06,2.6151538e-05,6.7055225e-06,1.0,806,2.527,0,4,0.95,False,-0.26309523242380006,1.0506737121774343
2.5198317980393767,17:03:50.671675,17:02:34.870282,0,,0.09906882,0.0013245568,0.026610449,-0.07580954,0.9517304,-0.2974258,0.28746352,0.30648014,0.90743285,0.9547868,-0.016707063,-0.2968219,,0.015776038,-0.035975948,0.06068206,0.29236197,-0.66773725,0.6845811,-0.55293334,0.4660342,0.69070727,-0.7802493,-0.5804645,-0.23296371,,0.09848609,1.2953904,0.42710587,0.98260677,0.007433943,-0.18554977,-0.10497886,-0.8019741,-0.588062,-0.15317772,0.5973125,-0.7872448,,-0.10457385,0.24734098,-0.12213633,-0.0528414,-0.8836108,0.4652309,0.8100818,0.23449375,0.5373827,-0.5839309,0.4052711,0.703406,,-0.055652253,0.40277192,-0.4281048,-0.20177786,0.786874,-0.5831938,-0.97340125,-0.09513841,0.20841938,0.10851567,0.60973597,0.785141,,1.1527723361354925,0.47652350927114917,0.21438303278,2.5036979252052207,-0.622652529431112,-0.32955737803631113,-0.42681804480887164,,-1.3538336865159277,0.16265619979691662,0.13106140045,0.3256484822314663,0.38148910734510977,-0.448707464257256,0.8760142266781396,,-0.11698505643804993,-0.12851077448590748,0.09694439508,-0.1167695939710949,,4.4971704e-05,1.6093254e-06,-8.821487e-06,1.0,-3.4481287e-05,-2.618134e-05,3.4488738e-05,1.0,-6.765127e-06,2.6151538e-05,6.7055225e-06,1.0,815,2.556,0,4,0.95,False,-0.26249945523859,1.0507219923782136
2.5623257979750633,17:03:50.704818,17:02:34.870282,0,,0.0989107,0.0012540892,0.026115462,-0.059490427,0.95175123,-0.30104876,0.29798952,0.30476403,0.90461093,0.9527136,-0.03589374,-0.30174246,,0.015772343,-0.03598146,0.06067717,0.29232436,-0.66775835,0.68457663,-0.5529749,0.46601027,0.6906902,-0.78023404,-0.5804594,-0.23302767,,0.09848609,1.2953904,0.42710587,0.98260677,0.007433943,-0.18554977,-0.10497886,-0.8019741,-0.588062,-0.15317772,0.5973125,-0.7872448,,-0.10434321,0.24698287,-0.121830486,-0.06696429,-0.88053054,0.46923527,0.81718916,0.22142951,0.53213805,-0.5724663,0.4190882,0.7047321,,-0.055648245,0.40276498,-0.4281066,-0.2017465,0.7868921,-0.5831802,-0.97341305,-0.095148176,0.20835984,0.10846819,0.60971105,0.7851669,,1.153166195512078,0.47460054878546726,0.21466173513000003,2.522150640231859,-0.6128147014480004,-0.34337865765243336,-0.4266547007427375,,-1.353779627385808,0.1626175861325455,0.13106010416000002,0.3256484822314663,0.38148910734510977,-0.448707464257256,0.8760142266781396,,-0.11698505643804993,-0.12851077448590748,0.09694439508,-0.1167695939710949,,4.4971704e-05,1.6093254e-06,-8.821487e-06,1.0,-3.4481287e-05,-2.618134e-05,3.4488738e-05,1.0,-6.765127e-06,2.6151538e-05,6.7055225e-06,1.0,828,2.597,0,4,0.95,False,-0.2635718541719685,1.050963393382111
2.59546623704955,17:03:50.746466,17:02:34.870282,0,,0.098756224,0.0012053624,0.025764748,-0.04377018,0.9518704,-0.3033592,0.3055438,0.30185497,0.90306497,0.9511715,-0.053162307,-0.30405042,,0.015767489,-0.035986796,0.06067556,0.2922941,-0.66778004,0.6845684,-0.5530026,0.46599054,0.6906813,-0.78022575,-0.58045036,-0.23307797,,0.09848609,1.2953904,0.42710587,0.98260677,0.007433943,-0.18554977,-0.10497886,-0.8019741,-0.588062,-0.15317772,0.5973125,-0.7872448,,-0.10413823,0.24673001,-0.12162242,-0.081,-0.8780419,0.4716793,0.8222646,0.20859033,0.52950066,-0.5633115,0.43073475,0.705087,,-0.055643603,0.4027607,-0.42811042,-0.20172021,0.7869105,-0.5831646,-0.973422,-0.09515215,0.20831627,0.10843688,0.6096868,0.78519005,,1.1537531232105191,0.4730868931421192,0.21485617863000003,2.539764595484559,-0.6054363304606666,-0.35511273626187956,-0.427634765139543,,-1.3537332909885627,0.16259441793392282,0.13105621529,0.3256484822314663,0.38148910734510977,-0.448707464257256,0.8760142266781396,,-0.11698505643804993,-0.12851077448590748,0.09694439508,-0.1167695939710949,,4.4971704e-05,1.6093254e-06,-8.821487e-06,1.0,-3.4481287e-05,-2.618134e-05,3.4488738e-05,1.0,-6.765127e-06,2.6151538e-05,6.7055225e-06,1.0,837,2.626,0,4,0.95,False,-0.26428678679422024,1.0507219923782136
2.637114827055484,17:03:50.782031,17:02:35.000938,0,,0.09854182,0.0011661723,0.025473222,-0.030306682,0.95093805,-0.3078932,0.31253126,0.30160522,0.9007543,0.9494239,-0.06892747,-0.30633864,,0.015765343,-0.03598796,0.060675144,0.29210648,-0.6677927,0.6846361,-0.5529838,0.4661325,0.6906006,-0.78030926,-0.5803218,-0.23311847,,0.09848609,1.2953904,0.42710587,0.98260677,0.007433943,-0.18554977,-0.10497886,-0.8019741,-0.588062,-0.15317772,0.5973125,-0.7872448,,-0.103883795,0.24652071,-0.12146768,-0.09287613,-0.8744269,0.4761844,0.82676125,0.19877341,0.5262651,-0.5548332,0.44256827,0.704481,,-0.05564151,0.4027598,-0.42811143,-0.20152053,0.7869126,-0.5832306,-0.97345936,-0.09496206,0.20822844,0.1084728,0.6097136,0.7851643,,1.1546489602239292,0.47164274209463924,0.21500914085000003,2.554233201584991,-0.5983312324728638,-0.3671957302449167,-0.4277981092056774,,-1.3537101227899402,0.16259441793392282,0.13105491900000002,0.32585817217495083,0.38148910734510977,-0.448707464257256,0.8760142266781396,,-0.11698505643804993,-0.12851077448590748,0.09694439508,-0.1167695939710949,,4.4971704e-05,1.6093254e-06,-8.821487e-06,1.0,-3.4481287e-05,-2.618134e-05,3.4488738e-05,1.0,-6.765127e-06,2.6151538e-05,6.7055225e-06,1.0,850,2.667,0,4,0.95,False,-0.2631548101423209,1.0506254319766548
2.672654068097472,17:03:50.818329,17:02:35.000938,0,,0.09824111,0.0011342689,0.025129542,-0.009682603,0.94867194,-0.3161133,0.32259783,0.30218858,0.8970019,0.9464866,-0.093292266,-0.30896556,,0.015765984,-0.03598933,0.060676217,0.29210916,-0.6677291,0.68469703,-0.5529884,0.46619123,0.69055724,-0.780305,-0.5803478,-0.23306793,,0.09848609,1.2953904,0.42710587,0.98260677,0.007433943,-0.18554977,-0.10497886,-0.8019741,-0.588062,-0.15317772,0.5973125,-0.7872448,,-0.10353513,0.24628522,-0.121287376,-0.111110136,-0.8679032,0.48414725,0.83298576,0.18436801,0.52167344,-0.5420233,0.461251,0.70246583,,-0.05564242,0.4027597,-0.42811304,-0.20152421,0.78685874,-0.5833021,-0.97345924,-0.09494951,0.20823474,0.10846707,0.60978514,0.7851095,,1.156124002202906,0.46988195899931606,0.21518414000000002,2.576250645650866,-0.5874003124916285,-0.38689075623918473,-0.4277981092056773,,-1.3537178455228143,0.1625866952010486,0.13105362271,0.32585817217495083,0.38148910734510977,-0.44878914299739653,0.8761775707442739,,-0.11698505643804993,-0.12851077448590748,0.09694439508,-0.1167695939710949,,4.4971704e-05,1.6093254e-06,-8.821487e-06,1.0,-3.4481287e-05,-2.618134e-05,3.4488738e-05,1.0,-6.765127e-06,2.6151538e-05,6.7055225e-06,1.0,859,2.695,0,4,0.95,False,-0.2626186106756321,1.0507702725789931
2.708979649003595,17:03:50.846568,17:02:35.000938,0,,0.09796704,0.0011203885,0.02495341,0.001953818,0.9478403,-0.3187394,0.32619122,0.300702,0.8962016,0.9453018,-0.105721116,-0.30858973,,0.01576503,-0.0359893,0.060677588,0.2921107,-0.66767585,0.6847482,-0.55298233,0.46624827,0.6905236,-0.78030884,-0.58036315,-0.23301703,,0.09848609,1.2953904,0.42710587,0.98260677,0.007433943,-0.18554977,-0.10497886,-0.8019741,-0.588062,-0.15317772,0.5973125,-0.7872448,,-0.10323911,0.24616623,-0.121219955,-0.12176424,-0.8651346,0.48653427,0.8351328,0.17560649,0.5212635,-0.5364016,0.46979198,0.70111966,,-0.055641692,0.40276083,-0.428114,-0.20152467,0.78681326,-0.5833633,-0.97345835,-0.094929084,0.2082483,0.108474374,0.609847,0.78506047,,1.1574368667915242,0.4685922626093206,0.21527747288000001,2.588412662372969,-0.5830279444991343,-0.39560188978632554,-0.42796145327181145,,-1.3537178455228143,0.16259441793392282,0.13105232642,0.32585817217495083,0.38148910734510977,-0.4488708217375371,0.8760142266781397,,-0.11698505643804993,-0.12851077448590748,0.09694439508,-0.1167695939710949,,4.4971704e-05,1.6093254e-06,-8.821487e-06,1.0,-3.4481287e-05,-2.618134e-05,3.4488738e-05,1.0,-6.765127e-06,2.6151538e-05,6.7055225e-06,1.0,872,2.736,0,4,0.95,False,-0.2631548101423209,1.050963393382111
2.7372068238910288,17:03:50.885668,17:02:35.000938,0,,0.097602025,0.0011037067,0.02467303,0.01912541,0.9430193,-0.33218762,0.3386608,0.30649775,0.88958853,0.94071424,-0.12951279,-0.31350186,,0.01576062,-0.03599091,0.0606755,0.29191026,-0.6675916,0.6849159,-0.5529681,0.46649408,0.69036895,-0.7803939,-0.58026266,-0.23298267,,0.09848609,1.2953904,0.42710587,0.98260677,0.007433943,-0.18554977,-0.10497886,-0.8019741,-0.588062,-0.15317772,0.5973125,-0.7872448,,-0.10283664,0.24598126,-0.1210937,-0.13601695,-0.85550886,0.4996038,0.8422479,0.16567595,0.5130009,-0.5216492,0.4905671,0.6980158,,-0.055637144,0.40275857,-0.42811468,-0.20131254,0.78673244,-0.5835455,-0.97349876,-0.09470187,0.20816281,0.10850559,0.6099866,0.7849477,,1.1592439862840926,0.4670863296988468,0.21539543527000002,2.6051878578517305,-0.5692276580228249,-0.41722829805751555,-0.4271447329411402,,-1.3536715091255689,0.16259441793392282,0.13105103013000002,0.32606786211843536,0.38148910734510977,-0.4490341792178182,0.8760142266781397,,-0.11698505643804993,-0.12851077448590748,0.09694439508,-0.1167695939710949,,4.4971704e-05,1.6093254e-06,-8.821487e-06,1.0,-3.4481287e-05,-2.618134e-05,3.4488738e-05,1.0,-6.765127e-06,2.6151538e-05,6.7055225e-06,1.0,885,2.777,0,4,0.95,False,-0.2636314318904893,1.05105995378367
