AlexandreBanks6/ExpertPlaybackApp/resources/Motions/P_12/PC1/Data_PC1_9.csv
Task Time,PC1 Time,PC2 Time,Gaze Calib,s_T_psm1,Tx,Ty,Tz,R00,R01,R02,R10,R11,R12,R20,R21,R22,s_T_psm3,Tx,Ty,Tz,R00,R01,R02,R10,R11,R12,R20,R21,R22,cart_T_ecm,Tx,Ty,Tz,R00,R01,R02,R10,R11,R12,R20,R21,R22,ecm_T_psm1,Tx,Ty,Tz,R00,R01,R02,R10,R11,R12,R20,R21,R22,ecm_T_psm3,Tx,Ty,Tz,R00,R01,R02,R10,R11,R12,R20,R21,R22,psm1_joints,q1,q2,q3,q4,q5,q6,jaw,psm3_joints,q1,q2,q3,q4,q5,q6,jaw,ecm_joints,q1,q2,q3,q4,ecmi_T_ecm,Tx,Ty,Tz,R00,R01,R02,R10,R11,R12,R20,R21,R22,Sample #,Task Duration (s),Collisions (binary),Collisions (increments),Cumulative Collision Time (s),Clutch Press,MTMR Angle,MTML Angle
""
lci_T_si,,,,,-0.05285146,0.01597776,0.20330594,0.97701013,-0.11214647,0.18131277,0.023304552,-0.7891877,-0.6137097,0.21191518,0.60382605,-0.76843095
rci_T_si,,,,,-0.061931286,0.01969198,0.2114586,0.9703508,-0.13087806,0.20319995,0.028452953,-0.7730091,-0.6337565,0.24002025,0.62074775,-0.7463662
ecm_T_lc,,,,,-4.4061628e-05,-0.00034663224,-0.01840835,-0.99912,0.030754527,0.028518902,-0.031987965,-0.99852574,-0.043852776,0.027128186,-0.04472645,0.9986309
ecm_T_rc,,,,,-0.0043358393,0.01870579,-0.007592615,-0.99555075,-0.052743673,-0.078081585,0.04863213,-0.9973746,0.053654674,-0.08070653,0.04961868,0.9955021
cart_T_ecmi,,,,,0.098466955,1.295392,0.42710596,0.9826105,0.007462668,-0.1855287,-0.10494366,-0.8019739,-0.58806866,-0.15317772,0.5973125,-0.7872448
ecmac_T_ecmrep_psm1,,,,,0.044880565,-0.23049864,-0.32052848,0.99797076,0.0626086,0.011601057,-0.061749555,0.99606305,-0.0636032,-0.015537491,0.06275777,0.9979078
ecmac_T_ecmrep_psm3,,,,,0.047327206,-0.4153428,-0.56493527,0.997773,0.014750276,0.065049894,-0.025394045,0.985803,0.16597453,-0.061678212,-0.16725679,0.9839822
""
0,17:06:20.113559,17:05:04.285694,0,,0.12171848,0.00361228,0.022257835,0.8299475,0.46547467,-0.30744192,0.3351184,0.024566859,0.94185567,0.44596282,-0.8847202,-0.13560009,,0.010826204,-0.030395664,0.060851574,0.3582461,-0.5692086,0.74004126,-0.70877373,0.35012805,0.61241347,-0.6077004,-0.7439165,-0.2780081,,0.098433144,1.2953942,0.42710957,0.98261464,0.0074940254,-0.1855057,-0.10490525,-0.8019736,-0.58807594,-0.15317772,0.5973125,-0.7872448,,-0.12762149,0.24639712,-0.111817546,-0.8375161,-0.29571772,0.45947555,0.54512703,-0.5098453,0.665503,0.037460417,0.8078421,0.58820736,,-0.052806757,0.4053067,-0.42513472,-0.31258926,0.71057373,-0.63037527,-0.94496197,-0.3001236,0.13027953,-0.09661729,0.6364046,0.76528054,,1.0549716470163133,0.5549246934102764,0.22066485412000003,3.59282749166384,0.013936922976074925,-0.8990491740246653,-0.4134238313858607,,-1.3479798549972655,0.21132486237027948,0.13227472789000003,0.16376784586141352,0.1541259717354168,-0.5410157889843223,0.8747074741490654,,-0.11698505643804993,-0.12851077448590748,0.09694439508,-0.1167695939710949,,-3.400445e-05,2.3841858e-07,2.1457672e-06,1.0,3.077835e-05,2.335012e-05,-3.0770898e-05,1.0,5.990267e-06,-2.335012e-05,-6.020069e-06,1.0,35,0.104,0,0,0.0,False,-0.26285692154971585,1.0491287457524916
0.12274220795370638,17:06:20.140705,17:05:04.356767,0,,0.121822074,0.0035319775,0.022719651,0.8290947,0.46864325,-0.30491883,0.33067304,0.02874878,0.9433074,0.45084065,-0.88291955,-0.1311324,,0.010837652,-0.030386336,0.060852945,0.35828704,-0.5691452,0.7400702,-0.7087466,0.35017213,0.61241966,-0.6077078,-0.7439443,-0.27791768,,0.098433144,1.2953942,0.42710957,0.98261464,0.0074940254,-0.1855057,-0.10490525,-0.8019736,-0.58807594,-0.15317772,0.5973125,-0.7872448,,-0.12781446,0.24661313,-0.11220042,-0.83817893,-0.29851186,0.4564501,0.54452115,-0.5053917,0.6693847,0.030866833,0.8096109,0.58615476,,-0.052817434,0.4053129,-0.42512652,-0.31262603,0.7105197,-0.63041794,-0.9449531,-0.30012086,0.13035025,-0.09658517,0.63646626,0.76523334,,1.0549021424204454,0.5560367669441647,0.22027855970000002,3.593456561494294,0.008334826485691867,-0.9013420541449193,-0.4116270466583837,,-1.3480725277917562,0.21134803056890217,0.13228380192,0.16376784586141352,0.1541259717354168,-0.5410157889843223,0.8747074741490654,,-0.11698505643804993,-0.12851077448590748,0.09694439508,-0.1167695939710949,,-3.400445e-05,2.3841858e-07,2.1457672e-06,1.0,3.077835e-05,2.335012e-05,-3.0770898e-05,1.0,5.990267e-06,-2.335012e-05,-6.020069e-06,1.0,43,0.129,0,0,0.0,False,-0.26249945523859,1.0491770259532711
0.14991506678052247,17:06:20.166078,17:05:04.356767,0,,0.12194094,0.0034963563,0.023214847,0.8279046,0.47300997,-0.3013894,0.32611093,0.03122291,0.9448158,0.45631748,-0.8805037,-0.12840426,,0.010851301,-0.030374445,0.060855567,0.35811704,-0.5692289,0.74008816,-0.70880026,0.35020947,0.61233616,-0.6077454,-0.74386275,-0.2780536,,0.098433144,1.2953942,0.42710957,0.98261464,0.0074940254,-0.1855057,-0.10490525,-0.8019736,-0.58807594,-0.15317772,0.5973125,-0.7872448,,-0.12802164,0.24688505,-0.11257953,-0.83863443,-0.30282757,0.45275572,0.54418045,-0.50191504,0.6722715,0.02366256,0.8101708,0.58571607,,-0.052830283,0.4053216,-0.42511684,-0.31245726,0.7105917,-0.63042045,-0.94500417,-0.3000287,0.13019168,-0.096631095,0.63642925,0.76525825,,1.0549330333519422,0.5573959679300282,0.21989745044000003,3.5936662514377784,0.0023228204960124878,-0.9014220695308511,-0.4127704551213237,,-1.3481883687848695,0.2113943669661475,0.13229417224,0.16397753580489804,0.1539893352356514,-0.5408226923404854,0.8745441300829311,,-0.11698505643804993,-0.12851077448590748,0.09694439508,-0.1167695939710949,,-3.400445e-05,2.3841858e-07,2.1457672e-06,1.0,3.077835e-05,2.335012e-05,-3.0770898e-05,1.0,5.990267e-06,-2.335012e-05,-6.020069e-06,1.0,54,0.162,0,0,0.0,False,-0.26333354329788383,1.0488873447485942
0.17525245784781873,17:06:20.202571,17:05:04.356767,0,,0.1221208,0.0035067946,0.023804158,0.82237244,0.48597354,-0.29586017,0.3187568,0.037191957,0.9471066,0.47127232,-0.8731818,-0.12432185,,0.010864332,-0.030359484,0.060856998,0.35799325,-0.5692031,0.7401679,-0.708753,0.35041395,0.61227393,-0.6078734,-0.7437862,-0.2779786,,0.098433144,1.2953942,0.42710957,0.98261464,0.0074940254,-0.1855057,-0.10490525,-0.8019736,-0.58807594,-0.15317772,0.5973125,-0.7872448,,-0.12829795,0.24725117,-0.11299105,-0.836916,-0.31586498,0.4469909,0.5472931,-0.49259984,0.6766208,0.0064668437,0.8109098,0.5851354,,-0.052842066,0.4053314,-0.4251042,-0.3123107,0.71057105,-0.6305163,-0.94506234,-0.2998405,0.130203,-0.09653584,0.636541,0.76517737,,1.0551261016737978,0.5589327917719988,0.21948523022000002,3.5892627626246036,-0.013390376977013164,-0.901432572807831,-0.4142405517165322,,-1.3482964870451086,0.21144842609626707,0.13230713514,0.16418722574838257,0.1539893352356514,-0.5408226923404854,0.8745441300829311,,-0.11698505643804993,-0.12851077448590748,0.09694439508,-0.1167695939710949,,-3.400445e-05,2.3841858e-07,2.1457672e-06,1.0,3.077835e-05,2.335012e-05,-3.0770898e-05,1.0,5.990267e-06,-2.335012e-05,-6.020069e-06,1.0,66,0.199,0,0,0.0,False,-0.26309523242380006,1.0491770259532711
0.21176233189180493,17:06:20.232157,17:05:04.356767,0,,0.12223238,0.0034910664,0.024381965,0.8152997,0.49906734,-0.29362935,0.31295183,0.04686892,0.94861186,0.4871832,-0.86529475,-0.11797199,,0.010881107,-0.03034351,0.060857475,0.35783124,-0.5692169,0.74023557,-0.7087993,0.35050973,0.6121654,-0.60791487,-0.7437304,-0.27803728,,0.098433144,1.2953942,0.42710957,0.98261464,0.0074940254,-0.1855057,-0.10490525,-0.8019736,-0.58807594,-0.15317772,0.5973125,-0.7872448,,-0.12850957,0.24758875,-0.11342442,-0.83363914,-0.3285907,0.44393006,0.5522016,-0.47998688,0.6816788,-0.010912684,0.813413,0.58158416,,-0.05285729,0.40534088,-0.4250895,-0.3121486,0.7105836,-0.6305824,-0.94511217,-0.29973534,0.13008359,-0.09657255,0.6365765,0.7651432,,1.0555508519818801,0.5601838744976233,0.21905615823000002,3.582342994489614,-0.029513483949335135,-0.9047843656800467,-0.41195373479065234,,-1.3484277735039705,0.21150248522638665,0.13232269062000002,0.1643969156918671,0.15385269873588595,-0.540711274436789,0.8745441300829311,,-0.11698505643804993,-0.12851077448590748,0.09694439508,-0.1167695939710949,,-3.400445e-05,2.3841858e-07,2.1457672e-06,1.0,3.077835e-05,2.335012e-05,-3.0770898e-05,1.0,5.990267e-06,-2.335012e-05,-6.020069e-06,1.0,73,0.22,0,0,0.0,False,-0.2630356547052788,1.0491287457524916
0.24136924580670893,17:06:20.260915,17:05:04.471036,0,,0.12232122,0.0034849942,0.024955153,0.804831,0.520198,-0.2857291,0.3040263,0.0521079,0.95123756,0.5097205,-0.85245454,-0.116215944,,0.010903228,-0.03032709,0.060863435,0.35791603,-0.5692656,0.7401571,-0.7087442,0.35045093,0.6122627,-0.607929,-0.7437208,-0.27803177,,0.098433144,1.2953942,0.42710957,0.98261464,0.0074940254,-0.1855057,-0.10490525,-0.8019736,-0.58807594,-0.15317772,0.5973125,-0.7872448,,-0.1286968,0.24793102,-0.1138537,-0.8286608,-0.3506498,0.43630958,0.5585894,-0.46783498,0.6849148,-0.03604436,0.81127995,0.58354574,,-0.052878622,0.4053544,-0.425077,-0.31222498,0.710625,-0.63049793,-0.9450936,-0.29976246,0.13015607,-0.096507445,0.6365175,0.76520044,,1.0562613434063088,0.5610797115110333,0.21863875285000003,3.5726972570893256,-0.053698144407818095,-0.9008273935729085,-0.4121170788567864,,-1.348620841825826,0.211548821623632,0.1323382461,0.1643969156918671,0.15385269873588595,-0.5404662382163672,0.8743807860167969,,-0.11698505643804993,-0.12851077448590748,0.09694439508,-0.1167695939710949,,-3.400445e-05,2.3841858e-07,2.1457672e-06,1.0,3.077835e-05,2.335012e-05,-3.0770898e-05,1.0,5.990267e-06,-2.335012e-05,-6.020069e-06,1.0,81,0.244,0,0,0.0,False,-0.26232072208302704,1.0493218665556094
0.2701057428494096,17:06:20.285321,17:05:04.471036,0,,0.12234759,0.0034952685,0.025296777,0.7941142,0.5377712,-0.2831691,0.3001547,0.058116645,0.9521185,0.5284787,-0.8410854,-0.11526346,,0.010929376,-0.030312784,0.060867727,0.35777235,-0.5692111,0.74026835,-0.70880294,0.35056964,0.61212695,-0.60794526,-0.7437066,-0.27803448,,0.098433144,1.2953942,0.42710957,0.98261464,0.0074940254,-0.1855057,-0.10490525,-0.8019736,-0.58807594,-0.15317772,0.5973125,-0.7872448,,-0.1287805,0.2481458,-0.11410739,-0.8220506,-0.36887622,0.4337778,0.56672,-0.4559954,0.6862191,-0.05532921,0.80993736,0.5839008,,-0.05290382,0.40536502,-0.42506438,-0.31208605,0.71057916,-0.6306184,-0.94513345,-0.29967898,0.13005856,-0.09656618,0.636608,0.76511776,,1.057296189611455,0.5614658481547445,0.21828356939000002,3.554663921949657,-0.08293835535762235,-0.8978120409177178,-0.4109736703938466,,-1.3488370783463044,0.21157198982225467,0.13235250529,0.16460660563535162,0.1537160622361205,-0.5403548203126708,0.8743807860167969,,-0.11698505643804993,-0.12851077448590748,0.09694439508,-0.1167695939710949,,-3.400445e-05,2.3841858e-07,2.1457672e-06,1.0,3.077835e-05,2.335012e-05,-3.0770898e-05,1.0,5.990267e-06,-2.335012e-05,-6.020069e-06,1.0,97,0.293,0,0,0.0,False,-0.2636314318904893,1.0488390645478147
0.2945261599961668,17:06:20.324229,17:05:04.471036,0,,0.12229034,0.0035298318,0.0259386,0.77043605,0.5752355,-0.27483162,0.28701073,0.07197267,0.9552198,0.5692567,-0.8148153,-0.109648526,,0.010965295,-0.030300267,0.060881674,0.35788742,-0.56909114,0.7403051,-0.7087655,0.35059828,0.6121538,-0.6079211,-0.743785,-0.2778775,,0.098433144,1.2953942,0.42710957,0.98261464,0.0074940254,-0.1855057,-0.10490525,-0.8019736,-0.58807594,-0.15317772,0.5973125,-0.7872448,,-0.12883154,0.24856038,-0.11459928,-0.8079941,-0.40793562,0.42512825,0.58062327,-0.42869374,0.6921693,-0.1001107,0.80610806,0.5832389,,-0.052940357,0.40538117,-0.42505756,-0.31219995,0.71047634,-0.6306779,-0.9450992,-0.29972878,0.13019279,-0.096533425,0.6366993,0.76504594,,1.0588021225219286,0.5614349572232477,0.21795560802000002,3.538098416414379,-0.11696084379921703,-0.8951443561204615,-0.4147305839149351,,-1.3491459876612735,0.21157198982225467,0.13236417190000002,0.16460660563535162,0.1537160622361205,-0.5401914628323897,0.8743807860167968,,-0.11698505643804993,-0.12851077448590748,0.09694439508,-0.1167695939710949,,-3.400445e-05,2.3841858e-07,2.1457672e-06,1.0,3.077835e-05,2.335012e-05,-3.0770898e-05,1.0,5.990267e-06,-2.335012e-05,-6.020069e-06,1.0,112,0.339,0,0,0.0,False,-0.2631548101423209,1.0489356249493738
0.33344368380494416,17:06:20.364860,17:05:04.596094,0,,0.12209691,0.0036169738,0.026684195,0.73765707,0.62181413,-0.2630765,0.27029452,0.08508724,0.95901054,0.61871064,-0.778529,-0.10530791,,0.011046931,-0.03027258,0.060909808,0.35809353,-0.5690342,0.74024916,-0.7087844,0.35041365,0.6122377,-0.6077778,-0.74391556,-0.27784175,,0.098433144,1.2953942,0.42710957,0.98261464,0.0074940254,-0.1855057,-0.10490525,-0.8019736,-0.58807594,-0.15317772,0.5973125,-0.7872448,,-0.12876038,0.24907808,-0.115171865,-0.78710204,-0.4577244,0.41347164,0.59682375,-0.39583808,0.6979353,-0.15579419,0.79611593,0.58474576,,-0.053022854,0.40541458,-0.4250403,-0.31242755,0.7104262,-0.6306216,-0.9450169,-0.29995117,0.13027804,-0.09660275,0.63665056,0.76507777,,1.061667256418266,0.5610797115110333,0.21747468443,3.5076933746091234,-0.1729818087030476,-0.8849932675660734,-0.41522061611333794,,-1.3498487563528279,0.21156426708938045,0.13239269028,0.16460660563535162,0.15357942573635508,-0.5395082937477093,0.874544130082931,,-0.11698505643804993,-0.12851077448590748,0.09694439508,-0.1167695939710949,,-3.400445e-05,2.3841858e-07,2.1457672e-06,1.0,3.077835e-05,2.335012e-05,-3.0770898e-05,1.0,5.990267e-06,-2.335012e-05,-6.020069e-06,1.0,120,0.362,0,0,0.0,False,-0.26297607698675796,1.0489356249493738
0.37407100899145007,17:06:20.402371,17:05:04.596094,0,,0.121778145,0.003750272,0.027520597,0.69879675,0.66906893,-0.2530413,0.25300795,0.099696726,0.96231365,0.66908145,-0.7364831,-0.09961215,,0.01109577,-0.030252792,0.06092769,0.35839102,-0.56866896,0.7403859,-0.70881075,0.35038215,0.6122251,-0.60757154,-0.7442095,-0.27750492,,0.098433144,1.2953942,0.42710957,0.98261464,0.0074940254,-0.1855057,-0.10490525,-0.8019736,-0.58807594,-0.15317772,0.5973125,-0.7872448,,-0.12857626,0.24968609,-0.11581633,-0.7605289,-0.50895846,0.4031836,0.6130595,-0.35830554,0.70411307,-0.21390136,0.7826739,0.58452356,,-0.053072117,0.4054375,-0.42502823,-0.31275588,0.7101126,-0.6308121,-0.9448981,-0.30022138,0.13051663,-0.09670178,0.636873,0.76488006,,1.065204268074661,0.560654961202951,0.21696394617000003,3.4722557741602387,-0.23187214010195245,-0.8731558329551847,-0.41505727204720366,,-1.3502812293937845,0.2115874352880031,0.13241083834,0.1643969156918671,0.15344278923658963,-0.5394785545841534,0.8747074741490654,,-0.11698505643804993,-0.12851077448590748,0.09694439508,-0.1167695939710949,,-3.400445e-05,2.3841858e-07,2.1457672e-06,1.0,3.077835e-05,2.335012e-05,-3.0770898e-05,1.0,5.990267e-06,-2.335012e-05,-6.020069e-06,1.0,128,0.387,0,0,0.0,False,-0.26285692154971585,1.0488873447485942
0.41158047900535166,17:06:20.425048,17:05:04.596094,0,,0.12159453,0.003844358,0.02794668,0.6772997,0.6932392,-0.24634223,0.24366492,0.10456774,0.9642059,0.69418466,-0.7130815,-0.09809449,,0.011127446,-0.030235954,0.060936987,0.3580502,-0.56867206,0.7405483,-0.7089451,0.35056013,0.6119677,-0.6076158,-0.74412334,-0.2776392,,0.098433144,1.2953942,0.42710957,0.98261464,0.0074940254,-0.1855057,-0.10490525,-0.8019736,-0.58807594,-0.15317772,0.5973125,-0.7872448,,-0.12845804,0.25001648,-0.1161341,-0.7453163,-0.535871,0.39666837,0.6205483,-0.34003657,0.70660806,-0.243769,0.7727984,0.5859687,,-0.053103358,0.40545318,-0.42501593,-0.31242496,0.71011657,-0.63097155,-0.9449941,-0.3000408,0.1302369,-0.09683385,0.63695365,0.7647962,,1.0671040603617201,0.5604310019495985,0.21672931768000003,3.453173989303147,-0.2623420795496456,-0.8636652435773085,-0.41015695006317543,,-1.3505515250443823,0.21163377168524847,0.13242639382000002,0.16481629557883615,0.15316951623705874,-0.5392557187767606,0.8747074741490654,,-0.11698505643804993,-0.12851077448590748,0.09694439508,-0.1167695939710949,,-3.400445e-05,2.3841858e-07,2.1457672e-06,1.0,3.077835e-05,2.335012e-05,-3.0770898e-05,1.0,5.990267e-06,-2.335012e-05,-6.020069e-06,1.0,140,0.424,0,0,0.0,False,-0.2622611443645053,1.0490321853509326
0.4342655998189002,17:06:20.456120,17:05:04.596094,0,,0.121282,0.0039836466,0.028602213,0.6433955,0.72664154,-0.24090314,0.23060425,0.11610383,0.9660961,0.7299753,-0.67713517,-0.09286606,,0.011173658,-0.03020189,0.060952783,0.35801145,-0.56854814,0.7406622,-0.70891446,0.35073918,0.61190057,-0.6076743,-0.7441337,-0.27748346,,0.098433144,1.2953942,0.42710957,0.98261464,0.0074940254,-0.1855057,-0.10490525,-0.8019736,-0.58807594,-0.15317772,0.5973125,-0.7872448,,-0.12824763,0.2505201,-0.116633,-0.7204189,-0.5729954,0.39073375,0.6313985,-0.3087827,0.7113292,-0.28693655,0.7591637,0.58424133,,-0.053148482,0.40548384,-0.42499208,-0.31237477,0.71001154,-0.6311146,-0.94501615,-0.29994214,0.13030411,-0.096780434,0.6371172,0.76466674,,1.0700000851895544,0.5600912017031325,0.21636894906,3.422768947497891,-0.3066123054736483,-0.8529679309633829,-0.4090135416002354,,-1.3509685526195905,0.21174961267836184,0.13245361591000002,0.16502598552232065,0.1530328797372933,-0.5390626221329236,0.874544130082931,,-0.11698505643804993,-0.12851077448590748,0.09694439508,-0.1167695939710949,,-3.400445e-05,2.3841858e-07,2.1457672e-06,1.0,3.077835e-05,2.335012e-05,-3.0770898e-05,1.0,5.990267e-06,-2.335012e-05,-6.020069e-06,1.0,155,0.47,0,0,0.0,False,-0.26202283349042155,1.0488390645478147
0.46533292485401034,17:06:20.504907,17:05:04.739351,0,,0.120616585,0.0041711926,0.029844731,0.5723744,0.7847728,-0.23773749,0.21236376,0.13816664,0.96737355,0.79201585,-0.6041867,-0.08757436,,0.011253938,-0.030129619,0.060978472,0.35814366,-0.568608,0.7405523,-0.70909405,0.3503359,0.6119235,-0.6073868,-0.7442779,-0.27772605,,0.098433144,1.2953942,0.42710957,0.98261464,0.0074940254,-0.1855057,-0.10490525,-0.8019736,-0.58807594,-0.15317772,0.5973125,-0.7872448,,-0.12778877,0.251413,-0.11763999,-0.6646918,-0.63912636,0.38691372,0.653584,-0.24653277,0.7155764,-0.36195683,0.72851837,0.58159107,,-0.053225506,0.40554425,-0.4249397,-0.31256682,0.71005994,-0.630965,-0.94492245,-0.30030754,0.13014202,-0.09707491,0.63689107,0.7648178,,1.0750353070235485,0.5592725920184648,0.21565210069000001,3.3556681655828435,-0.38408520084065306,-0.8282646661737165,-0.41032029412930937,,-1.351709934975516,0.2120585219933308,0.13250935638000003,0.16502598552232065,0.15234969723846611,-0.5381788176538793,0.8742174419506625,,-0.11698505643804993,-0.12851077448590748,0.09694439508,-0.1167695939710949,,-3.400445e-05,2.3841858e-07,2.1457672e-06,1.0,3.077835e-05,2.335012e-05,-3.0770898e-05,1.0,5.990267e-06,-2.335012e-05,-6.020069e-06,1.0,163,0.493,0,0,0.0,False,-0.26243987752006825,1.0489356249493738
0.5140757909975946,17:06:20.534544,17:05:04.739351,0,,0.12015549,0.0042611435,0.03048709,0.5319386,0.8120853,-0.23991424,0.20405737,0.15204105,0.96708024,0.82182837,-0.56338364,-0.08483565,,0.011277728,-0.030108042,0.06098801,0.3580721,-0.5686248,0.74057406,-0.70901126,0.35049593,0.61192775,-0.6075256,-0.74418974,-0.27765867,,0.098433144,1.2953942,0.42710957,0.98261464,0.0074940254,-0.1855057,-0.10490525,-0.8019736,-0.58807594,-0.15317772,0.5973125,-0.7872448,,-0.12743852,0.25186777,-0.11819119,-0.63170284,-0.67082644,0.38851434,0.66454417,-0.21054608,0.7169738,-0.3991648,0.7110993,0.5787964,,-0.053248633,0.40556374,-0.42492524,-0.31246683,0.71007556,-0.630997,-0.94496965,-0.3001361,0.13019456,-0.096937,0.6369545,0.7647824,,1.0778849954541374,0.5585775460597846,0.21527358401000002,3.3162464562077525,-0.42316323977356907,-0.8146951835080259,-0.4134238313858607,,-1.3519338942288683,0.21214347205494727,0.13252491186,0.1652356754658052,0.15234969723846611,-0.538015460173598,0.8742174419506624,,-0.11698505643804993,-0.12851077448590748,0.09694439508,-0.1167695939710949,,-3.400445e-05,2.3841858e-07,2.1457672e-06,1.0,3.077835e-05,2.335012e-05,-3.0770898e-05,1.0,5.990267e-06,-2.335012e-05,-6.020069e-06,1.0,171,0.518,0,0,0.0,False,-0.2622015666459845,1.0488873447485942
0.5437572188675404,17:06:20.557472,17:05:04.739351,0,,0.1198076,0.004311174,0.030945629,0.49827883,0.8327428,-0.2413662,0.20180266,0.1593489,0.96637654,0.8432045,-0.5302333,-0.08864969,,0.011322942,-0.030077226,0.061002612,0.35824493,-0.56834525,0.74070513,-0.7089049,0.35068238,0.61194426,-0.6075479,-0.7443155,-0.27727258,,0.098433144,1.2953942,0.42710957,0.98261464,0.0074940254,-0.1855057,-0.10490525,-0.8019736,-0.58807594,-0.15317772,0.5973125,-0.7872448,,-0.12717229,0.2521809,-0.118597195,-0.6029678,-0.69566274,0.39049098,0.6753035,-0.18448439,0.7140943,-0.4247293,0.6942758,0.5810216,,-0.053292863,0.40559152,-0.42490333,-0.3126241,0.70983696,-0.6311875,-0.9449304,-0.30013165,0.13048974,-0.09681291,0.6372225,0.7645749,,1.0797152831453287,0.5580369547585888,0.21499488166000003,3.281018545702352,-0.44980735722782994,-0.7981144529160794,-0.4116270466583839,,-1.3523354763383282,0.21222842211656376,0.13255083766,0.1652356754658052,0.15234969723846611,-0.5380154601735981,0.8745441300829311,,-0.11698505643804993,-0.12851077448590748,0.09694439508,-0.1167695939710949,,-3.400445e-05,2.3841858e-07,2.1457672e-06,1.0,3.077835e-05,2.335012e-05,-3.0770898e-05,1.0,5.990267e-06,-2.335012e-05,-6.020069e-06,1.0,183,0.555,0,0,0.0,False,-0.2629164992682367,1.048549383343138
0.5666867338586599,17:06:20.587244,17:05:04.739351,0,,0.11928228,0.004348919,0.031549513,0.45650423,0.85720897,-0.23832048,0.1947943,0.16506697,0.9668547,0.86813533,-0.48779684,-0.09162575,,0.011368379,-0.03006164,0.0610227,0.35817146,-0.5683173,0.740762,-0.70894486,0.35073075,0.61187017,-0.6075446,-0.74431396,-0.2772839,,0.098433144,1.2953942,0.42710957,0.98261464,0.0074940254,-0.1855057,-0.10490525,-0.8019736,-0.58807594,-0.15317772,0.5973125,-0.7872448,,-0.12676035,0.25257018,-0.119163625,-0.5676366,-0.7260563,0.38811207,0.68433595,-0.15404144,0.71271,-0.45768222,0.67015934,0.58430594,,-0.053339485,0.40561354,-0.42489636,-0.31255582,0.70981336,-0.6312478,-0.9449484,-0.30010125,0.13042933,-0.096857786,0.63726306,0.76453537,,1.082341012322565,0.5571102268136819,0.21460858724,3.238870867061963,-0.4850595741673136,-0.7736976069898525,-0.41440389578266634,,-1.352744781180662,0.2122438675823122,0.13256380056,0.16544536540928972,0.15221306073870067,-0.53765900604948,0.8740540978845283,,-0.11698505643804993,-0.12851077448590748,0.09694439508,-0.1167695939710949,,-3.400445e-05,2.3841858e-07,2.1457672e-06,1.0,3.077835e-05,2.335012e-05,-3.0770898e-05,1.0,5.990267e-06,-2.335012e-05,-6.020069e-06,1.0,191,0.58,0,0,0.0,False,-0.26243987752006825,1.0490321853509326
0.5964457949157804,17:06:20.617280,17:05:04.739351,0,,0.11876309,0.0043951496,0.032128394,0.40907365,0.88129634,-0.23659147,0.18630153,0.17315385,0.9671141,0.89328074,-0.43969822,-0.093354374,,0.011413597,-0.030052401,0.061041117,0.35830215,-0.5681868,0.74079895,-0.7089253,0.3507303,0.6118931,-0.60749036,-0.7444138,-0.2771346,,0.098433144,1.2953942,0.42710957,0.98261464,0.0074940254,-0.1855057,-0.10490525,-0.8019736,-0.58807594,-0.15317772,0.5973125,-0.7872448,,-0.1263488,0.25295117,-0.11970424,-0.5270487,-0.75672406,0.3867666,0.6922555,-0.11829509,0.7118909,-0.49295235,0.6429424,0.5861937,,-0.05338617,0.40563035,-0.42489326,-0.31269145,0.70970136,-0.6313066,-0.9449038,-0.30018687,0.13055512,-0.09685481,0.63734746,0.7644654,,1.0846578321848324,0.5560753806085358,0.21427155184000002,3.191061559947492,-0.5231811576018714,-0.7471860213064223,-0.41375051951812925,,-1.3531386405572474,0.21220525391794107,0.13257417088,0.16544536540928972,0.15221306073870067,-0.5374139698290583,0.8745441300829311,,-0.11698505643804993,-0.12851077448590748,0.09694439508,-0.1167695939710949,,-3.400445e-05,2.3841858e-07,2.1457672e-06,1.0,3.077835e-05,2.335012e-05,-3.0770898e-05,1.0,5.990267e-06,-2.335012e-05,-6.020069e-06,1.0,202,0.613,0,0,0.0,False,-0.2620824112089424,1.0486459437446969
0.6264665308408439,17:06:20.652680,17:05:04.739351,0,,0.11803212,0.004449293,0.032811075,0.34538662,0.9072467,-0.24002402,0.17700234,0.18819678,0.9660498,0.92161715,-0.37614554,-0.09558436,,0.011446647,-0.030048467,0.061059415,0.35858414,-0.5679017,0.7408812,-0.70890796,0.3507017,0.61192966,-0.6073442,-0.7446449,-0.27683395,,0.098433144,1.2953942,0.42710957,0.98261464,0.0074940254,-0.1855057,-0.10490525,-0.8019736,-0.58807594,-0.15317772,0.5973125,-0.7872448,,-0.12574787,0.25339895,-0.12036887,-0.47129953,-0.7908907,0.39034423,0.7012888,-0.06765216,0.7096599,-0.5348558,0.60820645,0.5865273,,-0.053421307,0.4056444,-0.42489612,-0.31299105,0.7094564,-0.6314335,-0.94480145,-0.3004016,0.13080171,-0.096885525,0.63751906,0.7643184,,1.0874611842181758,0.5546080613624331,0.21387359081,3.124170467975928,-0.568954385023294,-0.7135365668744464,-0.41228042292292066,,-1.3534475498722165,0.21217436298644418,0.13257676346000002,0.1652356754658052,0.15221306073870067,-0.5374139698290583,0.8745441300829311,,-0.11698505643804993,-0.12851077448590748,0.09694439508,-0.1167695939710949,,-3.400445e-05,2.3841858e-07,2.1457672e-06,1.0,3.077835e-05,2.335012e-05,-3.0770898e-05,1.0,5.990267e-06,-2.335012e-05,-6.020069e-06,1.0,210,0.637,0,0,0.0,False,-0.26255903295711036,1.0489356249493738
0.6618908259551972,17:06:20.676434,17:05:04.739351,0,,0.11769921,0.0044330284,0.03316191,0.31983298,0.9189923,-0.23056473,0.1643199,0.18585813,0.9687393,0.9331161,-0.34772116,-0.09156534,,0.011463292,-0.03004653,0.061068594,0.35863525,-0.5679002,0.74085754,-0.70890045,0.3506602,0.611962,-0.6073227,-0.74466556,-0.27682564,,0.098433144,1.2953942,0.42710957,0.98261464,0.0074940254,-0.1855057,-0.10490525,-0.8019736,-0.58807594,-0.15317772,0.5973125,-0.7872448,,-0.12548709,0.25359437,-0.1207266,-0.4502498,-0.8076206,0.38082033,0.6978576,-0.05222616,0.71432984,-0.5570187,0.58738524,0.587119,,-0.053439006,0.40565148,-0.42489758,-0.3130442,0.70945483,-0.63140893,-0.9447839,-0.30044413,0.13083059,-0.09688471,0.63750076,0.7643338,,1.0887972170054168,0.5537971744106396,0.21366618441000002,3.101104574192631,-0.5946420469791969,-0.6925900009795192,-0.4126071110551893,,-1.353602004529701,0.21215891752069574,0.13257805975,0.1652356754658052,0.15221306073870067,-0.5372506123487771,0.8742174419506624,,-0.11698505643804993,-0.12851077448590748,0.09694439508,-0.1167695939710949,,-3.400445e-05,2.3841858e-07,2.1457672e-06,1.0,3.077835e-05,2.335012e-05,-3.0770898e-05,1.0,5.990267e-06,-2.335012e-05,-6.020069e-06,1.0,222,0.674,0,0,0.0,False,-0.2622015666459845,1.0489356249493738
0.6856266218237579,17:06:20.706279,17:05:04.739351,0,,0.117107674,0.0044715554,0.03365937,0.26757884,0.93507403,-0.23246089,0.15301019,0.19696018,0.96839803,0.9513093,-0.29469174,-0.090373725,,0.011467561,-0.030046709,0.06107056,0.358602,-0.56798875,0.74080575,-0.7089923,0.35050818,0.61194277,-0.6072352,-0.74466956,-0.27700675,,0.098433144,1.2953942,0.42710957,0.98261464,0.0074940254,-0.1855057,-0.10490525,-0.8019736,-0.58807594,-0.15317772,0.5973125,-0.7872448,,-0.12499199,0.25391927,-0.121224746,-0.4041608,-0.83091307,0.3824102,0.6992828,-0.0111830095,0.7147576,-0.58962494,0.5562899,0.585563,,-0.05344354,0.40565255,-0.42489824,-0.31303355,0.7095297,-0.63133,-0.9447741,-0.30053887,0.13068399,-0.097015046,0.63737273,0.764424,,1.0906583956281048,0.5526001508151348,0.21340303754000003,3.045536739169232,-0.6315339019158658,-0.6620170945406421,-0.4135871754519951,,-1.353640618194072,0.21215891752069574,0.13257805975,0.1652356754658052,0.1520764242389352,-0.5370575157049402,0.8740540978845281,,-0.11698505643804993,-0.12851077448590748,0.09694439508,-0.1167695939710949,,-3.400445e-05,2.3841858e-07,2.1457672e-06,1.0,3.077835e-05,2.335012e-05,-3.0770898e-05,1.0,5.990267e-06,-2.335012e-05,-6.020069e-06,1.0,230,0.698,1,1,0.0,False,-0.2620824112089424,1.04835626254002
0.7154332448262721,17:06:20.739326,17:05:04.957070,0,,0.116360486,0.0044963732,0.034172475,0.20740959,0.949887,-0.2338718,0.13842884,0.20816633,0.968248,0.9684104,-0.2331986,-0.0883162,,0.011464957,-0.030051865,0.061068356,0.35876063,-0.5679623,0.7407491,-0.7090149,0.3503415,0.612012,-0.60711503,-0.74476814,-0.2770051,,0.098433144,1.2953942,0.42710957,0.98261464,0.0074940254,-0.1855057,-0.10490525,-0.8019736,-0.58807594,-0.15317772,0.5973125,-0.7872448,,-0.12435001,0.2542411,-0.12177836,-0.35064605,-0.8544287,0.38340437,0.69735795,0.03504132,0.7158659,-0.6250914,0.51838565,0.5835556,,-0.053441063,0.40564775,-0.42490125,-0.313211,0.70950586,-0.6312688,-0.9447085,-0.3007232,0.13073389,-0.09708072,0.63731235,0.76446605,,1.0927358107712712,0.551024713308793,0.21312822406,2.979484406971607,-0.6726614883452633,-0.622926151198461,-0.4140772076503977,,-1.3536097272625751,0.21212802658919883,0.13257546717000002,0.16502598552232065,0.1520764242389352,-0.5370575157049402,0.8740540978845281,,-0.11698505643804993,-0.12851077448590748,0.09694439508,-0.1167695939710949,,-3.400445e-05,2.3841858e-07,2.1457672e-06,1.0,3.077835e-05,2.335012e-05,-3.0770898e-05,1.0,5.990267e-06,-2.335012e-05,-6.020069e-06,1.0,242,0.735,1,1,0.037,False,-0.2626186106756321,1.0485976635439174
0.7484994078986347,17:06:20.769810,17:05:04.957070,0,,0.115847565,0.0045178533,0.03454283,0.16467926,0.96005327,-0.22622664,0.122617096,0.20765261,0.97048724,0.978696,-0.18755844,-0.083523035,,0.011466317,-0.030062892,0.061063647,0.35912675,-0.56781083,0.74068797,-0.70898604,0.35013092,0.6121659,-0.6069322,-0.7449827,-0.27682853,,0.098433144,1.2953942,0.42710957,0.98261464,0.0074940254,-0.1855057,-0.10490525,-0.8019736,-0.58807594,-0.15317772,0.5973125,-0.7872448,,-0.12391181,0.25447652,-0.122169875,-0.31310797,-0.8723547,0.37544733,0.6905196,0.062302366,0.7206255,-0.6520323,0.48488733,0.5828706,,-0.053442556,0.40563697,-0.42490643,-0.31359833,0.7093742,-0.6312245,-0.94457686,-0.30103305,0.13097188,-0.09711137,0.63731265,0.7644619,,1.0940255071612668,0.5499821443707726,0.21296100265,2.9331429294615265,-0.7050443387896727,-0.5861469080245577,-0.4111370144599811,,-1.3535865590639524,0.21202763106183392,0.13257287459,0.16460660563535162,0.15221306073870067,-0.5371689336086366,0.8740540978845281,,-0.11698505643804993,-0.12851077448590748,0.09694439508,-0.1167695939710949,,-3.400445e-05,2.3841858e-07,2.1457672e-06,1.0,3.077835e-05,2.335012e-05,-3.0770898e-05,1.0,5.990267e-06,-2.335012e-05,-6.020069e-06,1.0,250,0.76,1,1,0.062,False,-0.26285692154971585,1.0484045427407995
0.7789603478740901,17:06:20.799476,17:05:04.957070,0,,0.11527759,0.0045182407,0.034852237,0.12131566,0.9669564,-0.22422715,0.11151391,0.2111888,0.9710634,0.98633015,-0.1428097,-0.08220878,,0.011470802,-0.030081846,0.06105548,0.35906377,-0.56778425,0.74073887,-0.7091024,0.35007393,0.61206377,-0.60683364,-0.7450297,-0.27691835,,0.098433144,1.2953942,0.42710957,0.98261464,0.0074940254,-0.1855057,-0.10490525,-0.8019736,-0.58807594,-0.15317772,0.5973125,-0.7872448,,-0.123410486,0.2546577,-0.12253928,-0.27380934,-0.8863605,0.37335435,0.6858258,0.092218414,0.7218994,-0.6742933,0.45371884,0.5826387,,-0.05344724,0.40561825,-0.42491496,-0.3135623,0.70935094,-0.6312685,-0.94457227,-0.30110744,0.13083403,-0.0972724,0.63730335,0.7644492,,1.09523797622252,0.5488777935697586,0.21279118866000002,2.881768893307818,-0.7316884562439336,-0.549963279798876,-0.4135871754519951,,-1.3535556681324556,0.2118654536714752,0.13256898572,0.16460660563535162,0.15221306073870067,-0.5371689336086366,0.8740540978845281,,-0.11698505643804993,-0.12851077448590748,0.09694439508,-0.1167695939710949,,-3.400445e-05,2.3841858e-07,2.1457672e-06,1.0,3.077835e-05,2.335012e-05,-3.0770898e-05,1.0,5.990267e-06,-2.335012e-05,-6.020069e-06,1.0,262,0.797,1,1,0.099,False,-0.26232072208302704,1.0488390645478147
0.8086656748782843,17:06:20.836154,17:05:04.957070,0,,0.11466607,0.004554473,0.035137087,0.07334249,0.97180396,-0.22409368,0.099238425,0.2164722,0.97123206,0.9923571,-0.09347135,-0.08056387,,0.01147645,-0.030095644,0.061050594,0.35920388,-0.56770563,0.7407311,-0.70918566,0.3498943,0.61206996,-0.60665333,-0.74517393,-0.2769254,,0.098433144,1.2953942,0.42710957,0.98261464,0.0074940254,-0.1855057,-0.10490525,-0.8019736,-0.58807594,-0.15317772,0.5973125,-0.7872448,,-0.12285923,0.25485218,-0.12287794,-0.22991079,-0.8989105,0.37296227,0.6791787,0.12627715,0.7230286,-0.69703466,0.4195401,0.58148843,,-0.053453144,0.4056052,-0.4249214,-0.31373656,0.70928216,-0.6312592,-0.94449866,-0.30133858,0.13083321,-0.0974251,0.6372706,0.764457,,1.096373217955031,0.5478661155632352,0.21266674482000003,2.8226363292451824,-0.7590157561970217,-0.509383661268106,-0.41456723984880084,,-1.3535556681324556,0.2117418899454876,0.13256639314000002,0.1643969156918671,0.15221306073870067,-0.5371689336086366,0.8740540978845281,,-0.11698505643804993,-0.12851077448590748,0.09694439508,-0.1167695939710949,,-3.400445e-05,2.3841858e-07,2.1457672e-06,1.0,3.077835e-05,2.335012e-05,-3.0770898e-05,1.0,5.990267e-06,-2.335012e-05,-6.020069e-06,1.0,271,0.825,1,1,0.127,False,-0.26309523242380006,1.048742504146256
0.8453596059698611,17:06:20.862035,17:05:04.957070,0,,0.114050865,0.0045821965,0.035417408,0.028302506,0.9747026,-0.22170635,0.08231166,0.21876945,0.97229874,0.9962046,-0.045767546,-0.07403788,,0.011479281,-0.0300977,0.061050415,0.3592021,-0.56774724,0.7407001,-0.7092,0.34984428,0.612082,-0.6066377,-0.74516577,-0.2769816,,0.098433144,1.2953942,0.42710957,0.98261464,0.0074940254,-0.1855057,-0.10490525,-0.8019736,-0.58807594,-0.15317772,0.5973125,-0.7872448,,-0.122304834,0.2550371,-0.12321892,-0.18916322,-0.90971017,0.3696548,0.6675393,0.15694839,0.7278451,-0.7201448,0.38444063,0.5775784,,-0.053456068,0.40560356,-0.42492238,-0.31373852,0.70931745,-0.63121855,-0.94449586,-0.30136168,0.1308004,-0.09744608,0.63722044,0.76449615,,1.0975007369546677,0.5468776057553344,0.21255656017000002,2.7662297344478453,-0.787982694147295,-0.46738534915283797,-0.4144038957826667,,-1.353571113598204,0.21171872174686493,0.13256639314000002,0.1643969156918671,0.15221306073870067,-0.5370872548684961,0.8742174419506624,,-0.11698505643804993,-0.12851077448590748,0.09694439508,-0.1167695939710949,,-3.400445e-05,2.3841858e-07,2.1457672e-06,1.0,3.077835e-05,2.335012e-05,-3.0770898e-05,1.0,5.990267e-06,-2.335012e-05,-6.020069e-06,1.0,292,0.891,1,1,0.193,False,-0.26232072208302704,1.0481631417369022
0.871246850816533,17:06:20.925256,17:05:05.147304,0,,0.11276444,0.00467214,0.035657406,-0.055093482,0.9738151,-0.22056508,0.06398091,0.22388971,0.9725121,0.9964292,0.039467096,-0.07464057,,0.011476234,-0.030092157,0.061053693,0.35926417,-0.5677042,0.74070305,-0.70907146,0.34997475,0.61215633,-0.60675114,-0.74513733,-0.27680948,,0.098433144,1.2953942,0.42710957,0.98261464,0.0074940254,-0.1855057,-0.10490525,-0.8019736,-0.58807594,-0.15317772,0.5973125,-0.7872448,,-0.12108063,0.25524023,-0.12364394,-0.110629,-0.92295015,0.3686791,0.65218997,0.21249588,0.7276632,-0.7499396,0.32094947,0.5784306,,-0.053453144,0.4056098,-0.42492074,-0.31377017,0.70928144,-0.6312433,-0.94450384,-0.301259,0.13097912,-0.097266674,0.6373091,0.7644451,,1.0997634976868156,0.5450318725983948,0.21246452358,2.6496421258704497,-0.8235081840863095,-0.3811598973532342,-0.4109736703938467,,-1.353571113598204,0.21176505814411029,0.13256639314000002,0.1643969156918671,0.15234969723846611,-0.5371986727721925,0.8742174419506624,,-0.11698505643804993,-0.12851077448590748,0.09694439508,-0.1167695939710949,,-3.400445e-05,2.3841858e-07,2.1457672e-06,1.0,3.077835e-05,2.335012e-05,-3.0770898e-05,1.0,5.990267e-06,-2.335012e-05,-6.020069e-06,1.0,313,0.956,1,1,0.258,False,-0.26297607698675796,1.048549383343138
0.9344690057914704,17:06:20.990255,17:05:05.147304,0,,0.11149409,0.0047836006,0.035700724,-0.1355849,0.9663862,-0.21843651,0.052673697,0.22719154,0.9724245,0.98936456,0.12034015,-0.081707,,0.011441719,-0.030070715,0.06106162,0.35898834,-0.5679363,0.7406589,-0.709292,0.34979206,0.6120053,-0.60665673,-0.7450462,-0.27726138,,0.09841225,1.2953941,0.4271089,0.98261875,0.0075258766,-0.18548235,-0.10486622,-0.8019733,-0.58808327,-0.15317772,0.5973125,-0.7872448,,-0.11981933,0.25533935,-0.12390555,-0.032638706,-0.9293369,0.3677875,0.63807017,0.26386076,0.723356,-0.76928616,0.25828364,0.5843701,,-0.053400904,0.4056335,-0.42491862,-0.31350124,0.7094736,-0.6311609,-0.94456357,-0.3012725,0.13051654,-0.09755339,0.6370887,0.76459223,,1.101840912829982,0.5437885126056446,0.21246193100000002,2.5284413385363944,-0.8435937495518293,-0.28922863087984035,-0.41179039072451795,,-1.3537564591871853,0.21182684000710408,0.13256120798,0.16460660563535162,0.15193978773916977,-0.5367010615808221,0.8742174419506625,,-0.11698505643804993,-0.12851077448590748,0.09694439508,-0.1167695939710949,,-5.441159e-05,-2.3841858e-07,6.67572e-06,1.0,6.2048435e-05,4.7065318e-05,-6.2040985e-05,1.0,1.2040138e-05,-4.708022e-05,-1.2099743e-05,1.0,321,0.981,1,1,0.283,False,-0.26327396557936344,1.0482597021384612
0.99947141087614,17:06:21.019251,17:05:05.147304,0,,0.11095499,0.0048323274,0.035682097,-0.17383236,0.9603318,-0.2180483,0.0459525,0.22908834,0.9723203,0.9837026,0.15900084,-0.083952665,,0.011451982,-0.03007128,0.061068833,0.3590198,-0.56791556,0.74065965,-0.70929086,0.34977865,0.6120142,-0.6066393,-0.7450684,-0.27723986,,0.09841225,1.2953941,0.4271089,0.98261875,0.0075258766,-0.18548235,-0.10486622,-0.8019733,-0.58808327,-0.15317772,0.5973125,-0.7872448,,-0.11928395,0.2553613,-0.123984456,0.004627794,-0.92989916,0.36778545,0.6288936,0.28865752,0.72192085,-0.7774776,0.22795703,0.58614343,,-0.05341222,0.40563792,-0.4249218,-0.3135349,0.70945567,-0.63116443,-0.9445519,-0.3012995,0.1305386,-0.09755818,0.6370959,0.7645856,,1.1025205133229137,0.5434487123591788,0.21248396793000002,2.4693087744737587,-0.8516553030379903,-0.24467436039638996,-0.4126071110551893,,-1.3538568547145504,0.21181139454135564,0.13255991169,0.16460660563535162,0.15193978773916977,-0.5366193828406816,0.8743807860167969,,-0.11698505643804993,-0.12851077448590748,0.09694439508,-0.1167695939710949,,-5.441159e-05,-2.3841858e-07,6.67572e-06,1.0,6.2048435e-05,4.7065318e-05,-6.2040985e-05,1.0,1.2040138e-05,-4.708022e-05,-1.2099743e-05,1.0,330,1.01,1,1,0.312,False,-0.26232072208302704,1.048742504146256
1.028448891825974,17:06:21.046401,17:05:05.147304,0,,0.11046175,0.0048698485,0.035611376,-0.21465911,0.9520971,-0.21779026,0.03885764,0.23113692,0.9721449,0.9759158,0.20021689,-0.086612046,,0.011473659,-0.030069374,0.061080515,0.35904023,-0.56793606,0.74063385,-0.7093744,0.34963828,0.6119976,-0.60652965,-0.7451185,-0.27734515,,0.09841225,1.2953941,0.4271089,0.98261875,0.0075258766,-0.18548235,-0.10486622,-0.8019733,-0.58808327,-0.15317772,0.5973125,-0.7872448,,-0.118785776,0.25534332,-0.12401906,0.044722546,-0.92876077,0.3679719,0.61810905,0.31509572,0.72017765,-0.7848191,0.19523858,0.5881673,,-0.05343528,0.40564653,-0.42492405,-0.31357992,0.7094723,-0.63112336,-0.94452363,-0.30142665,0.1304496,-0.09768702,0.63701725,0.7646347,,1.1028216999050084,0.5433019804345685,0.21253581953000003,2.405353341710979,-0.8582138550267315,-0.19660831992544775,-0.4114637025922495,,-1.3540576457692801,0.21179594907560717,0.13256120798,0.16460660563535162,0.15180315123940433,-0.536344607456704,0.8743807860167969,,-0.11698505643804993,-0.12851077448590748,0.09694439508,-0.1167695939710949,,-5.441159e-05,-2.3841858e-07,6.67572e-06,1.0,6.2048435e-05,4.7065318e-05,-6.2040985e-05,1.0,1.2040138e-05,-4.708022e-05,-1.2099743e-05,1.0,343,1.051,1,1,0.353,False,-0.26178452261633733,1.0486942239454764
1.0556044969707727,17:06:21.081480,17:05:05.147304,0,,0.1098904,0.004899211,0.03540559,-0.26645848,0.93822044,-0.22077669,0.029243886,0.23682213,0.97111285,0.9634026,0.25230485,-0.09054056,,0.011488028,-0.030079566,0.061105907,0.359103,-0.567834,0.74068177,-0.70937234,0.34966153,0.61198676,-0.6064949,-0.7451855,-0.2772413,,0.09841225,1.2953941,0.4271089,0.98261875,0.0075258766,-0.18548235,-0.10486622,-0.8019733,-0.58808327,-0.15317772,0.5973125,-0.7872448,,-0.11818918,0.25523645,-0.12397105,0.09596328,-0.9234942,0.37141556,0.60234773,0.35093898,0.71695125,-0.79244447,0.15492032,0.58994186,,-0.05345441,0.40565822,-0.4249453,-0.31364715,0.70938486,-0.6311883,-0.9445003,-0.30146995,0.13051827,-0.09769662,0.6370942,0.7645694,,1.1028603135693795,0.5431320803113355,0.21267063369000003,2.322525814034592,-0.8642258610164109,-0.13763460618975298,-0.4127704551213236,,-1.35425843682401,0.21176505814411029,0.13254305992,0.16460660563535162,0.15180315123940433,-0.5362629287165634,0.8742174419506625,,-0.11698505643804993,-0.12851077448590748,0.09694439508,-0.1167695939710949,,-5.441159e-05,-2.3841858e-07,6.67572e-06,1.0,6.2048435e-05,4.7065318e-05,-6.2040985e-05,1.0,1.2040138e-05,-4.708022e-05,-1.2099743e-05,1.0,352,1.079,1,1,0.381,False,-0.26196325577190027,1.0486459437446969
1.0906911429483443,17:06:21.116876,17:05:05.147304,0,,0.1094884,0.0049379766,0.035125807,-0.30426335,0.9262398,-0.2224944,0.022910267,0.24061602,0.97034997,0.95231247,0.29014447,-0.09443116,,0.011490352,-0.03009414,0.061124444,0.35912135,-0.56775737,0.74073154,-0.70938915,0.34968546,0.6119535,-0.60646427,-0.74523264,-0.27718148,,0.09841225,1.2953941,0.4271089,0.98261875,0.0075258766,-0.18548235,-0.10486622,-0.8019733,-0.58808327,-0.15317772,0.5973125,-0.7872448,,-0.117743276,0.25509417,-0.12382169,0.13380028,-0.91786647,0.37365583,0.59020644,0.3766898,0.7139756,-0.7960866,0.12500392,0.59213185,,-0.05346095,0.40566278,-0.4249676,-0.31367162,0.7093192,-0.63124985,-0.9444892,-0.3014959,0.13053884,-0.09772555,0.637155,0.76451504,,1.1028371453707568,0.5429235665237315,0.21286118832000003,2.2608769706501417,-0.8657288625138307,-0.09344599193515662,-0.4134238313858607,,-1.3543433868856265,0.21172644447973915,0.13252231928000002,0.16460660563535162,0.15180315123940433,-0.5362629287165634,0.8742174419506625,,-0.11698505643804993,-0.12851077448590748,0.09694439508,-0.1167695939710949,,-5.441159e-05,-2.3841858e-07,6.67572e-06,1.0,6.2048435e-05,4.7065318e-05,-6.2040985e-05,1.0,1.2040138e-05,-4.708022e-05,-1.2099743e-05,1.0,365,1.12,1,1,0.422,False,-0.26309523242380006,1.048742504146256
1.126061466988176,17:06:21.152088,17:05:05.147304,0,,0.1091267,0.004956804,0.03481932,-0.3361262,0.91518474,-0.22238705,0.016116917,0.2416803,0.97022206,0.941679,0.32253283,-0.095985144,,0.011483744,-0.030124687,0.061150253,0.3594701,-0.5676147,0.74067175,-0.7094377,0.34938943,0.61206627,-0.6062008,-0.74548006,-0.27709228,,0.09841225,1.2953941,0.4271089,0.98261875,0.0075258766,-0.18548235,-0.10486622,-0.8019733,-0.58808327,-0.15317772,0.5973125,-0.7872448,,-0.117334865,0.25492027,-0.123654075,0.1657036,-0.91258603,0.37380344,0.57803684,0.39698264,0.71293634,-0.7990092,0.097936034,0.5932898,,-0.053461246,0.40566322,-0.42500812,-0.31406155,0.7091945,-0.6311961,-0.94434476,-0.30188525,0.13068368,-0.097868636,0.63710946,0.76453465,,1.1028448681036311,0.5425451526128945,0.21306340956000003,2.2076157250050725,-0.8669585910117197,-0.05307407805413772,-0.41179039072451795,,-1.3543897232828719,0.2116414944181227,0.13248343058,0.16418722574838257,0.15180315123940433,-0.5362629287165634,0.873890753818394,,-0.11698505643804993,-0.12851077448590748,0.09694439508,-0.1167695939710949,,-5.441159e-05,-2.3841858e-07,6.67572e-06,1.0,6.2048435e-05,4.7065318e-05,-6.2040985e-05,1.0,1.2040138e-05,-4.708022e-05,-1.2099743e-05,1.0,387,1.19,1,1,0.492,False,-0.26232072208302704,1.0486459437446969
1.1613041709642857,17:06:21.221652,17:05:05.416442,0,,0.108222686,0.00508292,0.033606008,-0.40189248,0.8862273,-0.23039882,-0.0028472245,0.25040245,0.9681376,0.91568244,0.3897432,-0.09811169,,0.011484362,-0.030166648,0.06116104,0.35957816,-0.5677388,0.74052423,-0.70959526,0.3489833,0.61211544,-0.6059523,-0.74557585,-0.27737796,,0.09841225,1.2953941,0.4271089,0.98261875,0.0075258766,-0.18548235,-0.10486622,-0.8019733,-0.58808327,-0.15317772,0.5973125,-0.7872448,,-0.11622476,0.25427857,-0.12284099,0.23154293,-0.8948249,0.3816756,0.5465342,0.4442213,0.70990694,-0.8047908,0.04422485,0.5919087,,-0.05346715,0.40564436,-0.42504668,-0.31422165,0.70929784,-0.6310002,-0.9442648,-0.30221102,0.13050836,-0.09812593,0.63683987,0.7647263,,1.1031923910829713,0.540290114613621,0.21395914595,2.0916571862581304,-0.8698279575067939,0.028167360899270133,-0.41179039072451806,,-1.354397446015746,0.21140981243189597,0.13245102333,0.16397753580489804,0.15180315123940433,-0.5359362137560012,0.8745441300829311,,-0.11698505643804993,-0.12851077448590748,0.09694439508,-0.1167695939710949,,-5.441159e-05,-2.3841858e-07,6.67572e-06,1.0,6.2048435e-05,4.7065318e-05,-6.2040985e-05,1.0,1.2040138e-05,-4.708022e-05,-1.2099743e-05,1.0,396,1.218,1,1,0.52,False,-0.26333354329788383,1.0486459437446969
1.2308655257802457,17:06:21.253209,17:05:05.416442,0,,0.10790935,0.0052235946,0.03288679,-0.41588718,0.8793842,-0.23177826,-0.006744176,0.25187552,0.9677361,0.9093912,0.40403217,-0.09882122,,0.011487871,-0.030188255,0.061159432,0.3597054,-0.5677169,0.74047923,-0.7097008,0.34874195,0.6121306,-0.6057532,-0.74570537,-0.27746484,,0.09841225,1.2953941,0.4271089,0.98261875,0.0075258766,-0.18548235,-0.10486622,-0.8019733,-0.58808327,-0.15317772,0.5973125,-0.7872448,,-0.11577392,0.25395304,-0.12227,0.24570549,-0.8904353,0.38308463,0.5394824,0.4539532,0.709144,-0.8053493,0.032426868,0.591913,,-0.05347215,0.40562895,-0.42506146,-0.31438813,0.7092772,-0.6309405,-0.9441903,-0.30246672,0.13045521,-0.0983096,0.63674146,0.76478463,,1.1035553595280598,0.53860655884704,0.21455155048000002,2.0650265634355955,-0.8696913210070284,0.047822198109589875,-0.4124437669890551,,-1.3543897232828719,0.21125535777441146,0.13244065301000002,0.16376784586141352,0.15180315123940433,-0.5358545350158607,0.8743807860167969,,-0.11698505643804993,-0.12851077448590748,0.09694439508,-0.1167695939710949,,-5.441159e-05,-2.3841858e-07,6.67572e-06,1.0,6.2048435e-05,4.7065318e-05,-6.2040985e-05,1.0,1.2040138e-05,-4.708022e-05,-1.2099743e-05,1.0,409,1.259,1,1,0.561,False,-0.26327396557936344,1.0489356249493738
1.2624208589550108,17:06:21.293381,17:05:05.416442,0,,0.107457586,0.005369857,0.03189929,-0.42565382,0.8742071,-0.23362531,-0.008828372,0.25415763,0.96712255,0.90484303,0.4137219,-0.10046548,,0.011489794,-0.030205123,0.06116098,0.35967067,-0.5676836,0.74052155,-0.7097759,0.34871235,0.61206037,-0.6056857,-0.7457446,-0.27750656,,0.09841225,1.2953941,0.4271089,0.98261875,0.0075258766,-0.18548235,-0.10486622,-0.8019733,-0.58808327,-0.15317772,0.5973125,-0.7872448,,-0.11514072,0.25346848,-0.1215184,0.25570872,-0.88675,0.3850812,0.5349723,0.46156973,0.7076426,-0.80524385,0.025057377,0.5924141,,-0.053475715,0.4056191,-0.4250749,-0.31437138,0.70924836,-0.63098127,-0.9441849,-0.30251804,0.13037516,-0.098414846,0.6367492,0.76476467,,1.104350801014105,0.5356564748890862,0.21533191706000002,2.044267259030628,-0.8691447750079667,0.0628138083813704,-0.4119537347906523,,-1.3543897232828719,0.21114723951417233,0.13243028269,0.16376784586141352,0.15180315123940433,-0.5358545350158607,0.8743807860167969,,-0.11698505643804993,-0.12851077448590748,0.09694439508,-0.1167695939710949,,-5.441159e-05,-2.3841858e-07,6.67572e-06,1.0,6.2048435e-05,4.7065318e-05,-6.2040985e-05,1.0,1.2040138e-05,-4.708022e-05,-1.2099743e-05,1.0,422,1.3,0,1,0.561,False,-0.26178452261633733,1.048452822941579
1.302594677777961,17:06:21.332797,17:05:05.416442,0,,0.10697351,0.0054923594,0.030912742,-0.4326398,0.87068623,-0.23394105,-0.006200105,0.2566032,0.96649694,0.9015455,0.41959545,-0.105618566,,0.011486452,-0.030221842,0.06115979,0.3598462,-0.5675876,0.74050987,-0.7097575,0.3486357,0.61212534,-0.605603,-0.74585354,-0.27739438,,0.09841225,1.2953941,0.4271089,0.98261875,0.0075258766,-0.18548235,-0.10486622,-0.8019733,-0.58808327,-0.15317772,0.5973125,-0.7872448,,-0.114479646,0.25296524,-0.12078879,0.26346806,-0.8839895,0.38619572,0.53500235,0.46702912,0.7040286,-0.8027185,0.021126576,0.59598374,,-0.05347365,0.40560767,-0.42508748,-0.31455585,0.70916533,-0.63098264,-0.9441226,-0.30265722,0.13050328,-0.09842304,0.63677555,0.76474166,,1.1054628745479933,0.5324360952805346,0.21606950607000003,2.0297986529301957,-0.8647724070154725,0.07297046380669936,-0.41326048731972653,,-1.3543433868856265,0.21103912125393318,0.13241991237,0.163558155917929,0.15193978773916977,-0.5359659529195572,0.8743807860167969,,-0.11698505643804993,-0.12851077448590748,0.09694439508,-0.1167695939710949,,-5.441159e-05,-2.3841858e-07,6.67572e-06,1.0,6.2048435e-05,4.7065318e-05,-6.2040985e-05,1.0,1.2040138e-05,-4.708022e-05,-1.2099743e-05,1.0,431,1.329,0,1,0.561,False,-0.2622611443645053,1.0486459437446969
1.3420102919917554,17:06:21.373042,17:05:05.593525,0,,0.10640337,0.0056299493,0.029989377,-0.43816572,0.86719596,-0.23660526,-0.0031615496,0.26172975,0.96513605,0.89888865,0.42363748,-0.11193943,,0.011484146,-0.030239396,0.06115514,0.3604154,-0.5673493,0.7404157,-0.7096597,0.34837335,0.612388,-0.6053791,-0.74615735,-0.2770659,,0.09841225,1.2953941,0.4271089,0.98261875,0.0075258766,-0.18548235,-0.10486622,-0.8019733,-0.58808327,-0.15317772,0.5973125,-0.7872448,,-0.11374358,0.25251126,-0.12011892,0.2697531,-0.88055176,0.38969463,0.5357615,0.47351938,0.6990987,-0.80012053,0.020199342,0.59949905,,-0.053472105,0.40559295,-0.4250983,-0.3151437,0.7089587,-0.6309216,-0.94392973,-0.30307457,0.13092934,-0.09839281,0.6368072,0.7647192,,1.1071541530474485,0.5291693792747376,0.21675913235000002,2.017426946264609,-0.8599901295236821,0.07870892851391098,-0.4142405517165321,,-1.3542893277555068,0.21090011206219714,0.13241213463,0.16292908608747542,0.15221306073870067,-0.53618878872695,0.8743807860167969,,-0.11698505643804993,-0.12851077448590748,0.09694439508,-0.1167695939710949,,-5.441159e-05,-2.3841858e-07,6.67572e-06,1.0,6.2048435e-05,4.7065318e-05,-6.2040985e-05,1.0,1.2040138e-05,-4.708022e-05,-1.2099743e-05,1.0,444,1.37,0,1,0.561,False,-0.26273776611267374,1.0486459437446969
1.382252967916429,17:06:21.402590,17:05:05.593525,0,,0.10596993,0.0057407543,0.029355064,-0.44147187,0.8652584,-0.23755108,0.00015413761,0.26482037,0.9642978,0.8972751,0.4256737,-0.11704421,,0.011485226,-0.030256622,0.06114477,0.36034602,-0.5673513,0.740448,-0.7097689,0.3483079,0.6122987,-0.60529244,-0.7461864,-0.27717695,,0.09841225,1.2953941,0.4271089,0.98261875,0.0075258766,-0.18548235,-0.10486622,-0.8019733,-0.58808327,-0.15317772,0.5973125,-0.7872448,,-0.113194875,0.25221196,-0.119658686,0.27373445,-0.87857175,0.39138365,0.5373949,0.47719193,0.6953378,-0.79766923,0.019989667,0.60276383,,-0.05347291,0.40557387,-0.42510465,-0.31509888,0.7089598,-0.6309427,-0.94392914,-0.30313873,0.13078497,-0.09854187,0.6367754,0.7647265,,1.1086060268278026,0.5268525594124702,0.21723227820000002,2.0100877982426506,-0.8554811250314226,0.08221986682429855,-0.4119537347906523,,-1.354227545892513,0.21075338013758688,0.13240954205000002,0.16292908608747542,0.15221306073870067,-0.53618878872695,0.8743807860167969,,-0.11698505643804993,-0.12851077448590748,0.09694439508,-0.1167695939710949,,-5.441159e-05,-2.3841858e-07,6.67572e-06,1.0,6.2048435e-05,4.7065318e-05,-6.2040985e-05,1.0,1.2040138e-05,-4.708022e-05,-1.2099743e-05,1.0,457,1.411,0,1,0.561,False,-0.26255903295711036,1.0485976635439174
1.4117980818264186,17:06:21.445666,17:05:05.593525,0,,0.10533629,0.005950719,0.028359339,-0.44670126,0.8621056,-0.23923215,0.006984532,0.27074525,0.96262574,0.89465594,0.42833516,-0.12696373,,0.011491403,-0.030278496,0.06113535,0.36031783,-0.5672556,0.7405349,-0.7098157,0.34835798,0.61221594,-0.60525423,-0.7462358,-0.27712741,,0.09841225,1.2953941,0.4271089,0.98261875,0.0075258766,-0.18548235,-0.10486622,-0.8019733,-0.58808327,-0.15317772,0.5973125,-0.7872448,,-0.112373866,0.2517713,-0.11890446,0.28027308,-0.8751066,0.3945067,0.5412019,0.4834882,0.68799686,-0.79280984,0.020680765,0.60911804,,-0.053479295,0.40555218,-0.42511433,-0.31508136,0.7088781,-0.63104326,-0.94392824,-0.30315086,0.13076313,-0.098606184,0.6368606,0.76464725,,1.110822451162705,0.5234468342149373,0.21799579301000002,1.9998129910119087,-0.8467363890464344,0.08554399972571947,-0.41293379918745804,,-1.3541966549610163,0.21055258908285704,0.13240565318000003,0.16292908608747542,0.15234969723846611,-0.5363002066306464,0.8743807860167969,,-0.11698505643804993,-0.12851077448590748,0.09694439508,-0.1167695939710949,,-5.441159e-05,-2.3841858e-07,6.67572e-06,1.0,6.2048435e-05,4.7065318e-05,-6.2040985e-05,1.0,1.2040138e-05,-4.708022e-05,-1.2099743e-05,1.0,466,1.44,0,1,0.561,False,-0.26285692154971585,1.0489356249493738
1.454883405007422,17:06:21.476072,17:05:05.593525,0,,0.10501748,0.0060317293,0.027767882,-0.4495753,0.86041445,-0.23993543,0.011553466,0.27419052,0.9616059,0.89316773,0.42954212,-0.13321015,,0.011492722,-0.03028398,0.061133206,0.36030015,-0.5672472,0.74055,-0.7098488,0.34834212,0.6121867,-0.605226,-0.74624956,-0.27715212,,0.09841225,1.2953941,0.4271089,0.98261875,0.0075258766,-0.18548235,-0.10486622,-0.8019733,-0.58808327,-0.15317772,0.5973125,-0.7872448,,-0.1119486,0.25147533,-0.11846909,0.28399315,-0.8731708,0.39613205,0.5439143,0.4869452,0.6834044,-0.7896234,0.021379728,0.6132192,,-0.053480703,0.40554693,-0.42511696,-0.3150714,0.70887077,-0.6310564,-0.9439268,-0.30317217,0.13072436,-0.09865207,0.6368586,0.764643,,1.1117646245733603,0.5214312009347647,0.21842875387000002,1.9947804323682803,-0.8414075655555823,0.08683453455125789,-0.4124437669890551,,-1.354188932228142,0.21050625268561168,0.13240435689000002,0.16292908608747542,0.15234969723846611,-0.5363002066306464,0.8743807860167969,,-0.11698505643804993,-0.12851077448590748,0.09694439508,-0.1167695939710949,,-5.441159e-05,-2.3841858e-07,6.67572e-06,1.0,6.2048435e-05,4.7065318e-05,-6.2040985e-05,1.0,1.2040138e-05,-4.708022e-05,-1.2099743e-05,1.0,479,1.481,0,1,0.561,False,-0.2629164992682367,1.048549383343138
1.485280514927581,17:06:21.513065,17:05:05.593525,0,,0.10476445,0.0060696155,0.027221307,-0.45196632,0.858864,-0.24099626,0.0156824,0.27777308,0.9605187,0.8918972,0.43034264,-0.13901329,,0.011493266,-0.030279748,0.06113547,0.36018106,-0.5672259,0.7406243,-0.7097374,0.34861845,0.6121585,-0.60542744,-0.7461367,-0.2770157,,0.09841225,1.2953941,0.4271089,0.98261875,0.0075258766,-0.18548235,-0.10486622,-0.8019733,-0.58808327,-0.15317772,0.5973125,-0.7872448,,-0.11160144,0.25117278,-0.11807899,0.28714117,-0.8712813,0.39801866,0.5464126,0.4902676,0.6790221,-0.7867549,0.022507193,0.6168551,,-0.053481262,0.40555137,-0.4251151,-0.31491202,0.7088546,-0.6311542,-0.9439999,-0.30290973,0.13080475,-0.098461196,0.63700145,0.7645486,,1.112336106806053,0.5195545768463281,0.21881375200000003,1.990796323442074,-0.8368985610633227,0.08716000199616358,-0.4119537347906522,,-1.3542043776938903,0.21052942088423435,0.13240565318000003,0.16313877603095994,0.15248633373823153,-0.5364116245343428,0.8743807860167969,,-0.11698505643804993,-0.12851077448590748,0.09694439508,-0.1167695939710949,,-5.441159e-05,-2.3841858e-07,6.67572e-06,1.0,6.2048435e-05,4.7065318e-05,-6.2040985e-05,1.0,1.2040138e-05,-4.708022e-05,-1.2099743e-05,1.0,492,1.522,0,1,0.561,False,-0.26309523242380006,1.0491287457524916
1.522278380813077,17:06:21.555884,17:05:05.767017,0,,0.104491524,0.006124079,0.026449993,-0.4552282,0.8566329,-0.24279097,0.020679355,0.28278264,0.95896107,0.8901347,0.43152535,-0.1464454,,0.0114952065,-0.030277066,0.06113714,0.36019436,-0.5672129,0.7406277,-0.709724,0.3486321,0.61216617,-0.6054353,-0.7461401,-0.27698934,,0.09841225,1.2953941,0.4271089,0.98261875,0.0075258766,-0.18548235,-0.10486622,-0.8019733,-0.58808327,-0.15317772,0.5973125,-0.7872448,,-0.11119338,0.2507475,-0.1175089,0.29134881,-0.86858886,0.40083572,0.5492964,0.49495095,0.6732734,-0.7831918,0.024020202,0.6213161,,-0.053483196,0.40555418,-0.4251137,-0.3149227,0.7088436,-0.63116115,-0.94399816,-0.30290446,0.13082959,-0.09844382,0.6370162,0.7645385,,1.1127299661826384,0.5171219159909474,0.21937504557,1.9855540748549612,-0.8315697375724705,0.08730703445973403,-0.41244376698905505,,-1.354227545892513,0.21054486634998282,0.13240694947,0.16313877603095994,0.15248633373823153,-0.5364116245343428,0.8743807860167969,,-0.11698505643804993,-0.12851077448590748,0.09694439508,-0.1167695939710949,,-5.441159e-05,-2.3841858e-07,6.67572e-06,1.0,6.2048435e-05,4.7065318e-05,-6.2040985e-05,1.0,1.2040138e-05,-4.708022e-05,-1.2099743e-05,1.0,501,1.55,0,1,0.561,False,-0.26351227645344677,1.048549383343138
1.5650943049695343,17:06:21.589617,17:05:05.767017,0,,0.104239024,0.006178014,0.025599852,-0.45971006,0.85405463,-0.24342841,0.028319627,0.28806847,0.9571909,0.8876174,0.43313646,-0.15661463,,0.011495639,-0.030277811,0.061136663,0.3601919,-0.56715006,0.74067706,-0.7097294,0.34867996,0.6121327,-0.6054304,-0.74616563,-0.27693135,,0.09841225,1.2953941,0.4271089,0.98261875,0.0075258766,-0.18548235,-0.10486622,-0.8019733,-0.58808327,-0.15317772,0.5973125,-0.7872448,,-0.11079157,0.25027442,-0.11687323,0.29725885,-0.86559296,0.40297154,0.5538182,0.5001096,0.66571444,-0.77776766,0.025283456,0.6280431,,-0.053483617,0.40555334,-0.42511395,-0.3149215,0.70879,-0.631222,-0.94399774,-0.30289745,0.1308486,-0.09845134,0.6370792,0.76448506,,1.1130002618332364,0.5145888596082018,0.21998170929000002,1.979892446380879,-0.8233715475865442,0.08756465314989653,-0.4126071110551893,,-1.354227545892513,0.2105371436171086,0.13240694947,0.16313877603095994,0.15248633373823153,-0.5364933032744833,0.8742174419506626,,-0.11698505643804993,-0.12851077448590748,0.09694439508,-0.1167695939710949,,-5.441159e-05,-2.3841858e-07,6.67572e-06,1.0,6.2048435e-05,4.7065318e-05,-6.2040985e-05,1.0,1.2040138e-05,-4.708022e-05,-1.2099743e-05,1.0,514,1.591,0,1,0.561,False,-0.2629164992682367,1.0485976635439174
1.5988154779188335,17:06:21.622185,17:05:05.767017,0,,0.10406342,0.006207764,0.025067344,-0.4623232,0.8524138,-0.24422953,0.033474088,0.29201454,0.95582783,0.8860795,0.433726,-0.16353902,,0.011498645,-0.030279987,0.061134636,0.3601848,-0.5672556,0.74059963,-0.7097499,0.34857464,0.6121689,-0.6054106,-0.7461345,-0.27705842,,0.09841225,1.2953941,0.4271089,0.98261875,0.0075258766,-0.18548235,-0.10486622,-0.8019733,-0.58808327,-0.15317772,0.5973125,-0.7872448,,-0.11052347,0.2499747,-0.11648133,0.30081826,-0.86352605,0.4047606,0.55697,0.5035933,0.6604379,-0.77414006,0.026767723,0.63244814,,-0.053486425,0.40555018,-0.42511383,-0.31491947,0.7088798,-0.6311221,-0.94399536,-0.30293417,0.13078073,-0.098480634,0.63696176,0.7645792,,1.1132551120180858,0.5129439175059919,0.22035633710000002,1.976747097228611,-0.8179060875959265,0.08678348030836502,-0.4114637025922494,,-1.3542352686253873,0.21050625268561168,0.13240824576000002,0.16313877603095994,0.15248633373823153,-0.5363299457942022,0.8742174419506626,,-0.11698505643804993,-0.12851077448590748,0.09694439508,-0.1167695939710949,,-5.441159e-05,-2.3841858e-07,6.67572e-06,1.0,6.2048435e-05,4.7065318e-05,-6.2040985e-05,1.0,1.2040138e-05,-4.708022e-05,-1.2099743e-05,1.0,527,1.632,0,1,0.561,False,-0.2636314318904893,1.048742504146256
1.631333458935842,17:06:21.662672,17:05:05.767017,0,,0.103834875,0.0063011944,0.024316028,-0.4663294,0.85019624,-0.24434274,0.04094374,0.2966629,0.9541042,0.8836632,0.43492246,-0.17315298,,0.011498772,-0.030288093,0.061131537,0.3601566,-0.56731474,0.74056804,-0.70979553,0.34849823,0.6121595,-0.6053739,-0.7461252,-0.2771636,,0.09841225,1.2953941,0.4271089,0.98261875,0.0075258766,-0.18548235,-0.10486622,-0.8019733,-0.58808327,-0.15317772,0.5973125,-0.7872448,,-0.11015646,0.249593,-0.115893885,0.30622274,-0.8609015,0.40629584,0.5614218,0.5079973,0.6532567,-0.76878685,0.028061274,0.6388892,,-0.053486727,0.4055426,-0.425118,-0.31490162,0.70893,-0.63107467,-0.9439948,-0.30297214,0.13069685,-0.098543115,0.63688785,0.76463264,,1.1136798623261681,0.5108433341642029,0.22091763067000003,1.9721339184719517,-0.8097078976100001,0.08663270529782457,-0.4130971432535922,,-1.3542121004267647,0.21044447082261789,0.13240565318000003,0.16313877603095994,0.15248633373823153,-0.5362482670540617,0.8740540978845283,,-0.11698505643804993,-0.12851077448590748,0.09694439508,-0.1167695939710949,,-5.441159e-05,-2.3841858e-07,6.67572e-06,1.0,6.2048435e-05,4.7065318e-05,-6.2040985e-05,1.0,1.2040138e-05,-4.708022e-05,-1.2099743e-05,1.0,536,1.661,0,1,0.561,False,-0.26297607698675796,1.0491287457524916
1.6718742328230292,17:06:21.703864,17:05:05.767017,0,,0.10360456,0.006375164,0.023598239,-0.47040957,0.84833014,-0.24300389,0.048889875,0.30000594,0.9526836,0.8810929,0.43627104,-0.18260059,,0.011501163,-0.03029918,0.061126888,0.3602559,-0.5674381,0.7404253,-0.70994985,0.34810492,0.6122044,-0.6051339,-0.7462151,-0.27744573,,0.09841225,1.2953941,0.4271089,0.98261875,0.0075258766,-0.18548235,-0.10486622,-0.8019733,-0.58808327,-0.15317772,0.5973125,-0.7872448,,-0.109796405,0.24921605,-0.11534435,0.3117951,-0.85883474,0.40643167,0.5661596,0.5114565,0.64643294,-0.7630512,0.028550562,0.64570713,,-0.053489245,0.4055317,-0.4251231,-0.31505144,0.7090328,-0.6308844,-0.9439186,-0.3032852,0.13052115,-0.09879414,0.6366244,0.7648196,,1.1141277808328731,0.5087813644867849,0.22143873925000002,1.9677304296587763,-0.8009631616250119,0.08766983347530999,-0.41407720765039785,,-1.3541966549610163,0.21035952076100142,0.1324030606,0.16292908608747542,0.15234969723846611,-0.5359734916700841,0.8743807860167968,,-0.11698505643804993,-0.12851077448590748,0.09694439508,-0.1167695939710949,,-5.441159e-05,-2.3841858e-07,6.67572e-06,1.0,6.2048435e-05,4.7065318e-05,-6.2040985e-05,1.0,1.2040138e-05,-4.708022e-05,-1.2099743e-05,1.0,549,1.702,0,1,0.561,False,-0.26351227645344677,1.0491770259532711
1.713062085909769,17:06:21.734709,17:05:05.767017,0,,0.10337465,0.0063926205,0.022904292,-0.47423673,0.8452573,-0.24625142,0.055495918,0.307849,0.9498154,0.8786466,0.43677133,-0.19290176,,0.011506841,-0.03031271,0.061124265,0.3602664,-0.5673368,0.7404978,-0.7099385,0.34819186,0.612168,-0.60514086,-0.7462515,-0.27733245,,0.09841225,1.2953941,0.4271089,0.98261875,0.0075258766,-0.18548235,-0.10486622,-0.8019733,-0.58808327,-0.15317772,0.5973125,-0.7872448,,-0.10944907,0.24880847,-0.114846416,0.31690532,-0.8547933,0.41097376,0.5699069,0.51797706,0.63789177,-0.7581406,0.03206547,0.6513023,,-0.053495545,0.40552062,-0.4251308,-0.31505966,0.70894647,-0.6309773,-0.9439174,-0.30326414,0.13057882,-0.09877939,0.6367305,0.7647332,,1.1144057992163452,0.506618999282002,0.22191707026000002,1.963117250902117,-0.7937214271374435,0.08421504678361647,-0.4124437669890552,,-1.3542043776938903,0.21023595703501383,0.13239917173000001,0.16292908608747542,0.15248633373823153,-0.5360849095737805,0.8743807860167968,,-0.11698505643804993,-0.12851077448590748,0.09694439508,-0.1167695939710949,,-5.441159e-05,-2.3841858e-07,6.67572e-06,1.0,6.2048435e-05,4.7065318e-05,-6.2040985e-05,1.0,1.2040138e-05,-4.708022e-05,-1.2099743e-05,1.0,562,1.743,0,1,0.561,False,-0.2626781883941529,1.0486942239454764
1.743903341004625,17:06:21.781671,17:05:05.767017,0,,0.103093676,0.0063250735,0.022283092,-0.47887716,0.8409481,-0.25195843,0.057543308,0.31645876,0.9468593,0.87599397,0.4389307,-0.19993594,,0.0115118325,-0.03032177,0.061121225,0.36024195,-0.56730473,0.7405343,-0.70999664,0.3481717,0.61211216,-0.6050873,-0.7462854,-0.27735844,,0.09841225,1.2953941,0.4271089,0.98261875,0.0075258766,-0.18548235,-0.10486622,-0.8019733,-0.58808327,-0.15317772,0.5973125,-0.7872448,,-0.10907698,0.2483765,-0.114466436,0.32218364,-0.84972566,0.41732967,0.56988806,0.5260978,0.63122797,-0.7559268,0.03445987,0.6537486,,-0.053500716,0.4055121,-0.42513493,-0.31504926,0.7089188,-0.6310136,-0.94391227,-0.30330518,0.1305204,-0.098861314,0.6367418,0.7647132,,1.1146143130039492,0.5043330703512316,0.22230725355000003,1.9549393431062208,-0.7904421511430729,0.08268451945687016,-0.41211707885678645,,-1.3542121004267647,0.21015100697339736,0.13239787544,0.16292908608747542,0.15248633373823153,-0.5360849095737805,0.8743807860167968,,-0.11698505643804993,-0.12851077448590748,0.09694439508,-0.1167695939710949,,-5.441159e-05,-2.3841858e-07,6.67572e-06,1.0,6.2048435e-05,4.7065318e-05,-6.2040985e-05,1.0,1.2040138e-05,-4.708022e-05,-1.2099743e-05,1.0,571,1.771,0,1,0.561,False,-0.2621419889274632,1.048452822941579
1.7908360830042511,17:06:21.811411,17:05:06.038754,0,,0.10287709,0.006243661,0.021836743,-0.48224598,0.83840925,-0.25398582,0.06141165,0.32156733,0.9448931,0.8738807,0.44007322,-0.20656276,,0.01151105,-0.0303218,0.061121047,0.36028406,-0.56725085,0.740555,-0.7099067,0.34828413,0.61215246,-0.60516775,-0.74627376,-0.27721396,,0.09841225,1.2953941,0.4271089,0.98261875,0.0075258766,-0.18548235,-0.10486622,-0.8019733,-0.58808327,-0.15317772,0.5973125,-0.7872448,,-0.10880006,0.2480398,-0.11421602,0.3263931,-0.8467121,0.42017397,0.5716594,0.5308325,0.6256376,-0.7527769,0.03599259,0.657291,,-0.05349992,0.40551198,-0.42513496,-0.31506994,0.70887345,-0.63105416,-0.9439186,-0.30322772,0.13065487,-0.09873534,0.63682914,0.7646567,,1.1148305495244275,0.5025568417901599,0.22255225236000004,1.9501164744060766,-0.785796510151048,0.08200010285653331,-0.41179039072451795,,-1.3542043776938903,0.21014328424052314,0.13239787544,0.16292908608747542,0.15262297023799698,-0.5361963274774769,0.8743807860167968,,-0.11698505643804993,-0.12851077448590748,0.09694439508,-0.1167695939710949,,-5.441159e-05,-2.3841858e-07,6.67572e-06,1.0,6.2048435e-05,4.7065318e-05,-6.2040985e-05,1.0,1.2040138e-05,-4.708022e-05,-1.2099743e-05,1.0,584,1.812,0,1,0.561,False,-0.2629164992682367,1.0482597021384612
1.8206250488292426,17:06:21.846721,17:05:06.038754,0,,0.10262355,0.0061443597,0.021420434,-0.4846391,0.83636355,-0.25616598,0.06831902,0.32815495,0.9421501,0.8720422,0.43910173,-0.21617639,,0.011510145,-0.030322991,0.06111765,0.36027074,-0.5672638,0.74055153,-0.7099201,0.3482705,0.6121447,-0.6051599,-0.7462703,-0.27724037,,0.09841225,1.2953941,0.4271089,0.98261875,0.0075258766,-0.18548235,-0.10486622,-0.8019733,-0.58808327,-0.15317772,0.5973125,-0.7872448,,-0.10849498,0.24770658,-0.11400783,0.33004436,-0.8435966,0.42357475,0.5760289,0.53547454,0.6176227,-0.74783784,0.040148407,0.6626663,,-0.053498574,0.40550873,-0.42513388,-0.31505927,0.7088844,-0.6310471,-0.9439203,-0.30323297,0.13063005,-0.0987527,0.6368144,0.7646668,,1.115324804428378,0.5006647722359749,0.22274410328000002,1.9480195749712312,-0.7785547756634796,0.07772852876343406,-0.41244376698905516,,-1.3541812094952679,0.21012783877477467,0.13239917173000001,0.16292908608747542,0.15262297023799698,-0.5361963274774769,0.8743807860167968,,-0.11698505643804993,-0.12851077448590748,0.09694439508,-0.1167695939710949,,-5.441159e-05,-2.3841858e-07,6.67572e-06,1.0,6.2048435e-05,4.7065318e-05,-6.2040985e-05,1.0,1.2040138e-05,-4.708022e-05,-1.2099743e-05,1.0,597,1.853,0,1,0.561,False,-0.2636314318904893,1.0486459437446969
1.8559290179982781,17:06:21.884067,17:05:06.038754,0,,0.102238856,0.006034583,0.020932928,-0.4794668,0.83977723,-0.2547269,0.082250446,0.33199325,0.939689,0.87369704,0.4295982,-0.22825193,,0.011511091,-0.030322962,0.061116338,0.36026824,-0.56726146,0.7405546,-0.7099254,0.3482684,0.6121397,-0.6051551,-0.7462731,-0.27724332,,0.09841225,1.2953941,0.4271089,0.98261875,0.0075258766,-0.18548235,-0.10486622,-0.8019733,-0.58808327,-0.15317772,0.5973125,-0.7872448,,-0.10805126,0.24732065,-0.11378008,0.32673538,-0.8447105,0.42392,0.58818537,0.53282976,0.6083835,-0.7397851,0.050563153,0.6709407,,-0.05349929,0.40550762,-0.4251329,-0.31505808,0.7088824,-0.63105005,-0.9439199,-0.30323663,0.13062432,-0.098760225,0.63681495,0.76466537,,1.1165527189553797,0.49789231113412835,0.22295280597000003,1.9591331419759108,-0.7678971286817754,0.0668326062913181,-0.4122804229229208,,-1.3541812094952679,0.21012011604190045,0.13240046802000002,0.16292908608747542,0.15262297023799698,-0.5361963274774769,0.8743807860167968,,-0.11698505643804993,-0.12851077448590748,0.09694439508,-0.1167695939710949,,-5.441159e-05,-2.3841858e-07,6.67572e-06,1.0,6.2048435e-05,4.7065318e-05,-6.2040985e-05,1.0,1.2040138e-05,-4.708022e-05,-1.2099743e-05,1.0,606,1.882,0,1,0.561,False,-0.2618441003348577,1.049080465551712
1.893282112898305,17:06:21.914335,17:05:06.038754,0,,0.10187039,0.0059753284,0.020592287,-0.47203025,0.84415525,-0.25414434,0.09050864,0.3331628,0.9385152,0.876924,0.42000526,-0.23366642,,0.011512268,-0.030323528,0.061116755,0.36031348,-0.5671934,0.74058473,-0.7098391,0.34838507,0.61217344,-0.6052295,-0.7462704,-0.27708828,,0.09841225,1.2953941,0.4271089,0.98261875,0.0075258766,-0.18548235,-0.10486622,-0.8019733,-0.58808327,-0.15317772,0.5973125,-0.7872448,,-0.107641615,0.24706383,-0.113633245,0.3201257,-0.84713453,0.42412576,0.5967936,0.5280142,0.6041841,-0.7357696,0.059700683,0.67459536,,-0.053500567,0.40550756,-0.42513338,-0.3150831,0.70882493,-0.63110214,-0.9439241,-0.3031642,0.13076201,-0.09864021,0.6369134,0.76459885,,1.1178578608111236,0.49561410493623215,0.22311873109000002,1.9708757788110443,-0.7632514876897504,0.05789863693678443,-0.41179039072451795,,-1.354188932228142,0.210104670576152,0.13240046802000002,0.16292908608747542,0.15275960673776243,-0.5363077453811733,0.8743807860167968,,-0.11698505643804993,-0.12851077448590748,0.09694439508,-0.1167695939710949,,-5.441159e-05,-2.3841858e-07,6.67572e-06,1.0,6.2048435e-05,4.7065318e-05,-6.2040985e-05,1.0,1.2040138e-05,-4.708022e-05,-1.2099743e-05,1.0,619,1.923,0,1,0.561,False,-0.2630356547052788,1.0486459437446969
1.9235143978148699,17:06:21.956433,17:05:06.175454,0,,0.10133111,0.0058815703,0.020175204,-0.4621024,0.84966516,-0.25402868,0.10327217,0.3360554,0.93616325,0.880793,0.4063691,-0.24303886,,0.011514168,-0.030326568,0.061113596,0.3603432,-0.5671277,0.7406206,-0.7097759,0.3484869,0.6121887,-0.6052859,-0.7462728,-0.2769587,,0.09841225,1.2953941,0.4271089,0.98261875,0.0075258766,-0.18548235,-0.10486622,-0.8019733,-0.58808327,-0.15317772,0.5973125,-0.7872448,,-0.10705728,0.24673158,-0.11348586,0.31162998,-0.84970725,0.42530504,0.6094063,0.5221419,0.59665054,-0.72904783,0.07324936,0.680532,,-0.05350217,0.40550303,-0.4251334,-0.31509778,0.70876926,-0.6311573,-0.9439285,-0.30310506,0.13086788,-0.098551825,0.6370035,0.7645352,,1.1198889395570446,0.49253273451941654,0.22328724879000003,1.9868122145158682,-0.7550532977038239,0.04427086980305128,-0.4126071110551894,,-1.3541812094952679,0.21005833417890665,0.13240176431,0.16292908608747542,0.15289624323752785,-0.5364191632848698,0.8743807860167968,,-0.11698505643804993,-0.12851077448590748,0.09694439508,-0.1167695939710949,,-5.441159e-05,-2.3841858e-07,6.67572e-06,1.0,6.2048435e-05,4.7065318e-05,-6.2040985e-05,1.0,1.2040138e-05,-4.708022e-05,-1.2099743e-05,1.0,632,1.964,1,2,0.564,False,-0.2632143878608417,1.0487907843470352
1.9656475549563766,17:06:21.996681,17:05:06.175454,0,,0.10063111,0.0057392716,0.019686714,-0.44751108,0.85693645,-0.25572193,0.11738786,0.33976892,0.9331544,0.8865404,0.38757825,-0.25264448,,0.011513799,-0.030333422,0.061107576,0.36030945,-0.56713814,0.74062896,-0.70982337,0.34845424,0.61215234,-0.60525036,-0.7462801,-0.27701652,,0.09841225,1.2953941,0.4271089,0.98261875,0.0075258766,-0.18548235,-0.10486622,-0.8019733,-0.58808327,-0.15317772,0.5973125,-0.7872448,,-0.10631099,0.24631582,-0.11334774,0.2984606,-0.85297894,0.42819175,0.62427986,0.5138291,0.58843374,-0.72193897,0.091687195,0.6858553,,-0.0535014,0.40549406,-0.42513487,-0.3150744,0.70877796,-0.6311592,-0.94392955,-0.30313095,0.13079983,-0.098615855,0.6369815,0.76454526,,1.1224606096041614,0.48857097255493936,0.22347261826000003,2.0084102786947744,-0.7472650172171938,0.02574991701141144,-0.41358717545199497,,-1.3541425958308966,0.20999655231591285,0.13240176431,0.16292908608747542,0.15289624323752785,-0.5364191632848698,0.8743807860167968,,-0.11698505643804993,-0.12851077448590748,0.09694439508,-0.1167695939710949,,-5.441159e-05,-2.3841858e-07,6.67572e-06,1.0,6.2048435e-05,4.7065318e-05,-6.2040985e-05,1.0,1.2040138e-05,-4.708022e-05,-1.2099743e-05,1.0,641,1.993,1,2,0.593,False,-0.26154621174225356,1.0490321853509326
2.0058981508482248,17:06:22.025404,17:05:06.175454,0,,0.10014198,0.005620159,0.019337013,-0.43837023,0.86125803,-0.25703338,0.12743935,0.3426468,0.93078053,0.8897139,0.37527022,-0.2599645,,0.011513144,-0.03033521,0.06110567,0.36029893,-0.56714517,0.7406287,-0.7098358,0.34844375,0.6121438,-0.60524184,-0.7462797,-0.2770361,,0.09841225,1.2953941,0.4271089,0.98261875,0.0075258766,-0.18548235,-0.10486622,-0.8019733,-0.58808327,-0.15317772,0.5973125,-0.7872448,,-0.10579091,0.24600458,-0.113256276,0.29045987,-0.8546277,0.4304004,0.63430285,0.5087347,0.5821073,-0.7164447,0.10392541,0.6898598,,-0.053500593,0.4054915,-0.42513517,-0.3150665,0.7087839,-0.63115644,-0.94393045,-0.30313691,0.13077946,-0.09863245,0.63697207,0.76455104,,1.1241905017679876,0.4857907887202186,0.22359446952000003,2.021830435077784,-0.741116374727749,0.01371173969298417,-0.4121170788567866,,-1.3541271503651482,0.2099811068501644,0.13240176431,0.16292908608747542,0.15289624323752785,-0.5364191632848698,0.8743807860167968,,-0.11698505643804993,-0.12851077448590748,0.09694439508,-0.1167695939710949,,-5.441159e-05,-2.3841858e-07,6.67572e-06,1.0,6.2048435e-05,4.7065318e-05,-6.2040985e-05,1.0,1.2040138e-05,-4.708022e-05,-1.2099743e-05,1.0,650,2.02,1,2,0.62,False,-0.2626186106756321,1.048983905150153
2.034614678006619,17:06:22.059900,17:05:06.175454,0,,0.09965238,0.005467549,0.018936291,-0.4213407,0.8702349,-0.25527096,0.14277077,0.34161434,0.9289328,0.8955939,0.35495192,-0.26818025,,0.011514682,-0.030337505,0.061104596,0.360112,-0.5671785,0.74069405,-0.70985466,0.34858334,0.6120424,-0.605331,-0.7461891,-0.2770853,,0.09841225,1.2953941,0.4271089,0.98261875,0.0075258766,-0.18548235,-0.10486622,-0.8019733,-0.58808327,-0.15317772,0.5973125,-0.7872448,,-0.10526634,0.24563584,-0.11314489,0.27506858,-0.8599817,0.42984727,0.6502509,0.49573493,0.5756914,-0.7081744,0.12115395,0.69556504,,-0.053502128,0.4054891,-0.42513597,-0.3148698,0.70881367,-0.6312212,-0.94399714,-0.3029756,0.13067201,-0.09862251,0.63701564,0.76451594,,1.1260053439934303,0.48250862724867316,0.22372539481000003,2.0476222981263805,-0.7329181847418226,-0.003591570747074224,-0.41407720765039796,,-1.3541271503651482,0.20995793865154175,0.13240176431,0.16313877603095994,0.15289624323752785,-0.5364191632848698,0.8743807860167968,,-0.11698505643804993,-0.12851077448590748,0.09694439508,-0.1167695939710949,,-5.441159e-05,-2.3841858e-07,6.67572e-06,1.0,6.2048435e-05,4.7065318e-05,-6.2040985e-05,1.0,1.2040138e-05,-4.708022e-05,-1.2099743e-05,1.0,663,2.062,1,2,0.662,False,-0.26255903295711036,1.0491770259532711
2.069112313911319,17:06:22.097110,17:05:06.307885,0,,0.09937209,0.005402237,0.018709227,-0.40363503,0.8788329,-0.25442398,0.15274924,0.33891058,0.9283357,0.9020789,0.33584565,-0.27103743,,0.011534061,-0.030343086,0.06110698,0.36013007,-0.56719244,0.74067456,-0.70986545,0.3485402,0.6120546,-0.6053077,-0.74619865,-0.27711055,,0.098422825,1.2953968,0.4271112,0.98261505,0.0074975877,-0.1855031,-0.10490088,-0.8019735,-0.5880767,-0.15317772,0.5973125,-0.7872448,,-0.10496856,0.24544685,-0.11306363,0.25814182,-0.8654036,0.4294641,0.66229445,0.48215604,0.57349074,-0.7033697,0.13638973,0.69761664,,-0.053529494,0.405486,-0.425134,-0.31492054,0.70883036,-0.6311771,-0.9439794,-0.30302593,0.13068368,-0.09863049,0.6369732,0.7645503,,1.1272795949176775,0.48039259844113563,0.22381354253000002,2.073204471231492,-0.729638908747452,-0.019742592558981087,-0.413587175451995,,-1.3541194276322739,0.20995021591866753,0.13240176431,0.16313877603095994,0.15289624323752785,-0.5364191632848698,0.8743807860167968,,-0.11698505643804993,-0.12851077448590748,0.09694439508,-0.1167695939710949,,-4.465878e-05,-1.0728836e-06,1.1920929e-06,1.0,3.428012e-05,2.5995076e-05,-3.427267e-05,1.0,6.645918e-06,-2.6009977e-05,-6.7055225e-06,1.0,672,2.091,1,2,0.691,False,-0.2626781883941529,1.0491770259532711
2.1063001779839396,17:06:22.126676,17:05:06.307885,0,,0.09905888,0.00532376,0.018435255,-0.38815022,0.88494086,-0.25733072,0.1666559,0.3420185,0.9247967,0.9064023,0.31607428,-0.28023538,,0.01153196,-0.030344278,0.061104834,0.36029875,-0.5671672,0.74061185,-0.70987076,0.34838265,0.61213815,-0.6052012,-0.7462914,-0.27709365,,0.098422825,1.2953968,0.4271112,0.98261505,0.0074975877,-0.1855031,-0.10490088,-0.8019735,-0.5880767,-0.15317772,0.5973125,-0.7872448,,-0.10462713,0.24521556,-0.11296744,0.24432053,-0.86745894,0.4333849,0.67615116,0.4727565,0.5650848,-0.6950734,0.15497187,0.7020375,,-0.05352716,0.4054837,-0.42513388,-0.3151042,0.7088074,-0.6311112,-0.9439137,-0.30319986,0.13075484,-0.09867282,0.6369159,0.7645926,,1.1286774095679122,0.47821478777060433,0.22390687541,2.0964800549582745,-0.7213040822617601,-0.04050614924849899,-0.4114637025922495,,-1.3540962594336512,0.2099424931857933,0.13240176431,0.16292908608747542,0.15289624323752785,-0.5364191632848698,0.8743807860167968,,-0.11698505643804993,-0.12851077448590748,0.09694439508,-0.1167695939710949,,-4.465878e-05,-1.0728836e-06,1.1920929e-06,1.0,3.428012e-05,2.5995076e-05,-3.427267e-05,1.0,6.645918e-06,-2.6009977e-05,-6.7055225e-06,1.0,685,2.132,1,2,0.732,False,-0.2629164992682367,1.0491770259532711
2.135892583988607,17:06:22.163926,17:05:06.307885,0,,0.09863245,0.005261585,0.018140927,-0.36008894,0.89734775,-0.25515288,0.18679902,0.33731294,0.9226733,0.9140252,0.28458208,-0.28908652,,0.011525501,-0.030342937,0.06110066,0.36032632,-0.5671594,0.74060446,-0.7097764,0.34847745,0.61219364,-0.6052955,-0.74625313,-0.27699077,,0.098422825,1.2953968,0.4271112,0.98261505,0.0074975877,-0.1855031,-0.10490088,-0.8019735,-0.5880767,-0.15317772,0.5973125,-0.7872448,,-0.10416953,0.24498379,-0.112871476,0.21857813,-0.8747395,0.4324978,0.69710284,0.45011732,0.5580699,-0.6828405,0.17951359,0.7081692,,-0.053520024,0.40548187,-0.42513138,-0.3151079,0.70880145,-0.6311161,-0.9439266,-0.30311018,0.13086945,-0.098537244,0.6369653,0.7645689,,1.1309633384986826,0.4754037130043866,0.22400150458,2.136950214050788,-0.7099632527812285,-0.06657965572425772,-0.411790390724518,,-1.3540344775706574,0.20995021591866753,0.1324030606,0.16292908608747542,0.1530328797372933,-0.5365305811885662,0.8743807860167968,,-0.11698505643804993,-0.12851077448590748,0.09694439508,-0.1167695939710949,,-4.465878e-05,-1.0728836e-06,1.1920929e-06,1.0,3.428012e-05,2.5995076e-05,-3.427267e-05,1.0,6.645918e-06,-2.6009977e-05,-6.7055225e-06,1.0,694,2.161,1,2,0.761,False,-0.2629164992682367,1.0488390645478147
2.173120672814548,17:06:22.197945,17:05:06.421648,0,,0.098274335,0.005206175,0.017951474,-0.33838445,0.90489894,-0.25817406,0.200055,0.33726603,0.91990733,0.9194966,0.25963324,-0.29515535,,0.011524402,-0.03034398,0.06109917,0.36031827,-0.5671688,0.7406012,-0.70978355,0.34846902,0.6121902,-0.60529184,-0.7462499,-0.27700737,,0.098422825,1.2953968,0.4271112,0.98261505,0.0074975877,-0.1855031,-0.10490088,-0.8019735,-0.5880767,-0.15317772,0.5973125,-0.7872448,,-0.10379575,0.24482144,-0.112837635,0.19840458,-0.8777557,0.4360969,0.7111997,0.43509176,0.5521686,-0.67441136,0.20059918,0.7105838,,-0.05351879,0.40548012,-0.4251314,-0.3151012,0.70880944,-0.6311104,-0.9439279,-0.30311248,0.1308548,-0.09854632,0.63695526,0.76457614,,1.132832239854245,0.47327223873110064,0.22404817102000002,2.16672618602559,-0.7027215182936603,-0.08971901878982669,-0.4116270466583838,,-1.354019032104909,0.2099424931857933,0.1324030606,0.16292908608747542,0.1530328797372933,-0.5365305811885662,0.8743807860167968,,-0.11698505643804993,-0.12851077448590748,0.09694439508,-0.1167695939710949,,-4.465878e-05,-1.0728836e-06,1.1920929e-06,1.0,3.428012e-05,2.5995076e-05,-3.427267e-05,1.0,6.645918e-06,-2.6009977e-05,-6.7055225e-06,1.0,707,2.202,1,2,0.802,False,-0.26339312101640555,1.0488873447485942
2.2071186578832567,17:06:22.232343,17:05:06.421648,0,,0.097762704,0.0051165223,0.017654583,-0.3045891,0.9153993,-0.26319125,0.22335601,0.3372609,0.91453105,0.92592514,0.21977071,-0.3071862,,0.011524502,-0.030345649,0.0610978,0.36031052,-0.56716996,0.74060404,-0.7097951,0.34846166,0.6121809,-0.6052828,-0.7462525,-0.27702013,,0.098422825,1.2953968,0.4271112,0.98261505,0.0074975877,-0.1855031,-0.10490088,-0.8019735,-0.5880767,-0.15317772,0.5973125,-0.7872448,,-0.1032587,0.24456532,-0.11277509,0.16774248,-0.88104063,0.44230062,0.7340071,0.41112357,0.5405654,-0.6581003,0.23397604,0.715653,,-0.053518806,0.405478,-0.4251318,-0.31509605,0.7088104,-0.631112,-0.94392794,-0.30311912,0.1308389,-0.09856214,0.6369511,0.76457757,,1.1356587600862111,0.4701985910471593,0.22410391149000003,2.212648283648701,-0.6875548668196962,-0.12618163444159536,-0.41277045512132365,,-1.3540113093720347,0.20992704772004483,0.1324030606,0.16292908608747542,0.1530328797372933,-0.5365305811885662,0.8743807860167968,,-0.11698505643804993,-0.12851077448590748,0.09694439508,-0.1167695939710949,,-4.465878e-05,-1.0728836e-06,1.1920929e-06,1.0,3.428012e-05,2.5995076e-05,-3.427267e-05,1.0,6.645918e-06,-2.6009977e-05,-6.7055225e-06,1.0,716,2.23,1,2,0.83,False,-0.26297607698675796,1.048452822941579
2.241537600988522,17:06:22.268350,17:05:06.421648,0,,0.097383484,0.005054198,0.01748462,-0.27582777,0.924172,-0.26424456,0.23657021,0.33172333,0.9132328,0.9316402,0.1893825,-0.3101302,,0.0115252845,-0.030348688,0.061097443,0.36030313,-0.5671629,0.74061316,-0.7098112,0.34845525,0.6121658,-0.60526836,-0.7462609,-0.27702904,,0.098422825,1.2953968,0.4271112,0.98261505,0.0074975877,-0.1855031,-0.10490088,-0.8019735,-0.5880767,-0.15317772,0.5973125,-0.7872448,,-0.10286875,0.24440902,-0.112765245,0.14064705,-0.8850943,0.44365132,0.7482918,0.38844994,0.53774166,-0.64828837,0.25634885,0.71694314,,-0.053519778,0.40547574,-0.4251338,-0.31509247,0.7088042,-0.63112074,-0.9439268,-0.30313012,0.13082175,-0.09858469,0.6369527,0.7645733,,1.137790234359497,0.46795899851363415,0.22413242987,2.249763403645462,-0.680313132332128,-0.14997442742828881,-0.40999360599704093,,-1.3540113093720347,0.20990387952142217,0.13240176431,0.16292908608747542,0.1530328797372933,-0.5365305811885662,0.8743807860167968,,-0.11698505643804993,-0.12851077448590748,0.09694439508,-0.1167695939710949,,-4.465878e-05,-1.0728836e-06,1.1920929e-06,1.0,3.428012e-05,2.5995076e-05,-3.427267e-05,1.0,6.645918e-06,-2.6009977e-05,-6.7055225e-06,1.0,729,2.271,1,2,0.871,False,-0.26339312101640555,1.048983905150153
2.2775314699392766,17:06:22.304949,17:05:06.421648,0,,0.09692376,0.0049726143,0.017263576,-0.2344461,0.93341047,-0.27162486,0.25811878,0.32915354,0.90831304,0.9372351,0.14283885,-0.3180997,,0.0115258135,-0.030351132,0.061095715,0.36029285,-0.5670406,0.7407117,-0.7098282,0.34854573,0.61209464,-0.60525453,-0.7463114,-0.2769229,,0.098422825,1.2953968,0.4271112,0.98261505,0.0074975877,-0.1855031,-0.10490088,-0.8019735,-0.5880767,-0.15317772,0.5973125,-0.7872448,,-0.10239429,0.24420568,-0.112745196,0.1024873,-0.88635784,0.45151538,0.7692787,0.3583896,0.52893025,-0.63063985,0.29313254,0.71858656,,-0.053520214,0.40547276,-0.42513445,-0.31508613,0.70869994,-0.63124096,-0.94392645,-0.30311906,0.13084966,-0.098608024,0.63707393,0.76446927,,1.140678536454457,0.46521742834328444,0.22414409648000003,2.302605269403562,-0.6655563903574604,-0.19059512007669915,-0.41260711105518943,,-1.3540035866391607,0.2098807113227995,0.13240176431,0.16292908608747542,0.1530328797372933,-0.5366939386688474,0.8740540978845283,,-0.11698505643804993,-0.12851077448590748,0.09694439508,-0.1167695939710949,,-4.465878e-05,-1.0728836e-06,1.1920929e-06,1.0,3.428012e-05,2.5995076e-05,-3.427267e-05,1.0,6.645918e-06,-2.6009977e-05,-6.7055225e-06,1.0,738,2.3,0,2,0.871,False,-0.26273776611267374,1.0491287457524916
2.314152682898566,17:06:22.338047,17:05:06.553330,0,,0.096656084,0.0049226284,0.017141744,-0.20220172,0.93958277,-0.27622223,0.272395,0.3248758,0.9056801,0.94069934,0.10788846,-0.32162827,,0.011521924,-0.030356526,0.061092556,0.36026627,-0.56700593,0.74075115,-0.7098551,0.34856844,0.61205053,-0.60523885,-0.7463273,-0.2769146,,0.098422825,1.2953968,0.4271112,0.98261505,0.0074975877,-0.1855031,-0.10490088,-0.8019735,-0.5880767,-0.15317772,0.5973125,-0.7872448,,-0.102119595,0.24408945,-0.11274032,0.072545215,-0.8869017,0.45622653,0.7830871,0.33393744,0.5246526,-0.6176664,0.31920406,0.7187468,,-0.053516347,0.4054672,-0.42513728,-0.3150648,0.7086704,-0.63128483,-0.94393,-0.30311894,0.13082476,-0.09864276,0.63710696,0.76443726,,1.142609219673013,0.46353387257670353,0.22413631874000003,2.342865738552591,-0.6553086528750525,-0.21953450536935232,-0.41456723984880073,,-1.3539572502419153,0.2098498203913026,0.13239917173000001,0.16292908608747542,0.1530328797372933,-0.5367756174089879,0.8742174419506626,,-0.11698505643804993,-0.12851077448590748,0.09694439508,-0.1167695939710949,,-4.465878e-05,-1.0728836e-06,1.1920929e-06,1.0,3.428012e-05,2.5995076e-05,-3.427267e-05,1.0,6.645918e-06,-2.6009977e-05,-6.7055225e-06,1.0,751,2.341,0,2,0.871,False,-0.26255903295711036,1.0486459437446969
2.3472512969747186,17:06:22.371604,17:05:06.553330,0,,0.09651912,0.0048901215,0.017054722,-0.16011855,0.9466438,-0.27969182,0.28878778,0.315875,0.90378344,0.9439086,0.06394082,-0.32395685,,0.011517469,-0.030365288,0.061086535,0.36026627,-0.5671012,0.74067825,-0.7098152,0.34853882,0.6121136,-0.60528564,-0.74626863,-0.2769703,,0.098422825,1.2953968,0.4271112,0.98261505,0.0074975877,-0.1855031,-0.10490088,-0.8019735,-0.5880767,-0.15317772,0.5973125,-0.7872448,,-0.10197574,0.24400954,-0.11272267,0.03337102,-0.887428,0.45973682,0.7985316,0.30029675,0.5216983,-0.60102713,0.3497048,0.71866053,,-0.053511716,0.40545726,-0.4251409,-0.3150538,0.7087519,-0.6311987,-0.94393986,-0.30308664,0.1308282,-0.09858315,0.63703156,0.7645078,,1.144400893699833,0.4622364534538338,0.22410780036000003,2.395078534480237,-0.642464821897101,-0.2540213379181413,-0.4119537347906522,,-1.3538877456460472,0.20978031579543457,0.13239657915000003,0.16292908608747542,0.15316951623705874,-0.5367236778324032,0.8745441300829312,,-0.11698505643804993,-0.12851077448590748,0.09694439508,-0.1167695939710949,,-4.465878e-05,-1.0728836e-06,1.1920929e-06,1.0,3.428012e-05,2.5995076e-05,-3.427267e-05,1.0,6.645918e-06,-2.6009977e-05,-6.7055225e-06,1.0,760,2.369,0,2,0.871,False,-0.26285692154971585,1.048742504146256
2.380740962922573,17:06:22.400884,17:05:06.553330,0,,0.09648129,0.0048646703,0.016972765,-0.11154127,0.95099807,-0.28837687,0.31013355,0.30900645,0.899073,0.94412684,0.010848314,-0.32940346,,0.011516303,-0.0303711,0.061084688,0.36024553,-0.56698596,0.74077654,-0.70984477,0.34861878,0.6120339,-0.6052633,-0.74631894,-0.2768837,,0.098422825,1.2953968,0.4271112,0.98261505,0.0074975877,-0.1855031,-0.10490088,-0.8019735,-0.5880767,-0.15317772,0.5973125,-0.7872448,,-0.10192831,0.24393937,-0.112682424,-0.010890215,-0.8834162,0.46846265,0.81618524,0.26280406,0.51456356,-0.5776876,0.38795602,0.7181693,,-0.053510755,0.40545222,-0.4251443,-0.31503955,0.7086536,-0.63131624,-0.94394046,-0.30308154,0.13083574,-0.098623075,0.6371434,0.7644095,,1.1461307858636596,0.4613946755705433,0.22405076360000004,2.454211098542873,-0.6225158929313467,-0.2979774447654694,-0.41440389578266656,,-1.3538645774474245,0.20974170213106347,0.13239398657,0.16292908608747542,0.15316951623705874,-0.5368870353126842,0.8745441300829312,,-0.11698505643804993,-0.12851077448590748,0.09694439508,-0.1167695939710949,,-4.465878e-05,-1.0728836e-06,1.1920929e-06,1.0,3.428012e-05,2.5995076e-05,-3.427267e-05,1.0,6.645918e-06,-2.6009977e-05,-6.7055225e-06,1.0,773,2.41,0,2,0.871,False,-0.26297607698675796,1.049370146756389
2.410092786885798,17:06:22.442010,17:05:06.553330,0,,0.096460335,0.004841976,0.016976252,-0.051769383,0.9516951,-0.30264896,0.33348858,0.30213332,0.893029,0.9413316,-0.054698527,-0.33302093,,0.011508279,-0.03037873,0.061079204,0.360382,-0.56699836,0.74070066,-0.7098787,0.3484276,0.61210334,-0.6051423,-0.7463987,-0.27693304,,0.098422825,1.2953968,0.4271112,0.98261505,0.0074975877,-0.1855031,-0.10490088,-0.8019735,-0.5880767,-0.15317772,0.5973125,-0.7872448,,-0.10191179,0.24392319,-0.11270318,-0.065239154,-0.8736736,0.48211852,0.83373785,0.21774775,0.5074122,-0.5482929,0.4350636,0.7142091,,-0.053502608,0.4054437,-0.42514804,-0.3151963,0.70866275,-0.6312277,-0.9438799,-0.30326462,0.13084838,-0.09870164,0.63704604,0.7644804,,1.1482854283355681,0.46093131159808987,0.22390557912000003,2.5244572296101886,-0.5972381404747401,-0.3526497915879218,-0.4155473042456065,,-1.353779627385808,0.20970308846669233,0.13239009770000001,0.1627193961439909,0.15316951623705874,-0.5368870353126842,0.8745441300829312,,-0.11698505643804993,-0.12851077448590748,0.09694439508,-0.1167695939710949,,-4.465878e-05,-1.0728836e-06,1.1920929e-06,1.0,3.428012e-05,2.5995076e-05,-3.427267e-05,1.0,6.645918e-06,-2.6009977e-05,-6.7055225e-06,1.0,786,2.451,0,2,0.871,False,-0.2629164992682367,1.0488390645478147
2.4511814499273896,17:06:22.482031,17:05:06.683755,0,,0.09645871,0.004815094,0.017081156,0.01486361,0.94311523,-0.3321337,0.35873893,0.30502543,0.88219374,0.93331945,-0.13226196,-0.33379856,,0.011504941,-0.030376822,0.061078966,0.36020157,-0.5670637,0.7407385,-0.709868,0.34857053,0.61203426,-0.60526216,-0.74628234,-0.27698478,,0.098422825,1.2953968,0.4271112,0.98261505,0.0074975877,-0.1855031,-0.10490088,-0.8019735,-0.5880767,-0.15317772,0.5973125,-0.7872448,,-0.10193237,0.24396509,-0.11280089,-0.12508772,-0.85138804,0.5094031,0.8497223,0.17311934,0.49799767,-0.51217675,0.49514458,0.7017883,,-0.053499132,0.40544495,-0.425147,-0.31499848,0.70871997,-0.6312622,-0.9439514,-0.30307925,0.13076176,-0.098648995,0.6370706,0.76446676,,1.150725811923823,0.46107804352270015,0.22365150628000002,2.599735919321133,-0.5651285630298617,-0.42432805721487404,-0.4153839601794722,,-1.3537564591871853,0.209726256665315,0.13239009770000001,0.16292908608747542,0.15316951623705874,-0.5368870353126842,0.8745441300829312,,-0.11698505643804993,-0.12851077448590748,0.09694439508,-0.1167695939710949,,-4.465878e-05,-1.0728836e-06,1.1920929e-06,1.0,3.428012e-05,2.5995076e-05,-3.427267e-05,1.0,6.645918e-06,-2.6009977e-05,-6.7055225e-06,1.0,795,2.48,0,2,0.871,False,-0.26309523242380006,1.0488390645478147
2.4912088678684086,17:06:22.514037,17:05:06.683755,0,,0.09644325,0.004809715,0.017242894,0.0837595,0.9300041,-0.35787815,0.37581882,0.30313748,0.8757099,0.9229,-0.20784649,-0.32412258,,0.0115031935,-0.030374408,0.061082184,0.35989732,-0.56709427,0.74086285,-0.7097613,0.3489867,0.61192095,-0.60556823,-0.7460646,-0.2769022,,0.098422825,1.2953968,0.4271112,0.98261505,0.0074975877,-0.1855031,-0.10490088,-0.8019735,-0.5880767,-0.15317772,0.5973125,-0.7872448,,-0.10194626,0.24405833,-0.11293336,-0.18790433,-0.8257259,0.53185403,0.8577651,0.12582892,0.4984036,-0.4784674,0.54985803,0.68463504,,-0.053497728,0.4054491,-0.42514744,-0.3146404,0.70874953,-0.63140756,-0.944094,-0.30264312,0.13074273,-0.0984273,0.63724506,0.76434994,,1.153235700107946,0.46147962563215983,0.22338965570000002,2.6756436788625306,-0.5368448075784156,-0.4909263317749529,-0.4142405517165322,,-1.3537564591871853,0.2097494248639377,0.13238880141,0.1633484659744445,0.15330615273682416,-0.5369984532163807,0.8745441300829312,,-0.11698505643804993,-0.12851077448590748,0.09694439508,-0.1167695939710949,,-4.465878e-05,-1.0728836e-06,1.1920929e-06,1.0,3.428012e-05,2.5995076e-05,-3.427267e-05,1.0,6.645918e-06,-2.6009977e-05,-6.7055225e-06,1.0,808,2.521,1,3,0.89,False,-0.26243987752006825,1.049370146756389
2.5231959498487413,17:06:22.553376,17:05:06.683755,0,,0.09633266,0.00472714,0.017206684,0.1367454,0.9135071,-0.38315216,0.40358028,0.3018554,0.8637165,0.9046676,-0.27274203,-0.3273963,,0.011501182,-0.030365914,0.06108612,0.35916176,-0.5673333,0.74103683,-0.7098083,0.34947932,0.61158526,-0.6059498,-0.7456522,-0.27717823,,0.098422825,1.2953968,0.4271112,0.98261505,0.0074975877,-0.1855031,-0.10490088,-0.8019735,-0.5880767,-0.15317772,0.5973125,-0.7872448,,-0.1018442,0.24396949,-0.11297865,-0.23231672,-0.79854,0.5553043,0.86943513,0.08544129,0.4866028,-0.43601772,0.595847,0.6744293,,-0.05349569,0.40545774,-0.42514387,-0.31385902,0.70895857,-0.63156176,-0.9443623,-0.30199465,0.13030384,-0.09834826,0.63732016,0.7642975,,1.1553053925182382,0.4617190303512608,0.22318484188,2.7295339943380537,-0.49626376714807974,-0.5428035594051194,-0.41554730424560626,,-1.3537641819200597,0.20983437492555415,0.13239009770000001,0.16418722574838257,0.15316951623705874,-0.5368870353126842,0.8745441300829312,,-0.11698505643804993,-0.12851077448590748,0.09694439508,-0.1167695939710949,,-4.465878e-05,-1.0728836e-06,1.1920929e-06,1.0,3.428012e-05,2.5995076e-05,-3.427267e-05,1.0,6.645918e-06,-2.6009977e-05,-6.7055225e-06,1.0,817,2.55,1,3,0.919,False,-0.26297607698675796,1.0485976635439174
2.562591868918389,17:06:22.592449,17:05:06.803650,0,,0.09620519,0.0046043545,0.017274693,0.20623043,0.8928379,-0.4003868,0.4339056,0.2833085,0.8552556,0.8770374,-0.3501099,-0.3289807,,0.011496257,-0.030352741,0.061090887,0.35938126,-0.5673229,0.74093837,-0.70972425,0.34936827,0.61174613,-0.60591805,-0.74571216,-0.27708638,,0.098422825,1.2953968,0.4271112,0.98261505,0.0074975877,-0.1855031,-0.10490088,-0.8019735,-0.5880767,-0.15317772,0.5973125,-0.7872448,,-0.10174967,0.24391136,-0.11313239,-0.29079115,-0.76761824,0.5711416,0.87764615,0.023717893,0.47872192,-0.38102198,0.64046836,0.66680026,,-0.053490512,0.40547016,-0.42513767,-0.31407288,0.7089488,-0.63146645,-0.94429964,-0.30211258,0.13048443,-0.09826718,0.63727516,0.7643454,,1.1578384489009839,0.462483580905809,0.22284391761000003,2.7987316756879466,-0.44488844323627413,-0.5906592392252348,-0.41375051951812925,,-1.353771904652934,0.20995021591866753,0.13239269028,0.16397753580489804,0.15316951623705874,-0.5368870353126842,0.8745441300829312,,-0.11698505643804993,-0.12851077448590748,0.09694439508,-0.1167695939710949,,-4.465878e-05,-1.0728836e-06,1.1920929e-06,1.0,3.428012e-05,2.5995076e-05,-3.427267e-05,1.0,6.645918e-06,-2.6009977e-05,-6.7055225e-06,1.0,830,2.591,1,3,0.96,False,-0.26297607698675796,1.0486942239454764
2.6016583719756454,17:06:22.623864,17:05:06.803650,0,,0.09610515,0.0044947267,0.017426118,0.2648169,0.86917967,-0.41761073,0.45915252,0.26717237,0.8472295,0.8479687,-0.41610783,-0.32833445,,0.011491116,-0.03033024,0.06109929,0.35900536,-0.5675591,0.74093974,-0.7097735,0.34949446,0.6116169,-0.6060833,-0.7454732,-0.27736807,,0.098422825,1.2953968,0.4271112,0.98261505,0.0074975877,-0.1855031,-0.10490088,-0.8019735,-0.5880767,-0.15317772,0.5973125,-0.7872448,,-0.10169448,0.2439144,-0.11333707,-0.3391353,-0.7354165,0.58664286,0.8808265,-0.029248858,0.47253492,-0.33035135,0.67698383,0.6576936,,-0.05348494,0.40549147,-0.4251267,-0.31368053,0.70915264,-0.6314326,-0.9444303,-0.3018325,0.13018665,-0.098264664,0.6371811,0.7644242,,1.1599158640441503,0.46369604996706226,0.22248095641,2.855347960428768,-0.3973389413179008,-0.6305761720735574,-0.41375051951812925,,-1.3538027955844307,0.21015872970627159,0.13239787544,0.1643969156918671,0.15289624323752785,-0.5366641995052914,0.8745441300829312,,-0.11698505643804993,-0.12851077448590748,0.09694439508,-0.1167695939710949,,-4.465878e-05,-1.0728836e-06,1.1920929e-06,1.0,3.428012e-05,2.5995076e-05,-3.427267e-05,1.0,6.645918e-06,-2.6009977e-05,-6.7055225e-06,1.0,839,2.619,1,3,0.988,False,-0.26392932048309437,1.049418426957168
2.6330644078552723,17:06:22.653981,17:05:06.803650,0,,0.096001744,0.004460223,0.017645106,0.30383456,0.8472223,-0.43577382,0.47882512,0.25963992,0.8386379,0.82365704,-0.4634667,-0.32678393,,0.011486653,-0.030304462,0.06110716,0.35881668,-0.56775403,0.74088174,-0.70980847,0.3494821,0.6115834,-0.606154,-0.7453306,-0.2775966,,0.098422825,1.2953968,0.4271112,0.98261505,0.0074975877,-0.1855031,-0.10490088,-0.8019735,-0.5880767,-0.15317772,0.5973125,-0.7872448,,-0.10163691,0.24401806,-0.11355104,-0.37005508,-0.7068719,0.6028195,0.8822319,-0.06408416,0.46643335,-0.29107746,0.7044326,0.64733964,,-0.05347966,0.40551436,-0.4251128,-0.3134865,0.7093199,-0.6313411,-0.94449323,-0.301718,0.1299952,-0.09827878,0.63704914,0.7645323,,1.1616766471394735,0.465132478281668,0.22215818020000003,2.8914146307081063,-0.35949063088287386,-0.6616839676178877,-0.41326048731972653,,-1.3538414092488018,0.2103826889596241,0.13240565318000003,0.16460660563535162,0.15262297023799698,-0.5364413636978986,0.8745441300829312,,-0.11698505643804993,-0.12851077448590748,0.09694439508,-0.1167695939710949,,-4.465878e-05,-1.0728836e-06,1.1920929e-06,1.0,3.428012e-05,2.5995076e-05,-3.427267e-05,1.0,6.645918e-06,-2.6009977e-05,-6.7055225e-06,1.0,853,2.663,1,3,1.032,False,-0.26136747858668974,1.0486459437446969
2.663193488959223,17:06:22.700176,17:05:06.803650,0,,0.095852,0.004456103,0.018102482,0.37311578,0.80082,-0.46847835,0.5107369,0.24425843,0.8243091,0.77455294,-0.54683197,-0.31787178,,0.011479028,-0.030267745,0.06111914,0.3585258,-0.5679521,0.7408707,-0.70968974,0.3497597,0.6115626,-0.60646504,-0.74504936,-0.27767193,,0.098422825,1.2953968,0.4271112,0.98261505,0.0074975877,-0.1855031,-0.10490088,-0.8019735,-0.5880767,-0.15317772,0.5973125,-0.7872448,,-0.10157131,0.24428943,-0.11394305,-0.42436096,-0.6493828,0.6310465,0.87873626,-0.12717707,0.46005285,-0.21849579,0.74975187,0.62460524,,-0.053471033,0.40554768,-0.4250937,-0.3131397,0.709492,-0.6313197,-0.9446328,-0.30131093,0.1299252,-0.09804263,0.6370501,0.7645619,,1.1646730674946726,0.4683683033559681,0.22159170147,2.955370063470886,-0.2899426525022646,-0.7158636396550089,-0.41244376698905516,,-1.3538877456460472,0.21069159827459308,0.1324160235,0.16502598552232065,0.15248633373823153,-0.5363299457942021,0.8745441300829312,,-0.11698505643804993,-0.12851077448590748,0.09694439508,-0.1167695939710949,,-4.465878e-05,-1.0728836e-06,1.1920929e-06,1.0,3.428012e-05,2.5995076e-05,-3.427267e-05,1.0,6.645918e-06,-2.6009977e-05,-6.7055225e-06,1.0,862,2.693,1,3,1.062,False,-0.26386974276457353,1.0492253061540504
2.7093556609470397,17:06:22.727442,17:05:06.803650,0,,0.09576343,0.004526466,0.018444523,0.40442163,0.7771244,-0.482204,0.5225167,0.23639238,0.81920373,0.7506125,-0.5832636,-0.3104585,,0.011481691,-0.030247033,0.06112343,0.356618,-0.5686794,0.7412335,-0.7103236,0.35031283,0.61050916,-0.6068477,-0.74423426,-0.27901855,,0.098422825,1.2953968,0.4271112,0.98261505,0.0074975877,-0.1855031,-0.10490088,-0.8019735,-0.5880767,-0.15317772,0.5973125,-0.7872448,,-0.10153443,0.24455112,-0.11418786,-0.44897714,-0.62109685,0.64238477,0.87399465,-0.15569709,0.46031702,-0.18588401,0.7681127,0.61273974,,-0.053472593,0.40556407,-0.42508018,-0.3112553,0.7101204,-0.63154507,-0.9451966,-0.30028206,0.12819524,-0.0986076,0.63683575,0.76466775,,1.1664029596584988,0.47037621390326645,0.22128577703000002,2.984516965615235,-0.25865289405597874,-0.7390913348775537,-0.4134238313858607,,-1.3539418047761669,0.21090783479507136,0.13242509753,0.1669131950136814,0.15139324174010801,-0.535601960044912,0.8745441300829311,,-0.11698505643804993,-0.12851077448590748,0.09694439508,-0.1167695939710949,,-4.465878e-05,-1.0728836e-06,1.1920929e-06,1.0,3.428012e-05,2.5995076e-05,-3.427267e-05,1.0,6.645918e-06,-2.6009977e-05,-6.7055225e-06,1.0,876,2.737,1,3,1.106,False,-0.26333354329788383,1.04927358635483
2.736649398924783,17:06:22.774476,17:05:06.999274,0,,0.09561394,0.0045730323,0.018884495,0.43820983,0.7464085,-0.50084573,0.5370457,0.22940305,0.81176114,0.7208009,-0.6246988,-0.30032894,,0.011477888,-0.030210465,0.06113875,0.35643342,-0.56855905,0.7414146,-0.71037817,0.35053122,0.61032015,-0.60689217,-0.74422336,-0.278951,,0.098422825,1.2953968,0.4271112,0.98261505,0.0074975877,-0.1855031,-0.10490088,-0.8019735,-0.5880767,-0.15317772,0.5973125,-0.7872448,,-0.10145872,0.24485241,-0.1145366,-0.4745904,-0.58497447,0.65769964,0.86792415,-0.18661405,0.4603074,-0.14653206,0.78929085,0.59627867,,-0.053468283,0.4055996,-0.4250627,-0.31107125,0.7100187,-0.63175005,-0.94525254,-0.30014154,0.12811199,-0.09865253,0.6370153,0.7645124,,1.1684803748016652,0.47270075649840804,0.22088003826000002,3.015551077250945,-0.22066794712118631,-0.7672884349403797,-0.41309714325359237,,-1.3540344775706574,0.2112321895757888,0.13243417156,0.16712288495716593,0.15098333224081167,-0.5357577787746661,0.8742174419506626,,-0.11698505643804993,-0.12851077448590748,0.09694439508,-0.1167695939710949,,-4.465878e-05,-1.0728836e-06,1.1920929e-06,1.0,3.428012e-05,2.5995076e-05,-3.427267e-05,1.0,6.645918e-06,-2.6009977e-05,-6.7055225e-06,1.0,885,2.767,1,3,1.136,False,-0.2629164992682367,1.04927358635483
