AlexandreBanks6/ExpertPlaybackApp/resources/Motions/P_12/PC1/Data_PC1_10.csv
Task Time,PC1 Time,PC2 Time,Gaze Calib,s_T_psm1,Tx,Ty,Tz,R00,R01,R02,R10,R11,R12,R20,R21,R22,s_T_psm3,Tx,Ty,Tz,R00,R01,R02,R10,R11,R12,R20,R21,R22,cart_T_ecm,Tx,Ty,Tz,R00,R01,R02,R10,R11,R12,R20,R21,R22,ecm_T_psm1,Tx,Ty,Tz,R00,R01,R02,R10,R11,R12,R20,R21,R22,ecm_T_psm3,Tx,Ty,Tz,R00,R01,R02,R10,R11,R12,R20,R21,R22,psm1_joints,q1,q2,q3,q4,q5,q6,jaw,psm3_joints,q1,q2,q3,q4,q5,q6,jaw,ecm_joints,q1,q2,q3,q4,ecmi_T_ecm,Tx,Ty,Tz,R00,R01,R02,R10,R11,R12,R20,R21,R22,Sample #,Task Duration (s),Collisions (binary),Collisions (increments),Cumulative Collision Time (s),Clutch Press,MTMR Angle,MTML Angle
""
lci_T_si,,,,,-0.05285146,0.01597776,0.20330594,0.97701013,-0.11214647,0.18131277,0.023304552,-0.7891877,-0.6137097,0.21191518,0.60382605,-0.76843095
rci_T_si,,,,,-0.061931286,0.01969198,0.2114586,0.9703508,-0.13087806,0.20319995,0.028452953,-0.7730091,-0.6337565,0.24002025,0.62074775,-0.7463662
ecm_T_lc,,,,,-4.4061628e-05,-0.00034663224,-0.01840835,-0.99912,0.030754527,0.028518902,-0.031987965,-0.99852574,-0.043852776,0.027128186,-0.04472645,0.9986309
ecm_T_rc,,,,,-0.0043358393,0.01870579,-0.007592615,-0.99555075,-0.052743673,-0.078081585,0.04863213,-0.9973746,0.053654674,-0.08070653,0.04961868,0.9955021
cart_T_ecmi,,,,,0.098466955,1.295392,0.42710596,0.9826105,0.007462668,-0.1855287,-0.10494366,-0.8019739,-0.58806866,-0.15317772,0.5973125,-0.7872448
ecmac_T_ecmrep_psm1,,,,,0.044880565,-0.23049864,-0.32052848,0.99797076,0.0626086,0.011601057,-0.061749555,0.99606305,-0.0636032,-0.015537491,0.06275777,0.9979078
ecmac_T_ecmrep_psm3,,,,,0.047327206,-0.4153428,-0.56493527,0.997773,0.014750276,0.065049894,-0.025394045,0.985803,0.16597453,-0.061678212,-0.16725679,0.9839822
""
0,17:07:08.420290,17:05:52.605772,0,,0.1252327,0.0060321838,0.024602145,0.7332207,0.567946,-0.37393132,0.34531826,0.16272521,0.9242704,0.58578366,-0.80681956,-0.07680887,,0.01518365,-0.031192217,0.06366289,0.22826914,-0.54608047,0.806033,-0.6800244,0.5030482,0.5333943,-0.6967497,-0.66987956,-0.25651768,,0.09846965,1.2953923,0.42710546,0.98261076,0.0074647362,-0.18552719,-0.10494113,-0.8019738,-0.58806914,-0.15317772,0.5973125,-0.7872448,,-0.13113418,0.24978241,-0.11142279,-0.7661639,-0.38907638,0.5114806,0.63670427,-0.35159886,0.6862841,-0.087180935,0.851468,0.517109,,-0.05765078,0.40662313,-0.42676434,-0.16788341,0.68864423,-0.70539653,-0.9849576,-0.14687158,0.091034986,-0.040911987,0.7100689,0.70294267,,1.0496892977303438,0.5728800473428484,0.22107318547000002,3.47372360376463,-0.08717408685035101,-0.9783238307676266,-0.4126071110551893,,-1.3864313419780294,0.19845878940182146,0.13165250869,0.33885894867099137,0.18336618268522106,-0.5600401747070634,0.8758508826120054,,-0.11698505643804993,-0.12851077448590748,0.09694439508,-0.1167695939710949,,2.7120113e-06,-5.9604645e-07,-2.3841858e-07,1.0,2.026558e-06,1.5199184e-06,-2.026558e-06,1.0,3.874302e-07,-1.5348196e-06,-4.172325e-07,1.0,36,0.109,1,1,0.085,False,-0.26351227645344677,1.0502391903704191
0.12454048986546695,17:07:08.450922,17:05:52.677330,0,,0.1252595,0.0061153546,0.024832338,0.71999,0.5869147,-0.37033147,0.33853558,0.16879746,0.9256896,0.6058117,-0.7918576,-0.077159226,,0.014992643,-0.031201873,0.06360018,0.22769837,-0.546392,0.8059833,-0.6800268,0.50320256,0.53324544,-0.69693404,-0.6695094,-0.2569829,,0.09846965,1.2953923,0.42710546,0.98261076,0.0074647362,-0.18552719,-0.10494113,-0.8019738,-0.58806914,-0.15317772,0.5973125,-0.7872448,,-0.13118835,0.249988,-0.11154699,-0.75774825,-0.40927827,0.50824094,0.643255,-0.3375237,0.68724144,-0.109729625,0.8476845,0.5190283,,-0.05745359,0.40658274,-0.4267647,-0.16729246,0.6889031,-0.7052842,-0.9850588,-0.14646801,0.0905885,-0.040894873,0.70990115,0.7031131,,1.0503534527575271,0.5729341064729679,0.22097466743000002,3.4617712769860125,-0.10944583631211781,-0.9740480982890056,-0.4106469822615779,,-1.3848790726703102,0.19886809424415536,0.13160843483,0.33885894867099137,0.18336618268522106,-0.5612653558091717,0.8755241944797367,,-0.11698505643804993,-0.12851077448590748,0.09694439508,-0.1167695939710949,,2.7120113e-06,-5.9604645e-07,-2.3841858e-07,1.0,2.026558e-06,1.5199184e-06,-2.026558e-06,1.0,3.874302e-07,-1.5348196e-06,-4.172325e-07,1.0,44,0.133,1,1,0.109,False,-0.2632143878608417,1.0505771517758753
0.1551720278803259,17:07:08.472429,17:05:52.677330,0,,0.12519439,0.006172724,0.024968415,0.71279943,0.5958885,-0.36991072,0.3373558,0.17110273,0.92569697,0.61490476,-0.7846278,-0.07906473,,0.014883436,-0.03120831,0.06355345,0.22733416,-0.54656637,0.8059678,-0.68006647,0.50328064,0.5331212,-0.6970143,-0.6693084,-0.25728858,,0.09846965,1.2953923,0.42710546,0.98261076,0.0074647362,-0.18552719,-0.10494113,-0.8019738,-0.58806914,-0.15317772,0.5973125,-0.7872448,,-0.1311403,0.25011522,-0.111633904,-0.7524993,-0.41894403,0.5081641,0.64773065,-0.33122557,0.686101,-0.11912098,0.84544396,0.5206099,,-0.057339158,0.40655082,-0.42675874,-0.16692469,0.6890482,-0.7052296,-0.98511946,-0.14625232,0.09027679,-0.04093641,0.70980483,0.70320785,,1.05107166691483,0.5729495519387163,0.22090337148000003,3.454012749077085,-0.11873711829616776,-0.9708823328052394,-0.41326048731972653,,-1.3839368992596548,0.19906116256601097,0.13159028677,0.33885894867099137,0.18336618268522106,-0.5620004644704367,0.8755241944797367,,-0.11698505643804993,-0.12851077448590748,0.09694439508,-0.1167695939710949,,2.7120113e-06,-5.9604645e-07,-2.3841858e-07,1.0,2.026558e-06,1.5199184e-06,-2.026558e-06,1.0,3.874302e-07,-1.5348196e-06,-4.172325e-07,1.0,57,0.174,1,1,0.15,False,-0.2632143878608417,1.0501909101696396
0.17666579992510378,17:07:08.513502,17:05:52.677330,0,,0.12513886,0.0064714104,0.025486112,0.6789722,0.6384864,-0.36239734,0.322135,0.18447104,0.92854697,0.6597163,-0.7471985,-0.08042839,,0.014725219,-0.031216953,0.06347501,0.2268215,-0.5471023,0.80574864,-0.6800638,0.5032542,0.53314966,-0.6971839,-0.6688903,-0.25791562,,0.09846965,1.2953923,0.42710546,0.98261076,0.0074647362,-0.18552719,-0.10494113,-0.8019738,-0.58806914,-0.15317772,0.5973125,-0.7872448,,-0.13113314,0.25066534,-0.11187397,-0.7295617,-0.46501723,0.5014965,0.6623072,-0.29751801,0.6876279,-0.1705546,0.83381176,0.525042,,-0.05717155,0.4064968,-0.4267429,-0.1663928,0.68950444,-0.70490927,-0.98521036,-0.14591283,0.08983336,-0.0409148,0.7094315,0.70358574,,1.0532880912497324,0.5730422247332071,0.22075040926000003,3.423607707271829,-0.1698391692084425,-0.9586980620135208,-0.41375051951812936,,-1.3825159164107974,0.19930056728511192,0.13157213871,0.33885894867099137,0.1835028191849865,-0.5627653122952576,0.8755241944797367,,-0.11698505643804993,-0.12851077448590748,0.09694439508,-0.1167695939710949,,2.7120113e-06,-5.9604645e-07,-2.3841858e-07,1.0,2.026558e-06,1.5199184e-06,-2.026558e-06,1.0,3.874302e-07,-1.5348196e-06,-4.172325e-07,1.0,65,0.199,1,1,0.175,False,-0.2629164992682367,1.0508185527797727
0.21775130997411907,17:07:08.541039,17:05:52.677330,0,,0.12514928,0.0066190213,0.02574128,0.6590283,0.6592597,-0.36201978,0.3138503,0.1963714,0.92894363,0.68350536,-0.72582024,-0.07749471,,0.0147098005,-0.031221393,0.06346887,0.22671385,-0.54727787,0.8056598,-0.6801754,0.5030992,0.5331534,-0.6971099,-0.6688633,-0.25818545,,0.09846965,1.2953923,0.42710546,0.98261076,0.0074647362,-0.18552719,-0.10494113,-0.8019738,-0.58806914,-0.15317772,0.5973125,-0.7872448,,-0.13116635,0.2509372,-0.11198353,-0.71548,-0.4872501,0.5006752,0.66986156,-0.27490392,0.68971974,-0.19842844,0.8288638,0.5230784,,-0.05715576,0.4064904,-0.42674506,-0.16630852,0.68965954,-0.7047774,-0.98521835,-0.14597967,0.089636706,-0.04106437,0.709267,0.70374286,,1.0541607600645198,0.5730653929318298,0.22069596508000003,3.4062034419626137,-0.19757637866082686,-0.9567449488187094,-0.4106469822615779,,-1.3823846299519358,0.19931601275086036,0.13156695355,0.33885894867099137,0.18336618268522106,-0.5626538943915612,0.8755241944797367,,-0.11698505643804993,-0.12851077448590748,0.09694439508,-0.1167695939710949,,2.7120113e-06,-5.9604645e-07,-2.3841858e-07,1.0,2.026558e-06,1.5199184e-06,-2.026558e-06,1.0,3.874302e-07,-1.5348196e-06,-4.172325e-07,1.0,73,0.223,1,1,0.199,False,-0.2634526987349264,1.0502874705711984
0.2452882737852633,17:07:08.564674,17:05:52.677330,0,,0.12516488,0.0068593547,0.026175797,0.6254124,0.69472075,-0.35527796,0.29595897,0.21009174,0.9318099,0.7219885,-0.6879132,-0.074215084,,0.014709674,-0.031222884,0.06346935,0.22671142,-0.5472749,0.80566245,-0.6801808,0.50309753,0.5331481,-0.69710547,-0.6688669,-0.2581879,,0.09846965,1.2953923,0.42710546,0.98261076,0.0074647362,-0.18552719,-0.10494113,-0.8019738,-0.58806914,-0.15317772,0.5973125,-0.7872448,,-0.13122241,0.25139132,-0.112177044,-0.6920329,-0.52640414,0.49395263,0.6784901,-0.24070247,0.6940558,-0.24645825,0.8154514,0.52373403,,-0.057155848,0.4064898,-0.42674655,-0.1663073,0.68965703,-0.70478016,-0.9852182,-0.14598367,0.08963125,-0.041071568,0.70926857,0.70374084,,1.0555662974476288,0.5730267792674586,0.22061429881000003,3.379572819140079,-0.2459456995777928,-0.9471157510614814,-0.4095035737986381,,-1.3823846299519358,0.19930829001798614,0.13156565726000002,0.33885894867099137,0.18336618268522106,-0.5626538943915613,0.8751975063474683,,-0.11698505643804993,-0.12851077448590748,0.09694439508,-0.1167695939710949,,2.7120113e-06,-5.9604645e-07,-2.3841858e-07,1.0,2.026558e-06,1.5199184e-06,-2.026558e-06,1.0,3.874302e-07,-1.5348196e-06,-4.172325e-07,1.0,86,0.264,1,1,0.24,False,-0.26339312101640555,1.049804668563404
0.2689129188656807,17:07:08.604907,17:05:52.811992,0,,0.12506369,0.007157713,0.026787877,0.5682528,0.74496174,-0.3494578,0.2775072,0.22630766,0.93368876,0.7746473,-0.62754834,-0.07813248,,0.014742918,-0.031224791,0.06349933,0.22681467,-0.5468755,0.8059046,-0.68022853,0.50325054,0.5329429,-0.6970253,-0.6690786,-0.25785565,,0.09846965,1.2953923,0.42710546,0.98261076,0.0074647362,-0.18552719,-0.10494113,-0.8019738,-0.58806914,-0.15317772,0.5973125,-0.7872448,,-0.13118723,0.25199768,-0.112501025,-0.6482044,-0.5835041,0.4892383,0.69498515,-0.1907933,0.69324857,-0.31116995,0.7893801,0.5291997,,-0.057193577,0.406509,-0.42676112,-0.16642591,0.68931186,-0.7050898,-0.98519534,-0.14607474,0.08973464,-0.041140657,0.70958537,0.7034174,,1.0575819307278012,0.5726406426237474,0.22047818836000002,3.3296666125907626,-0.31166785596496965,-0.9249700543376194,-0.4083601653356982,,-1.3827630438627727,0.19928512181936348,0.13155787952,0.33885894867099137,0.18322954618545564,-0.5627875127082866,0.8756875385458711,,-0.11698505643804993,-0.12851077448590748,0.09694439508,-0.1167695939710949,,2.7120113e-06,-5.9604645e-07,-2.3841858e-07,1.0,2.026558e-06,1.5199184e-06,-2.026558e-06,1.0,3.874302e-07,-1.5348196e-06,-4.172325e-07,1.0,94,0.289,1,1,0.265,False,-0.2635718541719685,1.0499977893665218
0.3091523079201579,17:07:08.631845,17:05:52.811992,0,,0.124938816,0.0072951764,0.027102768,0.5350056,0.7684058,-0.3511715,0.27200338,0.23686738,0.9326886,0.7998644,-0.59451354,-0.082283795,,0.01475548,-0.031223688,0.0635156,0.22689268,-0.54682815,0.80591464,-0.6801882,0.50327086,0.53297514,-0.6970393,-0.66910183,-0.25775766,,0.09846965,1.2953923,0.42710546,0.98261076,0.0074647362,-0.18552719,-0.10494113,-0.8019738,-0.58806914,-0.15317772,0.5973125,-0.7872448,,-0.13110054,0.2522961,-0.11269359,-0.6210112,-0.6105628,0.49148563,0.70547813,-0.1621798,0.6899263,-0.34153432,0.77518433,0.5314542,,-0.057208493,0.4065212,-0.4267684,-0.1664969,0.689271,-0.70511293,-0.98518556,-0.14608268,0.08982929,-0.041088067,0.7096234,0.70338213,,1.058670836063067,0.5723317333087784,0.22039004064000003,3.298213121068083,-0.34268434141172466,-0.913236861061865,-0.41456723984880084,,-1.382909775787383,0.19930056728511192,0.13155269436,0.33885894867099137,0.18322954618545564,-0.562705833968146,0.8758508826120054,,-0.11698505643804993,-0.12851077448590748,0.09694439508,-0.1167695939710949,,2.7120113e-06,-5.9604645e-07,-2.3841858e-07,1.0,2.026558e-06,1.5199184e-06,-2.026558e-06,1.0,3.874302e-07,-1.5348196e-06,-4.172325e-07,1.0,111,0.342,1,1,0.318,False,-0.2637505873275314,1.0500943497680806
0.33606050885282457,17:07:08.682491,17:05:52.811992,0,,0.12451246,0.007674001,0.028099805,0.4346262,0.82942784,-0.3509266,0.24658334,0.26517117,0.93213785,0.86619663,-0.49166423,-0.089272976,,0.014743749,-0.031228218,0.06352174,0.22692882,-0.546672,0.8060105,-0.6800839,0.50345135,0.53293777,-0.6971293,-0.6690937,-0.25753525,,0.09846965,1.2953923,0.42710546,0.98261076,0.0074647362,-0.18552719,-0.10494113,-0.8019738,-0.58806914,-0.15317772,0.5973125,-0.7872448,,-0.13080403,0.25319564,-0.113343395,-0.53847766,-0.68381226,0.49238467,0.7242224,-0.07686565,0.68526894,-0.43074784,0.72559804,0.5366226,,-0.057198353,0.40652382,-0.4267777,-0.16650894,0.6891313,-0.7052466,-0.98518944,-0.14597131,0.089967735,-0.040946193,0.70978194,0.70323044,,1.0616595336853918,0.5714358962953684,0.22010615313,3.2074173755392845,-0.43600707075152045,-0.8732404359793375,-0.41195373479065234,,-1.3828479939243892,0.19932373548373458,0.13153973146,0.33885894867099137,0.18336618268522106,-0.5629806093521236,0.8755241944797367,,-0.11698505643804993,-0.12851077448590748,0.09694439508,-0.1167695939710949,,2.7120113e-06,-5.9604645e-07,-2.3841858e-07,1.0,2.026558e-06,1.5199184e-06,-2.026558e-06,1.0,3.874302e-07,-1.5348196e-06,-4.172325e-07,1.0,119,0.367,0,1,0.327,False,-0.2626186106756321,1.0502874705711984
0.38670058990828693,17:07:08.711080,17:05:52.931701,0,,0.12415792,0.007857725,0.028696597,0.3784979,0.8582186,-0.34669885,0.22621927,0.27743524,0.93373156,0.8975322,-0.43184546,-0.08913711,,0.014721099,-0.031235967,0.063512444,0.22683823,-0.54688513,0.8058914,-0.68012065,0.50333256,0.533003,-0.6971229,-0.66900885,-0.25777286,,0.09846965,1.2953923,0.42710546,0.98261076,0.0074647362,-0.18552719,-0.10494113,-0.8019738,-0.58806914,-0.15317772,0.5973125,-0.7872448,,-0.13053606,0.25369877,-0.11378005,-0.49221668,-0.72049695,0.48847404,0.72632647,-0.030661713,0.68666565,-0.47976306,0.6927799,0.5384082,,-0.05717522,0.40651336,-0.42678156,-0.16642402,0.689317,-0.7050852,-0.9852018,-0.14596805,0.089837365,-0.040993486,0.7096023,0.7034089,,1.0635438805067026,0.5707485730695624,0.21991430221000002,3.1583499287639056,-0.4892953056600422,-0.8464499165264079,-0.41228042292292066,,-1.3826549256025336,0.19932373548373458,0.13153325001000002,0.33885894867099137,0.18336618268522106,-0.5628989306119829,0.8753608504136025,,-0.11698505643804993,-0.12851077448590748,0.09694439508,-0.1167695939710949,,2.7120113e-06,-5.9604645e-07,-2.3841858e-07,1.0,2.026558e-06,1.5199184e-06,-2.026558e-06,1.0,3.874302e-07,-1.5348196e-06,-4.172325e-07,1.0,136,0.42,1,2,0.345,False,-0.26351227645344677,1.0501909101696396
0.415325908921659,17:07:08.757087,17:05:52.931701,0,,0.12319893,0.008143209,0.029615551,0.27161223,0.89729625,-0.34797445,0.20419872,0.29960418,0.93195504,0.9404943,-0.3241864,-0.10185069,,0.0147055015,-0.031244371,0.063504994,0.22676477,-0.54672045,0.8060238,-0.6801634,0.503447,0.5328403,-0.69710505,-0.66905737,-0.25769526,,0.09846965,1.2953923,0.42710546,0.98261076,0.0074647362,-0.18552719,-0.10494113,-0.8019738,-0.58806914,-0.15317772,0.5973125,-0.7872448,,-0.1297207,0.25447118,-0.114544414,-0.39878303,-0.77409893,0.4916736,0.73359746,0.05243681,0.67755824,-0.5502789,0.63088924,0.5469661,,-0.05715938,0.40650335,-0.42678592,-0.16635834,0.6891727,-0.70524174,-0.98521054,-0.14594293,0.08978214,-0.041049648,0.7097476,0.703259,,1.0671195058274685,0.5690804627687299,0.21956819278000003,3.0516177475302833,-0.5674513835258741,-0.7877012787606291,-0.4127704551213236,,-1.3825081936779233,0.19930056728511192,0.13152676856,0.33885894867099137,0.18336618268522106,-0.5632256455725453,0.8760142266781396,,-0.11698505643804993,-0.12851077448590748,0.09694439508,-0.1167695939710949,,2.7120113e-06,-5.9604645e-07,-2.3841858e-07,1.0,2.026558e-06,1.5199184e-06,-2.026558e-06,1.0,3.874302e-07,-1.5348196e-06,-4.172325e-07,1.0,144,0.445,1,2,0.37,False,-0.26255903295711036,1.0499977893665218
0.4613308869302273,17:07:08.793746,17:05:52.931701,0,,0.12240862,0.008287303,0.030109406,0.21044786,0.9125385,-0.35069224,0.19007367,0.31368667,0.93030787,0.9589492,-0.2624387,-0.10743511,,0.014706563,-0.031243328,0.063506484,0.22677416,-0.5463829,0.80625,-0.6801553,0.50367194,0.5326381,-0.69710994,-0.6691638,-0.25740552,,0.09846965,1.2953923,0.42710546,0.98261076,0.0074647362,-0.18552719,-0.10494113,-0.8019738,-0.58806914,-0.15317772,0.5973125,-0.7872448,,-0.1290161,0.25487596,-0.11502286,-0.34446952,-0.79766,0.49505478,0.7328417,0.10111218,0.67284423,-0.586757,0.5945711,0.54972845,,-0.057160582,0.4065051,-0.42678592,-0.16636609,0.6888772,-0.7055285,-0.9852097,-0.14590307,0.0898563,-0.04103881,0.7100426,0.70296186,,1.0698379077991955,0.5676826481184952,0.21934523090000002,2.9870332449370496,-0.6093987889538645,-0.751944086263157,-0.41293379918745776,,-1.3825236391436717,0.19930829001798614,0.13152676856,0.33885894867099137,0.18336618268522106,-0.5636340392732481,0.8755241944797367,,-0.11698505643804993,-0.12851077448590748,0.09694439508,-0.1167695939710949,,2.7120113e-06,-5.9604645e-07,-2.3841858e-07,1.0,2.026558e-06,1.5199184e-06,-2.026558e-06,1.0,3.874302e-07,-1.5348196e-06,-4.172325e-07,1.0,157,0.485,0,2,0.388,False,-0.2631548101423209,1.0499495091657423
0.4979841117747128,17:07:08.827445,17:05:52.931701,0,,0.12135328,0.008481197,0.030757934,0.13033417,0.9284992,-0.3477099,0.17057487,0.32447338,0.93038774,0.9766868,-0.18057196,-0.11608887,,0.014707729,-0.031239573,0.06351268,0.22685449,-0.54622746,0.8063327,-0.68002874,0.5038452,0.5326358,-0.69720733,-0.66916025,-0.25715083,,0.09846965,1.2953923,0.42710546,0.98261076,0.0074647362,-0.18552719,-0.10494113,-0.8019738,-0.58806914,-0.15317772,0.5973125,-0.7872448,,-0.12807307,0.25541103,-0.1156524,-0.27235293,-0.8259025,0.4936688,0.7271704,0.15931913,0.667713,-0.6301167,0.54083496,0.5571808,,-0.057162426,0.40651217,-0.42678675,-0.16641846,0.68873847,-0.70565164,-0.985208,-0.1457998,0.09004283,-0.040867902,0.71019834,0.7028144,,1.0731432374693637,0.5662384970710153,0.21905226936000002,2.8983343988430956,-0.6599542938670774,-0.6932402115054008,-0.4126071110551892,,-1.3825622528080428,0.19933918094948305,0.13152547227000003,0.33885894867099137,0.1835028191849865,-0.563827135917085,0.8753608504136025,,-0.11698505643804993,-0.12851077448590748,0.09694439508,-0.1167695939710949,,2.7120113e-06,-5.9604645e-07,-2.3841858e-07,1.0,2.026558e-06,1.5199184e-06,-2.026558e-06,1.0,3.874302e-07,-1.5348196e-06,-4.172325e-07,1.0,165,0.51,0,2,0.388,False,-0.26249945523859,1.0502874705711984
0.5316892869304866,17:07:08.849240,17:05:52.931701,0,,0.12088815,0.008566283,0.031037837,0.09500551,0.9347228,-0.34244296,0.1608851,0.3250593,0.931908,0.9823899,-0.14363042,-0.11950067,,0.01470954,-0.03123844,0.06351483,0.22686738,-0.5462135,0.80633855,-0.6800192,0.50385547,0.5326384,-0.6972124,-0.66916394,-0.2571273,,0.09846965,1.2953923,0.42710546,0.98261076,0.0074647362,-0.18552719,-0.10494113,-0.8019738,-0.58806914,-0.15317772,0.5973125,-0.7872448,,-0.12765644,0.25564298,-0.115925446,-0.24033988,-0.8383138,0.48935333,0.7225202,0.18216197,0.6669195,-0.6482294,0.513855,0.56191784,,-0.057164446,0.40651435,-0.4267869,-0.16642949,0.6887262,-0.705661,-0.9852066,-0.14579701,0.09006195,-0.040855248,0.71021086,0.70280254,,1.0744715475237303,0.5657210739684422,0.21893041810000002,2.8578642397505827,-0.6814062243302514,-0.6616171785807455,-0.4140772076503978,,-1.3825854210066655,0.19934690368235727,0.13152547227000003,0.33885894867099137,0.1835028191849865,-0.563827135917085,0.8753608504136025,,-0.11698505643804993,-0.12851077448590748,0.09694439508,-0.1167695939710949,,2.7120113e-06,-5.9604645e-07,-2.3841858e-07,1.0,2.026558e-06,1.5199184e-06,-2.026558e-06,1.0,3.874302e-07,-1.5348196e-06,-4.172325e-07,1.0,182,0.563,0,2,0.388,False,-0.26255903295711036,1.0502874705711984
0.5534874189179391,17:07:08.905285,17:05:53.084620,0,,0.11966186,0.008734338,0.0318003,-0.0011868328,0.9385629,-0.34510618,0.13108441,0.3422746,0.93041116,0.99137044,-0.0441339,-0.123437375,,0.014710195,-0.031242523,0.06351167,0.22684829,-0.5462098,0.8063464,-0.6800485,0.5038418,0.53261375,-0.69719,-0.6691773,-0.25715357,,0.09846965,1.2953923,0.42710546,0.98261076,0.0074647362,-0.18552719,-0.10494113,-0.8019738,-0.58806914,-0.15317772,0.5973125,-0.7872448,,-0.1265705,0.25622448,-0.11669744,-0.15252975,-0.8568903,0.49241617,0.7031807,0.25601184,0.6633211,-0.69445777,0.44743374,0.5634993,,-0.057164926,0.4065093,-0.4267879,-0.16641688,0.68872356,-0.70566654,-0.9852071,-0.14581619,0.09002558,-0.04089487,0.7102094,0.70280164,,1.0773752950844386,0.564717118694793,0.21857134577,2.742744460777579,-0.7372905527343167,-0.5881948055809774,-0.41358717545199497,,-1.382569975540917,0.19930829001798614,0.13152547227000003,0.33885894867099137,0.1835028191849865,-0.563827135917085,0.8753608504136025,,-0.11698505643804993,-0.12851077448590748,0.09694439508,-0.1167695939710949,,2.7120113e-06,-5.9604645e-07,-2.3841858e-07,1.0,2.026558e-06,1.5199184e-06,-2.026558e-06,1.0,3.874302e-07,-1.5348196e-06,-4.172325e-07,1.0,190,0.588,0,2,0.388,False,-0.2623802998015474,1.050046069567301
0.6095334058627486,17:07:08.925891,17:05:53.084620,0,,0.11921116,0.008753255,0.032092065,-0.0354618,0.9373403,-0.34660572,0.11980051,0.34831,0.9296924,0.9921644,-0.008555055,-0.12464571,,0.01470989,-0.031242494,0.06351149,0.22703233,-0.546267,0.8062559,-0.6800776,0.5036594,0.53274906,-0.69710165,-0.66926795,-0.25715697,,0.09846965,1.2953923,0.42710546,0.98261076,0.0074647362,-0.18552719,-0.10494113,-0.8019738,-0.58806914,-0.15317772,0.5973125,-0.7872448,,-0.12617959,0.25641102,-0.11701527,-0.12091883,-0.8610223,0.49398303,0.6943063,0.28229627,0.6620027,-0.70944864,0.42302412,0.56367826,,-0.057164595,0.40650925,-0.42678782,-0.16661465,0.6887792,-0.7055656,-0.98517174,-0.14599869,0.09011663,-0.040941186,0.71011806,0.7028913,,1.0782711320978486,0.5644777139756921,0.21839764291000002,2.699338642476282,-0.755736480202651,-0.5600847901594705,-0.41260711105518955,,-1.382569975540917,0.19930829001798614,0.13152547227000003,0.33864925872750684,0.1835028191849865,-0.5637454571769445,0.8755241944797367,,-0.11698505643804993,-0.12851077448590748,0.09694439508,-0.1167695939710949,,2.7120113e-06,-5.9604645e-07,-2.3841858e-07,1.0,2.026558e-06,1.5199184e-06,-2.026558e-06,1.0,3.874302e-07,-1.5348196e-06,-4.172325e-07,1.0,207,0.641,0,2,0.388,False,-0.26249945523859,1.0500943497680806
0.6301324737723917,17:07:08.978369,17:05:53.206341,0,,0.11774405,0.008793205,0.032711774,-0.13041191,0.93101746,-0.34087998,0.09054789,0.35356352,0.93101764,0.9873164,0.09054977,-0.13041073,,0.014721885,-0.031237517,0.06351912,0.22704208,-0.5465219,0.80608034,-0.6801374,0.5034273,0.5328921,-0.6970402,-0.6692344,-0.25741082,,0.09846965,1.2953923,0.42710546,0.98261076,0.0074647362,-0.18552719,-0.10494113,-0.8019738,-0.58806914,-0.15317772,0.5973125,-0.7872448,,-0.124852784,0.25680166,-0.117805846,-0.031830624,-0.87136465,0.4896023,0.6670651,0.34626946,0.6596375,-0.74431914,0.34759325,0.57023495,,-0.05717721,0.40651736,-0.4267868,-0.16663933,0.6890048,-0.7053395,-0.98516417,-0.14610456,0.090028085,-0.041023534,0.7098774,0.70312953,,1.0812907206516704,0.5634660359691687,0.21797634866,2.5693308775158767,-0.7987769776287649,-0.462422235547427,-0.411300358526115,,-1.3826935392669046,0.19933145821660883,0.13152806485000001,0.33864925872750684,0.18336618268522106,-0.5633073243126858,0.8748708182151996,,-0.11698505643804993,-0.12851077448590748,0.09694439508,-0.1167695939710949,,2.7120113e-06,-5.9604645e-07,-2.3841858e-07,1.0,2.026558e-06,1.5199184e-06,-2.026558e-06,1.0,3.874302e-07,-1.5348196e-06,-4.172325e-07,1.0,215,0.666,0,2,0.388,False,-0.2617249448978165,1.0498529487641832
0.682584963971749,17:07:09.006312,17:05:53.206341,0,,0.1172448,0.008804873,0.032850087,-0.1610749,0.9269233,-0.338922,0.08259922,0.35486227,0.93126273,0.9834796,0.122008234,-0.13372281,,0.014734879,-0.031237219,0.0635255,0.22708708,-0.5468887,0.8058188,-0.6801321,0.50316125,0.5331501,-0.69703066,-0.66913486,-0.25769514,,0.09846965,1.2953923,0.42710546,0.98261076,0.0074647362,-0.18552719,-0.10494113,-0.8019738,-0.58806914,-0.15317772,0.5973125,-0.7872448,,-0.124388926,0.25688925,-0.11801957,-0.0024480328,-0.87266815,0.48830763,0.6580902,0.36626026,0.6578531,-0.7529351,0.3229609,0.57339776,,-0.057191007,0.4065215,-0.4267884,-0.16668467,0.6893266,-0.7050142,-0.9851567,-0.14617412,0.0899965,-0.04101786,0.70955056,0.7034597,,1.0822946759253196,0.5631725721199481,0.21786227514000003,2.5244572296101886,-0.8090247151111729,-0.42833708962591854,-0.4122804229229209,,-1.382809380260018,0.19930829001798614,0.13152936114000002,0.33864925872750684,0.18336618268522106,-0.5627355731317019,0.8750341622813339,,-0.11698505643804993,-0.12851077448590748,0.09694439508,-0.1167695939710949,,2.7120113e-06,-5.9604645e-07,-2.3841858e-07,1.0,2.026558e-06,1.5199184e-06,-2.026558e-06,1.0,3.874302e-07,-1.5348196e-06,-4.172325e-07,1.0,228,0.707,0,2,0.388,False,-0.26190367805337944,1.0501909101696396
0.7105550519190729,17:07:09.048525,17:05:53.206341,0,,0.115993336,0.008885391,0.03316945,-0.22266969,0.9158991,-0.33398646,0.055445343,0.3539306,0.93362683,0.973316,0.1893723,-0.12959215,,0.01478418,-0.031234149,0.0635488,0.22721054,-0.54779625,0.80516744,-0.68019754,0.5024189,0.5337663,-0.69692653,-0.6689503,-0.25845483,,0.09846965,1.2953923,0.42710546,0.98261076,0.0074647362,-0.18552719,-0.10494113,-0.8019738,-0.58806914,-0.15317772,0.5973125,-0.7872448,,-0.12321395,0.2571331,-0.11850395,0.055381987,-0.87379897,0.4831234,0.6296626,0.40608516,0.66228384,-0.7748922,0.26752612,0.5726883,,-0.05724302,0.4065377,-0.42679235,-0.16682856,0.6901259,-0.70419776,-0.9851284,-0.14644742,0.0898617,-0.041112065,0.70871675,0.7042942,,1.0854764418695002,0.562377130633903,0.21765227616000002,2.4292579952682147,-0.8368985610633227,-0.3519449049994991,-0.4122804229229209,,-1.3832495760338488,0.19923878542211812,0.13153584259,0.33864925872750684,0.18322954618545564,-0.5611539379054753,0.8747074741490654,,-0.11698505643804993,-0.12851077448590748,0.09694439508,-0.1167695939710949,,2.7120113e-06,-5.9604645e-07,-2.3841858e-07,1.0,2.026558e-06,1.5199184e-06,-2.026558e-06,1.0,3.874302e-07,-1.5348196e-06,-4.172325e-07,1.0,240,0.744,0,2,0.388,False,-0.2622611443645053,1.0502391903704191
0.7527638119645417,17:07:09.081666,17:05:53.206341,0,,0.11517867,0.008963533,0.033303708,-0.25544035,0.905804,-0.3380375,0.038171023,0.35881266,0.93262875,0.96607095,0.22532766,-0.1262309,,0.0148312,-0.031227592,0.06357038,0.22738163,-0.54792976,0.8050282,-0.6801585,0.502259,0.5339666,-0.69690895,-0.66896105,-0.2584746,,0.09846965,1.2953923,0.42710546,0.98261076,0.0074647362,-0.18552719,-0.10494113,-0.8019738,-0.58806914,-0.15317772,0.5973125,-0.7872448,,-0.12243254,0.2572679,-0.118746914,0.08606011,-0.8695217,0.48633906,0.6111749,0.4315844,0.6634758,-0.78680295,0.24013944,0.56857204,,-0.057292204,0.406555,-0.4267929,-0.16699632,0.69024533,-0.7040409,-0.985102,-0.14654909,0.089985654,-0.041064374,0.70857936,0.7044352,,1.0878550435947614,0.5617824802025877,0.21757449876,2.374528920018754,-0.852201849037052,-0.31406401160178504,-0.4121170788567865,,-1.383666603609057,0.19918472629199854,0.13154491662,0.33864925872750684,0.18322954618545564,-0.5605821867244913,0.8755241944797367,,-0.11698505643804993,-0.12851077448590748,0.09694439508,-0.1167695939710949,,2.7120113e-06,-5.9604645e-07,-2.3841858e-07,1.0,2.026558e-06,1.5199184e-06,-2.026558e-06,1.0,3.874302e-07,-1.5348196e-06,-4.172325e-07,1.0,253,0.784,0,2,0.388,False,-0.26196325577190027,1.0499977893665218
0.7859070107806474,17:07:09.128284,17:05:53.344586,0,,0.11387939,0.009108253,0.033374935,-0.3030203,0.89136744,-0.3371094,0.016367793,0.35855663,0.9333645,0.9528435,0.27731052,-0.123239815,,0.01492748,-0.031212721,0.06362808,0.22838266,-0.5477144,0.80489135,-0.68002605,0.50189096,0.5344809,-0.69671077,-0.6694133,-0.25783688,,0.09846965,1.2953923,0.42710546,0.98261076,0.0074647362,-0.18552719,-0.10494113,-0.8019738,-0.58806914,-0.15317772,0.5973125,-0.7872448,,-0.12115847,0.25741255,-0.11901146,0.13154845,-0.86455184,0.4850207,0.58530885,0.46262258,0.6658783,-0.80006784,0.19629164,0.56688714,,-0.057395015,0.40660167,-0.42680147,-0.1680015,0.6900766,-0.70396715,-0.98493713,-0.14714597,0.09081238,-0.04091844,0.70862,0.7044028,,1.0919172010866034,0.5607630794631902,0.21752005458,2.2904432526814595,-0.8679150465100777,-0.24807809284519045,-0.41375051951812925,,-1.3845933315539638,0.19911522169613052,0.13155528694000002,0.33802018889705326,0.18336618268522106,-0.5599584959669228,0.8750341622813339,,-0.11698505643804993,-0.12851077448590748,0.09694439508,-0.1167695939710949,,2.7120113e-06,-5.9604645e-07,-2.3841858e-07,1.0,2.026558e-06,1.5199184e-06,-2.026558e-06,1.0,3.874302e-07,-1.5348196e-06,-4.172325e-07,1.0,261,0.809,0,2,0.388,False,-0.2616653671792948,1.0495632675595068
0.8325252567883581,17:07:09.148698,17:05:53.344586,0,,0.11343663,0.009154089,0.03335756,-0.3175698,0.8862392,-0.33723807,0.010157019,0.35880715,0.93335646,0.94818044,0.29298043,-0.12294808,,0.014981657,-0.03120825,0.063654184,0.22986849,-0.5481681,0.8041592,-0.68019634,0.5004752,0.53559077,-0.6960557,-0.67010164,-0.25781843,,0.09846965,1.2953923,0.42710546,0.98261076,0.0074647362,-0.18552719,-0.10494113,-0.8019738,-0.58806914,-0.15317772,0.5973125,-0.7872448,,-0.12071756,0.25743392,-0.11907128,0.14563216,-0.86225,0.48509407,0.5773897,0.4722318,0.66604674,-0.80337566,0.1830905,0.56662637,,-0.05745216,0.40662053,-0.4268053,-0.16958337,0.69051564,-0.70315695,-0.984654,-0.14855002,0.091593824,-0.04120701,0.70789903,0.70511055,,1.0933613521340835,0.560315160956485,0.21752005458,2.2636029399154403,-0.8714675955039791,-0.22745694073858164,-0.41179039072451784,,-1.3850953091907885,0.19903027163451406,0.13156306468,0.3365523592926616,0.18336618268522106,-0.5588149936049549,0.875034162281334,,-0.11698505643804993,-0.12851077448590748,0.09694439508,-0.1167695939710949,,2.7120113e-06,-5.9604645e-07,-2.3841858e-07,1.0,2.026558e-06,1.5199184e-06,-2.026558e-06,1.0,3.874302e-07,-1.5348196e-06,-4.172325e-07,1.0,278,0.862,0,2,0.388,False,-0.26232072208302704,1.0497563883626244
0.8529492528177798,17:07:09.199068,17:05:53.344586,0,,0.11238506,0.0092504695,0.03325638,-0.34796715,0.87037367,-0.34837967,-0.010239184,0.36805192,0.9297489,0.93745077,0.32708907,-0.11915824,,0.015099503,-0.031207565,0.06372082,0.22953394,-0.54789466,0.80444103,-0.67931736,0.5017166,0.5355449,-0.69702375,-0.6693965,-0.2570334,,0.09846965,1.2953923,0.42710546,0.98261076,0.0074647362,-0.18552719,-0.10494113,-0.8019738,-0.58806914,-0.15317772,0.5973125,-0.7872448,,-0.11966175,0.25743854,-0.11917402,0.17415342,-0.85139877,0.49476326,0.55433446,0.5000319,0.6653431,-0.8138697,0.15839253,0.5590419,,-0.05757882,0.40666333,-0.42682657,-0.16902223,0.69023633,-0.7035661,-0.9848007,-0.14723267,0.09214184,-0.039988272,0.7084464,0.70463085,,1.0966898500028741,0.5589327917719988,0.21759523940000003,2.203421926135382,-0.8849946089807579,-0.19061608638821814,-0.4127704551213238,,-1.386145600861683,0.19877542144966465,0.13156954613000002,0.33781049895356874,0.18432263818357916,-0.5582880590885808,0.875687538545871,,-0.11698505643804993,-0.12851077448590748,0.09694439508,-0.1167695939710949,,2.7120113e-06,-5.9604645e-07,-2.3841858e-07,1.0,2.026558e-06,1.5199184e-06,-2.026558e-06,1.0,3.874302e-07,-1.5348196e-06,-4.172325e-07,1.0,286,0.887,0,2,0.388,False,-0.2629164992682367,1.0494667071579475
0.9033043328672647,17:07:09.229243,17:05:53.344586,0,,0.11180257,0.009370588,0.0330891,-0.35860035,0.8624646,-0.35715607,-0.021410733,0.37490276,0.9268169,0.93324566,0.34000373,-0.115974456,,0.0151347555,-0.031209592,0.06374097,0.22910403,-0.5475315,0.8048108,-0.6792195,0.5023269,0.53509676,-0.69726056,-0.66923606,-0.25680894,,0.09846965,1.2953923,0.42710546,0.98261076,0.0074647362,-0.18552719,-0.10494113,-0.8019738,-0.58806914,-0.15317772,0.5973125,-0.7872448,,-0.119047865,0.25742713,-0.11910532,0.18362424,-0.84495234,0.5023322,0.54277945,0.5132081,0.66483676,-0.81955636,0.15057546,0.55286026,,-0.057616938,0.40667486,-0.42683482,-0.16855271,0.6899046,-0.70400405,-0.98488724,-0.14674312,0.091997586,-0.03983819,0.70887107,0.7042121,,1.0987904333446632,0.5578284409709848,0.21776894226000001,2.178678512804208,-0.8929195259671534,-0.178681372384408,-0.4116270466583837,,-1.3864622329095262,0.19870591685379663,0.13156954613000002,0.3384395687840223,0.18432263818357916,-0.558451416568862,0.8753608504136025,,-0.11698505643804993,-0.12851077448590748,0.09694439508,-0.1167695939710949,,2.7120113e-06,-5.9604645e-07,-2.3841858e-07,1.0,2.026558e-06,1.5199184e-06,-2.026558e-06,1.0,3.874302e-07,-1.5348196e-06,-4.172325e-07,1.0,299,0.928,0,2,0.388,False,-0.26160578946077395,1.0496115477602863
0.9334830588195473,17:07:09.267111,17:05:53.475940,0,,0.111198954,0.009518802,0.032824934,-0.36909038,0.8545042,-0.3655061,-0.03183803,0.38141787,0.92385435,0.928848,0.3526226,-0.11357218,,0.015142702,-0.031209353,0.06374395,0.22907935,-0.5474848,0.80484957,-0.67931044,0.50228626,0.5350194,-0.69718003,-0.6693047,-0.25684878,,0.09846965,1.2953923,0.42710546,0.98261076,0.0074647362,-0.18552719,-0.10494113,-0.8019738,-0.58806914,-0.15317772,0.5973125,-0.7872448,,-0.11839245,0.25737935,-0.118949525,0.19309698,-0.83845305,0.5096175,0.53170294,0.52593756,0.66383857,-0.8246245,0.1427799,0.54736495,,-0.057625216,0.4066767,-0.42683515,-0.16854928,0.6898665,-0.70404214,-0.98488283,-0.14682484,0.09191461,-0.03996206,0.70889115,0.7041849,,1.1009605212823204,0.5565155763823666,0.21802560768,2.153515719586065,-0.8998879874551907,-0.16605636638394278,-0.4127704551213237,,-1.3865317375053943,0.1986981941209224,0.13157084242,0.3384395687840223,0.18418600168381372,-0.5584216774053061,0.8751975063474682,,-0.11698505643804993,-0.12851077448590748,0.09694439508,-0.1167695939710949,,2.7120113e-06,-5.9604645e-07,-2.3841858e-07,1.0,2.026558e-06,1.5199184e-06,-2.026558e-06,1.0,3.874302e-07,-1.5348196e-06,-4.172325e-07,1.0,307,0.952,0,2,0.388,False,-0.26297607698675796,1.049804668563404
0.9713613968342543,17:07:09.297319,17:05:53.475940,0,,0.11066989,0.009698719,0.032536745,-0.37107402,0.85528153,-0.36165935,-0.03329292,0.376962,0.9256302,0.92800623,0.35551792,-0.11140615,,0.015132941,-0.031209264,0.06373799,0.2290424,-0.54749304,0.8048544,-0.67931676,0.50229836,0.5350001,-0.69718593,-0.6692889,-0.2568736,,0.09846965,1.2953923,0.42710546,0.98261076,0.0074647362,-0.18552719,-0.10494113,-0.8019738,-0.58806914,-0.15317772,0.5973125,-0.7872448,,-0.11780089,0.2573431,-0.118739605,0.1949649,-0.8403599,0.5057508,0.53001416,0.52414316,0.66660255,-0.82527184,0.138091,0.5475922,,-0.057614625,0.40667287,-0.42683294,-0.16851251,0.68987304,-0.7040445,-0.9848888,-0.14680445,0.09188289,-0.03996934,0.708889,0.7041866,,1.1034009048705753,0.5550405344033897,0.21828486568000002,2.1453378117901685,-0.8998879874551907,-0.15445798528398297,-0.41326048731972653,,-1.3864390647109035,0.19871363958667085,0.13157084242,0.3384395687840223,0.18418600168381372,-0.5585033561454467,0.8750341622813339,,-0.11698505643804993,-0.12851077448590748,0.09694439508,-0.1167695939710949,,2.7120113e-06,-5.9604645e-07,-2.3841858e-07,1.0,2.026558e-06,1.5199184e-06,-2.026558e-06,1.0,3.874302e-07,-1.5348196e-06,-4.172325e-07,1.0,324,1.006,0,2,0.388,False,-0.26255903295711036,1.0496598279610654
1.0015580977778882,17:07:09.344792,17:05:53.475940,0,,0.10978264,0.010034524,0.032195657,-0.36943802,0.8556583,-0.36244234,-0.035404712,0.37679118,0.9256214,0.92858064,0.35479182,-0.108906835,,0.015126042,-0.03121144,0.063729525,0.22894798,-0.5476254,0.8047913,-0.6794359,0.50215626,0.5349822,-0.6971009,-0.66928726,-0.25710884,,0.09846965,1.2953923,0.42710546,0.98261076,0.0074647362,-0.18552719,-0.10494113,-0.8019738,-0.58806914,-0.15317772,0.5973125,-0.7872448,,-0.11682865,0.2573954,-0.11847819,0.19296545,-0.8406251,0.5060768,0.5286953,0.52357244,0.6680967,-0.8265867,0.13864082,0.54546595,,-0.057606652,0.40666553,-0.4268305,-0.16844366,0.68999094,-0.70394546,-0.9848941,-0.1468854,0.09169684,-0.04012932,0.7087575,0.70430994,,1.1079418718006193,0.5528241100684873,0.21864264172000003,2.139885873259571,-0.9002978969544871,-0.1493863646447411,-0.4134238313858608,,-1.386354114649287,0.19870591685379663,0.13157213871,0.3384395687840223,0.1840493651840483,-0.5583919382417502,0.8750341622813339,,-0.11698505643804993,-0.12851077448590748,0.09694439508,-0.1167695939710949,,2.7120113e-06,-5.9604645e-07,-2.3841858e-07,1.0,2.026558e-06,1.5199184e-06,-2.026558e-06,1.0,3.874302e-07,-1.5348196e-06,-4.172325e-07,1.0,333,1.034,0,2,0.388,False,-0.2620824112089424,1.0495632675595068
1.0489666969515383,17:07:09.377644,17:05:53.475940,0,,0.10930746,0.010267653,0.032102108,-0.36900222,0.85465324,-0.36524677,-0.037822396,0.3788463,0.9246864,0.9286586,0.3550257,-0.10747033,,0.015128389,-0.03121275,0.06372988,0.22895007,-0.5476739,0.8047577,-0.6794437,0.50211513,0.53501076,-0.69709265,-0.6692784,-0.25715426,,0.09846965,1.2953923,0.42710546,0.98261076,0.0074647362,-0.18552719,-0.10494113,-0.8019738,-0.58806914,-0.15317772,0.5973125,-0.7872448,,-0.11631575,0.2575197,-0.118376255,0.19217716,-0.83938926,0.5084227,0.5268202,0.525341,0.6681896,-0.82796645,0.13943656,0.54316574,,-0.057609122,0.4066648,-0.4268313,-0.16844773,0.6900336,-0.70390266,-0.98489296,-0.14690164,0.091683015,-0.040140096,0.7087126,0.70435447,,1.1105984919093526,0.552059559513939,0.21880986313000003,2.135901764333365,-0.9012543524528451,-0.14844308183858507,-0.4134238313858607,,-1.3863695601150354,0.19869047138804818,0.13157213871,0.3384395687840223,0.1840493651840483,-0.5583102595016096,0.8751975063474682,,-0.11698505643804993,-0.12851077448590748,0.09694439508,-0.1167695939710949,,2.7120113e-06,-5.9604645e-07,-2.3841858e-07,1.0,2.026558e-06,1.5199184e-06,-2.026558e-06,1.0,3.874302e-07,-1.5348196e-06,-4.172325e-07,1.0,346,1.075,0,2,0.388,False,-0.2626781883941529,1.0495632675595068
1.081879785982892,17:07:09.413352,17:05:53.475940,0,,0.10873945,0.010584742,0.032112837,-0.37191463,0.8507737,-0.37129986,-0.043851554,0.38344336,0.9225228,0.92723054,0.35938165,-0.105300635,,0.01513147,-0.031213913,0.06373072,0.22895566,-0.5476509,0.80477184,-0.67945015,0.5021208,0.5349974,-0.69708455,-0.66929305,-0.25713807,,0.09846965,1.2953923,0.42710546,0.98261076,0.0074647362,-0.18552719,-0.10494113,-0.8019738,-0.58806914,-0.15317772,0.5973125,-0.7872448,,-0.115718454,0.2577729,-0.11832721,0.19438916,-0.8357034,0.51362705,0.52112204,0.5315945,0.66771185,-0.83105034,0.13786641,0.53883964,,-0.057612404,0.40666452,-0.42683223,-0.16845506,0.6900139,-0.7039203,-0.98489136,-0.1469108,0.091685735,-0.040149067,0.7087299,0.7043365,,1.1138652079151494,0.5517660956647186,0.21895764019000002,2.1245785073852006,-0.9041237189479195,-0.14504148223913282,-0.412933799187458,,-1.3863927283136581,0.19867502592229974,0.13157213871,0.3384395687840223,0.1840493651840483,-0.5583102595016096,0.8751975063474682,,-0.11698505643804993,-0.12851077448590748,0.09694439508,-0.1167695939710949,,2.7120113e-06,-5.9604645e-07,-2.3841858e-07,1.0,2.026558e-06,1.5199184e-06,-2.026558e-06,1.0,3.874302e-07,-1.5348196e-06,-4.172325e-07,1.0,359,1.116,0,2,0.388,False,-0.2621419889274632,1.0494667071579475
1.1176005359739065,17:07:09.453760,17:05:53.649699,0,,0.10835498,0.0108515695,0.03214726,-0.37497604,0.84748346,-0.37571886,-0.047403574,0.38723207,0.9207629,0.9258217,0.36307433,-0.105029196,,0.01513081,-0.03120983,0.063733876,0.22897482,-0.5475888,0.80480856,-0.67942077,0.50217795,0.534981,-0.6971069,-0.66930085,-0.2570571,,0.09846965,1.2953923,0.42710546,0.98261076,0.0074647362,-0.18552719,-0.10494113,-0.8019738,-0.58806914,-0.15317772,0.5973125,-0.7872448,,-0.11531132,0.25800228,-0.11828452,0.19710183,-0.832593,0.5176289,0.5174081,0.53680944,0.66642666,-0.8327303,0.13647145,0.5365965,,-0.057611916,0.40666956,-0.42683122,-0.16846779,0.689959,-0.703971,-0.98489076,-0.14688432,0.09173419,-0.040109485,0.7087888,0.7042795,,1.116259255106159,0.551851045726335,0.21906523226000002,2.1153521498718817,-0.904943537946512,-0.14249436379372138,-0.4127704551213238,,-1.3864081737794067,0.19871363958667085,0.13157213871,0.3384395687840223,0.1840493651840483,-0.5583919382417502,0.8750341622813339,,-0.11698505643804993,-0.12851077448590748,0.09694439508,-0.1167695939710949,,2.7120113e-06,-5.9604645e-07,-2.3841858e-07,1.0,2.026558e-06,1.5199184e-06,-2.026558e-06,1.0,3.874302e-07,-1.5348196e-06,-4.172325e-07,1.0,372,1.157,0,2,0.388,False,-0.2621419889274632,1.0493218665556094
1.1579835279844701,17:07:09.494417,17:05:53.649699,0,,0.1080906,0.010995433,0.03216228,-0.37497896,0.8470657,-0.37665686,-0.048668027,0.38775545,0.9204766,0.9257549,0.3634904,-0.10417527,,0.015129685,-0.031207774,0.06373119,0.22915392,-0.5476597,0.8047093,-0.6794476,0.50199074,0.53512263,-0.69702184,-0.6693834,-0.257073,,0.09846965,1.2953923,0.42710546,0.98261076,0.0074647362,-0.18552719,-0.10494113,-0.8019738,-0.58806914,-0.15317772,0.5973125,-0.7872448,,-0.11503559,0.25812322,-0.118271686,0.19693314,-0.83218277,0.5183523,0.51636,0.53747344,0.66670436,-0.83342046,0.13636024,0.5355522,,-0.057610206,0.40666896,-0.42682815,-0.16866,0.69002634,-0.703859,-0.9848561,-0.14706275,0.09182047,-0.040152892,0.70868623,0.7043803,,1.117873306276872,0.5516657001373536,0.21911708386000003,2.112835870550067,-0.9050801744462775,-0.14123944352805706,-0.4134238313858608,,-1.3863927283136581,0.19872136231954507,0.13157473129000002,0.3382298788405378,0.1840493651840483,-0.5583102595016096,0.8751975063474682,,-0.11698505643804993,-0.12851077448590748,0.09694439508,-0.1167695939710949,,2.7120113e-06,-5.9604645e-07,-2.3841858e-07,1.0,2.026558e-06,1.5199184e-06,-2.026558e-06,1.0,3.874302e-07,-1.5348196e-06,-4.172325e-07,1.0,381,1.186,0,2,0.388,False,-0.26255903295711036,1.0497563883626244
1.198663110844791,17:07:09.523399,17:05:53.649699,0,,0.10788194,0.011013985,0.03208527,-0.37578112,0.84564835,-0.37903485,-0.049072206,0.39027983,0.91938764,0.92540824,0.3640885,-0.1051622,,0.015131496,-0.031207357,0.063726366,0.22885956,-0.5478207,0.8046835,-0.67961633,0.50190955,0.53498447,-0.6969541,-0.6693125,-0.25744116,,0.09846965,1.2953923,0.42710546,0.98261076,0.0074647362,-0.18552719,-0.10494113,-0.8019738,-0.58806914,-0.15317772,0.5973125,-0.7872448,,-0.11481626,0.2580893,-0.11824813,0.1977163,-0.8305407,0.52068263,0.5158201,0.5398316,0.6652154,-0.8335694,0.13705462,0.5351431,,-0.057611153,0.40666538,-0.42682448,-0.16839597,0.6901662,-0.70378506,-0.98489225,-0.14704958,0.09145296,-0.04037356,0.7085528,0.7045019,,1.118730529625911,0.5510401587745415,0.21915986143000002,2.1096905213977997,-0.904943537946512,-0.14135086143175346,-0.4134238313858608,,-1.386385005580784,0.19872136231954507,0.13157862016000002,0.3384395687840223,0.1837760921845174,-0.5580874236942168,0.8751975063474682,,-0.11698505643804993,-0.12851077448590748,0.09694439508,-0.1167695939710949,,2.7120113e-06,-5.9604645e-07,-2.3841858e-07,1.0,2.026558e-06,1.5199184e-06,-2.026558e-06,1.0,3.874302e-07,-1.5348196e-06,-4.172325e-07,1.0,394,1.227,1,3,0.388,False,-0.26243987752006825,1.0496115477602863
1.2276472749654204,17:07:09.564923,17:05:53.649699,0,,0.10753978,0.0109479055,0.031884998,-0.37997103,0.8412117,-0.3846881,-0.05236703,0.39564988,0.9169072,0.92351484,0.36854306,-0.1062839,,0.015097201,-0.031199407,0.06372291,0.2286802,-0.54780275,0.8047468,-0.6795594,0.5020907,0.5348869,-0.6970685,-0.6691913,-0.25744635,,0.09846168,1.2953919,0.42710844,0.9826088,0.0074497354,-0.18553819,-0.10495951,-0.801974,-0.5880657,-0.15317772,0.5973125,-0.7872448,,-0.114446945,0.2579113,-0.1182074,0.20164797,-0.8262078,0.5260407,0.5120012,0.5467674,0.6624954,-0.8349807,0.13574262,0.53327394,,-0.057566732,0.4066678,-0.426822,-0.16821109,0.6901497,-0.7038454,-0.98492754,-0.14685002,0.09139396,-0.04028419,0.7086102,0.7044493,,1.1195954757078241,0.5496346213914326,0.21924023141,2.09857695439312,-0.9069930854429937,-0.1381276968136365,-0.4148939279810695,,-1.3864081737794067,0.1987599759839162,0.13158899048,0.33864925872750684,0.1837760921845174,-0.5580874236942168,0.8751975063474682,,-0.11698505643804993,-0.12851077448590748,0.09694439508,-0.1167695939710949,,-5.543232e-06,1.5497208e-06,-8.34465e-07,1.0,-1.2695789e-05,-9.641051e-06,1.2695789e-05,1.0,-2.4735928e-06,9.62615e-06,2.4735928e-06,1.0,403,1.256,1,3,0.417,False,-0.2623802998015474,1.0494667071579475
1.2691688989289105,17:07:09.596057,17:05:53.798406,0,,0.10734265,0.010855146,0.031707853,-0.3802616,0.84148824,-0.383795,-0.05112049,0.39521047,0.91716695,0.9234651,0.36838314,-0.10726622,,0.015107937,-0.031185757,0.06372768,0.22828121,-0.5478553,0.80482423,-0.67961895,0.5022531,0.5346587,-0.6971411,-0.66902643,-0.25767794,,0.09846168,1.2953919,0.42710844,0.9826088,0.0074497354,-0.18553819,-0.10495951,-0.801974,-0.5880657,-0.15317772,0.5973125,-0.7872448,,-0.114237525,0.2577283,-0.11816863,0.20212023,-0.826513,0.52537954,0.51296157,0.54632354,0.6621186,-0.83427685,0.13567193,0.5343924,,-0.057576895,0.4066794,-0.42681274,-0.16781208,0.69018817,-0.70390296,-0.9849928,-0.14661616,0.09106505,-0.040351536,0.7086212,0.70443434,,1.1199893350844095,0.5484144295973051,0.2192804164,2.0968994348452434,-0.9060366299446356,-0.13572215127402953,-0.4134238313858607,,-1.3865162920396459,0.19884492604553267,0.13159806451,0.33906863861447584,0.1835028191849865,-0.5579462666269646,0.8750341622813339,,-0.11698505643804993,-0.12851077448590748,0.09694439508,-0.1167695939710949,,-5.543232e-06,1.5497208e-06,-8.34465e-07,1.0,-1.2695789e-05,-9.641051e-06,1.2695789e-05,1.0,-2.4735928e-06,9.62615e-06,2.4735928e-06,1.0,416,1.296,1,3,0.457,False,-0.26154621174225356,1.0496115477602863
1.3002953599207103,17:07:09.639526,17:05:53.798406,0,,0.1070472,0.010688975,0.03143698,-0.3812452,0.8398289,-0.3864446,-0.048686147,0.39919615,0.91557205,0.923191,0.36787182,-0.11130372,,0.015114557,-0.031182509,0.06373078,0.22831157,-0.547813,0.8048445,-0.6796024,0.50227773,0.5346566,-0.6971474,-0.6690425,-0.2576193,,0.09846168,1.2953919,0.42710844,0.9826088,0.0074497354,-0.18553819,-0.10495951,-0.801974,-0.5880657,-0.15317772,0.5973125,-0.7872448,,-0.11392666,0.25742918,-0.118122265,0.2034787,-0.8242303,0.5284324,0.51472574,0.5491737,0.6583811,-0.8328588,0.13803124,0.5359977,,-0.057583645,0.40668342,-0.42681113,-0.16783948,0.6901513,-0.7039326,-0.98498905,-0.14661552,0.09110695,-0.040329866,0.7086572,0.70439935,,1.1204990354541082,0.54652236004312,0.21932319397000002,2.093754085692976,-0.9039870824481541,-0.13665831116821076,-0.4135871754519951,,-1.3865780739026397,0.1988526487784069,0.13160065709000002,0.33906863861447584,0.1835028191849865,-0.5579462666269646,0.8743807860167969,,-0.11698505643804993,-0.12851077448590748,0.09694439508,-0.1167695939710949,,-5.543232e-06,1.5497208e-06,-8.34465e-07,1.0,-1.2695789e-05,-9.641051e-06,1.2695789e-05,1.0,-2.4735928e-06,9.62615e-06,2.4735928e-06,1.0,425,1.325,1,3,0.486,False,-0.2621419889274632,1.0489356249493738
1.3437744409311563,17:07:09.669520,17:05:53.798406,0,,0.10681802,0.010554172,0.031217515,-0.3825429,0.8389423,-0.3870874,-0.04645592,0.40095907,0.9149173,0.92276907,0.36797753,-0.11441037,,0.015117265,-0.031184684,0.06372875,0.22848892,-0.5477862,0.8048124,-0.67965174,0.5021352,0.5347279,-0.6970412,-0.6691716,-0.25757152,,0.09846168,1.2953919,0.42710844,0.9826088,0.0074497354,-0.18553819,-0.10495951,-0.801974,-0.5880657,-0.15317772,0.5973125,-0.7872448,,-0.113684736,0.25718677,-0.118082486,0.20513926,-0.8231298,0.5295047,0.51623464,0.55063313,0.6559763,-0.8315165,0.13878217,0.5378846,,-0.05758615,0.40668026,-0.426811,-0.16803533,0.690134,-0.70390284,-0.9849526,-0.14680754,0.09119152,-0.040403876,0.7086344,0.7044181,,1.120862003899197,0.545039595331269,0.21935689751,2.090608736540708,-0.9019375349516724,-0.13538914507859695,-0.4145672398488006,,-1.3865857966355137,0.19882175784691,0.13160195338000003,0.33885894867099137,0.1835028191849865,-0.5579462666269646,0.8743807860167969,,-0.11698505643804993,-0.12851077448590748,0.09694439508,-0.1167695939710949,,-5.543232e-06,1.5497208e-06,-8.34465e-07,1.0,-1.2695789e-05,-9.641051e-06,1.2695789e-05,1.0,-2.4735928e-06,9.62615e-06,2.4735928e-06,1.0,438,1.366,1,3,0.527,False,-0.2623802998015474,1.049370146756389
1.373766919830814,17:07:09.702901,17:05:53.908224,0,,0.10653962,0.0104365945,0.030961663,-0.38846174,0.8370253,-0.385339,-0.04564315,0.40018895,0.9152953,0.92033374,0.37314522,-0.11725375,,0.015116215,-0.031185668,0.0637272,0.22847952,-0.5477288,0.8048541,-0.67965984,0.5021715,0.5346834,-0.69703645,-0.66919124,-0.25753337,,0.09846168,1.2953919,0.42710844,0.9826088,0.0074497354,-0.18553819,-0.10495951,-0.801974,-0.5880657,-0.15317772,0.5973125,-0.7872448,,-0.11338606,0.2569356,-0.11801544,0.21144615,-0.82227427,0.5283518,0.51534915,0.55312014,0.6545788,-0.8304853,0.13387747,0.5407134,,-0.057584945,0.40667853,-0.42681098,-0.16802756,0.6900838,-0.70395386,-0.9849535,-0.14680322,0.09118893,-0.040414687,0.7086841,0.70436746,,1.1212867542072793,0.5436263352152859,0.21942300830000003,2.079075789649059,-0.8997513509554254,-0.12508337799693636,-0.4155473042456065,,-1.3865703511697653,0.19881403511403578,0.13160195338000003,0.33885894867099137,0.1835028191849865,-0.5580279453671051,0.8745441300829311,,-0.11698505643804993,-0.12851077448590748,0.09694439508,-0.1167695939710949,,-5.543232e-06,1.5497208e-06,-8.34465e-07,1.0,-1.2695789e-05,-9.641051e-06,1.2695789e-05,1.0,-2.4735928e-06,9.62615e-06,2.4735928e-06,1.0,447,1.395,1,3,0.556,False,-0.2616653671792948,1.0488390645478147
1.4071131309028715,17:07:09.730970,17:05:53.908224,0,,0.106470905,0.010386154,0.03080669,-0.39061898,0.8365501,-0.3841884,-0.0400663,0.4015,0.91498214,0.9196801,0.3728023,-0.12331623,,0.015116636,-0.031189602,0.06372589,0.22846626,-0.54765666,0.8049069,-0.67968255,0.5022061,0.53462213,-0.6970187,-0.66922426,-0.25749552,,0.09846168,1.2953919,0.42710844,0.9826088,0.0074497354,-0.18553819,-0.10495951,-0.801974,-0.5880657,-0.15317772,0.5973125,-0.7872448,,-0.11329944,0.2568011,-0.11794004,0.21446913,-0.82156175,0.5282417,0.5193762,0.5539529,0.65068007,-0.82719487,0.1348054,0.5455054,,-0.057585485,0.40667498,-0.4268131,-0.16801934,0.6900213,-0.70401716,-0.98495364,-0.1468112,0.09117449,-0.040445264,0.70874333,0.70430607,,1.1213639815360215,0.5429930711195995,0.21945800813000002,2.077398270101183,-0.8940126179652769,-0.12486220554375227,-0.414730583914935,,-1.386562628436891,0.19878314418253887,0.13160065709000002,0.33885894867099137,0.1835028191849865,-0.5581096241072457,0.8747074741490654,,-0.11698505643804993,-0.12851077448590748,0.09694439508,-0.1167695939710949,,-5.543232e-06,1.5497208e-06,-8.34465e-07,1.0,-1.2695789e-05,-9.641051e-06,1.2695789e-05,1.0,-2.4735928e-06,9.62615e-06,2.4735928e-06,1.0,460,1.436,1,3,0.597,False,-0.2611887454311268,1.048983905150153
1.435217073885724,17:07:09.778456,17:05:53.908224,0,,0.106236495,0.0103067905,0.030457944,-0.39380985,0.83399874,-0.38647115,-0.036009073,0.4061263,0.91310716,0.91848636,0.37350702,-0.12990513,,0.015120901,-0.03120349,0.06371993,0.22873975,-0.5478035,0.80472934,-0.6799206,0.50170535,0.53478956,-0.69669664,-0.6694797,-0.257703,,0.09846168,1.2953919,0.42710844,0.9826088,0.0074497354,-0.18553819,-0.10495951,-0.801974,-0.5880657,-0.15317772,0.5973125,-0.7872448,,-0.11302188,0.25652477,-0.11776839,0.21837279,-0.8185292,0.5313411,0.52185506,0.55803853,0.6451824,-0.8246094,0.13639273,0.549014,,-0.05758988,0.4066612,-0.4268192,-0.16836087,0.6901651,-0.70379454,-0.98488146,-0.14731798,0.091137074,-0.040781964,0.7084981,0.7045334,,1.1217423954468584,0.5413635744831381,0.21961226664000003,2.071736641627101,-0.8896402499727828,-0.12491539263599372,-0.41440389578266634,,-1.386554905704017,0.19866730318942552,0.13159806451,0.3384395687840223,0.18336618268522106,-0.5578348487232682,0.8743807860167969,,-0.11698505643804993,-0.12851077448590748,0.09694439508,-0.1167695939710949,,-5.543232e-06,1.5497208e-06,-8.34465e-07,1.0,-1.2695789e-05,-9.641051e-06,1.2695789e-05,1.0,-2.4735928e-06,9.62615e-06,2.4735928e-06,1.0,469,1.463,1,3,0.625,False,-0.26154621174225356,1.048983905150153
1.482629032805562,17:07:09.802033,17:05:53.908224,0,,0.10608004,0.010244295,0.030208379,-0.39559582,0.8321837,-0.3885539,-0.032475024,0.41012645,0.9114503,0.9178504,0.3731841,-0.1352193,,0.015123494,-0.031211775,0.0637185,0.22895262,-0.54775685,0.80470055,-0.6799048,0.5016156,0.5348939,-0.69664216,-0.6695851,-0.25757638,,0.09846168,1.2953919,0.42710844,0.9826088,0.0074497354,-0.18553819,-0.10495951,-0.801974,-0.5880657,-0.15317772,0.5973125,-0.7872448,,-0.11283507,0.25632256,-0.11764633,0.22073509,-0.8161256,0.5340553,0.5242686,0.5610124,0.64063054,-0.8224466,0.13857879,0.55170417,,-0.05759289,0.40665457,-0.42682415,-0.16857767,0.6901289,-0.70377815,-0.9848449,-0.14745937,0.09130276,-0.040768012,0.70850396,0.70452833,,1.121966354700211,0.5402360554835014,0.21971337726,2.0692203623052863,-0.8860877009788813,-0.1265870770299921,-0.41522061611333794,,-1.386554905704017,0.19859007586068328,0.13159547193,0.3382298788405378,0.1835028191849865,-0.557864587886824,0.8745441300829312,,-0.11698505643804993,-0.12851077448590748,0.09694439508,-0.1167695939710949,,-5.543232e-06,1.5497208e-06,-8.34465e-07,1.0,-1.2695789e-05,-9.641051e-06,1.2695789e-05,1.0,-2.4735928e-06,9.62615e-06,2.4735928e-06,1.0,482,1.505,1,3,0.666,False,-0.26148663402373185,1.049418426957168
1.5062840268947184,17:07:09.847455,17:05:54.060424,0,,0.10585059,0.01015234,0.02985856,-0.39788508,0.8306534,-0.3894899,-0.029486984,0.4127441,0.9103696,0.91696125,0.37370723,-0.1397314,,0.015135527,-0.03123961,0.063703,0.22923571,-0.5473636,0.8048876,-0.6797603,0.501835,0.5348716,-0.6966901,-0.66974235,-0.25703755,,0.09846168,1.2953919,0.42710844,0.9826088,0.0074497354,-0.18553819,-0.10495951,-0.801974,-0.5880657,-0.15317772,0.5973125,-0.7872448,,-0.11256399,0.25603563,-0.117480114,0.22355258,-0.8143469,0.53559625,0.5260889,0.56339836,0.63703436,-0.820521,0.13936056,0.554368,,-0.05760454,0.406624,-0.42683357,-0.16883591,0.6897865,-0.7040519,-0.98480844,-0.14746563,0.09168533,-0.040580153,0.708836,0.70420504,,1.1222598185494315,0.5385679451826688,0.21986893206000002,2.0648168734921115,-0.8830816979840417,-0.125199370124707,-0.41505727204720355,,-1.3865162920396459,0.1982811665457143,0.13159547193,0.33802018889705326,0.1840493651840483,-0.5583102595016097,0.8745441300829312,,-0.11698505643804993,-0.12851077448590748,0.09694439508,-0.1167695939710949,,-5.543232e-06,1.5497208e-06,-8.34465e-07,1.0,-1.2695789e-05,-9.641051e-06,1.2695789e-05,1.0,-2.4735928e-06,9.62615e-06,2.4735928e-06,1.0,491,1.534,1,3,0.695,False,-0.26148663402373185,1.0489356249493738
1.551671959925443,17:07:09.877421,17:05:54.060424,0,,0.10570741,0.010091893,0.029570967,-0.39925098,0.8299487,-0.38959432,-0.026685447,0.41423154,0.9097802,0.9164532,0.373627,-0.14323497,,0.01514332,-0.031258088,0.06368649,0.22919902,-0.5471833,0.8050206,-0.6798151,0.5019254,0.53471696,-0.69664854,-0.66982186,-0.25694275,,0.09846168,1.2953919,0.42710844,0.9826088,0.0074497354,-0.18553819,-0.10495951,-0.801974,-0.5880657,-0.15317772,0.5973125,-0.7872448,,-0.11238318,0.25581223,-0.117324255,0.22537735,-0.8134311,0.5362228,0.52800035,0.5645279,0.63444763,-0.81879216,0.14013572,0.5567238,,-0.05761105,0.40659896,-0.42683586,-0.16881125,0.6896299,-0.7042111,-0.98480964,-0.14748073,0.091648385,-0.040654104,0.7089852,0.7040506,,1.1223602140767965,0.5373245851899187,0.22001152396,2.062510284113782,-0.8804856044884982,-0.12437587564987873,-0.41505727204720366,,-1.3864622329095262,0.19807265275811023,0.1315993608,0.33802018889705326,0.18418600168381372,-0.5585033561454467,0.8747074741490654,,-0.11698505643804993,-0.12851077448590748,0.09694439508,-0.1167695939710949,,-5.543232e-06,1.5497208e-06,-8.34465e-07,1.0,-1.2695789e-05,-9.641051e-06,1.2695789e-05,1.0,-2.4735928e-06,9.62615e-06,2.4735928e-06,1.0,504,1.575,1,3,0.736,False,-0.26190367805337944,1.048742504146256
1.581654837820679,17:07:09.913847,17:05:54.060424,0,,0.10550497,0.0099877715,0.029181331,-0.4023006,0.82766825,-0.3913048,-0.021962613,0.41857034,0.9079188,0.9152441,0.37385023,-0.15021345,,0.0151480585,-0.03126238,0.063664734,0.2294219,-0.54701537,0.8050712,-0.67936033,0.5023318,0.5349134,-0.69701886,-0.66965425,-0.2563747,,0.09846168,1.2953919,0.42710844,0.9826088,0.0074497354,-0.18553819,-0.10495951,-0.801974,-0.5880657,-0.15317772,0.5973125,-0.7872448,,-0.11213323,0.2554918,-0.11712809,0.22924252,-0.8106202,0.53883463,0.5310019,0.5680965,0.6287315,-0.81577253,0.14199024,0.56067276,,-0.05761253,0.40657932,-0.42682472,-0.16893147,0.6894718,-0.7043371,-0.9848142,-0.14710322,0.09220384,-0.040038314,0.70921737,0.703852,,1.122483777802784,0.5356178612247151,0.22018133795000003,2.0578971053571222,-0.8757033269967078,-0.12468163771306884,-0.41571064831174054,,-1.3863618373821613,0.19790275263487728,0.13161491628000002,0.33802018889705326,0.18500582068240637,-0.558845148607063,0.8740540978845283,,-0.11698505643804993,-0.12851077448590748,0.09694439508,-0.1167695939710949,,-5.543232e-06,1.5497208e-06,-8.34465e-07,1.0,-1.2695789e-05,-9.641051e-06,1.2695789e-05,1.0,-2.4735928e-06,9.62615e-06,2.4735928e-06,1.0,513,1.604,1,3,0.765,False,-0.2620824112089424,1.0485011031423586
1.6180875098798424,17:07:09.947744,17:05:54.060424,0,,0.105337925,0.00986933,0.028868586,-0.4041937,0.82671535,-0.3913684,-0.019290358,0.42007783,0.907283,0.91446996,0.3742676,-0.15384531,,0.015154973,-0.031258207,0.06363124,0.22957022,-0.54743344,0.80474466,-0.67939204,0.5019287,0.53525144,-0.69693905,-0.669615,-0.2566941,,0.09846168,1.2953919,0.42710844,0.9826088,0.0074497354,-0.18553819,-0.10495951,-0.801974,-0.5880657,-0.15317772,0.5973125,-0.7872448,,-0.11193322,0.25520676,-0.1169921,0.23160839,-0.80954635,0.539437,0.5326441,0.56953996,0.62603074,-0.81403184,0.14233395,0.5631103,,-0.0576135,0.406556,-0.42679936,-0.16909298,0.6898423,-0.7039355,-0.98478454,-0.14730331,0.092201754,-0.04008736,0.70881546,0.704254,,1.1224760550699098,0.5341119283142414,0.2203044855,2.05454206626137,-0.8732438700009298,-0.12292993793313861,-0.41571064831174054,,-1.3862459963890479,0.19778691164176393,0.13164343466,0.33781049895356874,0.18514245718217182,-0.5583848153297755,0.8742174419506625,,-0.11698505643804993,-0.12851077448590748,0.09694439508,-0.1167695939710949,,-5.543232e-06,1.5497208e-06,-8.34465e-07,1.0,-1.2695789e-05,-9.641051e-06,1.2695789e-05,1.0,-2.4735928e-06,9.62615e-06,2.4735928e-06,1.0,526,1.645,1,3,0.806,False,-0.2621419889274632,1.0486459437446969
1.651964833959937,17:07:09.983236,17:05:54.197513,0,,0.1051595,0.009729378,0.028538913,-0.40598252,0.82506096,-0.3930047,-0.016780347,0.42323682,0.90586364,0.91372675,0.3743595,-0.15798208,,0.015162393,-0.031240236,0.06361359,0.22827981,-0.5474079,0.80512905,-0.6791667,0.50298494,0.5345454,-0.69758224,-0.66884273,-0.25695994,,0.09846168,1.2953919,0.42710844,0.9826088,0.0074497354,-0.18553819,-0.10495951,-0.801974,-0.5880657,-0.15317772,0.5973125,-0.7872448,,-0.11172228,0.25489426,-0.116858155,0.23384383,-0.80749327,0.5415457,0.53417677,0.5720956,0.622384,-0.81238675,0.14374046,0.56512517,,-0.057616383,0.40655357,-0.42677334,-0.16770047,0.6897801,-0.70432943,-0.985037,-0.14603652,0.09151696,-0.03973124,0.709138,0.7039494,,1.1224297186726644,0.5324669862120315,0.22042763305000002,2.0511870271656174,-0.8710576860046828,-0.12291569210918885,-0.414730583914935,,-1.3862073827246768,0.19782552530613504,0.13166936046000002,0.3392783285579604,0.18514245718217182,-0.5585481728100566,0.8745441300829312,,-0.11698505643804993,-0.12851077448590748,0.09694439508,-0.1167695939710949,,-5.543232e-06,1.5497208e-06,-8.34465e-07,1.0,-1.2695789e-05,-9.641051e-06,1.2695789e-05,1.0,-2.4735928e-06,9.62615e-06,2.4735928e-06,1.0,535,1.673,1,3,0.834,False,-0.2618441003348577,1.0484045427407995
1.68741141888313,17:07:10.011968,17:05:54.197513,0,,0.10496514,0.009521581,0.02815929,-0.40768892,0.82388633,-0.39370173,-0.014623433,0.4252143,0.9049745,0.91300374,0.37470526,-0.16130728,,0.015162665,-0.031218868,0.06360036,0.22815569,-0.5470817,0.8053859,-0.6789888,0.5034509,0.5343327,-0.6977959,-0.6687591,-0.25659728,,0.09846168,1.2953919,0.42710844,0.9826088,0.0074497354,-0.18553819,-0.10495951,-0.801974,-0.5880657,-0.15317772,0.5973125,-0.7872448,,-0.11149696,0.25449732,-0.11672871,0.23594427,-0.80612296,0.54267496,0.5354411,0.573868,0.61965984,-0.8109458,0.14436528,0.5670322,,-0.057612687,0.40655723,-0.42674875,-0.16752857,0.68948513,-0.7046591,-0.98507625,-0.14569578,0.0916377,-0.039483026,0.7094949,0.7036037,,1.122174868487815,0.5304513529318589,0.22054818802000004,2.0476222981263805,-0.8695546845072629,-0.12120085440478928,-0.41587399237787503,,-1.3861610463274314,0.1979104753677515,0.13169139739000002,0.33948801850144494,0.18527909368193726,-0.5590679844144558,0.8740540978845283,,-0.11698505643804993,-0.12851077448590748,0.09694439508,-0.1167695939710949,,-5.543232e-06,1.5497208e-06,-8.34465e-07,1.0,-1.2695789e-05,-9.641051e-06,1.2695789e-05,1.0,-2.4735928e-06,9.62615e-06,2.4735928e-06,1.0,548,1.714,1,3,0.875,False,-0.2622015666459845,1.048983905150153
1.71618488477543,17:07:10.053165,17:05:54.197513,0,,0.1046279,0.009057365,0.02745083,-0.4123813,0.8229045,-0.39085767,-0.006582111,0.42633462,0.90454155,0.9109876,0.37558863,-0.17039609,,0.0151515305,-0.031185579,0.06357676,0.22795825,-0.5470098,0.8054906,-0.6788654,0.50374234,0.53421474,-0.6979806,-0.6685984,-0.25651383,,0.09846168,1.2953919,0.42710844,0.9826088,0.0074497354,-0.18553819,-0.10495951,-0.801974,-0.5880657,-0.15317772,0.5973125,-0.7872448,,-0.111112356,0.25369594,-0.11652626,0.24203086,-0.80515826,0.5414252,0.5405826,0.575284,0.6138557,-0.80572426,0.14411303,0.57449096,,-0.057595078,0.40656152,-0.42671055,-0.16729389,0.6894128,-0.70478565,-0.9851232,-0.14539072,0.091617756,-0.03930683,0.70962775,0.70347947,,1.1214952679948833,0.5266054319604951,0.22070115024000003,2.040702529991391,-0.8625862230192256,-0.11487639269264416,-0.4155473042456065,,-1.3860065916699469,0.19808809822385867,0.13172250835000002,0.33969770844492947,0.18527909368193726,-0.5593946993750181,0.8747074741490654,,-0.11698505643804993,-0.12851077448590748,0.09694439508,-0.1167695939710949,,-5.543232e-06,1.5497208e-06,-8.34465e-07,1.0,-1.2695789e-05,-9.641051e-06,1.2695789e-05,1.0,-2.4735928e-06,9.62615e-06,2.4735928e-06,1.0,557,1.742,1,3,0.904,False,-0.2618441003348577,1.0487907843470352
1.7574102599173784,17:07:10.087717,17:05:54.197513,0,,0.10441958,0.00869786,0.027022094,-0.4148352,0.82150406,-0.39120686,-0.0029965937,0.42871067,0.90343684,0.9098916,0.37594956,-0.17538276,,0.015138812,-0.031168353,0.063560784,0.22732373,-0.54673535,0.8058562,-0.67882216,0.5043683,0.5336789,-0.69822955,-0.66835093,-0.2564812,,0.09846168,1.2953919,0.42710844,0.9826088,0.0074497354,-0.18553819,-0.10495951,-0.801974,-0.5880657,-0.15317772,0.5973125,-0.7872448,,-0.110886864,0.25314832,-0.116450764,0.24513133,-0.8035128,0.5424738,0.5427524,0.57738084,0.60995996,-0.80332464,0.14490865,0.5776426,,-0.05757851,0.40656137,-0.42668957,-0.16662587,0.68915534,-0.70519555,-0.9852397,-0.14481847,0.09127115,-0.039225336,0.70999473,0.7031137,,1.1208465584334484,0.524026039180504,0.22075559442000003,2.0365087311217005,-0.8599901295236821,-0.11274603837556685,-0.4162006805101435,,-1.3858598597453367,0.19820393921697205,0.13173806383,0.34032677827538305,0.18514245718217182,-0.559936711392446,0.8737274097522596,,-0.11698505643804993,-0.12851077448590748,0.09694439508,-0.1167695939710949,,-5.543232e-06,1.5497208e-06,-8.34465e-07,1.0,-1.2695789e-05,-9.641051e-06,1.2695789e-05,1.0,-2.4735928e-06,9.62615e-06,2.4735928e-06,1.0,579,1.812,1,3,0.973,False,-0.2616653671792948,1.0482597021384612
1.7919295518659055,17:07:10.149974,17:05:54.332166,0,,0.10414948,0.008090548,0.026395887,-0.41917288,0.81820804,-0.393484,0.0024658442,0.43442148,0.9007063,0.9079031,0.37658128,-0.18411544,,0.015110888,-0.031146955,0.063534796,0.22714426,-0.54682297,0.80584735,-0.6789531,0.5042988,0.53357804,-0.69816065,-0.6683318,-0.2567186,,0.09846168,1.2953919,0.42710844,0.9826088,0.0074497354,-0.18553819,-0.10495951,-0.801974,-0.5880657,-0.15317772,0.5973125,-0.7872448,,-0.1106027,0.25228325,-0.11638094,0.250494,-0.7995851,0.5458172,0.54585904,0.5822789,0.60248584,-0.79955655,0.14702016,0.5823181,,-0.057545014,0.40655735,-0.42666173,-0.16647176,0.68923247,-0.70515656,-0.9852588,-0.14484246,0.09102609,-0.039398473,0.709915,0.70318455,,1.1195182483790818,0.5201415045447692,0.22078800167,2.029588962986711,-0.8560276710304844,-0.11140314813489166,-0.4162006805101435,,-1.3855818413618646,0.19837383934020497,0.13175621189,0.34032677827538305,0.18486918418264095,-0.5601222692857561,0.873890753818394,,-0.11698505643804993,-0.12851077448590748,0.09694439508,-0.1167695939710949,,-5.543232e-06,1.5497208e-06,-8.34465e-07,1.0,-1.2695789e-05,-9.641051e-06,1.2695789e-05,1.0,-2.4735928e-06,9.62615e-06,2.4735928e-06,1.0,597,1.869,1,3,1.031,False,-0.26136747858668974,1.0487907843470352
1.8542095869779587,17:07:10.208390,17:05:54.332166,0,,0.104037516,0.007641107,0.025982052,-0.41414338,0.8228869,-0.38902754,0.013194263,0.43278587,0.9014002,0.910116,0.36817592,-0.19009295,,0.015110403,-0.031134319,0.06352967,0.22706035,-0.54687667,0.8058346,-0.6790928,0.5041826,0.53350997,-0.698052,-0.66837543,-0.25690022,,0.09846168,1.2953919,0.42710844,0.9826088,0.0074497354,-0.18553819,-0.10495951,-0.801974,-0.5880657,-0.15317772,0.5973125,-0.7872448,,-0.11048668,0.25167397,-0.11634798,0.2467642,-0.8029152,0.5426183,0.5557987,0.5759484,0.5994758,-0.7938484,0.15365738,0.58838266,,-0.057542637,0.40656167,-0.426649,-0.16641882,0.68928266,-0.70512,-0.9852602,-0.14494677,0.090844885,-0.039587066,0.70984495,0.7032446,,1.1185837977013007,0.5171991433196896,0.22076337216000003,2.040702529991391,-0.8497423920412741,-0.11620165674436478,-0.41685405677468057,,-1.3855741186289905,0.19845878940182146,0.13176658221,0.34032677827538305,0.18459591118311003,-0.5600627909586443,0.8742174419506625,,-0.11698505643804993,-0.12851077448590748,0.09694439508,-0.1167695939710949,,-5.543232e-06,1.5497208e-06,-8.34465e-07,1.0,-1.2695789e-05,-9.641051e-06,1.2695789e-05,1.0,-2.4735928e-06,9.62615e-06,2.4735928e-06,1.0,606,1.899,1,3,1.06,False,-0.2626186106756321,1.0490321853509326
1.912555324845016,17:07:10.239352,17:05:54.332166,0,,0.10395279,0.007393822,0.02576831,-0.41016024,0.8256695,-0.3873477,0.01966691,0.43262583,0.9013591,0.91180134,0.3620836,-0.19368446,,0.015120301,-0.031130206,0.06352991,0.22708935,-0.5468228,0.805863,-0.6790854,0.504207,0.5334963,-0.69804984,-0.6684011,-0.25683928,,0.09846168,1.2953919,0.42710844,0.9826088,0.0074497354,-0.18553819,-0.10495951,-0.801974,-0.5880657,-0.15317772,0.5973125,-0.7872448,,-0.110402755,0.2513469,-0.116345905,0.24352883,-0.8045876,0.5416018,0.562017,0.57217085,0.5972917,-0.79046226,0.15893169,0.59153205,,-0.05755206,0.40656382,-0.42664436,-0.16644707,0.68923587,-0.70515907,-0.9852558,-0.14495441,0.09088042,-0.039577883,0.7098888,0.7032008,,1.1182362747219605,0.5155078648202345,0.22073615007000003,2.048670747843803,-0.8460532065476072,-0.12108855116740119,-0.41701740084081496,,-1.3856436232248583,0.1984510666689472,0.13177306366000002,0.34032677827538305,0.18459591118311003,-0.5600627909586443,0.8742174419506625,,-0.11698505643804993,-0.12851077448590748,0.09694439508,-0.1167695939710949,,-5.543232e-06,1.5497208e-06,-8.34465e-07,1.0,-1.2695789e-05,-9.641051e-06,1.2695789e-05,1.0,-2.4735928e-06,9.62615e-06,2.4735928e-06,1.0,620,1.944,1,3,1.105,False,-0.2626186106756321,1.048742504146256
1.9435970729682595,17:07:10.280012,17:05:54.480152,0,,0.10378145,0.006947249,0.025552332,-0.40128273,0.83081913,-0.38563156,0.02685529,0.431507,0.9017098,0.9155605,0.3514842,-0.1954683,,0.015132211,-0.031126779,0.0635286,0.22706582,-0.5468992,0.8058177,-0.67918026,0.50408053,0.5334952,-0.69796526,-0.668434,-0.2569837,,0.09846168,1.2953919,0.42710844,0.9826088,0.0074497354,-0.18553819,-0.10495951,-0.801974,-0.5880657,-0.15317772,0.5973125,-0.7872448,,-0.110262945,0.25085875,-0.11647858,0.23526883,-0.8079192,0.5402917,0.5701098,0.56493217,0.59651196,-0.78716165,0.16768493,0.59351355,,-0.057563256,0.40656412,-0.4266389,-0.16644575,0.6893057,-0.7050911,-0.98525083,-0.14505549,0.09077299,-0.039707,0.70980036,0.7032829,,1.1178192471467525,0.5127894628485075,0.22058578043000002,2.0635587338312043,-0.8438670225513603,-0.12965057305821054,-0.41685405677468057,,-1.3857208505536007,0.19843562120319877,0.13178084140000002,0.34032677827538305,0.1844592746833446,-0.5598696943148074,0.8740540978845281,,-0.11698505643804993,-0.12851077448590748,0.09694439508,-0.1167695939710949,,-5.543232e-06,1.5497208e-06,-8.34465e-07,1.0,-1.2695789e-05,-9.641051e-06,1.2695789e-05,1.0,-2.4735928e-06,9.62615e-06,2.4735928e-06,1.0,643,2.017,1,3,1.178,False,-0.26243987752006825,1.0486459437446969
1.9842505329288542,17:07:10.352662,17:05:54.480152,0,,0.10209324,0.005328536,0.024545044,-0.39342776,0.8323526,-0.3903893,0.039498687,0.43954492,0.89735174,0.91850656,0.33762312,-0.20580614,,0.015157379,-0.031117719,0.063522995,0.22720237,-0.54724085,0.80554724,-0.67939943,0.5035576,0.53370976,-0.69770736,-0.6685485,-0.2573856,,0.09846168,1.2953919,0.42710844,0.9826088,0.0074497354,-0.18553819,-0.10495951,-0.801974,-0.5880657,-0.15317772,0.5973125,-0.7872448,,-0.108677715,0.24894254,-0.117026396,0.22893678,-0.8058339,0.54609495,0.58204824,0.56298304,0.5867452,-0.78026134,0.18352607,0.5979217,,-0.057586327,0.40656397,-0.42662427,-0.16664061,0.6896161,-0.7047415,-0.98520553,-0.14545535,0.090624586,-0.04001224,0.7094169,0.7036523,,1.119896662289919,0.500734276831843,0.22013337522,2.0673331528139256,-0.8385381990605081,-0.13546608862490106,-0.41636402457627775,,-1.3858753052110853,0.19840473027170188,0.13180028575000002,0.3401170883318985,0.18418600168381372,-0.5592384648067118,0.8745441300829311,,-0.11698505643804993,-0.12851077448590748,0.09694439508,-0.1167695939710949,,-5.543232e-06,1.5497208e-06,-8.34465e-07,1.0,-1.2695789e-05,-9.641051e-06,1.2695789e-05,1.0,-2.4735928e-06,9.62615e-06,2.4735928e-06,1.0,657,2.061,1,3,1.222,False,-0.26190367805337944,1.0485976635439174
2.05691260099411,17:07:10.400284,17:05:54.627775,0,,0.10110367,0.0042211786,0.023893923,-0.38769805,0.83370197,-0.3932318,0.047405064,0.444066,0.89473915,0.9205666,0.32824737,-0.21168539,,0.015206829,-0.03112359,0.063518524,0.22508214,-0.54829305,0.80542696,-0.68093497,0.50273454,0.5325277,-0.69689727,-0.6683059,-0.26019537,,0.09846168,1.2953919,0.42710844,0.9826088,0.0074497354,-0.18553819,-0.10495951,-0.801974,-0.5880657,-0.15317772,0.5973125,-0.7872448,,-0.107760906,0.24765636,-0.11739328,0.22414275,-0.8048601,0.54950905,0.5896539,0.56093806,0.5810824,-0.7759306,0.19377474,0.60031915,,-0.057634693,0.40655324,-0.42661753,-0.16481839,0.6905413,-0.70426387,-0.9854273,-0.14572613,0.08773222,-0.042046927,0.70846075,0.7044966,,1.120591708248599,0.49319688954659985,0.21984300626000003,2.0719463315705853,-0.8360787420647302,-0.13951357939495057,-0.4160373364440093,,-1.3862073827246768,0.1983506711415823,0.13181713752000002,0.3415849179362902,0.1817265446880358,-0.5573146212803167,0.873400721619991,,-0.11698505643804993,-0.12851077448590748,0.09694439508,-0.1167695939710949,,-5.543232e-06,1.5497208e-06,-8.34465e-07,1.0,-1.2695789e-05,-9.641051e-06,1.2695789e-05,1.0,-2.4735928e-06,9.62615e-06,2.4735928e-06,1.0,666,2.091,1,3,1.252,False,-0.2617249448978165,1.04835626254002
2.104533300967887,17:07:10.429900,17:05:54.627775,0,,0.10059289,0.0034253746,0.023477107,-0.3838597,0.83542186,-0.3933472,0.052656025,0.44509184,0.89393544,0.9218888,0.32243356,-0.21484295,,0.015248891,-0.031108152,0.063530624,0.22556826,-0.5477339,0.8056714,-0.68063474,0.50308394,0.5325815,-0.6970334,-0.66850144,-0.2593269,,0.09846168,1.2953919,0.42710844,0.9826088,0.0074497354,-0.18553819,-0.10495951,-0.801974,-0.5880657,-0.15317772,0.5973125,-0.7872448,,-0.1073061,0.24676502,-0.11765134,0.22093463,-0.8053741,0.55005497,0.59467775,0.5582626,0.5785337,-0.77301115,0.19928731,0.6022776,,-0.057676718,0.40656942,-0.42660627,-0.16524866,0.6900531,-0.70464146,-0.98537207,-0.14568964,0.08841067,-0.04165091,0.7089438,0.70403403,,1.1202596307350075,0.48830067690434154,0.21962004438000002,2.0757207505533066,-0.8349856500666065,-0.14089499506536557,-0.4160373364440092,,-1.3865471829711427,0.19831205747721117,0.13183658187000002,0.3413752279928057,0.1821364541873321,-0.5577305537315466,0.8735640656861254,,-0.11698505643804993,-0.12851077448590748,0.09694439508,-0.1167695939710949,,-5.543232e-06,1.5497208e-06,-8.34465e-07,1.0,-1.2695789e-05,-9.641051e-06,1.2695789e-05,1.0,-2.4735928e-06,9.62615e-06,2.4735928e-06,1.0,680,2.136,1,3,1.297,False,-0.2620824112089424,1.0480665813353434
2.1341214978601784,17:07:10.479037,17:05:54.627775,0,,0.10077637,0.0029278845,0.02357769,-0.38296586,0.83591515,-0.39317042,0.056357145,0.4459679,0.8932729,0.92204165,0.319935,-0.2179004,,0.015331842,-0.031097751,0.063565016,0.22444925,-0.5474171,0.806199,-0.68094826,0.50370085,0.5315967,-0.6970883,-0.66829634,-0.25970748,,0.09846168,1.2953919,0.42710844,0.9826088,0.0074497354,-0.18553819,-0.10495951,-0.801974,-0.5880657,-0.15317772,0.5973125,-0.7872448,,-0.1075744,0.24643123,-0.11797979,0.22057365,-0.80529237,0.5503194,0.59772915,0.55745703,0.5761611,-0.7707575,0.20185597,0.60430706,,-0.057762984,0.40659636,-0.42660582,-0.16416618,0.68976027,-0.705181,-0.9855363,-0.14515851,0.08744869,-0.042044394,0.7093376,0.7036139,,1.118352115715074,0.4874743444867995,0.21924023141,2.079704859479513,-0.8336192850689521,-0.14437785756640598,-0.41620068051014336,,-1.3872653971284457,0.19825799834709162,0.13185343364000002,0.3426333676537128,0.1813166351887395,-0.5573887612699303,0.8734007216199912,,-0.11698505643804993,-0.12851077448590748,0.09694439508,-0.1167695939710949,,-5.543232e-06,1.5497208e-06,-8.34465e-07,1.0,-1.2695789e-05,-9.641051e-06,1.2695789e-05,1.0,-2.4735928e-06,9.62615e-06,2.4735928e-06,1.0,689,2.165,1,3,1.326,False,-0.26249945523859,1.0479700209337843
2.1832711468450725,17:07:10.507467,17:05:54.627775,0,,0.100771844,0.0027411059,0.023835748,-0.3832551,0.8354408,-0.39389616,0.05851111,0.44756302,0.8923361,0.9217873,0.318945,-0.22041354,,0.0154163465,-0.031085711,0.063580215,0.2247649,-0.5470252,0.80637705,-0.6811625,0.503554,0.53146124,-0.6967772,-0.66872776,-0.25943184,,0.09846168,1.2953919,0.42710844,0.9826088,0.0074497354,-0.18553819,-0.10495951,-0.801974,-0.5880657,-0.15317772,0.5973125,-0.7872448,,-0.107642,0.24643816,-0.11829104,0.22121175,-0.80442685,0.55132824,0.5992891,0.5581254,0.573889,-0.76936203,0.20345402,0.6055481,,-0.057847526,0.40660965,-0.42659193,-0.16454537,0.68943316,-0.70541245,-0.98546,-0.1456095,0.08755852,-0.042349007,0.7095631,0.7033681,,1.118313502050703,0.48758246274703865,0.21890838117000003,2.0803339293099663,-0.8314331010727051,-0.14673229520653253,-0.4166907127085464,,-1.3879063839570063,0.19810354368960711,0.13188584089000002,0.34242367771022825,0.18104336218920858,-0.5571659254625374,0.8735640656861254,,-0.11698505643804993,-0.12851077448590748,0.09694439508,-0.1167695939710949,,-5.543232e-06,1.5497208e-06,-8.34465e-07,1.0,-1.2695789e-05,-9.641051e-06,1.2695789e-05,1.0,-2.4735928e-06,9.62615e-06,2.4735928e-06,1.0,703,2.21,1,3,1.371,False,-0.26255903295711036,1.0480183011345638
2.2117163809016347,17:07:10.544797,17:05:54.627775,0,,0.1004742,0.002491422,0.023860663,-0.3822794,0.8357107,-0.39427158,0.060975432,0.44856343,0.89166856,0.9220327,0.31682554,-0.22243452,,0.015515737,-0.031069797,0.06361741,0.22495346,-0.5466496,0.8065792,-0.6813694,0.50348353,0.5312627,-0.69651395,-0.6690879,-0.25921,,0.09846168,1.2953919,0.42710844,0.9826088,0.0074497354,-0.18553819,-0.10495951,-0.801974,-0.5880657,-0.15317772,0.5973125,-0.7872448,,-0.10739261,0.24625108,-0.11852419,0.2205757,-0.8041756,0.55194926,0.6014116,0.5576455,0.5721325,-0.767887,0.20575014,0.60664356,,-0.057949957,0.4066412,-0.42658633,-0.16479117,0.68911684,-0.70566416,-0.9854064,-0.14595582,0.08758509,-0.042639427,0.70979923,0.7031123,,1.1190857753381251,0.486115143500936,0.21869578961000002,2.080753309196935,-0.829520190075989,-0.14747535845687687,-0.4166907127085463,,-1.388755884573171,0.1980031481622422,0.13191176669000002,0.34242367771022825,0.18063345268991227,-0.5567499930113076,0.8734007216199912,,-0.11698505643804993,-0.12851077448590748,0.09694439508,-0.1167695939710949,,-5.543232e-06,1.5497208e-06,-8.34465e-07,1.0,-1.2695789e-05,-9.641051e-06,1.2695789e-05,1.0,-2.4735928e-06,9.62615e-06,2.4735928e-06,1.0,717,2.254,1,3,1.415,False,-0.2632143878608417,1.0485976635439174
2.2490458039101213,17:07:10.595460,17:05:54.821818,0,,0.100179665,0.0019115806,0.023424268,-0.3807529,0.8364459,-0.3941895,0.06862083,0.4506841,0.89004207,0.92212707,0.31183642,-0.22899702,,0.015682548,-0.031063717,0.06366211,0.22385347,-0.54693913,0.8066889,-0.68204373,0.50334054,0.53053236,-0.6962083,-0.66895866,-0.26036194,,0.09846168,1.2953919,0.42710844,0.9826088,0.0074497354,-0.18553819,-0.10495951,-0.801974,-0.5880657,-0.15317772,0.5973125,-0.7872448,,-0.107113734,0.2455223,-0.118591435,0.22018015,-0.80371547,0.5527767,0.60757774,0.55633026,0.56687385,-0.7631317,0.21104045,0.6108125,,-0.058120716,0.40666723,-0.42658147,-0.16381676,0.6893683,-0.7056454,-0.9855299,-0.14592898,0.08622959,-0.04353015,0.70956045,0.7032987,,1.1184138975780678,0.48244684538567933,0.21862449366000003,2.0834792784622342,-0.8250111855837294,-0.15000864691689098,-0.41701740084081507,,-1.3900687491617891,0.197686516114399,0.13195454426,0.3436818173711354,0.1794037241920233,-0.5549304444766342,0.8740540978845283,,-0.11698505643804993,-0.12851077448590748,0.09694439508,-0.1167695939710949,,-5.543232e-06,1.5497208e-06,-8.34465e-07,1.0,-1.2695789e-05,-9.641051e-06,1.2695789e-05,1.0,-2.4735928e-06,9.62615e-06,2.4735928e-06,1.0,726,2.284,1,3,1.445,False,-0.2626186106756321,1.048452822941579
2.2997079859487712,17:07:10.626050,17:05:54.821818,0,,0.09998896,0.0015096366,0.023143291,-0.3789602,0.8374436,-0.3937986,0.07417086,0.4516552,0.8891041,0.92243576,0.30772662,-0.23327339,,0.015792154,-0.031067114,0.063706875,0.22286105,-0.5464877,0.80726945,-0.6826274,0.5037025,0.52943707,-0.69595456,-0.6690552,-0.2607919,,0.09846168,1.2953919,0.42710844,0.9826088,0.0074497354,-0.18553819,-0.10495951,-0.801974,-0.5880657,-0.15317772,0.5973125,-0.7872448,,-0.106937274,0.24503027,-0.11865177,0.21918438,-0.8038307,0.55300486,0.6122063,0.55463266,0.5635478,-0.75971156,0.21503218,0.613677,,-0.05823604,0.40669134,-0.42659354,-0.16293196,0.68897086,-0.70623815,-0.9856422,-0.14580137,0.08515502,-0.04430116,0.70997256,0.7028345,,1.11794281087274,0.47996012540017907,0.21856097545000003,2.0866246276145017,-0.8218685460891243,-0.15224454374134638,-0.41701740084081484,,-1.3910031998395702,0.1975011705254176,0.13196750716000002,0.34473026708855803,0.17831063219389978,-0.5544474949477657,0.8735640656861253,,-0.11698505643804993,-0.12851077448590748,0.09694439508,-0.1167695939710949,,-5.543232e-06,1.5497208e-06,-8.34465e-07,1.0,-1.2695789e-05,-9.641051e-06,1.2695789e-05,1.0,-2.4735928e-06,9.62615e-06,2.4735928e-06,1.0,740,2.328,1,3,1.489,False,-0.26309523242380006,1.0483079823392407
2.3302949969656765,17:07:10.666961,17:05:54.821818,0,,0.09992312,0.000986889,0.022855029,-0.37730843,0.83819354,-0.39378902,0.07766181,0.4523582,0.8884485,0.9228255,0.3046366,-0.23577432,,0.015903533,-0.031085685,0.06371939,0.22316368,-0.54578215,0.807663,-0.68293476,0.5036785,0.5290634,-0.69555604,-0.669649,-0.2603309,,0.09847102,1.295392,0.4271048,0.98261005,0.0074593737,-0.18553111,-0.1049477,-0.8019739,-0.5880679,-0.15317772,0.5973125,-0.7872448,,-0.10690987,0.24444033,-0.11875028,0.21801308,-0.8039279,0.5533265,0.6152447,0.5533266,0.561519,-0.7575911,0.21801268,0.6152448,,-0.05835964,0.40668344,-0.42659727,-0.16331083,0.6883686,-0.70673776,-0.9855599,-0.1463139,0.0852292,-0.04473646,0.7104512,0.7023231,,1.1179814245371111,0.4770718233052191,0.21851690159000003,2.087882767275409,-0.8203655445917044,-0.1522449595798986,-0.4173440889730835,,-1.3916982457982505,0.19719226121044864,0.13199991441,0.34452057714507356,0.17803735919436892,-0.5544696953607945,0.8740540978845283,,-0.11698505643804993,-0.12851077448590748,0.09694439508,-0.1167695939710949,,4.172325e-06,-7.1525574e-07,1.1920929e-07,0.99999994,-3.233552e-06,-2.4586916e-06,3.233552e-06,1.0,-6.556511e-07,2.4586916e-06,5.9604645e-07,1.0,749,2.357,1,3,1.518,False,-0.262797343831195,1.0483079823392407
2.371190144913271,17:07:10.694783,17:05:54.821818,0,,0.0995722,0.00084956735,0.02272667,-0.37675536,0.83837676,-0.3939285,0.07968691,0.45302257,0.88793045,0.9228788,0.30314147,-0.23748651,,0.015964631,-0.031079963,0.06375486,0.22329958,-0.5454205,0.8078697,-0.6830554,0.5037133,0.52887434,-0.6953939,-0.66991735,-0.2600736,,0.09847102,1.295392,0.4271048,0.98261005,0.0074593737,-0.18553111,-0.1049477,-0.8019739,-0.5880679,-0.15317772,0.5973125,-0.7872448,,-0.1065656,0.24424969,-0.1188104,0.21775848,-0.8037497,0.55368555,0.6168966,0.5529551,0.5600707,-0.7563199,0.2196066,0.61624116,,-0.058425006,0.4067098,-0.4266048,-0.16348109,0.6880599,-0.7069989,-0.9855239,-0.14652152,0.08528856,-0.044906914,0.71070737,0.702053,,1.119047161673754,0.4754346039358835,0.21849356837000003,2.0870440075014707,-0.8185892700947538,-0.15156974508429738,-0.4175074330392178,,-1.3922774507638174,0.19714592481320328,0.13200509957,0.34452057714507356,0.17776408619483802,-0.5543285382935422,0.8742174419506624,,-0.11698505643804993,-0.12851077448590748,0.09694439508,-0.1167695939710949,,4.172325e-06,-7.1525574e-07,1.1920929e-07,0.99999994,-3.233552e-06,-2.4586916e-06,3.233552e-06,1.0,-6.556511e-07,2.4586916e-06,5.9604645e-07,1.0,763,2.402,1,3,1.563,False,-0.2620824112089424,1.0484045427407995
2.3990126049611717,17:07:10.742365,17:05:54.821818,0,,0.09933348,0.000812687,0.022666767,-0.37757778,0.83805054,-0.3938352,0.080384135,0.45337778,0.88768625,0.92248213,0.30351245,-0.23855147,,0.015992705,-0.031094953,0.06374818,0.22328858,-0.5452396,0.8079948,-0.6831787,0.5037198,0.5287089,-0.69527626,-0.67005974,-0.26002133,,0.09847102,1.295392,0.4271048,0.98261005,0.0074593737,-0.18553111,-0.1049477,-0.8019739,-0.5880679,-0.15317772,0.5973125,-0.7872448,,-0.10632801,0.2441816,-0.11883947,0.21872963,-0.8034451,0.5537448,0.61720407,0.55345875,0.5592339,-0.7557886,0.21945253,0.6169474,,-0.058452774,0.406693,-0.42660725,-0.1634999,0.6879059,-0.7071444,-0.98551303,-0.14663862,0.085212745,-0.04507632,0.7108323,0.7019156,,1.1199275532214157,0.4746159942512157,0.21849097579,2.0845277281796566,-0.8173595415968647,-0.14963207157250508,-0.41718074490694934,,-1.392408737222679,0.196929688292725,0.13201287731000003,0.34452057714507356,0.17776408619483802,-0.5543285382935422,0.8742174419506624,,-0.11698505643804993,-0.12851077448590748,0.09694439508,-0.1167695939710949,,4.172325e-06,-7.1525574e-07,1.1920929e-07,0.99999994,-3.233552e-06,-2.4586916e-06,3.233552e-06,1.0,-6.556511e-07,2.4586916e-06,5.9604645e-07,1.0,777,2.446,1,3,1.607,False,-0.26148663402373185,1.0487907843470352
2.446608329890296,17:07:10.788719,17:05:54.992472,0,,0.099212766,0.00086643547,0.02267681,-0.37392882,0.8410381,-0.39093727,0.08338335,0.45029378,0.88897836,0.9237014,0.2998169,-0.23850653,,0.015984941,-0.031088486,0.06374127,0.22326893,-0.54531443,0.8079498,-0.68316126,0.5037,0.52875024,-0.69529974,-0.67001367,-0.2600773,,0.09847102,1.295392,0.4271048,0.98261005,0.0074593737,-0.18553111,-0.1049477,-0.8019739,-0.5880679,-0.15317772,0.5973125,-0.7872448,,-0.1062044,0.24422923,-0.11884307,0.21539766,-0.8061581,0.55110157,0.62036914,0.5488006,0.5603214,-0.7541525,0.22119446,0.61832595,,-0.05844346,0.40669245,-0.4265993,-0.16347528,0.6879703,-0.70708746,-0.9855182,-0.14661098,0.08520001,-0.04505171,0.7107757,0.7019746,,1.120792499303329,0.47435342133349206,0.21849227208000002,2.0901893566537386,-0.8151733576006177,-0.1505979706302421,-0.41685405677468057,,-1.3923315098939368,0.19697602468997033,0.13201806247,0.34452057714507356,0.17776408619483802,-0.5543285382935422,0.8742174419506624,,-0.11698505643804993,-0.12851077448590748,0.09694439508,-0.1167695939710949,,4.172325e-06,-7.1525574e-07,1.1920929e-07,0.99999994,-3.233552e-06,-2.4586916e-06,3.233552e-06,1.0,-6.556511e-07,2.4586916e-06,5.9604645e-07,1.0,786,2.476,1,3,1.637,False,-0.2617249448978165,1.048452822941579
2.4929388808086514,17:07:10.817356,17:05:54.992472,0,,0.099089354,0.00088328123,0.022675827,-0.37401468,0.8410778,-0.3907699,0.08301994,0.45002222,0.88915,0.9236994,0.30011335,-0.2381413,,0.015973799,-0.031090274,0.063732624,0.2232169,-0.54539955,0.80790675,-0.6831826,0.5036567,0.52876407,-0.69529545,-0.66997707,-0.26018286,,0.09847102,1.295392,0.4271048,0.98261005,0.0074593737,-0.18553111,-0.1049477,-0.8019739,-0.5880679,-0.15317772,0.5973125,-0.7872448,,-0.10608158,0.24424076,-0.118860364,0.21542898,-0.8062877,0.5508997,0.62007743,0.5487636,0.56068045,-0.75438344,0.22081363,0.6181804,,-0.05843125,0.4066855,-0.42659715,-0.16342664,0.6880443,-0.7070267,-0.985525,-0.14660496,0.08513164,-0.045079287,0.7107053,0.70204407,,1.1213717042688958,0.4740985711486426,0.21849356837000003,2.0891409069363163,-0.8151733576006177,-0.14937278952813365,-0.4166907127085463,,-1.3922156689008234,0.19697602468997033,0.13201806247,0.34452057714507356,0.17776408619483802,-0.5543285382935422,0.8742174419506624,,-0.11698505643804993,-0.12851077448590748,0.09694439508,-0.1167695939710949,,4.172325e-06,-7.1525574e-07,1.1920929e-07,0.99999994,-3.233552e-06,-2.4586916e-06,3.233552e-06,1.0,-6.556511e-07,2.4586916e-06,5.9604645e-07,1.0,800,2.521,1,3,1.682,False,-0.2620824112089424,1.048549383343138
2.5215896097943187,17:07:10.862774,17:05:54.992472,0,,0.09879558,0.00093805045,0.022660598,-0.3728894,0.8421277,-0.38958216,0.08370012,0.44868124,0.88976365,0.9240929,0.29917526,-0.23779488,,0.015985284,-0.031100348,0.06372923,0.22320026,-0.5453863,0.8079203,-0.68325305,0.503608,0.5287194,-0.6952316,-0.6700244,-0.26023152,,0.09847102,1.295392,0.4271048,0.98261005,0.0074593737,-0.18553111,-0.1049477,-0.8019739,-0.5880679,-0.15317772,0.5973125,-0.7872448,,-0.10578485,0.2442721,-0.11888285,0.214363,-0.8073412,0.5497714,0.620869,0.5471394,0.56139123,-0.75403595,0.22099453,0.6185396,,-0.05844284,0.4066756,-0.42660072,-0.16342665,0.6880349,-0.70703584,-0.9855206,-0.1466734,0.08506487,-0.04517575,0.7107003,0.70204294,,1.1228467462478726,0.4734498615872078,0.21850912385000001,2.0891409069363163,-0.8140802656024941,-0.14765041307320714,-0.4173440889730835,,-1.3922620052980688,0.19686018369685698,0.13201935876,0.34452057714507356,0.17776408619483802,-0.5542468595534017,0.8740540978845283,,-0.11698505643804993,-0.12851077448590748,0.09694439508,-0.1167695939710949,,4.172325e-06,-7.1525574e-07,1.1920929e-07,0.99999994,-3.233552e-06,-2.4586916e-06,3.233552e-06,1.0,-6.556511e-07,2.4586916e-06,5.9604645e-07,1.0,814,2.565,1,3,1.726,False,-0.26255903295711036,1.048452822941579
2.5670164939947426,17:07:10.907516,17:05:54.992472,0,,0.09862682,0.0009963214,0.022647426,-0.368348,0.84558463,-0.38640162,0.08706388,0.4451732,0.89120185,0.9256022,0.2946307,-0.23759866,,0.015982263,-0.031094953,0.06373197,0.22321777,-0.5454074,0.8079012,-0.6832162,0.50361866,0.52875686,-0.69526225,-0.66999924,-0.26021463,,0.09847102,1.295392,0.4271048,0.98261005,0.0074593737,-0.18553111,-0.1049477,-0.8019739,-0.5880679,-0.15317772,0.5973125,-0.7872448,,-0.10560975,0.24430881,-0.11887663,0.21016406,-0.8104249,0.5468478,0.62450916,0.5416354,0.5626894,-0.75220966,0.22325438,0.6199501,,-0.05843987,0.40668142,-0.42659888,-0.16343573,0.6880524,-0.7070167,-0.98552144,-0.14664583,0.08510321,-0.045125585,0.710689,0.70205754,,1.123927928850264,0.4729864976147543,0.21852727191000001,2.095850985127821,-0.8117574451064817,-0.14889108751492164,-0.41636402457627775,,-1.3922620052980688,0.19691424282697656,0.13201935876,0.34452057714507356,0.17776408619483802,-0.5542468595534017,0.8740540978845283,,-0.11698505643804993,-0.12851077448590748,0.09694439508,-0.1167695939710949,,4.172325e-06,-7.1525574e-07,1.1920929e-07,0.99999994,-3.233552e-06,-2.4586916e-06,3.233552e-06,1.0,-6.556511e-07,2.4586916e-06,5.9604645e-07,1.0,823,2.595,1,3,1.756,False,-0.26249945523859,1.0482597021384612
2.611760752974078,17:07:10.935436,17:05:54.992472,0,,0.09856522,0.0010409206,0.022651896,-0.36735606,0.84626156,-0.38586363,0.08764425,0.44452253,0.89146966,0.9259416,0.29366797,-0.23746812,,0.015981529,-0.031091914,0.063732326,0.22322524,-0.5454165,0.807893,-0.68320036,0.50362325,0.52877295,-0.6952753,-0.66998845,-0.2602074,,0.09847102,1.295392,0.4271048,0.98261005,0.0074593737,-0.18553111,-0.1049477,-0.8019739,-0.5880679,-0.15317772,0.5973125,-0.7872448,,-0.10554407,0.24434642,-0.11886792,0.20922287,-0.81101084,0.5463398,0.6251871,0.54054254,0.5629874,-0.7519088,0.22377478,0.6201274,,-0.058438938,0.40668365,-0.42659688,-0.16343962,0.6880599,-0.7070085,-0.98552173,-0.14663401,0.085119635,-0.045104086,0.7106842,0.70206386,,1.1243681246240949,0.472940161217509,0.21854282739000003,2.097109124788728,-0.81121089910742,-0.14917340164942622,-0.41636402457627764,,-1.3922620052980688,0.19693741102559922,0.13202065505000002,0.34452057714507356,0.17776408619483802,-0.5542468595534017,0.8740540978845283,,-0.11698505643804993,-0.12851077448590748,0.09694439508,-0.1167695939710949,,4.172325e-06,-7.1525574e-07,1.1920929e-07,0.99999994,-3.233552e-06,-2.4586916e-06,3.233552e-06,1.0,-6.556511e-07,2.4586916e-06,5.9604645e-07,1.0,837,2.639,1,3,1.8,False,-0.2622611443645053,1.0486942239454764
2.6396013437770307,17:07:10.982871,17:05:55.173528,0,,0.09849922,0.001093775,0.022646025,-0.36758417,0.8458326,-0.3865863,0.0873788,0.4452613,0.891127,0.9258762,0.2937846,-0.23757899,,0.015987832,-0.031099662,0.06372577,0.22319527,-0.5453803,0.8079257,-0.68326354,0.5036049,0.5287087,-0.69522285,-0.67003167,-0.26023626,,0.09847102,1.295392,0.4271048,0.98261005,0.0074593737,-0.18553111,-0.1049477,-0.8019739,-0.5880679,-0.15317772,0.5973125,-0.7872448,,-0.10547111,0.24438429,-0.11884728,0.20941798,-0.8105063,0.5470134,0.62493366,0.54119724,0.5626397,-0.7520652,0.22402021,0.6198491,,-0.058444716,0.40667325,-0.42659757,-0.16342406,0.6880299,-0.7070413,-0.98552036,-0.14668128,0.08505393,-0.04519008,0.7107035,0.7020387,,1.1247851521993029,0.47293243848463473,0.21857393835000002,2.09627036501479,-0.8110742626076545,-0.14936649829326315,-0.416527368642412,,-1.3922620052980688,0.19684473823110854,0.13202324763,0.34452057714507356,0.17776408619483802,-0.5542468595534017,0.8740540978845283,,-0.11698505643804993,-0.12851077448590748,0.09694439508,-0.1167695939710949,,4.172325e-06,-7.1525574e-07,1.1920929e-07,0.99999994,-3.233552e-06,-2.4586916e-06,3.233552e-06,1.0,-6.556511e-07,2.4586916e-06,5.9604645e-07,1.0,846,2.669,1,3,1.83,False,-0.2623802998015474,1.0480665813353434
2.6870565528515726,17:07:11.007721,17:05:55.173528,0,,0.09844811,0.0011150613,0.022624776,-0.36763823,0.84571767,-0.3867863,0.08681083,0.4453063,0.89116,0.92590815,0.29404712,-0.23712923,,0.015988644,-0.031099036,0.06372297,0.22318931,-0.5452509,0.80801463,-0.6832702,0.50368685,0.52862203,-0.69521827,-0.67007536,-0.2601363,,0.09847102,1.295392,0.4271048,0.98261005,0.0074593737,-0.18553111,-0.1049477,-0.8019739,-0.5880679,-0.15317772,0.5973125,-0.7872448,,-0.10541453,0.24438788,-0.11882984,0.20938282,-0.81043357,0.54713464,0.62449974,0.5413905,0.56293553,-0.7524353,0.22381642,0.6194734,,-0.05844501,0.4066715,-0.42659524,-0.16341951,0.6879168,-0.7071524,-0.9855207,-0.14667092,0.08506785,-0.04519909,0.71081513,0.70192516,,1.1250168341855298,0.4728165974915214,0.21860245673000003,2.095641295184336,-0.8114841721069508,-0.14886888710189283,-0.41685405677468057,,-1.3922542825651947,0.1968370154982343,0.13202584021000002,0.34452057714507356,0.17776408619483802,-0.5544102170336828,0.8740540978845281,,-0.11698505643804993,-0.12851077448590748,0.09694439508,-0.1167695939710949,,4.172325e-06,-7.1525574e-07,1.1920929e-07,0.99999994,-3.233552e-06,-2.4586916e-06,3.233552e-06,1.0,-6.556511e-07,2.4586916e-06,5.9604645e-07,1.0,860,2.714,1,3,1.875,False,-0.2629164992682367,1.0486459437446969
2.71195549890399,17:07:11.051722,17:05:55.173528,0,,0.09841582,0.0011270717,0.022543237,-0.36775392,0.8456966,-0.3867222,0.08630824,0.44511026,0.89130676,0.92590916,0.2944041,-0.23668174,,0.015984572,-0.031094655,0.06372422,0.22319737,-0.5452803,0.8079925,-0.6832415,0.50369024,0.52865595,-0.6952439,-0.67004883,-0.26013592,,0.09847102,1.295392,0.4271048,0.98261005,0.0074593737,-0.18553111,-0.1049477,-0.8019739,-0.5880679,-0.15317772,0.5973125,-0.7872448,,-0.105367154,0.24434789,-0.118766695,0.20942247,-0.81050366,0.54701555,0.6240986,0.5414496,0.56332344,-0.7527571,0.22341904,0.6192259,,-0.058440838,0.40667555,-0.42659336,-0.16342081,0.6879417,-0.70712787,-0.98552233,-0.14664648,0.08509158,-0.04515977,0.71079606,0.701947,,1.1250477251170266,0.4725694700395462,0.21867504897000004,2.0950122253538828,-0.8120307181060126,-0.14801482178640435,-0.41701740084081496,,-1.392238837099446,0.19688335189547965,0.13202584021000002,0.34452057714507356,0.17776408619483802,-0.5544102170336828,0.8737274097522597,,-0.11698505643804993,-0.12851077448590748,0.09694439508,-0.1167695939710949,,4.172325e-06,-7.1525574e-07,1.1920929e-07,0.99999994,-3.233552e-06,-2.4586916e-06,3.233552e-06,1.0,-6.556511e-07,2.4586916e-06,5.9604645e-07,1.0,874,2.758,1,3,1.919,False,-0.26339312101640555,1.0485011031423586
2.75596214691177,17:07:11.095647,17:05:55.173528,0,,0.09834896,0.0010864437,0.022348866,-0.3691906,0.84494096,-0.38700518,0.08670515,0.44592324,0.89086175,0.9253002,0.29534236,-0.23789155,,0.015992668,-0.031097546,0.06372684,0.2232126,-0.5452199,0.8080292,-0.68325645,0.50370574,0.52862185,-0.6952243,-0.6700864,-0.26009166,,0.09847102,1.295392,0.4271048,0.98261005,0.0074593737,-0.18553111,-0.1049477,-0.8019739,-0.5880679,-0.15317772,0.5973125,-0.7872448,,-0.10527405,0.24419741,-0.11865447,0.21098539,-0.80981326,0.54743737,0.62403196,0.5426562,0.5622352,-0.7523758,0.222995,0.6198419,,-0.05844947,0.4066751,-0.42659584,-0.16344026,0.6878897,-0.707174,-0.9855181,-0.14666937,0.08510068,-0.04518089,0.71084166,0.70189947,,1.124924161391039,0.4718512558822433,0.21879560394000003,2.0924959460320682,-0.8116208086067163,-0.14655214321440135,-0.41767077710535216,,-1.39230061896244,0.19684473823110854,0.13202584021000002,0.34452057714507356,0.17776408619483802,-0.5544102170336828,0.8737274097522597,,-0.11698505643804993,-0.12851077448590748,0.09694439508,-0.1167695939710949,,4.172325e-06,-7.1525574e-07,1.1920929e-07,0.99999994,-3.233552e-06,-2.4586916e-06,3.233552e-06,1.0,-6.556511e-07,2.4586916e-06,5.9604645e-07,1.0,883,2.787,1,3,1.948,False,-0.2626781883941529,1.0482597021384612
2.7998949917964637,17:07:11.134879,17:05:55.173528,0,,0.09827033,0.0010602102,0.022168443,-0.37025946,0.84491426,-0.3860412,0.08807424,0.44563517,0.8908716,0.9247436,0.29585323,-0.239416,,0.01598813,-0.031094119,0.063726604,0.22316255,-0.54532903,0.8079694,-0.6833268,0.50359815,0.5286334,-0.6951713,-0.67007846,-0.26025373,,0.09847102,1.295392,0.4271048,0.98261005,0.0074593737,-0.18553111,-0.1049477,-0.8019739,-0.5880679,-0.15317772,0.5973125,-0.7872448,,-0.10516983,0.2440667,-0.11854732,0.21232176,-0.8099179,0.54676545,0.6247757,0.54273486,0.5613325,-0.75138193,0.22242267,0.62125146,,-0.058444686,0.40667745,-0.42659387,-0.16340566,0.68798655,-0.70708776,-0.98551947,-0.14672491,0.08498902,-0.04527608,0.71073645,0.70199984,,1.1249550523225358,0.47117165538931155,0.21890708488000002,2.0908184264841925,-0.8102544436090618,-0.14456253012602416,-0.41832415336988915,,-1.3922774507638174,0.19689107462835387,0.13202584021000002,0.34452057714507356,0.17762744969507258,-0.5542987991299863,0.8737274097522597,,-0.11698505643804993,-0.12851077448590748,0.09694439508,-0.1167695939710949,,4.172325e-06,-7.1525574e-07,1.1920929e-07,0.99999994,-3.233552e-06,-2.4586916e-06,3.233552e-06,1.0,-6.556511e-07,2.4586916e-06,5.9604645e-07,1.0,897,2.832,1,3,1.993,False,-0.26273776611267374,1.0486459437446969
2.8390677799470723,17:07:11.170461,17:05:55.173528,0,,0.098126784,0.0010016933,0.02183704,-0.372471,0.84376913,-0.3864179,0.090206355,0.44732404,0.88981116,0.9236493,0.2965714,-0.24272877,,0.015988376,-0.031094238,0.0637247,0.22315657,-0.54533166,0.8079692,-0.6833335,0.5035938,0.528629,-0.6951666,-0.6700796,-0.2602632,,0.09847102,1.295392,0.4271048,0.98261005,0.0074593737,-0.18553111,-0.1049477,-0.8019739,-0.5880679,-0.15317772,0.5973125,-0.7872448,,-0.10498079,0.2438184,-0.11835638,0.21497528,-0.8086831,0.54755574,0.6257907,0.5445025,0.5584827,-0.749781,0.22259533,0.62312096,,-0.058444638,0.40667593,-0.42659277,-0.16340111,0.687989,-0.70708644,-0.9855198,-0.14672844,0.08497898,-0.045285083,0.71073335,0.7020024,,1.12496277505541,0.46990512719793875,0.21910800983000003,2.0872536974449556,-0.8080682596128148,-0.14299638823940386,-0.4178341211714862,,-1.392269728030943,0.19688335189547965,0.1320271365,0.34452057714507356,0.17762744969507258,-0.5542987991299863,0.8737274097522597,,-0.11698505643804993,-0.12851077448590748,0.09694439508,-0.1167695939710949,,4.172325e-06,-7.1525574e-07,1.1920929e-07,0.99999994,-3.233552e-06,-2.4586916e-06,3.233552e-06,1.0,-6.556511e-07,2.4586916e-06,5.9604645e-07,1.0,911,2.877,1,3,2.038,False,-0.26351227645344677,1.048452822941579
2.874710053903982,17:07:11.215948,17:05:55.173528,0,,0.09791194,0.000914149,0.0212764,-0.37564093,0.8426577,-0.38577417,0.094824284,0.44902077,0.88847554,0.92190146,0.29716688,-0.24857518,,0.015990883,-0.031097934,0.0637247,0.22310135,-0.5453192,0.8079929,-0.6834441,0.5035301,0.5285467,-0.6950757,-0.6701376,-0.26035702,,0.09847102,1.295392,0.4271048,0.98261005,0.0074593737,-0.18553111,-0.1049477,-0.8019739,-0.5880679,-0.15317772,0.5973125,-0.7872448,,-0.10468656,0.2434078,-0.11802028,0.21903622,-0.80745846,0.5477536,0.628382,0.54620266,0.55389416,-0.746431,0.22287561,0.62703055,,-0.058447402,0.40667337,-0.42659512,-0.16337103,0.6879809,-0.7071013,-0.9855179,-0.14681447,0.084852815,-0.045435578,0.71072346,0.7020027,,1.124931884123913,0.467850880253395,0.21945282297000002,2.082640518688296,-0.8035592551205553,-0.14022055859028132,-0.4179974652376207,,-1.3922851734966915,0.19686018369685698,0.13202584021000002,0.34452057714507356,0.17749081319530713,-0.5542690599664305,0.8738907538183939,,-0.11698505643804993,-0.12851077448590748,0.09694439508,-0.1167695939710949,,4.172325e-06,-7.1525574e-07,1.1920929e-07,0.99999994,-3.233552e-06,-2.4586916e-06,3.233552e-06,1.0,-6.556511e-07,2.4586916e-06,5.9604645e-07,1.0,920,2.906,1,3,2.067,False,-0.2629164992682367,1.0482597021384612
2.9201694598887116,17:07:11.243828,17:05:55.173528,0,,0.0978142,0.00087922066,0.021035507,-0.3769827,0.8421358,-0.3856051,0.09648478,0.44976157,0.8879218,0.9211811,0.29752606,-0.25080574,,0.015991773,-0.03109701,0.06372583,0.22305863,-0.5453219,0.8080028,-0.6835283,0.50347406,0.52849114,-0.6950065,-0.67017746,-0.26043883,,0.09847102,1.295392,0.4271048,0.98261005,0.0074593737,-0.18553111,-0.1049477,-0.8019739,-0.5880679,-0.15317772,0.5973125,-0.7872448,,-0.10455447,0.24323344,-0.11787551,0.22070913,-0.80690527,0.5478972,0.6292562,0.54700446,0.5521076,-0.74520075,0.22291252,0.628479,,-0.05844838,0.40667474,-0.42659494,-0.16334742,0.6879853,-0.7071024,-0.9855165,-0.14688078,0.08475401,-0.045550235,0.71070546,0.7020135,,1.1249396068567874,0.4669627659728592,0.21960448890000003,2.0805436192534508,-0.80191961712337,-0.13894385375014034,-0.4179974652376205,,-1.39230061896244,0.19687562916260543,0.13202584021000002,0.34452057714507356,0.1773541766955417,-0.5542393208028745,0.8740540978845283,,-0.11698505643804993,-0.12851077448590748,0.09694439508,-0.1167695939710949,,4.172325e-06,-7.1525574e-07,1.1920929e-07,0.99999994,-3.233552e-06,-2.4586916e-06,3.233552e-06,1.0,-6.556511e-07,2.4586916e-06,5.9604645e-07,1.0,934,2.951,1,3,2.112,False,-0.2629164992682367,1.048452822941579
