AlexandreBanks6/ExpertPlaybackApp/resources/Motions/P_12/PC1/Data_PC1_8.csv
Task Time,PC1 Time,PC2 Time,Gaze Calib,s_T_psm1,Tx,Ty,Tz,R00,R01,R02,R10,R11,R12,R20,R21,R22,s_T_psm3,Tx,Ty,Tz,R00,R01,R02,R10,R11,R12,R20,R21,R22,cart_T_ecm,Tx,Ty,Tz,R00,R01,R02,R10,R11,R12,R20,R21,R22,ecm_T_psm1,Tx,Ty,Tz,R00,R01,R02,R10,R11,R12,R20,R21,R22,ecm_T_psm3,Tx,Ty,Tz,R00,R01,R02,R10,R11,R12,R20,R21,R22,psm1_joints,q1,q2,q3,q4,q5,q6,jaw,psm3_joints,q1,q2,q3,q4,q5,q6,jaw,ecm_joints,q1,q2,q3,q4,ecmi_T_ecm,Tx,Ty,Tz,R00,R01,R02,R10,R11,R12,R20,R21,R22,Sample #,Task Duration (s),Collisions (binary),Collisions (increments),Cumulative Collision Time (s),Clutch Press,MTMR Angle,MTML Angle
""
lci_T_si,,,,,-0.05509644,0.014836536,0.20329654,0.97799796,-0.10343062,0.18116859,0.031866997,-0.78417623,-0.6197194,0.20616606,0.61185765,-0.76362675
rci_T_si,,,,,-0.06411915,0.018600209,0.2114436,0.9733347,-0.124126814,0.19290416,0.02867328,-0.7685155,-0.63918835,0.22759025,0.6276754,-0.74446374
ecm_T_lc,,,,,-4.4061628e-05,-0.00034663224,-0.01840835,-0.99912,0.030754527,0.028518902,-0.031987965,-0.99852574,-0.043852776,0.027128186,-0.04472645,0.9986309
ecm_T_rc,,,,,-0.0043358393,0.01870579,-0.007592615,-0.99555075,-0.052743673,-0.078081585,0.04863213,-0.9973746,0.053654674,-0.08070653,0.04961868,0.9955021
cart_T_ecmi,,,,,0.09844024,1.2953911,0.42710486,0.98261136,0.0074690743,-0.185524,-0.10493582,-0.8019738,-0.58807015,-0.15317772,0.5973125,-0.7872448
ecmac_T_ecmrep_psm1,,,,,0.044880565,-0.23049864,-0.32052848,0.99797076,0.0626086,0.011601057,-0.061749555,0.99606305,-0.0636032,-0.015537491,0.06275777,0.9979078
ecmac_T_ecmrep_psm3,,,,,0.047327206,-0.4153428,-0.56493527,0.997773,0.014750276,0.065049894,-0.025394045,0.985803,0.16597453,-0.061678212,-0.16725679,0.9839822
""
0,17:04:38.243758,17:03:22.452163,0,,0.111065835,0.001718156,0.025530338,0.7199945,0.51932013,-0.46034157,0.5396442,-0.0018936098,0.84189093,0.4363393,-0.85457766,-0.2816116,,0.016552452,-0.037805434,0.0628497,0.33039904,-0.6574011,0.67724454,-0.61503905,0.39431912,0.68281704,-0.7159352,-0.6421342,-0.27404493,,0.0984445,1.295392,0.42710525,0.9826115,0.0074701672,-0.1855232,-0.10493448,-0.8019738,-0.5880704,-0.15317772,0.5973125,-0.7872448,,-0.11599819,0.24701591,-0.118427314,-0.70460296,-0.35825726,0.6125246,0.6951457,-0.52183414,0.4944305,0.14250293,0.77417105,0.6167269,,-0.056870114,0.403208,-0.43073428,-0.2543588,0.7813655,-0.56988555,-0.96673036,-0.18891728,0.1724608,0.02709369,0.59479254,0.8034225,,1.114537085675207,0.5308220441098217,0.21504284439000002,3.370765841513729,0.09250291034120318,-0.8073531112020554,-0.4219177228248433,,-1.3706537987159886,0.15874849696255902,0.12858678284000002,0.26148335952520185,0.31153121946520423,-0.4287436455885034,0.875034162281334,,-0.11698505643804993,-0.12851077448590748,0.09694439508,-0.1167695939710949,,4.0233135e-06,-4.7683716e-07,-1.66893e-06,1.0,1.0803342e-06,8.046627e-07,-1.065433e-06,1.0,2.0861626e-07,-8.1956387e-07,-2.0861626e-07,1.0,47,0.143,1,1,0.119,False,-0.2630356547052788,1.0493218665556094
0.12812843802385032,17:04:38.305168,17:03:22.452163,0,,0.111028574,0.0017371178,0.025536567,0.72021145,0.5190683,-0.46028626,0.5394958,-0.0019196868,0.841986,0.43616465,-0.8547306,-0.2814179,,0.016573288,-0.037787106,0.06284869,0.32435983,-0.6581446,0.67943823,-0.61464375,0.3993389,0.6802509,-0.71902966,-0.63825864,-0.2749952,,0.0984445,1.295392,0.42710525,0.9826115,0.0074701672,-0.1855232,-0.10493448,-0.8019738,-0.5880704,-0.15317772,0.5973125,-0.7872448,,-0.11596035,0.24703468,-0.11842909,-0.70480436,-0.35798863,0.61244994,0.6949221,-0.5219486,0.49462405,0.1425976,0.7742182,0.6166459,,-0.05688906,0.40321726,-0.4307162,-0.2478826,0.781842,-0.57208157,-0.96837544,-0.18268788,0.16992395,0.028341318,0.5961109,0.8024017,,1.1147687676614337,0.530798875911199,0.21504543697000003,3.3709755314572134,0.09250291034120318,-0.8072714324619149,-0.4220810668909776,,-1.3706537987159886,0.15885661522279818,0.12860622719,0.26861281760367567,0.31125794646567334,-0.42843913104097,0.8751975063474683,,-0.11698505643804993,-0.12851077448590748,0.09694439508,-0.1167695939710949,,4.0233135e-06,-4.7683716e-07,-1.66893e-06,1.0,1.0803342e-06,8.046627e-07,-1.065433e-06,1.0,2.0861626e-07,-8.1956387e-07,-2.0861626e-07,1.0,55,0.167,1,1,0.143,False,-0.262797343831195,1.0497563883626244
0.1895434211473912,17:04:38.336211,17:03:22.542807,0,,0.11104705,0.0017501861,0.025550067,0.7201933,0.5191416,-0.4602319,0.53943205,-0.001864016,0.84202695,0.43627337,-0.8546862,-0.28138414,,0.016573362,-0.037765916,0.062838376,0.3256204,-0.6582306,0.6787516,-0.61467755,0.39810008,0.6809461,-0.71843064,-0.6389435,-0.27497035,,0.0984445,1.295392,0.42710525,0.9826115,0.0074701672,-0.1855232,-0.10493448,-0.8019738,-0.5880704,-0.15317772,0.5973125,-0.7872448,,-0.115978934,0.24705331,-0.11842768,-0.7048143,-0.35806024,0.61239666,0.6949379,-0.5218772,0.49467722,0.14247161,0.7742332,0.6166561,,-0.056885857,0.40322286,-0.43069357,-0.24922307,0.7819451,-0.5713577,-0.96803695,-0.18399602,0.17044024,0.02814736,0.59557307,0.80280787,,1.114737876729937,0.5309224396371865,0.21504543697000003,3.3709755314572134,0.09250291034120318,-0.8072714324619149,-0.4220810668909776,,-1.3706615214488629,0.15895701075016308,0.12862567154000001,0.267144987999284,0.31125794646567334,-0.4281940948205484,0.8750341622813339,,-0.11698505643804993,-0.12851077448590748,0.09694439508,-0.1167695939710949,,4.0233135e-06,-4.7683716e-07,-1.66893e-06,1.0,1.0803342e-06,8.046627e-07,-1.065433e-06,1.0,2.0861626e-07,-8.1956387e-07,-2.0861626e-07,1.0,63,0.192,1,1,0.168,False,-0.2622015666459845,1.049708108161845
0.22057824209332466,17:04:38.354495,17:03:22.542807,0,,0.11106084,0.0017574057,0.025556952,0.71911246,0.5209709,-0.4598549,0.5396725,-0.0018152595,0.84187305,0.43775654,-0.8535726,-0.28245908,,0.016572718,-0.037755694,0.06283718,0.32528323,-0.65834486,0.67880243,-0.61459404,0.3983604,0.6808693,-0.71865475,-0.6386635,-0.2750352,,0.0984445,1.295392,0.42710525,0.9826115,0.0074701672,-0.1855232,-0.10493448,-0.8019738,-0.5880704,-0.15317772,0.5973125,-0.7872448,,-0.1159926,0.24706325,-0.11842567,-0.7039851,-0.36003125,0.6121948,0.69603103,-0.5211558,0.49390024,0.14122933,0.773805,0.61747885,,-0.056884248,0.4032285,-0.43068507,-0.24884845,0.7820314,-0.57140297,-0.968129,-0.18360648,0.17033757,0.028296048,0.59558004,0.8027975,,1.1147224312641884,0.5309533305686835,0.21504543697000003,3.369507701852822,0.09140981834307967,-0.806298410492203,-0.42224441095711185,,-1.3706537987159886,0.1590265153460311,0.12863215299000003,0.2675643678862531,0.31125794646567334,-0.4281124160804078,0.8751975063474682,,-0.11698505643804993,-0.12851077448590748,0.09694439508,-0.1167695939710949,,4.0233135e-06,-4.7683716e-07,-1.66893e-06,1.0,1.0803342e-06,8.046627e-07,-1.065433e-06,1.0,2.0861626e-07,-8.1956387e-07,-2.0861626e-07,1.0,76,0.233,1,1,0.209,False,-0.2623802998015474,1.0499495091657423
0.2388707511126995,17:04:38.404490,17:03:22.542807,0,,0.11095412,0.0018211827,0.025552109,0.7180501,0.5230642,-0.45913804,0.5391951,-0.0009407699,0.84218025,0.44008237,-0.8522928,-0.28270933,,0.016549334,-0.037760034,0.062867045,0.32530043,-0.65842295,0.67871845,-0.6145289,0.3983247,0.680949,-0.7187028,-0.63860524,-0.27504495,,0.09846171,1.2953951,0.4271103,0.9826101,0.0074593867,-0.18553111,-0.104947686,-0.8019739,-0.5880679,-0.15317772,0.5973125,-0.7872448,,-0.11589313,0.2471109,-0.118398055,-0.7034097,-0.3621756,0.6115911,0.6970774,-0.51967275,0.49398714,0.13891715,0.7738017,0.6180073,,-0.05688146,0.40324947,-0.43070206,-0.24886264,0.78209877,-0.5713045,-0.96812284,-0.18358557,0.17039521,0.028382624,0.59549797,0.8028553,,1.1147610449285594,0.5309301623700609,0.21504673326,3.36803987224843,0.08922363434683261,-0.8058225838753093,-0.42224441095711174,,-1.370738748777605,0.15921958366788672,0.12866456024,0.2675643678862531,0.31125794646567334,-0.42794905860012666,0.8755241944797367,,-0.11698505643804993,-0.12851077448590748,0.09694439508,-0.1167695939710949,,1.9833446e-05,2.3841858e-07,-1.0728836e-05,1.0,-9.506941e-06,-7.227063e-06,9.514391e-06,1.0,-1.8775463e-06,7.197261e-06,1.8179417e-06,1.0,84,0.257,1,1,0.233,False,-0.26232072208302704,1.0499012289649627
0.28882584907114506,17:04:38.425438,17:03:22.542807,0,,0.11095185,0.0018182248,0.025554404,0.71776336,0.52267957,-0.46002367,0.5394523,0.0002836287,0.842016,0.44023505,-0.85252917,-0.28175724,,0.016555786,-0.037735596,0.06285405,0.32533032,-0.65850574,0.6786238,-0.61445093,0.3982842,0.681043,-0.71875596,-0.6385451,-0.27504575,,0.09846171,1.2953951,0.4271103,0.9826101,0.0074593867,-0.18553111,-0.104947686,-0.8019739,-0.5880679,-0.15317772,0.5973125,-0.7872448,,-0.11589172,0.24710995,-0.118402086,-0.7031215,-0.36159268,0.6122671,0.69737375,-0.5188475,0.49443614,0.13888875,0.7746276,0.61697805,,-0.05688383,0.4032546,-0.4306742,-0.24887747,0.7821674,-0.5712042,-0.96811616,-0.1835588,0.17046197,0.02848023,0.5954161,0.80291253,,1.1147687676614337,0.5309224396371865,0.21504284439000002,3.3676204923614614,0.08922363434683261,-0.8071294437175582,-0.4212643465603062,,-1.3707464715104793,0.15931997919525165,0.12869048604000002,0.2675643678862531,0.31125794646567334,-0.42786737985998613,0.875687538545871,,-0.11698505643804993,-0.12851077448590748,0.09694439508,-0.1167695939710949,,1.9833446e-05,2.3841858e-07,-1.0728836e-05,1.0,-9.506941e-06,-7.227063e-06,9.514391e-06,1.0,-1.8775463e-06,7.197261e-06,1.8179417e-06,1.0,92,0.282,1,1,0.258,False,-0.2623802998015474,1.050335750771978
0.30981298396363854,17:04:38.453712,17:03:22.542807,0,,0.110978864,0.0018284768,0.025573954,0.7158227,0.52576584,-0.45953017,0.53913224,0.0020953715,0.8422184,0.44377252,-0.8506268,-0.2819575,,0.01655924,-0.037706897,0.06284094,0.32536286,-0.65866697,0.67845166,-0.614346,0.39818645,0.6811947,-0.71883076,-0.6384398,-0.27509463,,0.09846171,1.2953951,0.4271103,0.9826101,0.0074593867,-0.18553111,-0.104947686,-0.8019739,-0.5880679,-0.15317772,0.5973125,-0.7872448,,-0.11592007,0.24713005,-0.11840514,-0.7018871,-0.36468676,0.6118481,0.6992744,-0.51624554,0.4944753,0.13553524,0.7749156,0.6173622,,-0.056882925,0.4032626,-0.4306435,-0.24888931,0.78230137,-0.5710154,-0.9681092,-0.1835278,0.17053476,0.028612379,0.5952496,0.80303127,,1.114745599462811,0.5309456078358092,0.21503506665000002,3.3651042130396474,0.08608099485222749,-0.8069355153966169,-0.42175437875870914,,-1.370738748777605,0.1594589883869877,0.12871770813000002,0.2675643678862531,0.31125794646567334,-0.42770402237970506,0.8753608504136026,,-0.11698505643804993,-0.12851077448590748,0.09694439508,-0.1167695939710949,,1.9833446e-05,2.3841858e-07,-1.0728836e-05,1.0,-9.506941e-06,-7.227063e-06,9.514391e-06,1.0,-1.8775463e-06,7.197261e-06,1.8179417e-06,1.0,109,0.335,1,1,0.311,False,-0.2622611443645053,1.0499012289649627
0.3380281471181661,17:04:38.499039,17:03:22.698988,0,,0.111071005,0.0018641651,0.02565004,0.70559645,0.5396733,-0.45922333,0.54117775,0.007957101,0.8408705,0.45744947,-0.8418369,-0.2864448,,0.01657863,-0.037667975,0.06284034,0.32513934,-0.6585954,0.6786283,-0.61413926,0.3986412,0.68111527,-0.7191086,-0.63822985,-0.27485555,,0.09846171,1.2953951,0.4271103,0.9826101,0.0074593867,-0.18553111,-0.104947686,-0.8019739,-0.5880679,-0.15317772,0.5973125,-0.7872448,,-0.116018295,0.24720491,-0.118422404,-0.69401145,-0.37898073,0.6121451,0.7092191,-0.50621223,0.4906704,0.12392073,0.7746759,0.62009746,,-0.056898963,0.40328544,-0.43061015,-0.24860846,0.782231,-0.5712342,-0.9681726,-0.18308252,0.17065342,0.028907381,0.59547925,0.8028504,,1.1146915403326916,0.5310691715617969,0.21500265940000002,3.351474366713153,0.07569662087005401,-0.8041035877853876,-0.4219177228248433,,-1.3709009261679639,0.15965205670884328,0.12874881909000002,0.26798374777322215,0.31125794646567334,-0.4277857011198456,0.8751975063474683,,-0.11698505643804993,-0.12851077448590748,0.09694439508,-0.1167695939710949,,1.9833446e-05,2.3841858e-07,-1.0728836e-05,1.0,-9.506941e-06,-7.227063e-06,9.514391e-06,1.0,-1.8775463e-06,7.197261e-06,1.8179417e-06,1.0,126,0.388,1,1,0.364,False,-0.26232072208302704,1.0502391903704191
0.3834043580573052,17:04:38.553097,17:03:22.698988,0,,0.11116976,0.0018763617,0.02582629,0.69269776,0.5562346,-0.45909986,0.5394196,0.022976696,0.84172344,0.47874427,-0.83070767,-0.284128,,0.016583133,-0.03763838,0.06283653,0.32507133,-0.65858024,0.67867565,-0.6138855,0.39894208,0.68116784,-0.71935594,-0.6380575,-0.27460846,,0.09846171,1.2953951,0.4271103,0.9826101,0.0074593867,-0.18553111,-0.104947686,-0.8019739,-0.5880679,-0.15317772,0.5973125,-0.7872448,,-0.11614359,0.2473223,-0.11852962,-0.685371,-0.39502272,0.61173826,0.7207919,-0.48749033,0.49275985,0.103565164,0.7786592,0.6188409,,-0.056900542,0.40330103,-0.43058437,-0.248482,0.7822106,-0.5713172,-0.96819496,-0.18275973,0.17087255,0.029244538,0.5956052,0.8027448,,1.1147687676614337,0.5310460033631742,0.21487562298000001,3.3353282410648446,0.056567510902892346,-0.8069644765396556,-0.42289778722164895,,-1.370939539832335,0.159814234099202,0.12877085602000002,0.2681934377167067,0.31139458296543876,-0.4278971190235419,0.8755241944797367,,-0.11698505643804993,-0.12851077448590748,0.09694439508,-0.1167695939710949,,1.9833446e-05,2.3841858e-07,-1.0728836e-05,1.0,-9.506941e-06,-7.227063e-06,9.514391e-06,1.0,-1.8775463e-06,7.197261e-06,1.8179417e-06,1.0,134,0.413,1,1,0.389,False,-0.2641080536386573,1.0496115477602863
0.43746866309084,17:04:38.580738,17:03:22.698988,0,,0.11120142,0.001810655,0.025990978,0.686983,0.56429064,-0.4578541,0.53948236,0.026070952,0.841593,0.48683974,-0.82516444,-0.28651464,,0.016589213,-0.037625566,0.06283921,0.32472444,-0.65876496,0.6786624,-0.6138853,0.3990656,0.68109566,-0.71951276,-0.6377895,-0.27481997,,0.09846171,1.2953951,0.4271103,0.9826101,0.0074593867,-0.18553111,-0.104947686,-0.8019739,-0.5880679,-0.15317772,0.5973125,-0.7872448,,-0.11621204,0.24737076,-0.11868902,-0.68119544,-0.40342206,0.6109202,0.7257692,-0.48164165,0.49120298,0.09608247,0.77799225,0.6208834,,-0.056905985,0.40331078,-0.4305752,-0.24811512,0.78235775,-0.5712751,-0.96828777,-0.18246114,0.1706655,0.029285962,0.5955034,0.8028188,,1.1147687676614337,0.5311155079590422,0.21470062383000002,3.327989093042886,0.049462412915089446,-0.8045195738932047,-0.4225710990893804,,-1.3710013216953287,0.15989918416081847,0.12877863376,0.26861281760367567,0.31125794646567334,-0.4276223436395644,0.8751975063474682,,-0.11698505643804993,-0.12851077448590748,0.09694439508,-0.1167695939710949,,1.9833446e-05,2.3841858e-07,-1.0728836e-05,1.0,-9.506941e-06,-7.227063e-06,9.514391e-06,1.0,-1.8775463e-06,7.197261e-06,1.8179417e-06,1.0,147,0.454,1,1,0.43,False,-0.2626781883941529,1.05014262996886
0.4650846079457551,17:04:38.620022,17:03:22.830562,0,,0.11121249,0.0017186031,0.02615036,0.6838298,0.56866455,-0.4571623,0.54004496,0.026851654,0.8412076,0.49064052,-0.8221312,-0.28874257,,0.016595736,-0.037615016,0.062838316,0.32471746,-0.65891397,0.67852104,-0.6139421,0.39887187,0.6811579,-0.71946746,-0.6377567,-0.27501458,,0.09846171,1.2953951,0.4271103,0.9826101,0.0074593867,-0.18553111,-0.104947686,-0.8019739,-0.5880679,-0.15317772,0.5973125,-0.7872448,,-0.11626306,0.24739507,-0.11886452,-0.6787039,-0.40810895,0.61058015,0.72852755,-0.4791643,0.48953977,0.09278264,0.777077,0.62252927,,-0.056911465,0.40331632,-0.43056554,-0.24811994,0.78248435,-0.5710996,-0.9682887,-0.18254793,0.17056718,0.029213106,0.5953104,0.80296457,,1.114737876729937,0.5311927352877844,0.21452821726000001,3.324214674060165,0.046866319419546075,-0.8026476699433944,-0.4232244753539175,,-1.3710553808254484,0.15995324329093805,0.12878770779,0.26861281760367567,0.3111213099659079,-0.4273475682555869,0.8751975063474682,,-0.11698505643804993,-0.12851077448590748,0.09694439508,-0.1167695939710949,,1.9833446e-05,2.3841858e-07,-1.0728836e-05,1.0,-9.506941e-06,-7.227063e-06,9.514391e-06,1.0,-1.8775463e-06,7.197261e-06,1.8179417e-06,1.0,155,0.479,1,1,0.455,False,-0.2641080536386573,1.050335750771978
0.5043936159927398,17:04:38.643542,17:03:22.830562,0,,0.1112417,0.0015976131,0.026380643,0.68329203,0.5733272,-0.45211488,0.53675157,0.025355786,0.8433591,0.49498445,-0.81893414,-0.2904089,,0.016604144,-0.03760253,0.06283289,0.32470474,-0.65895486,0.6784875,-0.61400616,0.3987854,0.6811508,-0.7194185,-0.6377685,-0.275115,,0.09846171,1.2953951,0.4271103,0.9826101,0.0074593867,-0.18553111,-0.104947686,-0.8019739,-0.5880679,-0.15317772,0.5973125,-0.7872448,,-0.11634803,0.24743971,-0.119108036,-0.6793827,-0.41341573,0.60623974,0.7285668,-0.4783904,0.4902377,0.08734727,0.77474517,0.6262111,,-0.056917902,0.40331948,-0.4305512,-0.24812023,0.78252,-0.57105064,-0.9682911,-0.18260895,0.17048834,0.02913158,0.5952449,0.8030161,,1.1146606494011946,0.5313317444795205,0.21427673700000002,3.324214674060165,0.04153749592869389,-0.7983840504393747,-0.4230611312877832,,-1.3711017172226936,0.1599995796881834,0.12880196698000002,0.26861281760367567,0.31098467346614245,-0.4272361503518904,0.8751975063474682,,-0.11698505643804993,-0.12851077448590748,0.09694439508,-0.1167695939710949,,1.9833446e-05,2.3841858e-07,-1.0728836e-05,1.0,-9.506941e-06,-7.227063e-06,9.514391e-06,1.0,-1.8775463e-06,7.197261e-06,1.8179417e-06,1.0,168,0.52,1,1,0.496,False,-0.26285692154971585,1.0502391903704191
0.5279065379872918,17:04:38.686845,17:03:22.830562,0,,0.11128981,0.0014364645,0.026659176,0.6831731,0.57734627,-0.4471529,0.5332969,0.023858577,0.84559155,0.49886748,-0.8161508,-0.29159752,,0.016611513,-0.037583098,0.062829375,0.32475483,-0.65900373,0.67841595,-0.61392623,0.39876252,0.68123627,-0.7194642,-0.63773227,-0.27507982,,0.09846171,1.2953951,0.4271103,0.9826101,0.0074593867,-0.18553111,-0.104947686,-0.8019739,-0.5880679,-0.15317772,0.5973125,-0.7872448,,-0.1164653,0.24748205,-0.11940861,-0.6804118,-0.41802317,0.60191065,0.728198,-0.47787118,0.491291,0.08226476,0.7725903,0.62955284,,-0.056923103,0.40332854,-0.4305329,-0.24815604,0.78256047,-0.5709796,-0.968279,-0.1825919,0.17057543,0.029229328,0.59519684,0.80304813,,1.1144521356135906,0.531555703732873,0.21396562740000002,3.324843743890618,0.036618581937138045,-0.7946180421267252,-0.4232244753539175,,-1.3711557763528133,0.16009225248267409,0.12881881875,0.26861281760367567,0.31098467346614245,-0.4271544716117498,0.8753608504136025,,-0.11698505643804993,-0.12851077448590748,0.09694439508,-0.1167695939710949,,1.9833446e-05,2.3841858e-07,-1.0728836e-05,1.0,-9.506941e-06,-7.227063e-06,9.514391e-06,1.0,-1.8775463e-06,7.197261e-06,1.8179417e-06,1.0,176,0.544,1,1,0.52,False,-0.2641080536386573,1.0499012289649627
0.571215741103515,17:04:38.710124,17:03:22.830562,0,,0.111317314,0.0013425872,0.026801005,0.68524426,0.5791471,-0.4416208,0.52847564,0.021849662,0.8486671,0.50115234,-0.8149303,-0.29109287,,0.016616184,-0.03757383,0.062832415,0.32497445,-0.65896404,0.67834944,-0.6138905,0.3986386,0.681341,-0.71939546,-0.6378509,-0.27498463,,0.09846171,1.2953951,0.4271103,0.9826101,0.0074593867,-0.18553111,-0.104947686,-0.8019739,-0.5880679,-0.15317772,0.5973125,-0.7872448,,-0.11652956,0.24749424,-0.119568005,-0.6834852,-0.42026514,0.59684604,0.72577554,-0.478715,0.4940464,0.07808866,0.77084965,0.63221276,,-0.056927502,0.40333644,-0.43052694,-0.2483806,0.7825314,-0.57092184,-0.96822083,-0.18276493,0.17072037,0.029249564,0.595182,0.80305845,,1.1143131264218544,0.531555703732873,0.21379970228000003,3.328408472929855,0.0321095774448785,-0.7917580387061489,-0.4230611312877832,,-1.3712407264144297,0.16015403434566788,0.12882530020000002,0.2684031276601912,0.31098467346614245,-0.4271544716117498,0.8753608504136025,,-0.11698505643804993,-0.12851077448590748,0.09694439508,-0.1167695939710949,,1.9833446e-05,2.3841858e-07,-1.0728836e-05,1.0,-9.506941e-06,-7.227063e-06,9.514391e-06,1.0,-1.8775463e-06,7.197261e-06,1.8179417e-06,1.0,189,0.585,1,1,0.561,False,-0.26381016504605226,1.0496115477602863
0.594398122979328,17:04:38.754139,17:03:22.963871,0,,0.111398414,0.0010623038,0.027090892,0.69025373,0.582696,-0.42896956,0.51606005,0.019102842,0.8563392,0.50718004,-0.81246567,-0.28752038,,0.016632628,-0.037563488,0.06283736,0.32465255,-0.6589706,0.6784972,-0.61391246,0.39889902,0.68116874,-0.7195221,-0.6376811,-0.27504689,,0.09846171,1.2953951,0.4271103,0.9826101,0.0074593867,-0.18553111,-0.104947686,-0.8019739,-0.5880679,-0.15317772,0.5973125,-0.7872448,,-0.11669719,0.24744914,-0.11994086,-0.6911089,-0.4245288,0.58493054,0.71962434,-0.47938126,0.50232905,0.067151584,0.7680943,0.6368059,,-0.056943715,0.40334556,-0.4305195,-0.24804492,0.7825298,-0.57106996,-0.96830654,-0.18246828,0.17055123,0.029259268,0.5952751,0.80298907,,1.1137030305247908,0.5312390716850298,0.2134082227,3.3374251404996897,0.020085565465519747,-0.787507417510422,-0.4225710990893805,,-1.3713565674075432,0.16018492527716477,0.12883307794,0.2688225075471602,0.31084803696637703,-0.4270430537080535,0.8753608504136025,,-0.11698505643804993,-0.12851077448590748,0.09694439508,-0.1167695939710949,,1.9833446e-05,2.3841858e-07,-1.0728836e-05,1.0,-9.506941e-06,-7.227063e-06,9.514391e-06,1.0,-1.8775463e-06,7.197261e-06,1.8179417e-06,1.0,197,0.61,1,1,0.586,False,-0.26339312101640555,1.0501909101696396
0.638508384115994,17:04:38.777779,17:03:22.963871,0,,0.1114025,0.0009177476,0.027115092,0.69024783,0.5830877,-0.4284466,0.51589096,0.01861009,0.856452,0.50736,-0.812196,-0.28796422,,0.016638875,-0.037561134,0.06283939,0.3246785,-0.658934,0.67852026,-0.6139032,0.3989209,0.68116426,-0.7195182,-0.6377054,-0.27500093,,0.09846171,1.2953951,0.4271103,0.9826101,0.0074593867,-0.18553111,-0.104947686,-0.8019739,-0.5880679,-0.15317772,0.5973125,-0.7872448,,-0.11672506,0.24734935,-0.12004463,-0.6911574,-0.42502475,0.58451295,0.71960014,-0.4796065,0.50214857,0.06691065,0.76767933,0.6373315,,-0.05695001,0.40334812,-0.4305179,-0.24807042,0.7824994,-0.57110053,-0.96829975,-0.18247579,0.17058177,0.029268112,0.59531283,0.8029608,,1.113332339346828,0.530868380507067,0.21329933434,3.337634830443174,0.019539019466457985,-0.7872251033759174,-0.42289778722164906,,-1.3714106265376627,0.16018492527716477,0.12883567052,0.2688225075471602,0.31084803696637703,-0.4270430537080535,0.8753608504136025,,-0.11698505643804993,-0.12851077448590748,0.09694439508,-0.1167695939710949,,1.9833446e-05,2.3841858e-07,-1.0728836e-05,1.0,-9.506941e-06,-7.227063e-06,9.514391e-06,1.0,-1.8775463e-06,7.197261e-06,1.8179417e-06,1.0,210,0.651,1,1,0.627,False,-0.2630356547052788,1.0500943497680806
0.6621533909346908,17:04:38.811792,17:03:22.963871,0,,0.11142577,0.0006022155,0.02709727,0.6903874,0.5845425,-0.4262337,0.5149994,0.016671568,0.85702825,0.5080754,-0.81119186,-0.28952926,,0.016643684,-0.037561134,0.06284237,0.3246988,-0.6589,0.6785435,-0.6139013,0.39893866,0.6811556,-0.7195107,-0.6377293,-0.27496493,,0.09846171,1.2953951,0.4271103,0.9826101,0.0074593867,-0.18553111,-0.104947686,-0.8019739,-0.5880679,-0.15317772,0.5973125,-0.7872448,,-0.11678762,0.24708852,-0.12021335,-0.6915392,-0.42688206,0.5827051,0.7193304,-0.48052716,0.50165474,0.06585819,0.7660714,0.6393726,,-0.056955222,0.40335,-0.43051895,-0.24809141,0.78247124,-0.5711299,-0.9682944,-0.18248543,0.17060201,0.029268282,0.5953468,0.8029356,,1.1123592750046758,0.5298644252334178,0.21311785374000003,3.3384735902171125,0.017626108469741816,-0.7856652527241675,-0.42289778722164906,,-1.371456962934908,0.16017720254429055,0.12883567052,0.2688225075471602,0.31084803696637703,-0.4270430537080535,0.8753608504136025,,-0.11698505643804993,-0.12851077448590748,0.09694439508,-0.1167695939710949,,1.9833446e-05,2.3841858e-07,-1.0728836e-05,1.0,-9.506941e-06,-7.227063e-06,9.514391e-06,1.0,-1.8775463e-06,7.197261e-06,1.8179417e-06,1.0,218,0.675,1,1,0.651,False,-0.26351227645344677,1.0502391903704191
0.6961662881076336,17:04:38.840714,17:03:22.963871,0,,0.111470714,0.0002239272,0.026986942,0.6885044,0.5882426,-0.42418435,0.5152685,0.014822274,0.85690045,0.51035273,-0.80854875,-0.29289782,,0.016646534,-0.03756167,0.06284177,0.32470217,-0.6588846,0.6785569,-0.61391044,0.398943,0.6811448,-0.7195014,-0.6377425,-0.2749587,,0.09846171,1.2953951,0.4271103,0.9826101,0.0074593867,-0.18553111,-0.104947686,-0.8019739,-0.5880679,-0.15317772,0.5973125,-0.7872448,,-0.11686378,0.24672155,-0.120343074,-0.69006175,-0.43120196,0.5812742,0.72092927,-0.48037305,0.49950245,0.06384201,0.7637451,0.6423532,,-0.05695797,0.40334898,-0.43051854,-0.24809697,0.78245854,-0.57114494,-0.9682933,-0.18249398,0.17059883,0.029255992,0.5953609,0.8029256,,1.1109923512859379,0.5284202741859378,0.21297137297000002,3.336796070669236,0.01462010547490213,-0.7832140588428462,-0.42289778722164906,,-1.3714724084006564,0.1601617570785421,0.12883696681,0.2688225075471602,0.31084803696637703,-0.4270430537080535,0.8753608504136025,,-0.11698505643804993,-0.12851077448590748,0.09694439508,-0.1167695939710949,,1.9833446e-05,2.3841858e-07,-1.0728836e-05,1.0,-9.506941e-06,-7.227063e-06,9.514391e-06,1.0,-1.8775463e-06,7.197261e-06,1.8179417e-06,1.0,231,0.716,1,1,0.692,False,-0.26339312101640555,1.0503840309727575
0.7250822661444545,17:04:38.882172,17:03:23.078559,0,,0.11148937,-0.00043774396,0.026653096,0.6861613,0.59295905,-0.4214049,0.5161335,0.011390299,0.8564323,0.5126292,-0.80515206,-0.29823047,,0.01664764,-0.037565425,0.06284118,0.3246941,-0.65893,0.67851675,-0.613934,0.39888373,0.68115824,-0.7194849,-0.63773274,-0.27502453,,0.09846171,1.2953951,0.4271103,0.9826101,0.0074593867,-0.18553111,-0.104947686,-0.8019739,-0.5880679,-0.15317772,0.5973125,-0.7872448,,-0.11691403,0.24599364,-0.12047433,-0.6880544,-0.43685952,0.5794264,0.72299886,-0.48101145,0.4958837,0.062079217,0.76011956,0.64681095,,-0.05695924,0.40334606,-0.43052086,-0.24809352,0.7824971,-0.5710936,-0.9682951,-0.18252075,0.1705601,0.029226357,0.595302,0.8029703,,1.1086678086907964,0.5253852401663677,0.21281841075000002,3.334908861177875,0.010521010481938913,-0.7798715217319536,-0.42289778722164906,,-1.3714724084006564,0.16013086614704522,0.12883567052,0.2688225075471602,0.31084803696637703,-0.426961374967913,0.8755241944797367,,-0.11698505643804993,-0.12851077448590748,0.09694439508,-0.1167695939710949,,1.9833446e-05,2.3841858e-07,-1.0728836e-05,1.0,-9.506941e-06,-7.227063e-06,9.514391e-06,1.0,-1.8775463e-06,7.197261e-06,1.8179417e-06,1.0,239,0.741,1,1,0.717,False,-0.26297607698675796,1.0505288715750958
0.7665453790687025,17:04:38.906494,17:03:23.078559,0,,0.111503415,-0.0010946766,0.026374325,0.68407357,0.59683716,-0.41931915,0.51725274,0.008395702,0.85579145,0.51428866,-0.80231845,-0.3029724,,0.016646862,-0.03756632,0.06284183,0.3245146,-0.6589506,0.6785825,-0.61391914,0.39903587,0.68108255,-0.71957856,-0.63761616,-0.2750497,,0.09846171,1.2953951,0.4271103,0.9826101,0.0074593867,-0.18553111,-0.104947686,-0.8019739,-0.5880679,-0.15317772,0.5973125,-0.7872448,,-0.11696871,0.24530308,-0.12064638,-0.6861541,-0.44154212,0.57812893,0.72489405,-0.4816483,0.49248713,0.061000988,0.75700426,0.6505562,,-0.056958653,0.40334603,-0.43052208,-0.24790047,0.78250986,-0.57115996,-0.9683433,-0.18233277,0.17048739,0.029266892,0.5953428,0.8029386,,1.1064513843558939,0.5225355517357788,0.21262785612000001,3.333231341629999,0.007241734487568344,-0.77727917078338,-0.42273444315551467,,-1.3714646856677821,0.16013086614704522,0.12883437423000002,0.2690321974906447,0.31084803696637703,-0.426961374967913,0.8755241944797367,,-0.11698505643804993,-0.12851077448590748,0.09694439508,-0.1167695939710949,,1.9833446e-05,2.3841858e-07,-1.0728836e-05,1.0,-9.506941e-06,-7.227063e-06,9.514391e-06,1.0,-1.8775463e-06,7.197261e-06,1.8179417e-06,1.0,252,0.782,1,1,0.758,False,-0.26351227645344677,1.049804668563404
0.7908480509649962,17:04:38.950746,17:03:23.078559,0,,0.111522615,-0.00216531,0.02580525,0.6798677,0.6025914,-0.41792756,0.5207185,0.004599631,0.8537159,0.5163642,-0.7980367,-0.31065345,,0.016646639,-0.037568852,0.06283963,0.3245011,-0.65895355,0.6785861,-0.6139395,0.39902693,0.6810695,-0.71956736,-0.6376188,-0.27507317,,0.09846171,1.2953951,0.4271103,0.9826101,0.0074593867,-0.18553111,-0.104947686,-0.8019739,-0.5880679,-0.15317772,0.5973125,-0.7872448,,-0.1170343,0.24410762,-0.12083883,-0.68194085,-0.44841525,0.5778239,0.7288984,-0.48203322,0.48615953,0.060528945,0.75270694,0.6555673,,-0.05695826,0.40334272,-0.43052268,-0.24789059,0.7825125,-0.5711606,-0.9683466,-0.18234025,0.1704608,0.02924214,0.5953371,0.80294377,,1.1026904134461466,0.5175930026962751,0.21241137569000001,3.329247232703793,0.00300600299483969,-0.7744786456899154,-0.42273444315551467,,-1.3714492402020337,0.16010769794842253,0.12883437423000002,0.2690321974906447,0.31084803696637703,-0.426961374967913,0.8755241944797367,,-0.11698505643804993,-0.12851077448590748,0.09694439508,-0.1167695939710949,,1.9833446e-05,2.3841858e-07,-1.0728836e-05,1.0,-9.506941e-06,-7.227063e-06,9.514391e-06,1.0,-1.8775463e-06,7.197261e-06,1.8179417e-06,1.0,260,0.806,1,1,0.782,False,-0.2629164992682367,1.0505288715750958
0.8351170790847391,17:04:38.971683,17:03:23.078559,0,,0.111518405,-0.0027865395,0.025516793,0.67900395,0.60321736,-0.41842848,0.5224234,0.0034112632,0.85267925,0.51577824,-0.79756963,-0.3128187,,0.016648889,-0.03757091,0.06284058,0.32428357,-0.6590133,0.67863214,-0.61403376,0.39907688,0.6809552,-0.7195849,-0.6375258,-0.27524263,,0.09846171,1.2953951,0.4271103,0.9826101,0.0074593867,-0.18553111,-0.104947686,-0.8019739,-0.5880679,-0.15317772,0.5973125,-0.7872448,,-0.11706463,0.24343938,-0.120986156,-0.68076456,-0.4492687,0.5785476,0.7298902,-0.48268875,0.4840163,0.061805032,0.75177735,0.6565142,,-0.056960788,0.40334204,-0.4305245,-0.24768083,0.7825598,-0.5711868,-0.9684032,-0.18223245,0.17025447,0.029145524,0.5953079,0.8029689,,1.1006284437687286,0.5148591552587997,0.21225452460000002,3.3288278528168243,0.0020495474964816063,-0.7753322951668518,-0.4237145075523203,,-1.3714646856677821,0.1600999752155483,0.12883307794,0.26924188743412925,0.31071140046661155,-0.42684995706421647,0.8755241944797367,,-0.11698505643804993,-0.12851077448590748,0.09694439508,-0.1167695939710949,,1.9833446e-05,2.3841858e-07,-1.0728836e-05,1.0,-9.506941e-06,-7.227063e-06,9.514391e-06,1.0,-1.8775463e-06,7.197261e-06,1.8179417e-06,1.0,273,0.847,1,1,0.823,False,-0.2632143878608417,1.05014262996886
0.8560530480463058,17:04:39.010536,17:03:23.213914,0,,0.11154021,-0.0041308925,0.024821326,0.67916846,0.60213006,-0.41972554,0.5258109,-0.00015771389,0.8506014,0.5121064,-0.7983981,-0.31671375,,0.016649224,-0.03757356,0.06283909,0.32502764,-0.65904254,0.67824763,-0.6140194,0.39839804,0.68136555,-0.71926147,-0.63792,-0.27517474,,0.09846171,1.2953951,0.4271103,0.9826101,0.0074593867,-0.18553111,-0.104947686,-0.8019739,-0.5880679,-0.15317772,0.5973125,-0.7872448,,-0.11714806,0.24194993,-0.121243104,-0.6798257,-0.4485501,0.5802067,0.73033476,-0.48602414,0.4799913,0.06669433,0.75005555,0.65800345,,-0.05696108,0.40333912,-0.43052557,-0.24846455,0.7826018,-0.57078874,-0.9682045,-0.18296517,0.17059836,0.02907611,0.59502786,0.80317897,,1.0959175767154516,0.5088894827470241,0.2119823037,3.3305053723647,0.0019129109967161663,-0.7781613119082157,-0.4233878194200519,,-1.3714724084006564,0.1600613615511772,0.12883307794,0.2684031276601912,0.31084803696637703,-0.42671633874749126,0.8763409148104082,,-0.11698505643804993,-0.12851077448590748,0.09694439508,-0.1167695939710949,,1.9833446e-05,2.3841858e-07,-1.0728836e-05,1.0,-9.506941e-06,-7.227063e-06,9.514391e-06,1.0,-1.8775463e-06,7.197261e-06,1.8179417e-06,1.0,281,0.872,1,1,0.848,False,-0.2626186106756321,1.0507702725789931
0.8948942010756582,17:04:39.044124,17:03:23.213914,0,,0.11161793,-0.005450979,0.024257317,0.6832577,0.5974798,-0.419734,0.5275282,-0.0064744353,0.8495127,0.5048492,-0.8018579,-0.3196113,,0.016651176,-0.037573233,0.06284106,0.324016,-0.65924954,0.6785305,-0.61381614,0.39927024,0.681038,-0.7198911,-0.6371603,-0.27528828,,0.09846171,1.2953951,0.4271103,0.9826101,0.0074593867,-0.18553111,-0.104947686,-0.8019739,-0.5880679,-0.15317772,0.5973125,-0.7872448,,-0.11730556,0.24056002,-0.12157492,-0.68231916,-0.4442733,0.5805702,0.7272762,-0.49314883,0.47736105,0.07422876,0.7479475,0.6595943,,-0.05696329,0.4033407,-0.43052623,-0.24735121,0.78274703,-0.5710731,-0.96847796,-0.1818106,0.17028028,0.029459232,0.5951907,0.8030443,,1.091175818730678,0.5036071334610545,0.21163878685,3.3372154505562053,0.004782277491790415,-0.7809094815865434,-0.4225710990893805,,-1.3714646856677821,0.1600613615511772,0.12883307794,0.26966126732109835,0.31098467346614245,-0.42658272043076595,0.8761775707442738,,-0.11698505643804993,-0.12851077448590748,0.09694439508,-0.1167695939710949,,1.9833446e-05,2.3841858e-07,-1.0728836e-05,1.0,-9.506941e-06,-7.227063e-06,9.514391e-06,1.0,-1.8775463e-06,7.197261e-06,1.8179417e-06,1.0,294,0.913,1,1,0.889,False,-0.26243987752006825,1.050432311173537
0.9284838601015508,17:04:39.075869,17:03:23.213914,0,,0.11170411,-0.0062902644,0.023936346,0.6866825,0.59362537,-0.41961405,0.52796084,-0.010450035,0.84920424,0.49972424,-0.8046737,-0.32058698,,0.016656004,-0.037580058,0.06283224,0.3232838,-0.65995497,0.67819387,-0.6150675,0.39810488,0.6805911,-0.7191518,-0.6371592,-0.27721623,,0.09846171,1.2953951,0.4271103,0.9826101,0.0074593867,-0.18553111,-0.104947686,-0.8019739,-0.5880679,-0.15317772,0.5973125,-0.7872448,,-0.11744809,0.23969935,-0.12180683,-0.6847099,-0.44056582,0.58058083,0.72449917,-0.4980241,0.47652167,0.07920408,0.74690944,0.6601916,,-0.056967124,0.40332925,-0.4305252,-0.24684618,0.78335285,-0.57046056,-0.9686523,-0.18249775,0.1685445,0.027922053,0.5941825,0.80384547,,1.0880403891837427,0.5004485357154966,0.21140026949000001,3.342667389086803,0.0069684614880374625,-0.7833455979668105,-0.42420453975072325,,-1.3714724084006564,0.16008452974979986,0.12883307794,0.2698709572645829,0.3093450354689572,-0.42524570558640895,0.8761775707442738,,-0.11698505643804993,-0.12851077448590748,0.09694439508,-0.1167695939710949,,1.9833446e-05,2.3841858e-07,-1.0728836e-05,1.0,-9.506941e-06,-7.227063e-06,9.514391e-06,1.0,-1.8775463e-06,7.197261e-06,1.8179417e-06,1.0,302,0.937,1,1,0.913,False,-0.26309523242380006,1.0508185527797727
0.9602107519749552,17:04:39.103320,17:03:23.213914,0,,0.11177963,-0.0068176165,0.023770466,0.687782,0.5916652,-0.42058063,0.52862096,-0.011144012,0.8487847,0.49750942,-0.8061068,-0.3204314,,0.01667533,-0.03759049,0.06282532,0.32080752,-0.6610276,0.67832506,-0.61701435,0.39750397,0.6791787,-0.7185928,-0.6364221,-0.28034148,,0.09846171,1.2953951,0.4271103,0.9826101,0.0074593867,-0.18553111,-0.104947686,-0.8019739,-0.5880679,-0.15317772,0.5973125,-0.7872448,,-0.117564715,0.23918043,-0.121975526,-0.6853075,-0.43849945,0.58143944,0.7236732,-0.49945197,0.47628227,0.08155155,0.747172,0.6596085,,-0.056985784,0.40331575,-0.43052575,-0.24464859,0.78424215,-0.57018536,-0.96927166,-0.1822322,0.16523884,0.025681134,0.59308994,0.80472654,,1.08602475590357,0.49858735709280855,0.21122656663000003,3.3447642885216484,0.007788280486630106,-0.7861377526326436,-0.4225710990893804,,-1.3715650811951472,0.16012314341417097,0.12883307794,0.27175816675594355,0.3066123054736483,-0.42326238373290204,0.8756875385458711,,-0.11698505643804993,-0.12851077448590748,0.09694439508,-0.1167695939710949,,1.9833446e-05,2.3841858e-07,-1.0728836e-05,1.0,-9.506941e-06,-7.227063e-06,9.514391e-06,1.0,-1.8775463e-06,7.197261e-06,1.8179417e-06,1.0,315,0.978,1,1,0.954,False,-0.2630356547052788,1.0507702725789931
0.9876554510556161,17:04:39.143839,17:03:23.346545,0,,0.11184259,-0.007683538,0.023472413,0.69276536,0.58567274,-0.4207892,0.52615684,-0.01144284,0.85031044,0.49318862,-0.8104669,-0.31608307,,0.016708337,-0.03756772,0.062840104,0.32050064,-0.6613201,0.678185,-0.61798966,0.39661902,0.6788092,-0.71789134,-0.6366703,-0.28157258,,0.09846171,1.2953951,0.4271103,0.9826101,0.0074593867,-0.18553111,-0.104947686,-0.8019739,-0.5880679,-0.15317772,0.5973125,-0.7872448,,-0.1176922,0.23831259,-0.1222461,-0.6897525,-0.43193778,0.58109486,0.7190944,-0.5023599,0.48014346,0.08452668,0.7490422,0.65710807,,-0.057018954,0.40333903,-0.43051216,-0.24453497,0.7845037,-0.5698742,-0.9693322,-0.1829639,0.16407092,0.024447832,0.5925185,0.80518574,,1.0828738808908864,0.49509668183365907,0.21094786428,3.3531518862610286,0.007651643986864665,-0.7932140638613168,-0.42420453975072325,,-1.3719126041744873,0.16030848900315237,0.12884604084,0.27175816675594355,0.3051093039762285,-0.42228182301266315,0.876177570744274,,-0.11698505643804993,-0.12851077448590748,0.09694439508,-0.1167695939710949,,1.9833446e-05,2.3841858e-07,-1.0728836e-05,1.0,-9.506941e-06,-7.227063e-06,9.514391e-06,1.0,-1.8775463e-06,7.197261e-06,1.8179417e-06,1.0,337,1.048,1,1,1.024,False,-0.26351227645344677,1.051108233984449
1.0281971970107406,17:04:39.210083,17:03:23.346545,0,,0.111699246,-0.009002604,0.022782013,0.6980048,0.57816577,-0.42250854,0.52469593,-0.011407435,0.8512132,0.48732257,-0.81583965,-0.31132376,,0.016809214,-0.037446335,0.06288302,0.31990373,-0.6614444,0.6783455,-0.61807555,0.39694792,0.67853874,-0.71808356,-0.636336,-0.2818378,,0.09846171,1.2953951,0.4271103,0.9826101,0.0074593867,-0.18553111,-0.104947686,-0.8019739,-0.5880679,-0.15317772,0.5973125,-0.7872448,,-0.11761199,0.23684597,-0.12252842,-0.6940422,-0.4236775,0.58206767,0.7143683,-0.50562376,0.4837588,0.089349486,0.75155973,0.65358603,,-0.05711602,0.40344137,-0.43042937,-0.24392286,0.7845962,-0.5700092,-0.9694875,-0.18248823,0.16368261,0.024404787,0.5925427,0.8051693,,1.0791824145770073,0.4887872090754177,0.21071193950000003,3.361120104113441,0.006558551988741141,-0.8025325631493156,-0.42502126008139474,,-1.372932004913885,0.1609803667632099,0.12892641082,0.2728066164733662,0.304016211978105,-0.4213088010429513,0.8763409148104082,,-0.11698505643804993,-0.12851077448590748,0.09694439508,-0.1167695939710949,,1.9833446e-05,2.3841858e-07,-1.0728836e-05,1.0,-9.506941e-06,-7.227063e-06,9.514391e-06,1.0,-1.8775463e-06,7.197261e-06,1.8179417e-06,1.0,351,1.093,1,1,1.069,False,-0.262797343831195,1.0506737121774343
1.0944575890898705,17:04:39.254379,17:03:23.471996,0,,0.11159189,-0.009617902,0.02232854,0.69607866,0.57705975,-0.42717266,0.5270378,-0.006657541,0.8498156,0.48755047,-0.8166748,-0.30876654,,0.016865421,-0.03738092,0.062939584,0.31823102,-0.6611385,0.6794297,-0.61866903,0.39820716,0.67725873,-0.71831566,-0.6358671,-0.2823043,,0.09846171,1.2953951,0.4271103,0.9826101,0.0074593867,-0.18553111,-0.104947686,-0.8019739,-0.5880679,-0.15317772,0.5973125,-0.7872448,,-0.11751224,0.23608159,-0.122567415,-0.69188434,-0.42180702,0.585982,0.7163593,-0.5023716,0.48420247,0.09014073,0.7547858,0.64974844,,-0.057175633,0.40352204,-0.43040532,-0.24228431,0.7843135,-0.57109594,-0.96991277,-0.18134975,0.16242379,0.023823064,0.593266,0.8046539,,1.077460245146055,0.4852424746861486,0.21070156918000002,3.359023204678596,0.004372367992494094,-0.8095711806253536,-0.4243678838168574,,-1.3736502190711877,0.1615209580644056,0.12894455888,0.2746938259647269,0.3023765739809197,-0.42119696730070266,0.876830947008811,,-0.11698505643804993,-0.12851077448590748,0.09694439508,-0.1167695939710949,,1.9833446e-05,2.3841858e-07,-1.0728836e-05,1.0,-9.506941e-06,-7.227063e-06,9.514391e-06,1.0,-1.8775463e-06,7.197261e-06,1.8179417e-06,1.0,360,1.122,1,1,1.098,False,-0.26196325577190027,1.0503840309727575
1.1387487170286477,17:04:39.285152,17:03:23.471996,0,,0.11158794,-0.009943262,0.022070631,0.69516623,0.5792053,-0.4257524,0.52650875,-0.007012546,0.85014063,0.4894203,-0.81515163,-0.30983165,,0.016892534,-0.037334546,0.06298721,0.3183754,-0.6608996,0.6795946,-0.6187092,0.39828226,0.6771779,-0.7182172,-0.63606834,-0.28210157,,0.09846171,1.2953951,0.4271103,0.9826101,0.0074593867,-0.18553111,-0.104947686,-0.8019739,-0.5880679,-0.15317772,0.5973125,-0.7872448,,-0.117507875,0.23566645,-0.122562386,-0.6913914,-0.4242126,0.5848262,0.71707904,-0.50171965,0.48381302,0.08817918,0.7538707,0.6510786,,-0.057206582,0.40358597,-0.43039495,-0.24244548,0.7841171,-0.5712973,-0.9698742,-0.18147476,0.1625146,0.02375444,0.5934874,0.80449265,,1.0759156985712102,0.4828252592965164,0.21072749498,3.3581844449046576,0.0006831824988272023,-0.8098300468311728,-0.4243678838168574,,-1.3741290285093897,0.1619225401738653,0.12894844775,0.2746938259647269,0.30183002798185793,-0.42115968938661974,0.8760142266781397,,-0.11698505643804993,-0.12851077448590748,0.09694439508,-0.1167695939710949,,1.9833446e-05,2.3841858e-07,-1.0728836e-05,1.0,-9.506941e-06,-7.227063e-06,9.514391e-06,1.0,-1.8775463e-06,7.197261e-06,1.8179417e-06,1.0,383,1.195,1,1,1.171,False,-0.2631548101423209,1.050963393382111
1.1694984920322895,17:04:39.355988,17:03:23.471996,0,,0.111765735,-0.010263406,0.021778539,0.6918524,0.5829109,-0.42609274,0.5287792,-0.007205248,0.8487287,0.4916631,-0.8125042,-0.31321627,,0.016900156,-0.037318096,0.063005924,0.3183583,-0.6607917,0.6797074,-0.61887133,0.39826128,0.6770422,-0.718085,-0.6361936,-0.28215545,,0.09846171,1.2953951,0.4271103,0.9826101,0.0074593867,-0.18553111,-0.104947686,-0.8019739,-0.5880679,-0.15317772,0.5973125,-0.7872448,,-0.1176741,0.23523493,-0.1224877,-0.68824,-0.42831317,0.58555406,0.72023994,-0.5002502,0.48062888,0.08706386,0.7525274,0.6527805,,-0.0572159,0.4036102,-0.43039277,-0.24246247,0.78402984,-0.57140976,-0.96987504,-0.18159255,0.16237788,0.023545345,0.5935666,0.8044404,,1.0742707564690004,0.48192169955023206,0.2107897169,3.3550390957523897,-0.0010930919981235235,-0.8087900077838222,-0.4251846041475289,,-1.3742989286326226,0.16209244029709824,0.12894715146000002,0.2746938259647269,0.3014201184825616,-0.4211521506360928,0.8766676029426768,,-0.11698505643804993,-0.12851077448590748,0.09694439508,-0.1167695939710949,,1.9833446e-05,2.3841858e-07,-1.0728836e-05,1.0,-9.506941e-06,-7.227063e-06,9.514391e-06,1.0,-1.8775463e-06,7.197261e-06,1.8179417e-06,1.0,392,1.224,1,1,1.2,False,-0.26309523242380006,1.0503840309727575
1.2403577549848706,17:04:39.393968,17:03:23.601053,0,,0.111889265,-0.010141872,0.021743938,0.6907803,0.58394957,-0.42640987,0.5292622,-0.006547928,0.84843296,0.49264997,-0.8117636,-0.3135857,,0.016891282,-0.03732042,0.062999904,0.3180918,-0.66070855,0.67991304,-0.61897063,0.3984912,0.6768161,-0.71811754,-0.63613594,-0.2822026,,0.09846171,1.2953951,0.4271103,0.9826101,0.0074593867,-0.18553111,-0.104947686,-0.8019739,-0.5880679,-0.15317772,0.5973125,-0.7872448,,-0.11777202,0.23531035,-0.1223614,-0.6873001,-0.42936543,0.5858873,0.7212226,-0.49927562,0.48016852,0.08635149,0.75257504,0.6528202,,-0.05720637,0.40360484,-0.43039227,-0.2422025,0.783956,-0.57162136,-0.9699424,-0.1814083,0.16218142,0.023446243,0.5937205,0.8043297,,1.073985015352654,0.4825317954472958,0.21090379042000001,3.3537809560914824,-0.0010930919981235235,-0.808790007783822,-0.42485791601526035,,-1.3742062558381318,0.16210016302997246,0.12894585517,0.27490351590821144,0.3012834819827962,-0.42136744769295864,0.8760142266781397,,-0.11698505643804993,-0.12851077448590748,0.09694439508,-0.1167695939710949,,1.9833446e-05,2.3841858e-07,-1.0728836e-05,1.0,-9.506941e-06,-7.227063e-06,9.514391e-06,1.0,-1.8775463e-06,7.197261e-06,1.8179417e-06,1.0,406,1.269,1,1,1.245,False,-0.26309523242380006,1.0508668329805522
1.2783400409389287,17:04:39.435206,17:03:23.601053,0,,0.11194038,-0.009980485,0.021721885,0.6911842,0.58412665,-0.42551175,0.5283577,-0.0067367554,0.8489951,0.4930541,-0.8116346,-0.31328422,,0.016878378,-0.03731619,0.06299549,0.3175262,-0.660906,0.67998546,-0.6193034,0.39849845,0.6765073,-0.7180809,-0.6359263,-0.28276786,,0.09846171,1.2953951,0.4271103,0.9826101,0.0074593867,-0.18553111,-0.104947686,-0.8019739,-0.5880679,-0.15317772,0.5973125,-0.7872448,,-0.11779606,0.23542486,-0.1222371,-0.68788743,-0.42958626,0.58503544,0.7207532,-0.49934623,0.48079956,0.085590355,0.7524021,0.6531197,,-0.057192635,0.4036052,-0.43038833,-0.24167725,0.7841165,-0.5716235,-0.9700822,-0.18122754,0.1615457,0.02307672,0.59356374,0.80445606,,1.0741626382087612,0.48310327767998845,0.21102175281000002,3.3544100259219363,-0.0013663649976544045,-0.808240457015867,-0.42485791601526035,,-1.374105860310767,0.16220055855733737,0.12894455888,0.2753228957951805,0.3007369359837344,-0.42116681229859454,0.8765042588765424,,-0.11698505643804993,-0.12851077448590748,0.09694439508,-0.1167695939710949,,1.9833446e-05,2.3841858e-07,-1.0728836e-05,1.0,-9.506941e-06,-7.227063e-06,9.514391e-06,1.0,-1.8775463e-06,7.197261e-06,1.8179417e-06,1.0,429,1.343,1,1,1.319,False,-0.2631548101423209,1.0505771517758753
1.319533188128844,17:04:39.506544,17:03:23.601053,0,,0.111942805,-0.009855203,0.021661237,0.6907973,0.5843477,-0.4258365,0.52856463,-0.006248474,0.8488699,0.49337432,-0.81147945,-0.31318212,,0.016926683,-0.03721188,0.06300533,0.31751457,-0.6605643,0.68032277,-0.6193266,0.39882794,0.6762919,-0.7180661,-0.63607466,-0.2824716,,0.09846171,1.2953951,0.4271103,0.9826101,0.0074593867,-0.18553111,-0.104947686,-0.8019739,-0.5880679,-0.15317772,0.5973125,-0.7872448,,-0.11777084,0.23548713,-0.12211518,-0.68753755,-0.42976233,0.58531743,0.72111183,-0.49886426,0.48076203,0.08538052,0.7526213,0.6528946,,-0.057233892,0.40367547,-0.43030667,-0.24166997,0.78382957,-0.57202,-0.9700847,-0.18115784,0.16160883,0.023047864,0.59396386,0.8041615,,1.0744174883936106,0.4833426823990894,0.21114360407000002,3.3537809560914824,-0.0013663649976544045,-0.808240457015867,-0.42485791601526035,,-1.3740749693792702,0.1626484770640424,0.12894455888,0.2753228957951805,0.3001903899846727,-0.42186464304577675,0.8761775707442738,,-0.11698505643804993,-0.12851077448590748,0.09694439508,-0.1167695939710949,,1.9833446e-05,2.3841858e-07,-1.0728836e-05,1.0,-9.506941e-06,-7.227063e-06,9.514391e-06,1.0,-1.8775463e-06,7.197261e-06,1.8179417e-06,1.0,443,1.388,1,1,1.364,False,-0.2632143878608417,1.0506737121774343
1.390916591975838,17:04:39.553700,17:03:23.767012,0,,0.11186376,-0.009841435,0.021593899,0.6887287,0.5861907,-0.42665336,0.53061634,-0.0065250695,0.8475869,0.49406368,-0.8101468,-0.31553638,,0.016881771,-0.037178554,0.06301582,0.31733778,-0.660597,0.68037355,-0.6191533,0.39910454,0.67628735,-0.71829367,-0.63586724,-0.28236008,,0.09847485,1.2953912,0.427102,0.98260915,0.0074523543,-0.18553627,-0.10495631,-0.80197394,-0.5880663,-0.15317772,0.5973125,-0.7872448,,-0.1176938,0.23545924,-0.122078545,-0.685355,-0.4318286,0.5863553,0.7231589,-0.49826294,0.47830454,0.08561355,0.7518365,0.6537677,,-0.057202987,0.40370992,-0.43030167,-0.24145238,0.7838505,-0.5720832,-0.970133,-0.18082452,0.16169247,0.023296056,0.5940378,0.80409974,,1.0741085790786418,0.4831187231457369,0.21115915955000003,3.350845296882699,-0.0010930919981235235,-0.8071564329810108,-0.4251846041475288,,-1.3739822965847794,0.16301916824200519,0.12893418856000002,0.275532585738665,0.30005375348490726,-0.42207994010264255,0.8761775707442738,,-0.11698505643804993,-0.12851077448590748,0.09694439508,-0.1167695939710949,,3.4436584e-05,-1.5497208e-06,-4.2915344e-06,1.0,-1.6413629e-05,-1.2472272e-05,1.642108e-05,1.0,-3.1888485e-06,1.244247e-05,3.1590462e-06,1.0,452,1.417,1,1,1.393,False,-0.2631548101423209,1.05014262996886
1.4380581800360233,17:04:39.587006,17:03:23.767012,0,,0.1118927,-0.009916447,0.021529824,0.6849002,0.5878696,-0.43048906,0.5350761,-0.0047641397,0.8447904,0.49457574,-0.80894166,-0.31781793,,0.01686434,-0.037167735,0.06301099,0.31562287,-0.6616633,0.6801351,-0.62077844,0.39811474,0.6753803,-0.71764624,-0.63537884,-0.2850924,,0.09847485,1.2953912,0.427102,0.98260915,0.0074523543,-0.18553627,-0.10495631,-0.80197394,-0.5880663,-0.15317772,0.5973125,-0.7872448,,-0.1177211,0.23536079,-0.12206721,-0.6811028,-0.4334358,0.59011215,0.72699773,-0.49612924,0.47468945,0.0870245,0.7523225,0.6530219,,-0.057184245,0.40371448,-0.43029323,-0.23999391,0.78474486,-0.5714704,-0.97053915,-0.18099809,0.15903917,0.021370137,0.5928028,0.8050641,,1.0736761060376852,0.482848427495139,0.21117082616000002,3.3453933583521014,0.0004099094992963213,-0.8079736362209686,-0.42469457194912597,,-1.3738819010574146,0.1633126320912257,0.12893029969,0.27658103545608764,0.29759429648912933,-0.4204011327966692,0.8755241944797367,,-0.11698505643804993,-0.12851077448590748,0.09694439508,-0.1167695939710949,,3.4436584e-05,-1.5497208e-06,-4.2915344e-06,1.0,-1.6413629e-05,-1.2472272e-05,1.642108e-05,1.0,-3.1888485e-06,1.244247e-05,3.1590462e-06,1.0,466,1.462,1,1,1.438,False,-0.26339312101640555,1.0505771517758753
1.4713736269623041,17:04:39.625966,17:03:23.767012,0,,0.111927986,-0.009960897,0.021464676,0.6820697,0.5903116,-0.4316398,0.53750813,-0.004470855,0.8432467,0.49584848,-0.8071631,-0.32034677,,0.016853247,-0.037153758,0.06301737,0.3156072,-0.6614564,0.68034357,-0.62076616,0.3983448,0.67525595,-0.71766376,-0.63545007,-0.28488952,,0.09847485,1.2953912,0.427102,0.98260915,0.0074523543,-0.18553627,-0.10495631,-0.80197394,-0.5880663,-0.15317772,0.5973125,-0.7872448,,-0.117750235,0.23528588,-0.12203549,-0.67823225,-0.43608665,0.5914638,0.7296958,-0.49480724,0.47192138,0.08686196,0.751661,0.65380484,,-0.05717331,0.40372914,-0.43028823,-0.23997469,0.78457034,-0.57171804,-0.9705435,-0.18092214,0.15909894,0.021387866,0.5930569,0.8048764,,1.0733054148597223,0.48260902277603807,0.21120452970000003,3.3411995594824107,0.0002732729995308809,-0.8068820734355855,-0.42551129227979745,,-1.373858732858792,0.1634748094815844,0.12892900340000002,0.27658103545608764,0.29745765998936385,-0.42077978733381616,0.8761775707442738,,-0.11698505643804993,-0.12851077448590748,0.09694439508,-0.1167695939710949,,3.4436584e-05,-1.5497208e-06,-4.2915344e-06,1.0,-1.6413629e-05,-1.2472272e-05,1.642108e-05,1.0,-3.1888485e-06,1.244247e-05,3.1590462e-06,1.0,475,1.49,1,1,1.466,False,-0.26232072208302704,1.0502391903704191
1.5103207810316235,17:04:39.657326,17:03:23.767012,0,,0.11193396,-0.0100046545,0.021340668,0.6792759,0.5925166,-0.43302214,0.540865,-0.0053753257,0.8410922,0.49603355,-0.8055403,-0.32412282,,0.016845487,-0.037140258,0.06302148,0.31576946,-0.6614378,0.6802864,-0.6207864,0.39820272,0.67532116,-0.7175749,-0.6355585,-0.2848716,,0.09847485,1.2953912,0.427102,0.98260915,0.0074523543,-0.18553627,-0.10495631,-0.80197394,-0.5880663,-0.15317772,0.5973125,-0.7872448,,-0.117740475,0.23517556,-0.121964306,-0.67508245,-0.43864244,0.59317493,0.73246324,-0.49452972,0.46790808,0.08809827,0.75035536,0.6551378,,-0.057165343,0.40374157,-0.43028173,-0.24015035,0.7845591,-0.57165974,-0.97050107,-0.18109724,0.15915878,0.021343466,0.5930184,0.80490595,,1.0730042282776275,0.4822074406665784,0.21127712194000003,3.337634830443174,0.0013663649976544045,-0.8050780182405182,-0.4245312278829917,,-1.3738510101259176,0.16361381867332045,0.12893029969,0.27637134551260306,0.29732102348959843,-0.42083172691040094,0.8761775707442739,,-0.11698505643804993,-0.12851077448590748,0.09694439508,-0.1167695939710949,,3.4436584e-05,-1.5497208e-06,-4.2915344e-06,1.0,-1.6413629e-05,-1.2472272e-05,1.642108e-05,1.0,-3.1888485e-06,1.244247e-05,3.1590462e-06,1.0,489,1.535,1,1,1.511,False,-0.2636910096090097,1.0501909101696396
1.5416992721147835,17:04:39.703615,17:03:23.767012,0,,0.11192803,-0.010080412,0.021024376,0.6704271,0.5996314,-0.43700063,0.55008835,-0.0064421296,0.8350816,0.49792606,-0.8002503,-0.33416927,,0.016841259,-0.03712801,0.06302869,0.31541038,-0.6615046,0.680388,-0.62075573,0.39847922,0.6751863,-0.7177594,-0.63531566,-0.2849485,,0.09847485,1.2953912,0.427102,0.98260915,0.0074523543,-0.18553627,-0.10495631,-0.80197394,-0.5880663,-0.15317772,0.5973125,-0.7872448,,-0.11769005,0.23492259,-0.121766165,-0.66552514,-0.44664627,0.5979828,0.74090916,-0.4921344,0.4570092,0.09016645,0.747202,0.6584521,,-0.057161435,0.4037552,-0.4302775,-0.23976468,0.7846059,-0.5717573,-0.97059464,-0.18072963,0.15900587,0.021423446,0.5930686,0.80486685,,1.0724250233120607,0.48118031719430654,0.21148712092000002,3.3252631237775874,0.00314263949460513,-0.8000738305174674,-0.4253479482136632,,-1.373866455591666,0.16374510513218227,0.12893029969,0.27679072539957217,0.29718438698983296,-0.420801987746845,0.875687538545871,,-0.11698505643804993,-0.12851077448590748,0.09694439508,-0.1167695939710949,,3.4436584e-05,-1.5497208e-06,-4.2915344e-06,1.0,-1.6413629e-05,-1.2472272e-05,1.642108e-05,1.0,-3.1888485e-06,1.244247e-05,3.1590462e-06,1.0,498,1.564,1,1,1.54,False,-0.26339312101640555,1.0502874705711984
1.5879883531015366,17:04:39.737309,17:03:23.948371,0,,0.111921355,-0.010170884,0.020784706,0.66453695,0.60478055,-0.43889743,0.5564675,-0.008508682,0.83082575,0.4987329,-0.79634666,-0.34219512,,0.016841158,-0.0371264,0.063030005,0.31541818,-0.66150445,0.6803846,-0.62074274,0.39848405,0.6751954,-0.7177672,-0.6353128,-0.28493518,,0.09847485,1.2953912,0.427102,0.98260915,0.0074523543,-0.18553627,-0.10495631,-0.80197394,-0.5880663,-0.15317772,0.5973125,-0.7872448,,-0.1176542,0.23470467,-0.12163613,-0.659052,-0.4526281,0.60064816,0.7464448,-0.49138066,0.44873732,0.09203578,0.7440919,0.66170734,,-0.057161428,0.40375724,-0.43027708,-0.2397701,0.7846056,-0.57175547,-0.9705929,-0.18072438,0.15902218,0.021439547,0.59307057,0.804865,,1.0719076002094878,0.4802999256466449,0.21162712024000002,3.317085215981691,0.0046456409920249755,-0.7954185581680076,-0.4256746363459317,,-1.3738741783245403,0.16376055059793074,0.12893029969,0.27679072539957217,0.29718438698983296,-0.420801987746845,0.875687538545871,,-0.11698505643804993,-0.12851077448590748,0.09694439508,-0.1167695939710949,,3.4436584e-05,-1.5497208e-06,-4.2915344e-06,1.0,-1.6413629e-05,-1.2472272e-05,1.642108e-05,1.0,-3.1888485e-06,1.244247e-05,3.1590462e-06,1.0,512,1.609,1,1,1.585,False,-0.26243987752006825,1.0504805913743163
1.6216784289572388,17:04:39.776804,17:03:23.948371,0,,0.11192404,-0.010372333,0.020429224,0.66392356,0.6055064,-0.438825,0.5614283,-0.015977293,0.8273711,0.4939673,-0.79568005,-0.35055622,,0.016851146,-0.03714294,0.06301302,0.31361386,-0.6627475,0.6800089,-0.6226875,0.39711377,0.67421126,-0.7168727,-0.6348751,-0.2881444,,0.09847485,1.2953912,0.427102,0.98260915,0.0074523543,-0.18553627,-0.10495631,-0.80197394,-0.5880663,-0.15317772,0.5973125,-0.7872448,,-0.117622465,0.23432821,-0.12148053,-0.6569502,-0.45446873,0.6015602,0.74746734,-0.49689054,0.44089952,0.09853451,0.7392956,0.66613287,,-0.057169724,0.4037329,-0.43027762,-0.23828816,0.7856535,-0.57093555,-0.97100663,-0.18116564,0.15596506,0.019100593,0.59154683,0.8060444,,1.0708727540043417,0.47895617012652986,0.21179823052000002,3.3156173863772995,0.010111100982642594,-0.7898287892785752,-0.42551129227979745,,-1.373866455591666,0.16374510513218227,0.12893029969,0.27783917511699474,0.2945882934942896,-0.4186033688364724,0.8761775707442739,,-0.11698505643804993,-0.12851077448590748,0.09694439508,-0.1167695939710949,,3.4436584e-05,-1.5497208e-06,-4.2915344e-06,1.0,-1.6413629e-05,-1.2472272e-05,1.642108e-05,1.0,-3.1888485e-06,1.244247e-05,3.1590462e-06,1.0,521,1.638,1,1,1.614,False,-0.26309523242380006,1.0499495091657423
1.661168172955513,17:04:39.804529,17:03:23.948371,0,,0.11193846,-0.010568,0.0200589,0.6660276,0.6033218,-0.43864548,0.56575924,-0.025339723,0.824181,0.48613128,-0.7970952,-0.35821185,,0.016848586,-0.037138768,0.06301218,0.31334785,-0.66279715,0.68008304,-0.622844,0.3971595,0.6740397,-0.7168531,-0.63479465,-0.28837034,,0.09847485,1.2953912,0.427102,0.98260915,0.0074523543,-0.18553627,-0.10495631,-0.80197394,-0.5880663,-0.15317772,0.5973125,-0.7872448,,-0.11759882,0.23394729,-0.1213074,-0.657051,-0.4533667,0.60228115,0.74612284,-0.50517654,0.43370196,0.10763231,0.73434,0.67019403,,-0.05716675,0.40373507,-0.43027428,-0.23804152,0.78569263,-0.57098454,-0.9710706,-0.18107092,0.15567675,0.018925374,0.5915238,0.8060654,,1.0697606804704534,0.4777359783324024,0.21198748886000002,3.3175045958686598,0.01817265446880358,-0.7847223857565637,-0.4256746363459317,,-1.3738510101259176,0.16379916426230184,0.12893159598,0.27804886506047927,0.2943150204947587,-0.4185438905093607,0.8755241944797367,,-0.11698505643804993,-0.12851077448590748,0.09694439508,-0.1167695939710949,,3.4436584e-05,-1.5497208e-06,-4.2915344e-06,1.0,-1.6413629e-05,-1.2472272e-05,1.642108e-05,1.0,-3.1888485e-06,1.244247e-05,3.1590462e-06,1.0,535,1.683,1,1,1.659,False,-0.2626781883941529,1.0505771517758753
1.6888465201482177,17:04:39.852970,17:03:23.948371,0,,0.112030014,-0.010943562,0.019397587,0.6789957,0.5911044,-0.43538517,0.5653126,-0.04260695,0.8237756,0.468387,-0.805469,-0.3630887,,0.016839508,-0.037121333,0.063019335,0.3135704,-0.662725,0.6800508,-0.6227336,0.39713344,0.6741571,-0.71685165,-0.6348864,-0.288172,,0.09847485,1.2953912,0.427102,0.98260915,0.0074523543,-0.18553627,-0.10495631,-0.80197394,-0.5880663,-0.15317772,0.5973125,-0.7872448,,-0.11762431,0.23324645,-0.12099924,-0.66667634,-0.44234633,0.5998936,0.7349692,-0.52399033,0.43041193,0.12394732,0.72784877,0.6744429,,-0.057157677,0.4037524,-0.43026683,-0.23825236,0.78563464,-0.5709764,-0.9710165,-0.18116346,0.15590607,0.019045155,0.5915725,0.8060268,,1.0673898014780663,0.4756276722577391,0.21232193168000002,3.333860411460453,0.03224621394464395,-0.7809245054310099,-0.42485791601526024,,-1.3738510101259176,0.1639690643855348,0.12893289227000002,0.27783917511699474,0.2943150204947587,-0.4187072479896419,0.8758508826120054,,-0.11698505643804993,-0.12851077448590748,0.09694439508,-0.1167695939710949,,3.4436584e-05,-1.5497208e-06,-4.2915344e-06,1.0,-1.6413629e-05,-1.2472272e-05,1.642108e-05,1.0,-3.1888485e-06,1.244247e-05,3.1590462e-06,1.0,544,1.711,1,1,1.687,False,-0.2630356547052788,1.0502391903704191
1.7372508270200342,17:04:39.880161,17:03:23.948371,0,,0.112109765,-0.011129469,0.018988937,0.6863157,0.5843593,-0.43300676,0.56390285,-0.05153966,0.82423127,0.45933014,-0.8098568,-0.3648944,,0.01684381,-0.037108846,0.06301719,0.31074777,-0.66407496,0.6800296,-0.62445325,0.39674848,0.67279166,-0.71658486,-0.63371533,-0.29139522,,0.09847485,1.2953912,0.427102,0.98260915,0.0074523543,-0.18553627,-0.10495631,-0.80197394,-0.5880663,-0.15317772,0.5973125,-0.7872448,,-0.11765638,0.23285,-0.120776266,-0.67243373,-0.4362212,0.59794974,0.7283412,-0.533758,0.42967603,0.13172665,0.7244401,0.6766348,,-0.057160612,0.4037584,-0.43025523,-0.23564921,0.7867421,-0.57053167,-0.9716877,-0.18040594,0.15256731,0.017103817,0.5903309,0.8069801,,1.0659610958963348,0.4744383713951085,0.21255915275,3.3435061488607407,0.03880476593338509,-0.7792481931563499,-0.4253479482136632,,-1.3738896237902887,0.16423163730325843,0.12893678114,0.2801457644953246,0.2915822904994499,-0.4165605686558541,0.8760142266781397,,-0.11698505643804993,-0.12851077448590748,0.09694439508,-0.1167695939710949,,3.4436584e-05,-1.5497208e-06,-4.2915344e-06,1.0,-1.6413629e-05,-1.2472272e-05,1.642108e-05,1.0,-3.1888485e-06,1.244247e-05,3.1590462e-06,1.0,558,1.757,1,1,1.733,False,-0.2626186106756321,1.0508668329805522
1.7644079350866377,17:04:39.920697,17:03:24.123578,0,,0.11220007,-0.011543535,0.018425018,0.700747,0.5717396,-0.42669338,0.5600897,-0.070443004,0.8254315,0.4418744,-0.8174054,-0.36958826,,0.01683537,-0.03707934,0.063016,0.30972755,-0.6645456,0.68003523,-0.6266509,0.3952301,0.671641,-0.7151065,-0.63417053,-0.2940247,,0.09847485,1.2953912,0.427102,0.98260915,0.0074523543,-0.18553627,-0.10495631,-0.80197394,-0.5880663,-0.15317772,0.5973125,-0.7872448,,-0.11770284,0.23217806,-0.12056662,-0.68399465,-0.42517474,0.59277123,0.71469885,-0.5533656,0.42777574,0.14613974,0.7162492,0.682371,,-0.057149895,0.40377694,-0.43023327,-0.23505309,0.7871649,-0.5701942,-0.9718768,-0.18168634,0.14981832,0.014335228,0.58937377,0.8077333,,1.0636056623696963,0.4723841244505648,0.21279767011000003,3.362797623661317,0.051102050912274724,-0.7735118076418992,-0.42420453975072314,,-1.3739282374546598,0.16467955580996343,0.12894326259000002,0.2801457644953246,0.2883030145050794,-0.4154384350298106,0.8761775707442738,,-0.11698505643804993,-0.12851077448590748,0.09694439508,-0.1167695939710949,,3.4436584e-05,-1.5497208e-06,-4.2915344e-06,1.0,-1.6413629e-05,-1.2472272e-05,1.642108e-05,1.0,-3.1888485e-06,1.244247e-05,3.1590462e-06,1.0,567,1.785,1,1,1.761,False,-0.2629164992682367,1.050963393382111
1.8050686491187662,17:04:39.952430,17:03:24.123578,0,,0.112280264,-0.011934474,0.01771757,0.7157877,0.5572265,-0.4208877,0.5591071,-0.09619546,0.8234959,0.4183863,-0.82476974,-0.38040486,,0.01680201,-0.037002333,0.06303954,0.30830216,-0.6645652,0.68066335,-0.62719095,0.39597845,0.6706955,-0.71524906,-0.6336829,-0.2947285,,0.09847485,1.2953912,0.427102,0.98260915,0.0074523543,-0.18553627,-0.10495631,-0.80197394,-0.5880663,-0.15317772,0.5973125,-0.7872448,,-0.117711335,0.23143688,-0.12023445,-0.6947163,-0.41324592,0.58872503,0.6996206,-0.5782914,0.4196547,0.16703403,0.70342505,0.6908638,,-0.05711512,0.4038467,-0.4301943,-0.23366843,0.787161,-0.5707684,-0.9722187,-0.18083385,0.14862676,0.013778945,0.5896411,0.8075478,,1.0611034969184476,0.47028354110877574,0.21317229792000003,3.382718168292347,0.07009452437967095,-0.7626983419304407,-0.4240411956845888,,-1.3739205147217857,0.16550588822750548,0.12895363291,0.2814039041562317,0.2866633765078941,-0.4156533162481242,0.8760142266781396,,-0.11698505643804993,-0.12851077448590748,0.09694439508,-0.1167695939710949,,3.4436584e-05,-1.5497208e-06,-4.2915344e-06,1.0,-1.6413629e-05,-1.2472272e-05,1.642108e-05,1.0,-3.1888485e-06,1.244247e-05,3.1590462e-06,1.0,581,1.83,1,1,1.806,False,-0.2632143878608417,1.0509151131813312
1.836786329979077,17:04:39.996230,17:03:24.123578,0,,0.11237027,-0.012289196,0.017157406,0.7389845,0.5356032,-0.40869415,0.5458139,-0.12033215,0.82922083,0.39495432,-0.8358525,-0.38126332,,0.016764168,-0.036923803,0.06307161,0.3083741,-0.6648242,0.6803779,-0.6269156,0.3959042,0.67099667,-0.7154593,-0.63345766,-0.29470226,,0.09847485,1.2953912,0.427102,0.98260915,0.0074523543,-0.18553627,-0.10495631,-0.80197394,-0.5880663,-0.15317772,0.5973125,-0.7872448,,-0.11775007,0.23081428,-0.11999248,-0.71507853,-0.39351624,0.5777609,0.6748375,-0.60421896,0.42369062,0.18236494,0.6928668,0.69762355,,-0.05707721,0.40392435,-0.43016014,-0.23368405,0.7873733,-0.57046914,-0.9722099,-0.18068832,0.1488613,0.014132304,0.58940226,0.8077161,,1.0588175679876772,0.46845325341758454,0.21344970398000002,3.4160588693063865,0.08348490135668411,-0.7558930098821881,-0.4238778516184546,,-1.3739282374546598,0.16629360698067636,0.12896011436000002,0.2814039041562317,0.2862534670085977,-0.4155640987574567,0.8765042588765425,,-0.11698505643804993,-0.12851077448590748,0.09694439508,-0.1167695939710949,,3.4436584e-05,-1.5497208e-06,-4.2915344e-06,1.0,-1.6413629e-05,-1.2472272e-05,1.642108e-05,1.0,-3.1888485e-06,1.244247e-05,3.1590462e-06,1.0,590,1.859,1,1,1.835,False,-0.26243987752006825,1.0508668329805522
1.8805906830821186,17:04:40.024184,17:03:24.123578,0,,0.112472594,-0.012457974,0.016837,0.7589501,0.5163932,-0.39665174,0.5300429,-0.13611439,0.8369751,0.3782183,-0.84546494,-0.37701464,,0.016747668,-0.036885954,0.063093364,0.30867615,-0.6647876,0.68027663,-0.6266419,0.39591882,0.6712436,-0.71556884,-0.6334869,-0.2943733,,0.09847485,1.2953912,0.427102,0.98260915,0.0074523543,-0.18553627,-0.10495631,-0.80197394,-0.5880663,-0.15317772,0.5973125,-0.7872448,,-0.11781718,0.23048528,-0.11982255,-0.73379034,-0.3752584,0.5663329,0.65216964,-0.62262505,0.43244976,0.19033262,0.68667257,0.70160836,,-0.057061672,0.40396643,-0.4301473,-0.2339426,0.7873432,-0.5704047,-0.9721429,-0.18070428,0.14927882,0.014459092,0.58943754,0.80768454,,1.0573193578100777,0.4675960300685456,0.21363507345000002,3.4462542211681577,0.09045336284472158,-0.7530807339960871,-0.4238778516184547,,-1.3739745738519051,0.16667202089151337,0.12896011436000002,0.28119421421274715,0.2862534670085977,-0.41572745623773777,0.8761775707442739,,-0.11698505643804993,-0.12851077448590748,0.09694439508,-0.1167695939710949,,3.4436584e-05,-1.5497208e-06,-4.2915344e-06,1.0,-1.6413629e-05,-1.2472272e-05,1.642108e-05,1.0,-3.1888485e-06,1.244247e-05,3.1590462e-06,1.0,604,1.904,1,1,1.88,False,-0.2620824112089424,1.05105995378367
1.9085324469488114,17:04:40.064763,17:03:24.295728,0,,0.11234577,-0.012873083,0.016461879,0.7849295,0.47111446,-0.4024136,0.5311023,-0.17711699,0.828589,0.31908602,-0.8641069,-0.38923433,,0.016750678,-0.036881335,0.06309861,0.30866593,-0.6647694,0.6802991,-0.62670356,0.39589116,0.6712024,-0.7155193,-0.63352334,-0.29441544,,0.09847485,1.2953912,0.427102,0.98260915,0.0074523543,-0.18553627,-0.10495631,-0.80197394,-0.5880663,-0.15317772,0.5973125,-0.7872448,,-0.11768481,0.22992727,-0.1198074,-0.7487084,-0.33343938,0.57293445,0.61698633,-0.6665733,0.41833946,0.24241197,0.666707,0.70479655,,-0.057065144,0.40397316,-0.43014652,-0.23394531,0.78732914,-0.570423,-0.9721434,-0.18075125,0.1492185,0.014379409,0.58944196,0.80768275,,1.055272833598408,0.4671249433632179,0.21374007294000003,3.4854662405997634,0.14538123575042863,-0.7408589706639361,-0.4413556666948224,,-1.3740286329820248,0.16671835728875872,0.12896011436000002,0.28119421421274715,0.2861168305088323,-0.41569771707418196,0.8760142266781397,,-0.11698505643804993,-0.12851077448590748,0.09694439508,-0.1167695939710949,,3.4436584e-05,-1.5497208e-06,-4.2915344e-06,1.0,-1.6413629e-05,-1.2472272e-05,1.642108e-05,1.0,-3.1888485e-06,1.244247e-05,3.1590462e-06,1.0,627,1.978,0,1,1.895,False,-0.26106958999408425,1.0505771517758753
1.949107648106292,17:04:40.142337,17:03:24.295728,0,,0.11118278,-0.015796535,0.013674229,0.82312864,0.41405004,-0.388615,0.51707095,-0.26362374,0.81433415,0.2347269,-0.87124336,-0.43108964,,0.016757462,-0.03691361,0.06307143,0.30722195,-0.6658293,0.67991614,-0.6285818,0.39444357,0.6702976,-0.7144924,-0.6333133,-0.29734665,,0.09847485,1.2953912,0.427102,0.98260915,0.0074523543,-0.18553627,-0.10495631,-0.80197394,-0.5880663,-0.15317772,0.5973125,-0.7872448,,-0.11646408,0.22590803,-0.11964746,-0.7732154,-0.28832006,0.56480926,0.5544797,-0.7395818,0.38153762,0.3077177,0.608186,0.7317237,,-0.057069812,0.40393123,-0.43015328,-0.23283447,0.78822815,-0.56963545,-0.9724415,-0.18143056,0.14642565,0.012067544,0.5880301,0.808749,,1.0483455422102288,0.44958661700585406,0.21436618101000002,3.5515185727973893,0.19675655966223426,-0.6972344615266218,-0.43482190404945137,,-1.373935960187534,0.1665561798984,0.12895752178,0.28182328404320073,0.2837940100128198,-0.4138036127113427,0.8763409148104082,,-0.11698505643804993,-0.12851077448590748,0.09694439508,-0.1167695939710949,,3.4436584e-05,-1.5497208e-06,-4.2915344e-06,1.0,-1.6413629e-05,-1.2472272e-05,1.642108e-05,1.0,-3.1888485e-06,1.244247e-05,3.1590462e-06,1.0,636,2.006,0,1,1.895,False,-0.2611887454311268,1.0503840309727575
2.0266749451402575,17:04:40.174389,17:03:24.295728,0,,0.11102423,-0.017341115,0.011961311,0.84067327,0.383802,-0.38205272,0.49844885,-0.2725998,0.82294476,0.21170035,-0.8822615,-0.42047304,,0.01676381,-0.03691814,0.06306499,0.30604053,-0.66687006,0.67942876,-0.62995106,0.3932362,0.6697215,-0.71379316,-0.6329689,-0.29974946,,0.09847485,1.2953912,0.427102,0.98260915,0.0074523543,-0.18553627,-0.10495631,-0.80197394,-0.5880663,-0.15317772,0.5973125,-0.7872448,,-0.11622206,0.2236389,-0.119276695,-0.7888609,-0.25812557,0.55773616,0.52571064,-0.75347346,0.39484945,0.31831867,0.6046891,0.73008513,,-0.057075344,0.40392292,-0.43015173,-0.23188992,0.7891046,-0.5688067,-0.9726865,-0.18185522,0.14425537,0.010392106,0.58672196,0.80972177,,1.0428083427394097,0.43994092364594767,0.21494951151000002,3.5852786536983974,0.20153883715402465,-0.7084034960285066,-0.4359653125123913,,-1.373966851119031,0.1666179617613938,0.12895752178,0.2824523538736543,0.28188109901610364,-0.41199872583917113,0.8755241944797367,,-0.11698505643804993,-0.12851077448590748,0.09694439508,-0.1167695939710949,,3.4436584e-05,-1.5497208e-06,-4.2915344e-06,1.0,-1.6413629e-05,-1.2472272e-05,1.642108e-05,1.0,-3.1888485e-06,1.244247e-05,3.1590462e-06,1.0,650,2.051,0,1,1.895,False,-0.2612483231496481,1.0501909101696396
2.0587613771203905,17:04:40.213005,17:03:24.295728,0,,0.1110508,-0.017933205,0.011139721,0.84998953,0.36607924,-0.37881854,0.49248087,-0.29688844,0.81811965,0.18702975,-0.88195425,-0.43263912,,0.016758658,-0.03690792,0.06306952,0.30508152,-0.66723245,0.6795043,-0.6303873,0.39332998,0.66925573,-0.7138185,-0.63252854,-0.3006174,,0.09847485,1.2953912,0.427102,0.98260915,0.0074523543,-0.18553627,-0.10495631,-0.80197394,-0.5880663,-0.15317772,0.5973125,-0.7872448,,-0.1161858,0.2226686,-0.11898775,-0.7944726,-0.24420021,0.55603915,0.5059498,-0.77256566,0.38361067,0.33589894,0.58609605,0.73733526,,-0.057070248,0.40393332,-0.43014753,-0.23097536,0.78939617,-0.5687742,-0.97290903,-0.18142961,0.1432874,0.009918045,0.5864614,0.80991644,,1.0397655859869652,0.4366201485100311,0.21535654657000003,3.605408888272912,0.21875503612447017,-0.6949980952070268,-0.43433187185104855,,-1.373966851119031,0.16678013915175252,0.12895622549000002,0.2832911136475924,0.281061280017511,-0.4114935758972738,0.8758508826120053,,-0.11698505643804993,-0.12851077448590748,0.09694439508,-0.1167695939710949,,3.4436584e-05,-1.5497208e-06,-4.2915344e-06,1.0,-1.6413629e-05,-1.2472272e-05,1.642108e-05,1.0,-3.1888485e-06,1.244247e-05,3.1590462e-06,1.0,659,2.08,0,1,1.895,False,-0.261427056305211,1.0502874705711984
2.0973736189771444,17:04:40.251752,17:03:24.475549,0,,0.11161022,-0.018000185,0.010249689,0.8580572,0.3435726,-0.38170093,0.48844552,-0.3164229,0.8132019,0.15861496,-0.88421404,-0.43932548,,0.016753059,-0.03689743,0.06307298,0.30510533,-0.6671589,0.6795658,-0.6303136,0.39344698,0.6692563,-0.71387345,-0.63253343,-0.30047682,,0.09847485,1.2953912,0.427102,0.98260915,0.0074523543,-0.18553627,-0.10495631,-0.80197394,-0.5880663,-0.15317772,0.5973125,-0.7872448,,-0.11658586,0.22207364,-0.11821601,-0.7979526,-0.22451565,0.55934286,0.48543382,-0.7894659,0.3756296,0.35724738,0.57125854,0.7389438,,-0.057064522,0.4039431,-0.4301426,-0.23098423,0.7893334,-0.56885767,-0.972906,-0.18136448,0.14339069,0.01001249,0.58656603,0.80983955,,1.0355026374403933,0.43644252565392394,0.21618617217000002,3.6255391228474263,0.24362287908178032,-0.6878320969925465,-0.43465855998331704,,-1.3739591283861567,0.16688053467911743,0.12895752178,0.2832911136475924,0.281061280017511,-0.4116569333775549,0.8761775707442738,,-0.11698505643804993,-0.12851077448590748,0.09694439508,-0.1167695939710949,,3.4436584e-05,-1.5497208e-06,-4.2915344e-06,1.0,-1.6413629e-05,-1.2472272e-05,1.642108e-05,1.0,-3.1888485e-06,1.244247e-05,3.1590462e-06,1.0,682,2.154,0,1,1.895,False,-0.26136747858668974,1.0501909101696396
2.1361206320580095,17:04:40.314820,17:03:24.475549,0,,0.11255652,-0.017698467,0.0091135055,0.8656019,0.31600094,-0.38842842,0.4836787,-0.3269325,0.81189287,0.129569,-0.89065063,-0.43583632,,0.016753275,-0.036883898,0.06307888,0.30515668,-0.667218,0.67948455,-0.6302248,0.39342254,0.6693543,-0.71392995,-0.63248616,-0.3004421,,0.09847485,1.2953912,0.427102,0.98260915,0.0074523543,-0.18553627,-0.10495631,-0.80197394,-0.5880663,-0.15317772,0.5973125,-0.7872448,,-0.1172703,0.22162142,-0.11694934,-0.8009125,-0.19793649,0.56511974,0.46395224,-0.8017727,0.37670788,0.37853336,0.5638986,0.73398286,,-0.05706468,0.40395623,-0.43013585,-0.23101881,0.78938204,-0.56877613,-0.97289664,-0.1813392,0.14348617,0.010123988,0.5865084,0.8098799,,1.0302048426886754,0.4378480630370328,0.21747857330000003,3.646717807139363,0.27067690603533756,-0.6913517679125305,-0.43580196844625707,,-1.3740054647834021,0.16698865293935658,0.12896141065000002,0.2832911136475924,0.281061280017511,-0.4115752546374143,0.8763409148104082,,-0.11698505643804993,-0.12851077448590748,0.09694439508,-0.1167695939710949,,3.4436584e-05,-1.5497208e-06,-4.2915344e-06,1.0,-1.6413629e-05,-1.2472272e-05,1.642108e-05,1.0,-3.1888485e-06,1.244247e-05,3.1590462e-06,1.0,691,2.183,0,1,1.895,False,-0.26148663402373185,1.0503840309727575
2.199119959026575,17:04:40.351789,17:03:24.475549,0,,0.112621844,-0.01790104,0.008528799,0.86508274,0.30892524,-0.39521742,0.48820028,-0.33741456,0.80486757,0.115291744,-0.8892225,-0.442709,,0.0167456,-0.036889203,0.06307167,0.30510455,-0.6671594,0.6795657,-0.6302639,0.3934912,0.6692771,-0.7139176,-0.6325054,-0.30043072,,0.09847485,1.2953912,0.427102,0.98260915,0.0074523543,-0.18553627,-0.10495631,-0.80197394,-0.5880663,-0.15317772,0.5973125,-0.7872448,,-0.11725997,0.22110435,-0.11660334,-0.79730946,-0.19271065,0.5719792,0.45882446,-0.8092208,0.36693576,0.39214504,0.5549994,0.73361975,,-0.05705634,0.40394792,-0.43013665,-0.23097253,0.7893326,-0.5688636,-0.9729081,-0.1813148,0.14343926,0.010077904,0.5865825,0.8098268,,1.0284595050591006,0.43638846652380436,0.21791412674000002,3.6490243965176927,0.2852970115102396,-0.6865293418792322,-0.435801968446257,,-1.3739127919889114,0.16695776200785967,0.12896011436000002,0.2832911136475924,0.281061280017511,-0.41173861211769547,0.8753608504136026,,-0.11698505643804993,-0.12851077448590748,0.09694439508,-0.1167695939710949,,3.4436584e-05,-1.5497208e-06,-4.2915344e-06,1.0,-1.6413629e-05,-1.2472272e-05,1.642108e-05,1.0,-3.1888485e-06,1.244247e-05,3.1590462e-06,1.0,705,2.228,0,1,1.895,False,-0.2623802998015474,1.0501909101696396
2.236163018969819,17:04:40.392513,17:03:24.475549,0,,0.112595364,-0.018521033,0.0076142848,0.86524004,0.3037178,-0.39889225,0.4902767,-0.3462183,0.799851,0.10482514,-0.8876308,-0.4484677,,0.016749002,-0.03688053,0.06307912,0.3051563,-0.66707945,0.67962086,-0.63019997,0.39358133,0.66928434,-0.713952,-0.63253343,-0.30028987,,0.09847485,1.2953912,0.427102,0.98260915,0.0074523543,-0.18553627,-0.10495631,-0.80197394,-0.5880663,-0.15317772,0.5973125,-0.7872448,,-0.117159635,0.22005515,-0.116270855,-0.7953613,-0.18910684,0.5758811,0.45408514,-0.8152356,0.3594407,0.4015061,0.54738426,0.7342774,,-0.05706025,0.40395892,-0.4301341,-0.23101297,0.78926545,-0.5689403,-0.97289765,-0.18128505,0.14354748,0.010156696,0.58668196,0.8097537,,1.0259496168749778,0.4323958136278303,0.21836912453000001,3.6517503657829917,0.29294865549710436,-0.6841924767714729,-0.4364553447107943,,-1.3739822965847794,0.1670272666037277,0.12896141065000002,0.2832911136475924,0.281061280017511,-0.411820290857836,0.8755241944797367,,-0.11698505643804993,-0.12851077448590748,0.09694439508,-0.1167695939710949,,3.4436584e-05,-1.5497208e-06,-4.2915344e-06,1.0,-1.6413629e-05,-1.2472272e-05,1.642108e-05,1.0,-3.1888485e-06,1.244247e-05,3.1590462e-06,1.0,714,2.256,0,1,1.895,False,-0.2618441003348577,1.0503840309727575
2.2768706979695708,17:04:40.421521,17:03:24.635202,0,,0.11255339,-0.019187205,0.007009074,0.8654912,0.30331713,-0.39865214,0.4906169,-0.35267448,0.796816,0.10109347,-0.8852228,-0.45404923,,0.016746514,-0.036878653,0.06307733,0.30514959,-0.6671001,0.6796037,-0.63019246,0.39357367,0.6692959,-0.7139615,-0.6325166,-0.30030274,,0.09847485,1.2953912,0.427102,0.98260915,0.0074523543,-0.18553627,-0.10495631,-0.80197394,-0.5880663,-0.15317772,0.5973125,-0.7872448,,-0.11710422,0.21915802,-0.11620838,-0.79491144,-0.19001351,0.5762037,0.45207876,-0.8188832,0.35363138,0.40464875,0.54159504,0.73684067,,-0.057057373,0.40395892,-0.43013194,-0.23100425,0.7892823,-0.56892043,-0.9728996,-0.18127544,0.14354634,0.0101672895,0.5866623,0.80976784,,1.0238104198688174,0.42870434731395096,0.21853245707000002,3.653008505443899,0.2941783839949933,-0.6813563371181341,-0.4362920006446599,,-1.3739591283861567,0.16704271206947616,0.12896270694,0.2832911136475924,0.281061280017511,-0.411820290857836,0.8755241944797367,,-0.11698505643804993,-0.12851077448590748,0.09694439508,-0.1167695939710949,,3.4436584e-05,-1.5497208e-06,-4.2915344e-06,1.0,-1.6413629e-05,-1.2472272e-05,1.642108e-05,1.0,-3.1888485e-06,1.244247e-05,3.1590462e-06,1.0,737,2.33,0,1,1.895,False,-0.26160578946077395,1.0501909101696396
2.3057881749700755,17:04:40.495823,17:03:24.635202,0,,0.112542465,-0.019496232,0.0068736672,0.86537683,0.29884577,-0.402261,0.49211907,-0.3553288,0.79470766,0.09456009,-0.88568205,-0.45456102,,0.016748164,-0.036867715,0.06308746,0.3050318,-0.6672135,0.6795452,-0.6300866,0.39365837,0.6693458,-0.7141052,-0.63234425,-0.30032423,,0.09847485,1.2953912,0.427102,0.98260915,0.0074523543,-0.18553627,-0.10495631,-0.80197394,-0.5880663,-0.15317772,0.5973125,-0.7872448,,-0.11711211,0.21883054,-0.116289884,-0.79346,-0.18593404,0.5795254,0.44928324,-0.82127506,0.3516417,0.4105676,0.53938466,0.735186,,-0.05705983,0.40397352,-0.43012962,-0.23085691,0.78937215,-0.56885564,-0.972933,-0.18108042,0.14356627,0.010318584,0.5866017,0.80980986,,1.0227832963965455,0.4275536601156915,0.21850134611000002,3.6544763350482903,0.3001903899846727,-0.6822564666138891,-0.4361286565785256,,-1.3740286329820248,0.16714310759684106,0.12896270694,0.28350080359107693,0.281061280017511,-0.41165693337755493,0.8758508826120053,,-0.11698505643804993,-0.12851077448590748,0.09694439508,-0.1167695939710949,,3.4436584e-05,-1.5497208e-06,-4.2915344e-06,1.0,-1.6413629e-05,-1.2472272e-05,1.642108e-05,1.0,-3.1888485e-06,1.244247e-05,3.1590462e-06,1.0,746,2.359,0,1,1.895,False,-0.2612483231496481,1.0501909101696396
2.380197144113481,17:04:40.525562,17:03:24.635202,0,,0.112583354,-0.019328274,0.0070109367,0.8653419,0.29912737,-0.40212706,0.4920162,-0.35428056,0.79523915,0.09541196,-0.88600683,-0.4537494,,0.016745422,-0.036868162,0.06308681,0.3047985,-0.6673099,0.6795553,-0.6301657,0.39369696,0.6692487,-0.7141351,-0.6322186,-0.30051777,,0.09847485,1.2953912,0.427102,0.98260915,0.0074523543,-0.18553627,-0.10495631,-0.80197394,-0.5880663,-0.15317772,0.5973125,-0.7872448,,-0.11715296,0.21904743,-0.11628709,-0.7935879,-0.18600953,0.5793261,0.44972134,-0.8206421,0.3525582,0.4098402,0.54032123,0.7349041,,-0.057057064,0.40397298,-0.43013,-0.23062852,0.7894493,-0.5688412,-0.972988,-0.18095198,0.14335524,0.010238723,0.58653754,0.80985737,,1.0231694330402568,0.42852672445784384,0.2184767166,3.654266645104806,0.30005375348490726,-0.6823900849306145,-0.4359653125123913,,-1.3740054647834021,0.1671585530625895,0.12896141065000002,0.28371049353456146,0.28092464351774554,-0.4115455154738584,0.8758508826120053,,-0.11698505643804993,-0.12851077448590748,0.09694439508,-0.1167695939710949,,3.4436584e-05,-1.5497208e-06,-4.2915344e-06,1.0,-1.6413629e-05,-1.2472272e-05,1.642108e-05,1.0,-3.1888485e-06,1.244247e-05,3.1590462e-06,1.0,760,2.404,0,1,1.895,False,-0.26101001227556386,1.0499977893665218
2.4099187590181828,17:04:40.574701,17:03:24.635202,0,,0.11259629,-0.018907651,0.007371098,0.86564994,0.29740942,-0.4027378,0.49140888,-0.3509021,0.7971103,0.09574649,-0.88792753,-0.44990817,,0.016747732,-0.036863662,0.06309205,0.30483088,-0.6671801,0.67966807,-0.6301288,0.3938291,0.66920555,-0.71415377,-0.6322732,-0.30035833,,0.09847485,1.2953912,0.427102,0.98260915,0.0074523543,-0.18553627,-0.10495631,-0.80197394,-0.5880663,-0.15317772,0.5973125,-0.7872448,,-0.11717091,0.21960045,-0.11631256,-0.7940292,-0.18354024,0.57950896,0.44944483,-0.8191401,0.356383,0.4092884,0.5434358,0.73291236,,-0.05705985,0.4039797,-0.4301294,-0.23065452,0.78934056,-0.5689815,-0.97298133,-0.18091968,0.14344105,0.010283889,0.58669376,0.8097436,,1.0245054658274977,0.4308203761214885,0.21839375404000003,3.6548957149352597,0.3008735724834999,-0.6842020947147609,-0.4356386243801228,,-1.3740518011806475,0.16719716672696064,0.12896141065000002,0.28371049353456146,0.28092464351774554,-0.4117088729541395,0.8761775707442738,,-0.11698505643804993,-0.12851077448590748,0.09694439508,-0.1167695939710949,,3.4436584e-05,-1.5497208e-06,-4.2915344e-06,1.0,-1.6413629e-05,-1.2472272e-05,1.642108e-05,1.0,-3.1888485e-06,1.244247e-05,3.1590462e-06,1.0,769,2.432,0,1,1.895,False,-0.25856732581620134,1.0505771517758753
2.459072954952717,17:04:40.604838,17:03:24.834827,0,,0.11254285,-0.018817104,0.0074663013,0.8656783,0.29706836,-0.4029285,0.49134478,-0.35015306,0.79747915,0.095819145,-0.8883374,-0.44908288,,0.016745023,-0.036860652,0.06309384,0.3047484,-0.6673156,0.6795721,-0.6302991,0.39361686,0.66917014,-0.7140387,-0.63226235,-0.30065453,,0.09847485,1.2953912,0.427102,0.98260915,0.0074523543,-0.18553627,-0.10495631,-0.80197394,-0.5880663,-0.15317772,0.5973125,-0.7872448,,-0.117123015,0.21973015,-0.11634411,-0.79407823,-0.18303438,0.57960176,0.4494384,-0.8187972,0.35717836,0.40920037,0.5441228,0.7324516,,-0.05705725,0.4039832,-0.43012866,-0.23060504,0.78945607,-0.56884134,-0.97299534,-0.18103614,0.14319906,0.010068532,0.5865024,0.8098849,,1.0250615025944418,0.43121423549807397,0.21835356905000003,3.6548957149352597,0.3008735724834999,-0.6844471309351825,-0.4335151515203771,,-1.3740518011806475,0.16725122585708022,0.12896011436000002,0.28371049353456146,0.28065137051821465,-0.4114860371467467,0.8761775707442738,,-0.11698505643804993,-0.12851077448590748,0.09694439508,-0.1167695939710949,,3.4436584e-05,-1.5497208e-06,-4.2915344e-06,1.0,-1.6413629e-05,-1.2472272e-05,1.642108e-05,1.0,-3.1888485e-06,1.244247e-05,3.1590462e-06,1.0,783,2.477,0,1,1.895,False,-0.2551713958605024,1.0507219923782136
2.489178378134966,17:04:40.644212,17:03:24.834827,0,,0.11248615,-0.01895833,0.007432252,0.86547136,0.29473054,-0.40508407,0.49205846,-0.3483962,0.7978085,0.09400877,-0.8898056,-0.44655168,,0.016782343,-0.03685985,0.06308466,0.30480957,-0.6672978,0.6795621,-0.6301952,0.393673,0.669235,-0.7141043,-0.63224614,-0.3005328,,0.098457195,1.2953931,0.42709932,0.98261034,0.0074614002,-0.18552963,-0.10494522,-0.8019739,-0.58806837,-0.15317772,0.5973125,-0.7872448,,-0.117065035,0.21959983,-0.11641899,-0.7934714,-0.1802563,0.581301,0.44889134,-0.81830776,0.35898322,0.4109741,0.5457839,0.7302193,,-0.05707597,0.40397727,-0.4301203,-0.2306381,0.7894378,-0.56885326,-0.97298616,-0.18098333,0.143328,0.010195582,0.58654326,0.80985373,,1.025100116258813,0.43052691227226797,0.21830301374000002,3.6548957149352597,0.3022399374811543,-0.6877666359559419,-0.4297582379992887,,-1.3740518011806475,0.16735162138444512,0.12896141065000002,0.28371049353456146,0.28065137051821465,-0.41156771588688723,0.8760142266781394,,-0.11698505643804993,-0.12851077448590748,0.09694439508,-0.1167695939710949,,1.7300248e-05,-4.827976e-06,0.0,1.0,-7.532537e-06,-5.736947e-06,7.532537e-06,1.0,-1.4901161e-06,5.722046e-06,1.4603138e-06,1.0,792,2.506,0,1,1.895,False,0.041585220092764,1.0505288715750958
2.5285281219985336,17:04:40.669857,17:03:24.834827,0,,0.11239509,-0.019141458,0.0073380917,0.8652549,0.29188278,-0.40760064,0.49281684,-0.34599435,0.7983855,0.09200746,-0.8916795,-0.44321814,,0.016780555,-0.03684975,0.063090265,0.30466783,-0.66732883,0.6795952,-0.6301032,0.39384747,0.6692189,-0.714246,-0.6321047,-0.3004935,,0.098457195,1.2953931,0.42709932,0.98261034,0.0074614002,-0.18552963,-0.10494522,-0.8019739,-0.58806837,-0.15317772,0.5973125,-0.7872448,,-0.11698479,0.2193971,-0.11647519,-0.79280925,-0.17682616,0.5832547,0.448271,-0.81755316,0.3614692,0.41292447,0.5480323,0.72742975,,-0.057074353,0.40398812,-0.43011627,-0.23046854,0.7894584,-0.56889343,-0.9730249,-0.18076123,0.14334524,0.010331222,0.58658403,0.80982244,,1.0249070479369573,0.429530679731493,0.21827968052000002,3.6548957149352597,0.30360630247880865,-0.6923113220788097,-0.42028428216350056,,-1.3740749693792702,0.16744429417893583,0.12896270694,0.283920183478046,0.28065137051821465,-0.41156771588688723,0.8756875385458711,,-0.11698505643804993,-0.12851077448590748,0.09694439508,-0.1167695939710949,,1.7300248e-05,-4.827976e-06,0.0,1.0,-7.532537e-06,-5.736947e-06,7.532537e-06,1.0,-1.4901161e-06,5.722046e-06,1.4603138e-06,1.0,815,2.58,0,1,1.895,False,0.4129927173528851,1.0501909101696396
2.5542161241173744,17:04:40.748680,17:03:24.961535,0,,0.11233049,-0.019358642,0.007227391,0.8672717,0.28484762,-0.40829107,0.4895289,-0.33876026,0.80349416,0.090560526,-0.89671814,-0.43323845,,0.016766291,-0.03682409,0.063102186,0.3046465,-0.66742533,0.67951,-0.6301061,0.39376843,0.66926277,-0.71425253,-0.63205206,-0.30058882,,0.098457195,1.2953931,0.42709932,0.98261034,0.0074614002,-0.18552963,-0.10494522,-0.8019739,-0.58806837,-0.15317772,0.5973125,-0.7872448,,-0.11693212,0.21915737,-0.11653302,-0.7949724,-0.16810417,0.58288926,0.44478688,-0.81490815,0.37160376,0.41253307,0.55467623,0.72260004,,-0.057060342,0.40401474,-0.43010637,-0.23044671,0.78953874,-0.56879073,-0.9730301,-0.18076374,0.14330687,0.01032959,0.5864751,0.8099014,,1.0244977430946234,0.4283336561359882,0.21824986585000003,3.6590895138049504,0.3025132104806852,-0.7028550024689171,-0.3399190016254351,,-1.3740749693792702,0.1677223125624079,0.12896270694,0.283920183478046,0.2803780975186838,-0.4115082375597756,0.8763409148104082,,-0.11698505643804993,-0.12851077448590748,0.09694439508,-0.1167695939710949,,1.7300248e-05,-4.827976e-06,0.0,1.0,-7.532537e-06,-5.736947e-06,7.532537e-06,1.0,-1.4901161e-06,5.722046e-06,1.4603138e-06,1.0,838,2.654,0,1,1.895,False,0.8346242313262371,1.0509151131813312
2.6330090609844774,17:04:40.816561,17:03:24.961535,0,,0.11231147,-0.019373596,0.0072516054,0.8698466,0.27292067,-0.4109515,0.4849589,-0.32032773,0.81375974,0.09045264,-0.90714085,-0.4109914,,0.016764756,-0.03676827,0.06310105,0.30382892,-0.6678935,0.67941594,-0.63023186,0.3939081,0.669062,-0.7144897,-0.6314702,-0.3012474,,0.098457195,1.2953931,0.42709932,0.98261034,0.0074614002,-0.18552963,-0.10494522,-0.8019739,-0.58806837,-0.15317772,0.5973125,-0.7872448,,-0.1169198,0.21916024,-0.11656483,-0.7980872,-0.15215091,0.58301544,0.44110483,-0.8066835,0.3933043,0.41046733,0.571062,0.71091825,,-0.05705443,0.40404958,-0.43006313,-0.22961323,0.7899147,-0.5686057,-0.973228,-0.18019213,0.14268164,0.010248058,0.5861446,0.8101416,,1.024551802224743,0.42818692421137794,0.21821356973000003,3.664122072448578,0.3003270264844381,-0.7255759380519431,-0.19192927770777812,,-1.3741213057765154,0.16814706287049025,0.1289938179,0.2847589432519841,0.27969491501985655,-0.4109511480412935,0.8763409148104082,,-0.11698505643804993,-0.12851077448590748,0.09694439508,-0.1167695939710949,,1.7300248e-05,-4.827976e-06,0.0,1.0,-7.532537e-06,-5.736947e-06,7.532537e-06,1.0,-1.4901161e-06,5.722046e-06,1.4603138e-06,1.0,847,2.682,0,1,1.895,False,0.9893475663253604,1.0510116735828905
2.7009308501146734,17:04:40.855694,17:03:24.961535,0,,0.11225968,-0.019472547,0.007231131,0.8724136,0.26207602,-0.41256583,0.4803664,-0.30390888,0.8227316,0.09023577,-0.91594523,-0.39102685,,0.01678859,-0.036701094,0.063100636,0.3034541,-0.6680275,0.6794517,-0.6303732,0.3939775,0.6688881,-0.71452445,-0.6312852,-0.3015527,,0.098457195,1.2953931,0.42709932,0.98261034,0.0074614002,-0.18552963,-0.10494522,-0.8019739,-0.58806837,-0.15317772,0.5973125,-0.7872448,,-0.116879195,0.21906924,-0.11661927,-0.80117834,-0.13780862,0.58234185,0.43733847,-0.7990652,0.41258928,0.40847075,0.5852381,0.7004627,,-0.057072747,0.40409023,-0.43000752,-0.22924954,0.7900215,-0.5686042,-0.9733153,-0.17999563,0.14233392,0.010100593,0.5860611,0.8102039,,1.0244977430946234,0.42756910558143996,0.21816690329000002,3.669154631092207,0.29786756948866017,-0.745868711843781,-0.07742508734764836,,-1.3743607104956164,0.16855636771282415,0.12904178063000002,0.2851783231389531,0.2790117325210294,-0.410639094743233,0.8765042588765424,,-0.11698505643804993,-0.12851077448590748,0.09694439508,-0.1167695939710949,,1.7300248e-05,-4.827976e-06,0.0,1.0,-7.532537e-06,-5.736947e-06,7.532537e-06,1.0,-1.4901161e-06,5.722046e-06,1.4603138e-06,1.0,861,2.727,0,1,1.895,False,1.0169320500005985,1.0507702725789931
2.740043996134773,17:04:40.891386,17:03:25.092819,0,,0.11213918,-0.019693807,0.0071779937,0.8749343,0.24829005,-0.41574258,0.47617435,-0.2850807,0.8318575,0.088021666,-0.9257868,-0.3676563,,0.016827404,-0.03662632,0.06310886,0.3028424,-0.66838115,0.6793769,-0.6307436,0.39383402,0.6686232,-0.714457,-0.6310003,-0.30230772,,0.098457195,1.2953931,0.42709932,0.98261034,0.0074614002,-0.18552963,-0.10494522,-0.8019739,-0.58806837,-0.15317772,0.5973125,-0.7872448,,-0.11678257,0.21886128,-0.11673636,-0.80382276,-0.12008933,0.5826212,0.4326709,-0.7901761,0.43407106,0.40824604,0.6009995,0.6871207,,-0.05710662,0.4041412,-0.429949,-0.22868676,0.790312,-0.5684271,-0.973452,-0.17984115,0.14159243,0.009675611,0.5857168,0.810458,,1.0243587339028875,0.42635663652018674,0.21808005186,3.6746065696228047,0.2969111139903021,-0.7700008022607775,0.05864051974220624,,-1.374754569872202,0.16901973168527762,0.12909363223,0.2858073929694067,0.2779186405229059,-0.40982943025380225,0.8766676029426768,,-0.11698505643804993,-0.12851077448590748,0.09694439508,-0.1167695939710949,,1.7300248e-05,-4.827976e-06,0.0,1.0,-7.532537e-06,-5.736947e-06,7.532537e-06,1.0,-1.4901161e-06,5.722046e-06,1.4603138e-06,1.0,870,2.756,0,1,1.895,False,1.0333755003124039,1.0508185527797727
2.7757388059981167,17:04:40.922384,17:03:25.092819,0,,0.111999266,-0.01989957,0.007127017,0.8769423,0.23554453,-0.4189164,0.472975,-0.268372,0.8392086,0.08524555,-0.9340746,-0.34675348,,0.016878448,-0.03656624,0.06314719,0.30299193,-0.668337,0.67935365,-0.6308754,0.39363098,0.66861844,-0.71427715,-0.63117373,-0.3023706,,0.098457195,1.2953931,0.42709932,0.98261034,0.0074614002,-0.18552963,-0.10494522,-0.8019739,-0.58806837,-0.15317772,0.5973125,-0.7872448,,-0.11666525,0.21866688,-0.11685019,-0.8057343,-0.10394338,0.58308494,0.42844608,-0.7820166,0.4526412,0.408933,0.61452895,0.6746317,,-0.057158563,0.4042049,-0.4299185,-0.22887321,0.7902816,-0.5683943,-0.97341,-0.18010697,0.14154303,0.009487082,0.5856761,0.81048965,,1.0243355657042648,0.42519050385617885,0.21799968188000002,3.679219748379464,0.2969111139903021,-0.7914823109177453,0.16759101185377062,,-1.3753646657692655,0.16940586832898885,0.12912215061,0.2858073929694067,0.2772354580240787,-0.40935401947546074,0.8765042588765424,,-0.11698505643804993,-0.12851077448590748,0.09694439508,-0.1167695939710949,,1.7300248e-05,-4.827976e-06,0.0,1.0,-7.532537e-06,-5.736947e-06,7.532537e-06,1.0,-1.4901161e-06,5.722046e-06,1.4603138e-06,1.0,893,2.83,0,1,1.895,False,1.0362352308014136,1.05105995378367
2.806724681984633,17:04:40.992171,17:03:25.092819,0,,0.11166021,-0.020367585,0.0070685595,0.8821337,0.19993547,-0.42645717,0.46460408,-0.22068119,0.8575796,0.077349454,-0.95463383,-0.28756127,,0.01706659,-0.036432933,0.06334907,0.30237487,-0.6683943,0.6795721,-0.6320658,0.3930587,0.66783047,-0.71348596,-0.6314696,-0.30361834,,0.098457195,1.2953931,0.42709932,0.98261034,0.0074614002,-0.18552963,-0.10494522,-0.8019739,-0.58806837,-0.15317772,0.5973125,-0.7872448,,-0.11638811,0.21825974,-0.11715815,-0.81056505,-0.059147686,0.5826541,0.41700622,-0.75683707,0.5032926,0.41120562,0.6509218,0.63813066,,-0.057366587,0.40442985,-0.42991135,-0.22848535,0.79034317,-0.5684647,-0.9735146,-0.18069427,0.14006735,0.007982953,0.5854121,0.8106966,,1.0243819021015101,0.42264200200768476,0.21776894226000001,3.6915914550450513,0.29786756948866017,-0.8511526078849656,0.43825212943827113,,-1.3778050493575205,0.1704947736642545,0.12913252093000002,0.2868558426868293,0.2739561820297081,-0.4069250260071683,0.8766676029426768,,-0.11698505643804993,-0.12851077448590748,0.09694439508,-0.1167695939710949,,1.7300248e-05,-4.827976e-06,0.0,1.0,-7.532537e-06,-5.736947e-06,7.532537e-06,1.0,-1.4901161e-06,5.722046e-06,1.4603138e-06,1.0,916,2.903,0,1,1.895,False,1.036711852549582,1.0513013547875674
2.876543482998386,17:04:41.061819,17:03:25.092819,0,,0.11149503,-0.020604149,0.0071112067,0.8869988,0.16948427,-0.42954427,0.45617288,-0.17719394,0.8720714,0.071689695,-0.9694728,-0.234485,,0.017223038,-0.036319267,0.063552916,0.30082905,-0.6688614,0.6797986,-0.63423246,0.39202482,0.66638243,-0.7122155,-0.6316178,-0.30628136,,0.098457195,1.2953931,0.42709932,0.98261034,0.0074614002,-0.18552963,-0.10494522,-0.8019739,-0.58806837,-0.15317772,0.5973125,-0.7872448,,-0.11626663,0.21809798,-0.117368266,-0.8154743,-0.02094894,0.57841414,0.4068822,-0.731489,0.5471478,0.4116414,0.68153137,0.6050342,,-0.057545215,0.40464625,-0.42992553,-0.2273359,0.79074883,-0.5683614,-0.9738021,-0.18143056,0.1370856,0.0052821375,0.58463603,0.8112785,,1.0243896248343842,0.4214913148094253,0.21759135053000003,3.7031244019367002,0.2980042059884256,-0.9028849895574974,0.6221775479054696,,-1.3800446418910457,0.1716686290611366,0.12911437287000002,0.28832367229122097,0.26931054103768315,-0.40395360468289554,0.8769942910749453,,-0.11698505643804993,-0.12851077448590748,0.09694439508,-0.1167695939710949,,1.7300248e-05,-4.827976e-06,0.0,1.0,-7.532537e-06,-5.736947e-06,7.532537e-06,1.0,-1.4901161e-06,5.722046e-06,1.4603138e-06,1.0,939,2.977,0,1,1.895,False,1.0317073241938153,1.0508185527797727
2.9461914191488177,17:04:41.143243,17:03:25.299793,0,,0.11143549,-0.020549819,0.0071224123,0.8931719,0.12836581,-0.43100592,0.4452985,-0.118450195,0.8875126,0.06287348,-0.9846278,-0.16295755,,0.017302237,-0.03623883,0.063675344,0.2865904,-0.6703231,0.6844945,-0.63102305,0.40552476,0.66133153,-0.72088534,-0.6214633,-0.30677006,,0.098457195,1.2953931,0.42709932,0.98261034,0.0074614002,-0.18552963,-0.10494522,-0.8019739,-0.58806837,-0.15317772,0.5973125,-0.7872448,,-0.11620311,0.21814777,-0.11735776,-0.8214434,0.029785724,0.5695117,0.3928992,-0.6942652,0.6030142,0.41335335,0.7191027,0.55859673,,-0.057637066,0.40478516,-0.42992714,-0.21167062,0.7915451,-0.5732817,-0.97728115,-0.16492514,0.13312131,0.010822951,0.5884353,0.8084719,,1.024551802224743,0.42153765120667064,0.21760949859000003,3.7188511476980395,0.3007369359837344,-0.9705380184840161,0.8000592359256998,,-1.3809018652400846,0.1723482295540684,0.12911307658,0.30614731748740553,0.2702669965360412,-0.4035083489066621,0.8768309470088109,,-0.11698505643804993,-0.12851077448590748,0.09694439508,-0.1167695939710949,,1.7300248e-05,-4.827976e-06,0.0,1.0,-7.532537e-06,-5.736947e-06,7.532537e-06,1.0,-1.4901161e-06,5.722046e-06,1.4603138e-06,1.0,948,3.006,0,1,1.895,False,1.0318860573493782,1.050963393382111
3.027566990116611,17:04:41.177960,17:03:25.299793,0,,0.111441165,-0.020419516,0.0069960505,0.89472485,0.11343409,-0.43197218,0.44279012,-0.09894431,0.89114916,0.058345467,-0.98860645,-0.13875544,,0.017287102,-0.03624327,0.06365836,0.28703687,-0.6709376,0.6837049,-0.6307357,0.40480593,0.66204566,-0.7209592,-0.62126875,-0.3069902,,0.098457195,1.2953931,0.42709932,0.98261034,0.0074614002,-0.18552963,-0.10494522,-0.8019739,-0.58806837,-0.15317772,0.5973125,-0.7872448,,-0.116168946,0.21817392,-0.117181316,-0.8225126,0.047695905,0.5667434,0.38815233,-0.6812647,0.62065786,0.41570508,0.7304817,0.54183555,,-0.05761974,0.4047705,-0.42992243,-0.212076,0.79206353,-0.5724152,-0.9771894,-0.16518642,0.13347006,0.01116155,0.5876639,0.80902815,,1.0246213068206111,0.4217461649942747,0.21779227548000002,3.7236740163981836,0.30374293897857413,-0.9933272186603375,0.8346881779461668,,-1.380708796918229,0.17227872495820037,0.12911696545,0.30572793760043654,0.270813542535103,-0.4028105181594799,0.876830947008811,,-0.11698505643804993,-0.12851077448590748,0.09694439508,-0.1167695939710949,,1.7300248e-05,-4.827976e-06,0.0,1.0,-7.532537e-06,-5.736947e-06,7.532537e-06,1.0,-1.4901161e-06,5.722046e-06,1.4603138e-06,1.0,962,3.051,0,1,1.895,False,1.0352224095865559,1.0512530745867876
3.0623320580925792,17:04:41.222375,17:03:25.435018,0,,0.111582756,-0.020025797,0.006570071,0.8964877,0.1006378,-0.43148783,0.4394093,-0.07704157,0.8949771,0.056825995,-0.99193585,-0.113288045,,0.017293409,-0.036242645,0.06364572,0.27798256,-0.6724535,0.68595326,-0.62917536,0.41213757,0.6589999,-0.725854,-0.61477554,-0.3085243,,0.098457195,1.2953931,0.42709932,0.98261034,0.0074614002,-0.18552963,-0.10494522,-0.8019739,-0.58806837,-0.15317772,0.5973125,-0.7872448,,-0.11617942,0.21822631,-0.11658664,-0.82442814,0.06373678,0.5623663,0.38454986,-0.6659649,0.6392278,0.41525853,0.74325526,0.52453023,,-0.05762383,0.40476072,-0.4299131,-0.20225184,0.7930463,-0.5746057,-0.97923446,-0.15541622,0.13017571,0.013932323,0.589002,0.8080115,,1.0245826931562398,0.42234081542559,0.21837430969000002,3.728077505211359,0.304016211978105,-1.0172368891084935,0.8613132607260544,,-1.380469392199128,0.17224783402670346,0.12912992835,0.31642212471814724,0.2713600885341647,-0.4019493299320166,0.8769942910749453,,-0.11698505643804993,-0.12851077448590748,0.09694439508,-0.1167695939710949,,1.7300248e-05,-4.827976e-06,0.0,1.0,-7.532537e-06,-5.736947e-06,7.532537e-06,1.0,-1.4901161e-06,5.722046e-06,1.4603138e-06,1.0,971,3.08,0,1,1.895,False,1.0398098939126754,1.0508668329805522
3.106730157043785,17:04:41.250190,17:03:25.435018,0,,0.11178759,-0.019508168,0.006049171,0.89725065,0.09249821,-0.43172377,0.43810445,-0.06509966,0.89656365,0.054825395,-0.9935825,-0.09893465,,0.0173074,-0.03620876,0.0636456,0.27267003,-0.67406195,0.6865066,-0.6278487,0.41600385,0.6578348,-0.72901094,-0.61039424,-0.30977732,,0.098457195,1.2953931,0.42709932,0.98261034,0.0074614002,-0.18552963,-0.10494522,-0.8019739,-0.58806837,-0.15317772,0.5973125,-0.7872448,,-0.11621821,0.2183191,-0.11583091,-0.8250022,0.0735874,0.56031805,0.38229695,-0.65752244,0.64924055,0.4161976,0.74983275,0.5143252,,-0.057635024,0.40478116,-0.42988476,-0.19641002,0.794204,-0.5750331,-0.9803905,-0.14946724,0.12842916,0.01605034,0.58898175,0.8079869,,1.024482297628875,0.42333704796636495,0.21911319499,3.730593784533173,0.3060657594745866,-1.0304248600237589,0.8667036149084858,,-1.3804616694662537,0.17242545688281063,0.12915715044,0.3229225129661675,0.2719066345332265,-0.40035303304328823,0.8773209792072139,,-0.11698505643804993,-0.12851077448590748,0.09694439508,-0.1167695939710949,,1.7300248e-05,-4.827976e-06,0.0,1.0,-7.532537e-06,-5.736947e-06,7.532537e-06,1.0,-1.4901161e-06,5.722046e-06,1.4603138e-06,1.0,985,3.125,0,1,1.895,False,1.0438611787721057,1.0508668329805522
3.134563114028424,17:04:41.289378,17:03:25.435018,0,,0.11205684,-0.018934943,0.005565837,0.8978356,0.086478055,-0.4317553,0.43702793,-0.055137455,0.8977563,0.053830266,-0.9947268,-0.08729771,,0.017337307,-0.03609548,0.06366128,0.26912838,-0.6759443,0.6860532,-0.62575346,0.41877177,0.658075,-0.7321218,-0.606407,-0.31027126,,0.098457195,1.2953931,0.42709932,0.98261034,0.0074614002,-0.18552963,-0.10494522,-0.8019739,-0.58806837,-0.15317772,0.5973125,-0.7872448,,-0.116318785,0.21847896,-0.115056954,-0.8255464,0.0810141,0.5584889,0.38083804,-0.6503381,0.6572843,0.41645595,0.7553125,0.50603104,,-0.057658453,0.40486306,-0.42980283,-0.19225967,0.79561263,-0.5744883,-0.9811598,-0.14449924,0.12823944,0.019015795,0.5883201,0.8084045,,1.0242969520398937,0.4247425853494738,0.21985596916000003,3.7324809940245336,0.3077053974717719,-1.0409098937638588,0.8680103674375601,,-1.3807396878497258,0.17306644371137125,0.12922844639,0.3279550716097961,0.2731363630311155,-0.3982520020512147,0.8766676029426768,,-0.11698505643804993,-0.12851077448590748,0.09694439508,-0.1167695939710949,,1.7300248e-05,-4.827976e-06,0.0,1.0,-7.532537e-06,-5.736947e-06,7.532537e-06,1.0,-1.4901161e-06,5.722046e-06,1.4603138e-06,1.0,994,3.153,0,1,1.895,False,1.0446952668314005,1.0517841567953616
3.1737451469525695,17:04:41.318426,17:03:25.435018,0,,0.11238475,-0.01833637,0.0051775724,0.89849174,0.08224848,-0.43121666,0.43563682,-0.045867205,0.8989531,0.054158777,-0.9955559,-0.077041835,,0.017355379,-0.03598727,0.06368774,0.26661298,-0.6767321,0.6862587,-0.6247083,0.42087078,0.6577288,-0.7339325,-0.60407066,-0.31055075,,0.098457195,1.2953931,0.42709932,0.98261034,0.0074614002,-0.18552963,-0.10494522,-0.8019739,-0.58806837,-0.15317772,0.5973125,-0.7872448,,-0.11648964,0.21871702,-0.11432846,-0.82643276,0.08654538,0.55634415,0.37993738,-0.6435064,0.6644901,0.4155196,0.7605323,0.49893293,,-0.057672393,0.40495095,-0.42973343,-0.18941052,0.796164,-0.57467085,-0.98168325,-0.14130867,0.1277884,0.020534547,0.5883492,0.80834615,,1.02403437912217,0.42655742757491655,0.22053652141000002,3.7341585135724094,0.3083885799705991,-1.049879893516819,0.8678470233714257,,-1.3810485971646949,0.17382327153304528,0.12928159428000002,0.3313101107055485,0.2731363630311155,-0.39743521464980913,0.877974355471751,,-0.11698505643804993,-0.12851077448590748,0.09694439508,-0.1167695939710949,,1.7300248e-05,-4.827976e-06,0.0,1.0,-7.532537e-06,-5.736947e-06,7.532537e-06,1.0,-1.4901161e-06,5.722046e-06,1.4603138e-06,1.0,1013,3.215,0,1,1.895,False,1.0453506217351318,1.0513013547875674
