AlexandreBanks6/ExpertPlaybackApp/resources/Motions/P_06/PC1/Data_PC1_10.csv
Task Time,PC1 Time,PC2 Time,Gaze Calib,s_T_psm1,Tx,Ty,Tz,R00,R01,R02,R10,R11,R12,R20,R21,R22,s_T_psm3,Tx,Ty,Tz,R00,R01,R02,R10,R11,R12,R20,R21,R22,cart_T_ecm,Tx,Ty,Tz,R00,R01,R02,R10,R11,R12,R20,R21,R22,ecm_T_psm1,Tx,Ty,Tz,R00,R01,R02,R10,R11,R12,R20,R21,R22,ecm_T_psm3,Tx,Ty,Tz,R00,R01,R02,R10,R11,R12,R20,R21,R22,psm1_joints,q1,q2,q3,q4,q5,q6,jaw,psm3_joints,q1,q2,q3,q4,q5,q6,jaw,ecm_joints,q1,q2,q3,q4,ecmi_T_ecm,Tx,Ty,Tz,R00,R01,R02,R10,R11,R12,R20,R21,R22,Sample #,Task Duration (s),Collisions (binary),Collisions (increments),Cumulative Collision Time (s),Clutch Press,MTMR Angle,MTML Angle
""
lci_T_si,,,,,-0.060823515,0.029859815,0.22619304,0.990712,-0.051887166,0.12568814,0.04697213,-0.7368394,-0.67443407,0.12760644,0.67407376,-0.7275584
rci_T_si,,,,,-0.07009534,0.034067318,0.23510589,0.98514,-0.06991788,0.15687762,0.057551738,-0.7262056,-0.68506444,0.16182366,0.68391293,-0.7113903
ecm_T_lc,,,,,-4.4061628e-05,-0.00034663224,-0.01840835,-0.99912,0.030754527,0.028518902,-0.031987965,-0.99852574,-0.043852776,0.027128186,-0.04472645,0.9986309
ecm_T_rc,,,,,-0.0043358393,0.01870579,-0.007592615,-0.99555075,-0.052743673,-0.078081585,0.04863213,-0.9973746,0.053654674,-0.08070653,0.04961868,0.9955021
cart_T_ecmi,,,,,0.10353776,1.3393562,0.4416647,0.9916547,0.021186605,-0.12716936,-0.069744974,-0.74143606,-0.6673891,-0.10842766,0.670689,-0.7337709
ecmac_T_ecmrep_psm1,,,,,0.008075713,-0.26004106,-0.30289736,0.99667877,0.061445758,0.053440064,-0.058828812,0.9970531,-0.049237434,-0.056308012,0.04593009,0.9973564
ecmac_T_ecmrep_psm3,,,,,-0.012692571,-0.457308,-0.5458498,0.99509805,-0.029463936,0.094401784,0.014504567,0.9877462,0.15539348,-0.09782351,-0.1532625,0.9833317
""
0,14:54:29.755927,14:54:21.567375,0,,0.13300799,0.008479893,0.03427808,-0.72602034,-0.12242273,-0.67668813,-0.5614834,-0.46259448,0.686107,-0.39702728,0.87807685,0.2671147,,0.013794832,-0.045142353,0.008448899,-0.42797607,-0.7136294,0.5545893,-0.77521825,0.6053092,0.18065912,-0.46462154,-0.35261002,-0.81227636,,0.10338209,1.3393599,0.44165704,0.9916692,0.021340232,-0.12703107,-0.0695395,-0.74143165,-0.66741544,-0.10842766,0.670689,-0.7337709,,-0.105506845,0.26862198,-0.08717778,0.7253681,0.020160327,0.6880659,-0.66937524,0.25380042,0.6982278,-0.16055492,-0.9670465,0.19759355,,0.018204847,0.3871347,-0.36470228,0.5034621,0.73125386,-0.46021047,-0.7791835,0.15409794,-0.60755813,-0.37336177,0.6644709,0.6473634,,1.2263004758309841,0.6107600520909195,0.19871607184,0.28664615274334476,-0.15931815872650357,1.3729003431691034,-0.40607334840981824,,-0.5895457048854248,-0.3254591315184435,0.1895046351,0.8387597739380974,0.35211225989554,-0.17179355674720403,0.8751975063474682,,-0.08834420341282298,-0.04034983064454391,0.08425707732,-0.07490262470414771,,-0.00015380606,-1.1205673e-05,2.3007393e-05,0.99999994,0.00015203655,0.00013897568,-0.00015203655,1.0,2.2441149e-05,-0.00013896078,-2.2500753e-05,1.0,34,0.102,0,0,0.0,False,-0.2543373078012081,1.0499977893665218
0.1276654900284484,14:54:29.784796,14:54:21.567375,0,,0.13288721,0.008478731,0.0344768,-0.7212912,-0.13668822,-0.67901045,-0.55343103,-0.47573435,0.6836599,-0.41647688,0.86890334,0.26749545,,0.013795443,-0.04514073,0.008450389,-0.4279737,-0.7135822,0.5546519,-0.7752138,0.60532725,0.18061736,-0.46463117,-0.35267437,-0.812243,,0.10338209,1.3393599,0.44165704,0.9916692,0.021340232,-0.12703107,-0.0695395,-0.74143165,-0.66741544,-0.10842766,0.670689,-0.7337709,,-0.10540397,0.2687574,-0.087336384,0.722793,0.034414783,0.6902072,-0.67665064,0.2381673,0.696721,-0.14040728,-0.9706142,0.19543242,,0.018204011,0.38713682,-0.3647018,0.5034607,0.73121405,-0.4602753,-0.7791889,0.1540517,-0.60756296,-0.37335238,0.66452545,0.6473129,,1.2276982904812188,0.6101422334609816,0.19852940608000003,0.2788876248344174,-0.13800286476309484,1.3747953328656344,-0.4054199721452809,,-0.5895534276182991,-0.3254514087855693,0.18950333881,0.8387597739380974,0.35211225989554,-0.17187523548734457,0.8753608504136026,,-0.08834420341282298,-0.04034983064454391,0.08425707732,-0.07490262470414771,,-0.00015380606,-1.1205673e-05,2.3007393e-05,0.99999994,0.00015203655,0.00013897568,-0.00015203655,1.0,2.2441149e-05,-0.00013896078,-2.2500753e-05,1.0,45,0.135,0,0,0.0,False,-0.2544564632382502,1.0501909101696396
0.15651723003247753,14:54:29.817934,14:54:21.633248,0,,0.13269965,0.008461893,0.03460674,-0.7154789,-0.146783,-0.6830407,-0.54950583,-0.4855174,0.67993826,-0.4314315,0.8618164,0.26671934,,0.013797112,-0.04513967,0.0084504485,-0.4280274,-0.7136485,0.5545252,-0.7752459,0.60529464,0.18058893,-0.46452814,-0.35259643,-0.8123357,,0.10338209,1.3393599,0.44165704,0.9916692,0.021340232,-0.12703107,-0.0695395,-0.74143165,-0.66741544,-0.10842766,0.670689,-0.7337709,,-0.10522957,0.26883602,-0.087461896,0.7185227,0.04452637,0.6940767,-0.68395424,0.22634515,0.6935232,-0.12622084,-0.9730289,0.19308813,,0.018202327,0.38713726,-0.3647009,0.5035029,0.73127156,-0.46013772,-0.7791191,0.15410249,-0.6076396,-0.37344122,0.6644504,0.6473387,,1.2292042233916924,0.6093390692420623,0.19838681418,0.2698709572645829,-0.12256294028960008,1.376580568012678,-0.40509328401301237,,-0.5895688730840475,-0.3254436860526951,0.18950333881,0.8387597739380974,0.3519756233957746,-0.17176381758364817,0.8753608504136026,,-0.08834420341282298,-0.04034983064454391,0.08425707732,-0.07490262470414771,,-0.00015380606,-1.1205673e-05,2.3007393e-05,0.99999994,0.00015203655,0.00013897568,-0.00015203655,1.0,2.2441149e-05,-0.00013896078,-2.2500753e-05,1.0,53,0.159,0,0,0.0,False,-0.2540989969271239,1.0499012289649627
0.18963900802191347,14:54:29.844507,14:54:21.633248,0,,0.13254279,0.008418083,0.034681424,-0.7125195,-0.1533202,-0.6846961,-0.5474493,-0.48890078,0.6791725,-0.43887925,0.8587601,0.26441628,,0.013801813,-0.045137063,0.0084517,-0.4280196,-0.7136355,0.5545479,-0.7752358,0.60530466,0.180599,-0.46455222,-0.35260552,-0.8123181,,0.10338209,1.3393599,0.44165704,0.9916692,0.021340232,-0.12703107,-0.0695395,-0.74143165,-0.66741544,-0.10842766,0.670689,-0.7337709,,-0.10508243,0.26885688,-0.087561995,0.7163373,0.051105622,0.69588006,-0.6875177,0.22190145,0.69143265,-0.1190807,-0.9737289,0.19409232,,0.018197421,0.38713932,-0.36469936,0.50349766,0.73125947,-0.46016267,-0.7791333,0.1540996,-0.6076221,-0.37341854,0.66446435,0.64733744,,1.2302236241310902,0.608674914214879,0.19827922211000001,0.2652577785079233,-0.11450138680343909,1.3750709935833036,-0.407706789071161,,-0.5895997640155444,-0.32543596331982083,0.18950333881,0.8387597739380974,0.3519756233957746,-0.17176381758364817,0.8753608504136026,,-0.08834420341282298,-0.04034983064454391,0.08425707732,-0.07490262470414771,,-0.00015380606,-1.1205673e-05,2.3007393e-05,0.99999994,0.00015203655,0.00013897568,-0.00015203655,1.0,2.2441149e-05,-0.00013896078,-2.2500753e-05,1.0,64,0.193,0,0,0.0,False,-0.2552905512975445,1.0499012289649627
0.2162271620472893,14:54:29.876442,14:54:21.703879,0,,0.13224652,0.008382112,0.034776226,-0.70590895,-0.1696001,-0.6876978,-0.5412,-0.49720424,0.6781522,-0.456941,0.8508958,0.25919336,,0.013806313,-0.045136794,0.008452475,-0.42807034,-0.7136925,0.5544353,-0.77526665,0.60527515,0.18056515,-0.46445388,-0.35254064,-0.81240237,,0.10338209,1.3393599,0.44165704,0.9916692,0.021340232,-0.12703107,-0.0695395,-0.74143165,-0.66741544,-0.10842766,0.670689,-0.7337709,,-0.10479793,0.26889956,-0.08768563,0.7116707,0.067518905,0.69926107,-0.6952189,0.21075436,0.68720686,-0.10097287,-0.97520447,0.19692811,,0.018192852,0.3871396,-0.3646994,0.50353736,0.73130935,-0.4600399,-0.7790669,0.15414071,-0.6076968,-0.37350348,0.6643999,0.64735454,,1.2322624256098855,0.6071921495030278,0.19813922279,0.25540235116415066,-0.09441582133791936,1.3712710877215764,-0.4070534128066241,,-0.5896306549470414,-0.32543596331982083,0.18950333881,0.8387597739380974,0.3518389868960091,-0.17165239967995177,0.8753608504136026,,-0.08834420341282298,-0.04034983064454391,0.08425707732,-0.07490262470414771,,-0.00015380606,-1.1205673e-05,2.3007393e-05,0.99999994,0.00015203655,0.00013897568,-0.00015203655,1.0,2.2441149e-05,-0.00013896078,-2.2500753e-05,1.0,76,0.229,0,0,0.0,False,-0.2546351963938136,1.0499977893665218
0.2480627680197358,14:54:29.901232,14:54:21.703879,0,,0.13210423,0.0083563775,0.034818098,-0.700676,-0.17682129,-0.6912216,-0.5375141,-0.5062609,0.6743727,-0.46918195,0.84405816,0.25968093,,0.013813086,-0.045133814,0.008454859,-0.42817244,-0.71381384,0.5542003,-0.7753251,0.6052165,0.18051067,-0.4642621,-0.35239577,-0.81257486,,0.10338209,1.3393599,0.44165704,0.9916692,0.021340232,-0.12703107,-0.0695395,-0.74143165,-0.66741544,-0.10842766,0.670689,-0.7337709,,-0.104661435,0.26891133,-0.08774803,0.70772874,0.07479086,0.70251435,-0.7008567,0.19958574,0.6848105,-0.08899427,-0.97702193,0.19367023,,0.018185765,0.38714248,-0.36469805,0.5036179,0.73141444,-0.45978463,-0.778936,0.1542361,-0.60784036,-0.37366784,0.6642621,0.64740115,,1.2332663808835347,0.6062808670238694,0.19806792684000002,0.24806320314219232,-0.08129871736043706,1.3742153185701937,-0.40656338060822095,,-0.5896847140771608,-0.3254205178540724,0.18950204252000002,0.8387597739380974,0.3515657138964783,-0.17142956387255892,0.8753608504136026,,-0.08834420341282298,-0.04034983064454391,0.08425707732,-0.07490262470414771,,-0.00015380606,-1.1205673e-05,2.3007393e-05,0.99999994,0.00015203655,0.00013897568,-0.00015203655,1.0,2.2441149e-05,-0.00013896078,-2.2500753e-05,1.0,84,0.253,0,0,0.0,False,-0.2545756186752919,1.05014262996886
0.27296863205265254,14:54:29.932718,14:54:21.768805,0,,0.1319161,0.008330107,0.034894153,-0.6967594,-0.18914053,-0.6919192,-0.5278079,-0.51802355,0.67310506,-0.48574185,0.8341927,0.2611079,,0.013821848,-0.045125857,0.008457303,-0.42815557,-0.7137915,0.5542421,-0.77529967,0.6052389,0.18054467,-0.46432006,-0.3524026,-0.8125388,,0.10338209,1.3393599,0.44165704,0.9916692,0.021340232,-0.12703107,-0.0695395,-0.74143165,-0.66741544,-0.10842766,0.670689,-0.7337709,,-0.104482345,0.26894662,-0.087840475,0.7058037,0.08724561,0.7030145,-0.70494723,0.18446699,0.68485135,-0.06993269,-0.9789587,0.19170102,,0.018176526,0.3871481,-0.3646927,0.5036072,0.7313924,-0.45983142,-0.77896947,0.15424123,-0.6077962,-0.37361252,0.6642852,0.6474094,,1.2346641955337692,0.6050066160996224,0.19796422364000002,0.24303064449856374,-0.060666605895855555,1.37568725290352,-0.4068900687404897,,-0.5897464959401547,-0.3253896269225755,0.18950204252000002,0.8387597739380974,0.3515657138964783,-0.17142956387255892,0.8753608504136026,,-0.08834420341282298,-0.04034983064454391,0.08425707732,-0.07490262470414771,,-0.00015380606,-1.1205673e-05,2.3007393e-05,0.99999994,0.00015203655,0.00013897568,-0.00015203655,1.0,2.2441149e-05,-0.00013896078,-2.2500753e-05,1.0,95,0.287,0,0,0.0,False,-0.2538011083345184,1.049804668563404
0.3044495090143755,14:54:29.966097,14:54:21.768805,0,,0.13166884,0.008278757,0.034951612,-0.6894227,-0.20628533,-0.6943648,-0.5192881,-0.527562,0.67232287,-0.5050109,0.8240901,0.25659174,,0.013833135,-0.04511863,0.008461773,-0.42813566,-0.71376,0.554298,-0.77527314,0.6052644,0.18057331,-0.4643828,-0.3524225,-0.8124943,,0.10338209,1.3393599,0.44165704,0.9916692,0.021340232,-0.12703107,-0.0695395,-0.74143165,-0.66741544,-0.10842766,0.670689,-0.7337709,,-0.1042442,0.2689519,-0.087942176,0.70064527,0.10464432,0.7057944,-0.7118019,0.1709132,0.6812685,-0.049338706,-0.9797133,0.19423556,,0.018164577,0.38715467,-0.36468896,0.50359404,0.7313627,-0.45989302,-0.77900636,0.1542367,-0.60775006,-0.37355334,0.6643189,0.6474089,,1.2363091376359792,0.6033462285316641,0.19785533528000002,0.23359459704176014,-0.03812158343455788,1.3723321869794742,-0.40721675687275827,,-0.589823723268897,-0.3253664587239528,0.18950074623000002,0.8387597739380974,0.3515657138964783,-0.17142956387255892,0.8753608504136026,,-0.08834420341282298,-0.04034983064454391,0.08425707732,-0.07490262470414771,,-0.00015380606,-1.1205673e-05,2.3007393e-05,0.99999994,0.00015203655,0.00013897568,-0.00015203655,1.0,2.2441149e-05,-0.00013896078,-2.2500753e-05,1.0,103,0.312,0,0,0.0,False,-0.2551118181419816,1.05014262996886
0.33783228404354304,14:54:29.991636,14:54:21.840851,0,,0.13152152,0.00825718,0.03503038,-0.6806318,-0.21922782,-0.6990561,-0.51257956,-0.5392532,0.6681828,-0.52345246,0.8131084,0.2546611,,0.013841614,-0.0451151,0.008464158,-0.42812246,-0.71373606,0.5543391,-0.77525735,0.60528094,0.18058574,-0.4644214,-0.3524427,-0.8124635,,0.10338209,1.3393599,0.44165704,0.9916692,0.021340232,-0.12703107,-0.0695395,-0.74143165,-0.66741544,-0.10842766,0.670689,-0.7337709,,-0.10410568,0.26899174,-0.08802932,0.69386816,0.117819555,0.71039814,-0.7194591,0.15510444,0.6769942,-0.030422758,-0.9808472,0.19238839,,0.018155774,0.38715765,-0.3646871,0.503585,0.73134077,-0.45993787,-0.7790295,0.1542275,-0.60772276,-0.37351736,0.6643452,0.6474027,,1.237475270299987,0.6022109867991531,0.19776459498,0.22269071998056483,-0.0178993814692727,1.3735666238429058,-0.4083601653356981,,-0.5898777823990164,-0.3253587359910786,0.18950074623000002,0.8387597739380974,0.3515657138964783,-0.17142956387255892,0.8753608504136026,,-0.08834420341282298,-0.04034983064454391,0.08425707732,-0.07490262470414771,,-0.00015380606,-1.1205673e-05,2.3007393e-05,0.99999994,0.00015203655,0.00013897568,-0.00015203655,1.0,2.2441149e-05,-0.00013896078,-2.2500753e-05,1.0,115,0.347,0,0,0.0,False,-0.2544564632382502,1.049708108161845
0.3633606760413386,14:54:30.026992,14:54:21.840851,0,,0.13142532,0.00824061,0.035100237,-0.67551327,-0.22826028,-0.70112693,-0.5062673,-0.54773396,0.6660937,-0.53607374,0.8049128,0.25444084,,0.013845064,-0.04511279,0.008465052,-0.42811644,-0.7137268,0.55435574,-0.7752491,0.60528874,0.18059501,-0.46444067,-0.35244814,-0.8124502,,0.10338209,1.3393599,0.44165704,0.9916692,0.021340232,-0.12703107,-0.0695395,-0.74143165,-0.66741544,-0.10842766,0.670689,-0.7337709,,-0.10401694,0.26902837,-0.08810138,0.6902186,0.12704258,0.71236116,-0.7234148,0.14347562,0.67534125,-0.016409367,-0.9814657,0.19093403,,0.018152166,0.38715938,-0.36468565,0.50358105,0.731332,-0.4599562,-0.7790408,0.15422669,-0.60770845,-0.3734991,0.6643551,0.6474031,,1.2386645711626176,0.6010680223337678,0.19765441033000003,0.21388374235421487,0.0013663649976544045,1.3762344159533366,-0.40591000434368385,,-0.5899009505976391,-0.32535101325820437,0.18950074623000002,0.8387597739380974,0.3515657138964783,-0.17142956387255892,0.8753608504136026,,-0.08834420341282298,-0.04034983064454391,0.08425707732,-0.07490262470414771,,-0.00015380606,-1.1205673e-05,2.3007393e-05,0.99999994,0.00015203655,0.00013897568,-0.00015203655,1.0,2.2441149e-05,-0.00013896078,-2.2500753e-05,1.0,123,0.372,0,0,0.0,False,-0.2545756186752919,1.0500943497680806
0.3987065010005608,14:54:30.051988,14:54:21.840851,0,,0.13121083,0.008167967,0.035165206,-0.6684393,-0.23329212,-0.70623195,-0.5049773,-0.55478597,0.66121876,-0.54606473,0.7986158,0.25303352,,0.01384633,-0.04511249,0.008465409,-0.4281146,-0.71372306,0.5543618,-0.7752472,0.60529083,0.18059584,-0.46444553,-0.3524518,-0.81244576,,0.10338209,1.3393599,0.44165704,0.9916692,0.021340232,-0.12703107,-0.0695395,-0.74143165,-0.66741544,-0.10842766,0.670689,-0.7337709,,-0.10381324,0.26902243,-0.0882196,0.68411785,0.13220122,0.71729046,-0.72933286,0.13411193,0.6708856,-0.0075053102,-0.98210835,0.18816707,,0.018150866,0.38715968,-0.36468554,0.50357974,0.73132867,-0.45996282,-0.7790438,0.15422459,-0.6077052,-0.37349465,0.66435915,0.64740145,,1.2394831808472853,0.6003806991079619,0.19757663293000002,0.2075930440496791,0.007105097987802903,1.3765372671466614,-0.40541997214528114,,-0.5899086733305134,-0.32535101325820437,0.18950074623000002,0.8387597739380974,0.3515657138964783,-0.17142956387255892,0.8753608504136026,,-0.08834420341282298,-0.04034983064454391,0.08425707732,-0.07490262470414771,,-0.00015380606,-1.1205673e-05,2.3007393e-05,0.99999994,0.00015203655,0.00013897568,-0.00015203655,1.0,2.2441149e-05,-0.00013896078,-2.2500753e-05,1.0,142,0.43,0,0,0.0,False,-0.2543373078012081,1.0499012289649627
0.42372383299516514,14:54:30.101183,14:54:21.944538,0,,0.1309058,0.008137062,0.035288587,-0.66294736,-0.25284576,-0.70467705,-0.4901172,-0.5649384,0.6637994,-0.565938,0.7854384,0.2506004,,0.013847664,-0.04511009,0.00846535,-0.42816776,-0.713791,0.5542333,-0.77527666,0.6052595,0.18057433,-0.46434724,-0.35236812,-0.81253815,,0.10338209,1.3393599,0.44165704,0.9916692,0.021340232,-0.12703107,-0.0695395,-0.74143165,-0.66741544,-0.10842766,0.670689,-0.7337709,,-0.103522226,0.2690883,-0.08836167,0.68119836,0.15222791,0.71609735,-0.731887,0.1180718,0.6711188,0.017612102,-0.9812674,0.19184394,,0.01814947,0.3871609,-0.3646835,0.5036218,0.7313872,-0.45982367,-0.7789763,0.15428092,-0.6077773,-0.37357852,0.66428167,0.64743257,,1.241599209654823,0.5986044705468901,0.19744311506,0.20235079546256599,0.034295761441125554,1.3713542822603104,-0.40607334840981824,,-0.5899241187962618,-0.3253355677924559,0.18950074623000002,0.8387597739380974,0.35142907739671286,-0.17131814596886252,0.8753608504136026,,-0.08834420341282298,-0.04034983064454391,0.08425707732,-0.07490262470414771,,-0.00015380606,-1.1205673e-05,2.3007393e-05,0.99999994,0.00015203655,0.00013897568,-0.00015203655,1.0,2.2441149e-05,-0.00013896078,-2.2500753e-05,1.0,150,0.455,0,0,0.0,False,-0.2538011083345184,1.05014262996886
0.472917644015979,14:54:30.133561,14:54:21.944538,0,,0.13074213,0.008134782,0.035408303,-0.65366757,-0.26530927,-0.7087522,-0.4796647,-0.5791433,0.6591773,-0.585355,0.77084625,0.25130767,,0.013845108,-0.045106277,0.008466065,-0.42816776,-0.7138,0.55422175,-0.77527094,0.605261,0.18059433,-0.46435702,-0.3523473,-0.81254166,,0.10338209,1.3393599,0.44165704,0.9916692,0.021340232,-0.12703107,-0.0695395,-0.74143165,-0.66741544,-0.10842766,0.670689,-0.7337709,,-0.10336989,0.2691703,-0.08846749,0.674227,0.16509953,0.7198334,-0.7374503,0.09796331,0.66825914,0.039812006,-0.98139966,0.18780221,,0.018151809,0.387164,-0.36468098,0.5036228,0.73139364,-0.45981237,-0.77898073,0.15429947,-0.607767,-0.37356812,0.6642703,0.64745027,,1.242942965174938,0.5974460606157566,0.19734848589,0.19249536811879336,0.057797239400781304,1.3743253414026184,-0.40394987555007233,,-0.5899163960633876,-0.32531239959383323,0.18949944994,0.8387597739380974,0.35142907739671286,-0.17131814596886252,0.8753608504136026,,-0.08834420341282298,-0.04034983064454391,0.08425707732,-0.07490262470414771,,-0.00015380606,-1.1205673e-05,2.3007393e-05,0.99999994,0.00015203655,0.00013897568,-0.00015203655,1.0,2.2441149e-05,-0.00013896078,-2.2500753e-05,1.0,162,0.491,0,0,0.0,False,-0.2537415306159976,1.0499977893665218
0.5052759780082852,14:54:30.164679,14:54:21.944538,0,,0.13055111,0.008104444,0.03549947,-0.6456875,-0.2748622,-0.7124172,-0.47201017,-0.5897139,0.65531975,-0.6002449,0.7594,0.25103313,,0.013849489,-0.045102313,0.008467317,-0.4281593,-0.71374357,0.5543009,-0.77525824,0.60528696,0.18056193,-0.464386,-0.35241714,-0.8124948,,0.10338209,1.3393599,0.44165704,0.9916692,0.021340232,-0.12703107,-0.0695395,-0.74143165,-0.66741544,-0.10842766,0.670689,-0.7337709,,-0.10318945,0.26921284,-0.08857403,0.6680019,0.1750055,0.7232887,-0.74199784,0.082607806,0.6652933,0.056680683,-0.98109585,0.18503587,,0.01814719,0.38716683,-0.36467826,0.5036174,0.73134506,-0.45989552,-0.7789975,0.1542524,-0.6077575,-0.37354046,0.6643347,0.64740014,,1.2442326615649335,0.5962799279517487,0.19725515301000002,0.18389808043592787,0.07596989386958489,1.3760058657193879,-0.4055833162114155,,-0.5899472869948845,-0.3252969541280848,0.18949944994,0.8387597739380974,0.35142907739671286,-0.1713998247090031,0.8755241944797367,,-0.08834420341282298,-0.04034983064454391,0.08425707732,-0.07490262470414771,,-0.00015380606,-1.1205673e-05,2.3007393e-05,0.99999994,0.00015203655,0.00013897568,-0.00015203655,1.0,2.2441149e-05,-0.00013896078,-2.2500753e-05,1.0,170,0.515,0,0,0.0,False,-0.2551118181419816,1.0500943497680806
0.5363544540014118,14:54:30.194230,14:54:21.944538,0,,0.13036089,0.008049145,0.035570964,-0.6386237,-0.28619382,-0.7143197,-0.46560067,-0.5953645,0.65479547,-0.61267906,0.7507557,0.2469619,,0.013851635,-0.045095906,0.008469284,-0.42815143,-0.7137397,0.5543121,-0.77524227,0.6052984,0.18059203,-0.4644199,-0.35240543,-0.8124805,,0.10338209,1.3393599,0.44165704,0.9916692,0.021340232,-0.12703107,-0.0695395,-0.74143165,-0.66741544,-0.10842766,0.670689,-0.7337709,,-0.10300948,0.26922366,-0.08868289,0.66240656,0.18671134,0.7255042,-0.7457896,0.07280365,0.66219145,0.0708193,-0.9797135,0.187473,,0.01814462,0.38717195,-0.36467418,0.5036131,0.73133945,-0.4599092,-0.77901614,0.15426803,-0.6077296,-0.37350735,0.6643373,0.6474166,,1.2453756260303186,0.5950983498219923,0.19716052384000002,0.17634924247048497,0.09140981834307967,1.3724819827572947,-0.40672672467435556,,-0.5899704551935072,-0.3252660631965879,0.18949815365000003,0.8387597739380974,0.35142907739671286,-0.1713998247090031,0.8755241944797367,,-0.08834420341282298,-0.04034983064454391,0.08425707732,-0.07490262470414771,,-0.00015380606,-1.1205673e-05,2.3007393e-05,0.99999994,0.00015203655,0.00013897568,-0.00015203655,1.0,2.2441149e-05,-0.00013896078,-2.2500753e-05,1.0,189,0.574,0,0,0.0,False,-0.254694774112334,1.050046069567301
0.5659678160445765,14:54:30.253817,14:54:22.078000,0,,0.12986124,0.007846445,0.035709694,-0.6121806,-0.2961948,-0.73314625,-0.46834016,-0.6112319,0.63800704,-0.6370967,0.73393744,0.23546444,,0.013851717,-0.04509382,0.008468926,-0.42820638,-0.7138113,0.55417734,-0.7752737,0.60526484,0.1805698,-0.4643168,-0.35231805,-0.8125773,,0.10338209,1.3393599,0.44165704,0.9916692,0.021340232,-0.12703107,-0.0695395,-0.74143165,-0.66741544,-0.10842766,0.670689,-0.7337709,,-0.10253572,0.2691766,-0.088971555,0.6380635,0.19723378,0.74429417,-0.7647596,0.049922824,0.64237875,0.089541525,-0.97908455,0.18269037,,0.018144524,0.38717285,-0.36467227,0.50365645,0.73140126,-0.4597634,-0.77894574,0.15432645,-0.60780495,-0.37359565,0.6642557,0.6474494,,1.2478160096185735,0.5925344025077497,0.19689996955000003,0.1436376112868992,0.11272511230648836,1.3747853661545284,-0.4059100043436843,,-0.5899704551935072,-0.32525061773083946,0.18949815365000003,0.8387597739380974,0.3512924408969474,-0.1712884068053066,0.8755241944797367,,-0.08834420341282298,-0.04034983064454391,0.08425707732,-0.07490262470414771,,-0.00015380606,-1.1205673e-05,2.3007393e-05,0.99999994,0.00015203655,0.00013897568,-0.00015203655,1.0,2.2441149e-05,-0.00013896078,-2.2500753e-05,1.0,197,0.597,0,0,0.0,False,-0.2537415306159976,1.0495632675595068
0.6255191609961912,14:54:30.275301,14:54:22.078000,0,,0.12967253,0.0077591687,0.03575717,-0.61056477,-0.2993339,-0.73321885,-0.46603614,-0.6127559,0.6382323,-0.64032876,0.7313887,0.23462678,,0.013851069,-0.04509245,0.008470118,-0.42820576,-0.713813,0.55417556,-0.77527106,0.6052661,0.18057671,-0.4643216,-0.35231236,-0.812577,,0.10338209,1.3393599,0.44165704,0.9916692,0.021340232,-0.12703107,-0.0695395,-0.74143165,-0.66741544,-0.10842766,0.670689,-0.7337709,,-0.10235697,0.26914763,-0.089084186,0.6368636,0.20049219,0.7444513,-0.7652708,0.04713332,0.6419806,0.09362363,-0.97856086,0.18344831,,0.018144986,0.3871747,-0.3646719,0.5036563,0.7314023,-0.45976186,-0.7789482,0.15433194,-0.6078004,-0.3735907,0.66425323,0.64745474,,1.2487272920977321,0.5916617336929624,0.19679626635000003,0.14175040179553847,0.11778066279780966,1.3732766234022589,-0.40591000434368385,,-0.5899781779263814,-0.3252428949979652,0.18949685736000002,0.8387597739380974,0.3512924408969474,-0.1712884068053066,0.8755241944797367,,-0.08834420341282298,-0.04034983064454391,0.08425707732,-0.07490262470414771,,-0.00015380606,-1.1205673e-05,2.3007393e-05,0.99999994,0.00015203655,0.00013897568,-0.00015203655,1.0,2.2441149e-05,-0.00013896078,-2.2500753e-05,1.0,205,0.622,0,0,0.0,False,-0.25386068605304013,1.05014262996886
0.6470380650134757,14:54:30.305415,14:54:22.078000,0,,0.12940851,0.0076889396,0.035839304,-0.6049043,-0.3091886,-0.7338209,-0.45786688,-0.618914,0.63820314,-0.6514972,0.7220441,0.23281653,,0.0138561055,-0.04509121,0.008471489,-0.42819855,-0.7137983,0.5542001,-0.77526355,0.6052748,0.18057984,-0.4643409,-0.3523271,-0.8125596,,0.10338209,1.3393599,0.44165704,0.9916692,0.021340232,-0.12703107,-0.0695395,-0.74143165,-0.66741544,-0.10842766,0.670689,-0.7337709,,-0.102105334,0.26915592,-0.08921835,0.6326523,0.21076135,0.74520516,-0.76688564,0.0364562,0.64074755,0.10787746,-0.9768575,0.18469395,,0.01813979,0.38717595,-0.36467144,0.5036512,0.73138916,-0.45978838,-0.77896,0.15432355,-0.60778743,-0.37357295,0.6642696,0.6474481,,1.2502177795424574,0.5902407508441051,0.19668478541,0.13629846326494083,0.13363049677060077,1.370561989091044,-0.40672672467435533,,-0.5900090688578783,-0.3252428949979652,0.18949685736000002,0.8387597739380974,0.3512924408969474,-0.17128840680530666,0.8758508826120054,,-0.08834420341282298,-0.04034983064454391,0.08425707732,-0.07490262470414771,,-0.00015380606,-1.1205673e-05,2.3007393e-05,0.99999994,0.00015203655,0.00013897568,-0.00015203655,1.0,2.2441149e-05,-0.00013896078,-2.2500753e-05,1.0,213,0.646,0,0,0.0,False,-0.2532649088678296,1.0499977893665218
0.677143901004456,14:54:30.330533,14:54:22.078000,0,,0.12915885,0.0075962692,0.03593844,-0.5984636,-0.3120012,-0.7379,-0.45209926,-0.6288613,0.6325659,-0.66139805,0.7121719,0.23529506,,0.013906054,-0.045088872,0.008484185,-0.42817184,-0.71381676,0.5541971,-0.775274,0.60525423,0.18060392,-0.4643482,-0.3523251,-0.8125564,,0.10338993,1.3393606,0.4416539,0.9916674,0.021321228,-0.12704818,-0.069564916,-0.7414322,-0.6674122,-0.10842766,0.670689,-0.7337709,,-0.10187525,0.26916307,-0.089378454,0.62740964,0.21384473,0.7487506,-0.769441,0.022497868,0.6383215,0.11965641,-0.9766086,0.1786563,,0.018081596,0.38718298,-0.36467698,0.50360477,0.7314221,-0.45978677,-0.7789855,0.1543033,-0.6077599,-0.37358245,0.66423804,0.6474751,,1.2517777715830507,0.58889699532399,0.19653700835000001,0.12937869512995154,0.1468842372478485,1.3751100555789169,-0.40541997214528114,,-0.5900167915907525,-0.3252274495322168,0.18949685736000002,0.8387597739380974,0.3512924408969474,-0.17128840680530666,0.8758508826120054,,-0.08834420341282298,-0.04034983064454391,0.08425707732,-0.07490262470414771,,-0.0001457408,-1.3709068e-05,2.3841858e-05,1.0,0.00013322383,0.00012179464,-0.00013323128,1.0,1.9699335e-05,-0.00012177974,-1.9729137e-05,1.0,225,0.683,0,0,0.0,False,-0.2546351963938136,1.05014262996886
0.7022663200041279,14:54:30.363139,14:54:22.189036,0,,0.12882268,0.0074698627,0.036032677,-0.59319884,-0.31203446,-0.7421251,-0.45246175,-0.63324356,0.6279179,-0.6658779,0.7082634,0.23445562,,0.013905078,-0.045084774,0.008483946,-0.42816997,-0.7137768,0.55424994,-0.77526623,0.60527265,0.18057531,-0.46436274,-0.35237437,-0.8125267,,0.10338993,1.3393606,0.4416539,0.9916674,0.021321228,-0.12704818,-0.069564916,-0.7414322,-0.6674122,-0.10842766,0.670689,-0.7337709,,-0.101556025,0.26913938,-0.08956662,0.6225401,0.21397266,0.7527679,-0.7728252,0.016627857,0.6344011,0.12322757,-0.9766981,0.17571497,,0.01808246,0.38718534,-0.36467358,0.5036044,0.73138773,-0.45984185,-0.77899283,0.1542701,-0.60775894,-0.37356758,0.6642836,0.6474369,,1.2534227136852607,0.5876459125983656,0.19636330549000003,0.12224923705147771,0.15180315123940433,1.3766531653754042,-0.40443990774847527,,-0.5900167915907525,-0.3252042813335941,0.18949685736000002,0.8387597739380974,0.3512924408969474,-0.1713700855454472,0.8756875385458711,,-0.08834420341282298,-0.04034983064454391,0.08425707732,-0.07490262470414771,,-0.0001457408,-1.3709068e-05,2.3841858e-05,1.0,0.00013322383,0.00012179464,-0.00013323128,1.0,1.9699335e-05,-0.00012177974,-1.9729137e-05,1.0,236,0.717,0,0,0.0,False,-0.25260955396409823,1.0501909101696396
0.7348368350067176,14:54:30.394598,14:54:22.189036,0,,0.1285254,0.0073877275,0.036125183,-0.5881675,-0.31922054,-0.7430728,-0.44987538,-0.6343872,0.62862146,-0.6720647,0.704025,0.2295164,,0.013903536,-0.045075893,0.00848496,-0.4284798,-0.7134979,0.55436975,-0.7750255,0.60562277,0.18043503,-0.4644789,-0.35233793,-0.81247604,,0.10338993,1.3393606,0.4416539,0.9916674,0.021321228,-0.12704818,-0.069564916,-0.7414322,-0.6674122,-0.10842766,0.670689,-0.7337709,,-0.10127289,0.26914647,-0.08971976,0.6182141,0.22142382,0.7541769,-0.77518296,0.013049098,0.631602,0.1300104,-0.9750904,0.17971112,,0.0180836,0.38719153,-0.3646671,0.50391823,0.73109573,-0.4599624,-0.77890927,0.15447335,-0.6078144,-0.3733186,0.66455775,0.6472992,,1.2549981511916024,0.5864875026672319,0.19622849133000003,0.11616822869042649,0.15986470472556533,1.371059653939002,-0.4064000365420868,,-0.5900167915907525,-0.32515022220347456,0.18949556107,0.8391791538250665,0.3512924408969474,-0.17145176428558778,0.8755241944797368,,-0.08834420341282298,-0.04034983064454391,0.08425707732,-0.07490262470414771,,-0.0001457408,-1.3709068e-05,2.3841858e-05,1.0,0.00013322383,0.00012179464,-0.00013323128,1.0,1.9699335e-05,-0.00012177974,-1.9729137e-05,1.0,248,0.753,0,0,0.0,False,-0.2545756186752919,1.050335750771978
0.7663322980515659,14:54:30.431255,14:54:22.255334,0,,0.1281726,0.0072529316,0.036296993,-0.5781552,-0.32332823,-0.7491298,-0.44688898,-0.64269173,0.6222842,-0.6826614,0.69455475,0.22708367,,0.01390139,-0.045068696,0.008484483,-0.4283197,-0.7136299,0.5543236,-0.7751241,0.6054654,0.18053955,-0.4644621,-0.3523409,-0.8124844,,0.10338993,1.3393606,0.4416539,0.9916674,0.021321228,-0.12704818,-0.069564916,-0.7414322,-0.6674122,-0.10842766,0.670689,-0.7337709,,-0.10094431,0.26916924,-0.089972086,0.60933715,0.22586796,0.7600604,-0.78031033,0.00060311717,0.6253922,0.14079764,-0.97415775,0.17661461,,0.018085565,0.38719562,-0.36466107,0.50376034,0.731232,-0.4599188,-0.7789719,0.1543935,-0.6077544,-0.373401,0.6644264,0.6473865,,1.2568516070814162,0.5850510743526262,0.19600293687000003,0.10442559185529314,0.17216198970445498,1.372222030005581,-0.40721675687275827,,-0.5900167915907525,-0.3251116085391034,0.18949556107,0.838969463881582,0.3512924408969474,-0.17145176428558773,0.8751975063474682,,-0.08834420341282298,-0.04034983064454391,0.08425707732,-0.07490262470414771,,-0.0001457408,-1.3709068e-05,2.3841858e-05,1.0,0.00013322383,0.00012179464,-0.00013323128,1.0,1.9699335e-05,-0.00012177974,-1.9729137e-05,1.0,256,0.778,0,0,0.0,False,-0.2537415306159976,1.0499977893665218
0.802943137998227,14:54:30.457783,14:54:22.255334,0,,0.12797931,0.0071712434,0.03642291,-0.5732673,-0.32740802,-0.7511115,-0.44141725,-0.648891,0.619751,-0.69030094,0.6868366,0.22746438,,0.013898715,-0.045062438,0.00848341,-0.42821753,-0.7138336,0.5541402,-0.775261,0.6052699,0.18060705,-0.4643277,-0.35226417,-0.81259453,,0.10338993,1.3393606,0.4416539,0.9916674,0.021321228,-0.12704818,-0.069564916,-0.7414322,-0.6674122,-0.10842766,0.670689,-0.7337709,,-0.10076746,0.2691974,-0.0901389,0.6054396,0.23024967,0.7618582,-0.78151834,-0.0091079315,0.62381583,0.15057234,-0.973089,0.17443003,,0.018088156,0.38719875,-0.3646555,0.5036473,0.7314311,-0.4597259,-0.77895623,0.1543632,-0.6077822,-0.37358603,0.6642142,0.6474975,,1.257940512416682,0.584147514606342,0.19585775239000003,0.09960272315514906,0.18295627318592475,1.3732214644304312,-0.40525662807914675,,-0.5900167915907525,-0.3250729948747323,0.18949556107,0.8387597739380974,0.35115580439718197,-0.17134034638189133,0.8751975063474682,,-0.08834420341282298,-0.04034983064454391,0.08425707732,-0.07490262470414771,,-0.0001457408,-1.3709068e-05,2.3841858e-05,1.0,0.00013322383,0.00012179464,-0.00013323128,1.0,1.9699335e-05,-0.00012177974,-1.9729137e-05,1.0,264,0.802,0,0,0.0,False,-0.25451604095677105,1.049804668563404
0.8294973510201089,14:54:30.491627,14:54:22.328380,0,,0.12782481,0.007100433,0.03651294,-0.5671822,-0.3349344,-0.75241166,-0.43402866,-0.65486115,0.61868894,-0.69994533,0.6774776,0.22605437,,0.013899401,-0.045058668,0.008484542,-0.42827007,-0.71385795,0.5540681,-0.7752879,0.60525453,0.18054304,-0.4642343,-0.35224113,-0.81265783,,0.10338993,1.3393606,0.4416539,0.9916674,0.021321228,-0.12704818,-0.069564916,-0.7414322,-0.6674122,-0.10842766,0.670689,-0.7337709,,-0.1006255,0.26920867,-0.090268165,0.600631,0.23821436,0.76321447,-0.78268725,-0.019697238,0.62210345,0.16322719,-0.97101283,0.17461656,,0.018087223,0.38720182,-0.3646531,0.5036893,0.7314531,-0.4596449,-0.77889127,0.15437537,-0.60786235,-0.37366495,0.66418713,0.64747965,,1.2587822902999724,0.5831281138669443,0.19575534548,0.09415078462455143,0.19675655966223426,1.3718513837141009,-0.4057466602775497,,-0.590032237056501,-0.3250498266761096,0.18949426478000003,0.8387597739380974,0.3510191678974165,-0.17131060721833546,0.8753608504136026,,-0.08834420341282298,-0.04034983064454391,0.08425707732,-0.07490262470414771,,-0.0001457408,-1.3709068e-05,2.3841858e-05,1.0,0.00013322383,0.00012179464,-0.00013323128,1.0,1.9699335e-05,-0.00012177974,-1.9729137e-05,1.0,283,0.86,0,0,0.0,False,-0.2552905512975445,1.0502391903704191
0.8633615809958428,14:54:30.531830,14:54:22.328380,0,,0.12768796,0.0070392042,0.03661552,-0.55326843,-0.34563193,-0.75791335,-0.4245173,-0.66584784,0.61354023,-0.716714,0.6611998,0.22166573,,0.01391194,-0.0450498,0.008488059,-0.4282478,-0.7138246,0.55412835,-0.7752569,0.60528344,0.1805794,-0.4643067,-0.35225907,-0.81260866,,0.10338993,1.3393606,0.4416539,0.9916674,0.021321228,-0.12704818,-0.069564916,-0.7414322,-0.6674122,-0.10842766,0.670689,-0.7337709,,-0.10050165,0.26923516,-0.090398364,0.58876926,0.24965338,0.7687808,-0.7872379,-0.0386016,0.61544,0.18332285,-0.96756554,0.17380917,,0.018074088,0.3872084,-0.36464742,0.50367475,0.73142123,-0.4597116,-0.7789336,0.15437421,-0.6078084,-0.37359637,0.66422254,0.64748293,,1.2595082271901494,0.5818615856755714,0.19566719776000002,0.08073062824154187,0.21820849012540838,1.3710212358224374,-0.4047665958807438,,-0.5901171871181174,-0.3250189357446127,0.18949426478000003,0.8387597739380974,0.3510191678974165,-0.17131060721833546,0.8753608504136026,,-0.08834420341282298,-0.04034983064454391,0.08425707732,-0.07490262470414771,,-0.0001457408,-1.3709068e-05,2.3841858e-05,1.0,0.00013322383,0.00012179464,-0.00013323128,1.0,1.9699335e-05,-0.00012177974,-1.9729137e-05,1.0,291,0.884,0,0,0.0,False,-0.2538011083345184,1.0500943497680806
0.9035295460489579,14:54:30.561887,14:54:22.395485,0,,0.12752935,0.006942272,0.036678135,-0.5388378,-0.3542036,-0.7643255,-0.41521695,-0.6777699,0.6068136,-0.73297244,0.6443351,0.2181367,,0.013922289,-0.04504426,0.008492291,-0.4282303,-0.7137498,0.5542382,-0.7752347,0.6053203,0.1805509,-0.4643597,-0.35234737,-0.81254005,,0.10338993,1.3393606,0.4416539,0.9916674,0.021321228,-0.12704818,-0.069564916,-0.7414322,-0.6674122,-0.10842766,0.670689,-0.7337709,,-0.100354664,0.26920873,-0.09052555,0.5763376,0.25897667,0.775091,-0.79160863,-0.058629394,0.6082092,0.20295511,-0.9641025,0.17121784,,0.01806315,0.38721386,-0.36464494,0.50366294,0.73135626,-0.45982787,-0.77896506,0.15431665,-0.60778266,-0.37354654,0.6643075,0.6474245,,1.260141491285836,0.5803015936349781,0.19558682778000003,0.06689109197156327,0.23952378408881708,1.3720177593774219,-0.4032964992855357,,-0.5901866917139855,-0.32500349027886427,0.18949296849000002,0.8387597739380974,0.3510191678974165,-0.171392285958476,0.8755241944797367,,-0.08834420341282298,-0.04034983064454391,0.08425707732,-0.07490262470414771,,-0.0001457408,-1.3709068e-05,2.3841858e-05,1.0,0.00013322383,0.00012179464,-0.00013323128,1.0,1.9699335e-05,-0.00012177974,-1.9729137e-05,1.0,299,0.909,0,0,0.0,False,-0.25350321974191337,1.0502391903704191
0.9336247520404868,14:54:30.587859,14:54:22.395485,0,,0.12740648,0.0068778545,0.036681235,-0.5315874,-0.3571831,-0.7680072,-0.41100773,-0.68404776,0.6026203,-0.7405994,0.6360023,0.21682605,,0.013938718,-0.04503946,0.008495867,-0.42847693,-0.7137222,0.5540831,-0.77516854,0.60544044,0.18043226,-0.4642427,-0.3521968,-0.8126722,,0.10338993,1.3393606,0.4416539,0.9916674,0.021321228,-0.12704818,-0.069564916,-0.7414322,-0.6674122,-0.10842766,0.670689,-0.7337709,,-0.1002363,0.2691655,-0.09058362,0.5700188,0.26231268,0.7786338,-0.79378074,-0.06883262,0.60429645,0.21211003,-0.9625249,0.16898288,,0.018046273,0.3872177,-0.36464247,0.5038919,0.7313074,-0.45965472,-0.7788045,0.15450473,-0.6079407,-0.37357268,0.66431755,0.6473992,,1.2605816870596667,0.5792821928955805,0.19555442053000002,0.059761633893089444,0.24977152157122512,1.3733811866769172,-0.4081968212695639,,-0.5902948099742247,-0.32498804481311583,0.18949296849000002,0.838969463881582,0.35074589489788566,-0.17116945015108326,0.8758508826120054,,-0.08834420341282298,-0.04034983064454391,0.08425707732,-0.07490262470414771,,-0.0001457408,-1.3709068e-05,2.3841858e-05,1.0,0.00013322383,0.00012179464,-0.00013323128,1.0,1.9699335e-05,-0.00012177974,-1.9729137e-05,1.0,311,0.945,0,0,0.0,False,-0.2539202637715605,1.049708108161845
0.9595933899981901,14:54:30.625181,14:54:22.395485,0,,0.12711301,0.006756142,0.03666362,-0.5143769,-0.36654884,-0.7752795,-0.40295753,-0.69471866,0.59581137,-0.75699514,0.61887634,0.20964354,,0.013955288,-0.045034394,0.008500397,-0.4281374,-0.7139167,0.55409485,-0.7753649,0.60514414,0.18058243,-0.464228,-0.35231167,-0.8126308,,0.10338993,1.3393606,0.4416539,0.9916674,0.021321228,-0.12704818,-0.069564916,-0.7414322,-0.6674122,-0.10842766,0.670689,-0.7337709,,-0.0999496,0.269069,-0.09068235,0.55476445,0.2725179,0.78611094,-0.799215,-0.08810015,0.5945534,0.23128293,-0.9581087,0.16892557,,0.018029137,0.38722244,-0.3646403,0.50355923,0.73152316,-0.4596759,-0.7789466,0.15426068,-0.6078206,-0.37372494,0.66413665,0.6474969,,1.2616242559976871,0.5770117094305585,0.19551423554000003,0.04235736858387392,0.2713600885341647,1.3711327610393085,-0.40607334840981824,,-0.5904029282344637,-0.32498804481311583,0.18949296849000002,0.8385500839946128,0.35074589489788566,-0.17116945015108326,0.8758508826120054,,-0.08834420341282298,-0.04034983064454391,0.08425707732,-0.07490262470414771,,-0.0001457408,-1.3709068e-05,2.3841858e-05,1.0,0.00013322383,0.00012179464,-0.00013323128,1.0,1.9699335e-05,-0.00012177974,-1.9729137e-05,1.0,343,1.044,0,0,0.0,False,-0.25427773008268684,1.0496115477602863
0.9968921330291778,14:54:30.718515,14:54:22.533319,0,,0.12622124,0.0065211356,0.0365884,-0.47158805,-0.3773043,-0.7970233,-0.38754326,-0.72319776,0.57166004,-0.7920952,0.57846916,0.19482964,,0.013988078,-0.045022905,0.008509457,-0.42793036,-0.7138986,0.5542782,-0.7754201,0.60505694,0.1806376,-0.46432665,-0.35249817,-0.81249356,,0.10338993,1.3393606,0.4416539,0.9916674,0.021321228,-0.12704818,-0.069564916,-0.7414322,-0.6674122,-0.10842766,0.670689,-0.7337709,,-0.09906909,0.26886052,-0.09087572,0.5160938,0.28513074,0.8076804,-0.8122951,-0.13619438,0.5671224,0.27170557,-0.9487632,0.16132122,,0.01799517,0.3872327,-0.36463484,0.50336707,0.7315299,-0.45987567,-0.7790815,0.15405796,-0.60769904,-0.37370247,0.66417634,0.64746916,,1.2649990902637231,0.5714127280967457,0.19547145797,-0.0027259692652988167,0.31767986195464903,1.3723228507332697,-0.40591000434368385,,-0.5906114420220678,-0.3249725993473674,0.18949296849000002,0.8383403940511285,0.35074589489788566,-0.1712511288912238,0.8756875385458711,,-0.08834420341282298,-0.04034983064454391,0.08425707732,-0.07490262470414771,,-0.0001457408,-1.3709068e-05,2.3841858e-05,1.0,0.00013322383,0.00012179464,-0.00013323128,1.0,1.9699335e-05,-0.00012177974,-1.9729137e-05,1.0,351,1.068,0,0,0.0,False,-0.2540989969271239,1.0496115477602863
1.0902484290418215,14:54:30.746483,14:54:22.533319,0,,0.12606612,0.0064849406,0.036586553,-0.46328583,-0.37966883,-0.8007608,-0.38493615,-0.72767645,0.5677245,-0.798242,0.57126063,0.19097388,,0.0139884055,-0.045024306,0.008509517,-0.427931,-0.7138969,0.55428,-0.7754227,0.6050557,0.18063065,-0.4643218,-0.35250384,-0.8124939,,0.10338993,1.3393606,0.4416539,0.9916674,0.021321228,-0.12704818,-0.069564916,-0.7414322,-0.6674122,-0.10842766,0.670689,-0.7337709,,-0.09891664,0.26883534,-0.09091446,0.5085119,0.28785768,0.8115132,-0.81466794,-0.14432253,0.56168246,0.27880424,-0.946736,0.16111869,,0.017994883,0.3872319,-0.36463597,0.5033672,0.7315288,-0.45987722,-0.7790791,0.15405248,-0.60770357,-0.37370744,0.6641787,0.6474638,,1.26557829522929,0.570493722884713,0.19546108765000003,-0.011532946891648839,0.32574141544081003,1.3712216700045983,-0.4050932840130126,,-0.5906114420220678,-0.3249803220802416,0.18949296849000002,0.8383403940511285,0.35074589489788566,-0.1712511288912238,0.8756875385458711,,-0.08834420341282298,-0.04034983064454391,0.08425707732,-0.07490262470414771,,-0.0001457408,-1.3709068e-05,2.3841858e-05,1.0,0.00013322383,0.00012179464,-0.00013323128,1.0,1.9699335e-05,-0.00012177974,-1.9729137e-05,1.0,363,1.105,0,0,0.0,False,-0.2551713958605024,1.0496115477602863
1.1182072520023212,14:54:30.784873,14:54:22.600207,0,,0.12585258,0.0064334273,0.03661862,-0.45215246,-0.38426048,-0.8049236,-0.3726952,-0.7384888,0.56190073,-0.81034327,0.55405605,0.19069743,,0.013988078,-0.045022905,0.008509457,-0.42793036,-0.7138534,0.5543364,-0.7754201,0.60507166,0.18058816,-0.46432665,-0.35256454,-0.8124648,,0.10338993,1.3393606,0.4416539,0.9916674,0.021321228,-0.12704818,-0.069564916,-0.7414322,-0.6674122,-0.10842766,0.670689,-0.7337709,,-0.098709874,0.26882273,-0.09099421,0.49916363,0.29331303,0.8153546,-0.8140056,-0.16383123,0.55727386,0.29703626,-0.9418741,0.15697987,,0.01799517,0.3872327,-0.36463484,0.50336707,0.73149234,-0.45993543,-0.7790815,0.15400833,-0.6077116,-0.37370247,0.6642292,0.64741486,,1.2664664095098257,0.568910562645497,0.19544812475,-0.020968994348452438,0.34610025390586063,1.3732431551058801,-0.4041132196162067,,-0.5906114420220678,-0.3249725993473674,0.18949296849000002,0.8383403940511285,0.35074589489788566,-0.17133280763136438,0.8755241944797368,,-0.08834420341282298,-0.04034983064454391,0.08425707732,-0.07490262470414771,,-0.0001457408,-1.3709068e-05,2.3841858e-05,1.0,0.00013322383,0.00012179464,-0.00013323128,1.0,1.9699335e-05,-0.00012177974,-1.9729137e-05,1.0,371,1.13,0,0,0.0,False,-0.25451604095677105,1.0502874705711984
1.1565447770408355,14:54:30.811728,14:54:22.600207,0,,0.12575796,0.006410569,0.03663698,-0.4432806,-0.38607195,-0.80898124,-0.36862504,-0.74413687,0.5571139,-0.81707877,0.54516864,0.18754557,,0.013989858,-0.04502298,0.008509934,-0.42808568,-0.71368146,0.55443794,-0.7753069,0.605252,0.1804699,-0.46437263,-0.35260302,-0.8124218,,0.10338993,1.3393606,0.4416539,0.9916674,0.021321228,-0.12704818,-0.069564916,-0.7414322,-0.6674122,-0.10842766,0.670689,-0.7337709,,-0.09861862,0.26881993,-0.09103265,0.49114725,0.29557014,0.81939775,-0.8157069,-0.1739649,0.55168694,0.30560863,-0.9393479,0.15565623,,0.017993348,0.38723284,-0.36463508,0.5035232,0.7313206,-0.46003756,-0.7790342,0.15406397,-0.60775816,-0.3735909,0.66440535,0.6472986,,1.2667675960919205,0.5682077939539425,0.19544164330000002,-0.02977597197480246,0.35552817238967604,1.373396478804321,-0.4073801009388922,,-0.590619164754942,-0.3249725993473674,0.18949296849000002,0.8385500839946128,0.35074589489788566,-0.17141448637150491,0.8753608504136026,,-0.08834420341282298,-0.04034983064454391,0.08425707732,-0.07490262470414771,,-0.0001457408,-1.3709068e-05,2.3841858e-05,1.0,0.00013322383,0.00012179464,-0.00013323128,1.0,1.9699335e-05,-0.00012177974,-1.9729137e-05,1.0,379,1.154,0,0,0.0,False,-0.25439688551972894,1.049418426957168
1.1834583510062657,14:54:30.838577,14:54:22.667543,0,,0.12563974,0.0063468367,0.036617577,-0.4384199,-0.3883534,-0.8105366,-0.3621851,-0.7490221,0.55478615,-0.82256293,0.53679365,0.18773036,,0.013994381,-0.045019954,0.008509874,-0.42744806,-0.7141547,0.55432034,-0.7757427,0.604609,0.18075234,-0.4642321,-0.35274774,-0.81243926,,0.10338993,1.3393606,0.4416539,0.9916674,0.021321228,-0.12704818,-0.069564916,-0.7414322,-0.6674122,-0.10842766,0.670689,-0.7337709,,-0.098502874,0.2687619,-0.0910733,0.4871441,0.29829276,0.82079965,-0.81474525,-0.18318188,0.5501223,0.31445312,-0.93673146,0.15379663,,0.017988775,0.38723403,-0.3646324,0.5028871,0.7318273,-0.45992747,-0.77925,0.15362388,-0.6075929,-0.37399724,0.66394913,0.6475319,,1.2671073963383865,0.5671497795501738,0.19543775443000003,-0.0335503909575239,0.3657759098720841,1.3742698336629726,-0.40656338060822117,,-0.5906577784193132,-0.3249725993473674,0.18949426478000003,0.8377113242206747,0.35074589489788566,-0.17141448637150491,0.8753608504136026,,-0.08834420341282298,-0.04034983064454391,0.08425707732,-0.07490262470414771,,-0.0001457408,-1.3709068e-05,2.3841858e-05,1.0,0.00013322383,0.00012179464,-0.00013323128,1.0,1.9699335e-05,-0.00012177974,-1.9729137e-05,1.0,391,1.191,0,0,0.0,False,-0.25439688551972894,1.0496115477602863
1.210282707004808,14:54:30.868140,14:54:22.667543,0,,0.12553012,0.0063040853,0.036616147,-0.4276886,-0.39272794,-0.81415427,-0.35768655,-0.7536426,0.55143726,-0.83014613,0.52705556,0.18185084,,0.013996698,-0.045018986,0.008509159,-0.42728722,-0.71427035,0.5542955,-0.7758502,0.60444987,0.18082353,-0.46420062,-0.35278672,-0.81244034,,0.10338993,1.3393606,0.4416539,0.9916674,0.021321228,-0.12704818,-0.069564916,-0.7414322,-0.6674122,-0.10842766,0.670689,-0.7337709,,-0.098396085,0.26873133,-0.09111213,0.4773752,0.30323002,0.82472086,-0.81673557,-0.19308715,0.5437466,0.32412326,-0.93315,0.15548372,,0.017986525,0.3872338,-0.3646311,0.5027271,0.7319515,-0.45990488,-0.7793061,0.15351224,-0.60754913,-0.37409544,0.66383815,0.647589,,1.2673390783246132,0.5662230516052669,0.19543775443000003,-0.04424457807523464,0.37657019335355385,1.3710219736005138,-0.4055833162114153,,-0.5906732238850616,-0.3249725993473674,0.18949556107,0.8375016342771904,0.35074589489788566,-0.17141448637150491,0.8753608504136026,,-0.08834420341282298,-0.04034983064454391,0.08425707732,-0.07490262470414771,,-0.0001457408,-1.3709068e-05,2.3841858e-05,1.0,0.00013322383,0.00012179464,-0.00013323128,1.0,1.9699335e-05,-0.00012177974,-1.9729137e-05,1.0,424,1.294,0,0,0.0,False,-0.2547543518308557,1.049370146756389
1.2398310680291615,14:54:30.965261,14:54:22.740330,0,,0.12527731,0.0061746836,0.036670417,-0.38833848,-0.40026146,-0.8300506,-0.3323766,-0.77927446,0.53127867,-0.85948753,0.4822054,0.16958466,,0.014032051,-0.045011282,0.008515716,-0.42729476,-0.7142389,0.55433017,-0.77583575,0.6044729,0.18080825,-0.46421766,-0.3528108,-0.8124201,,0.10338993,1.3393606,0.4416539,0.9916674,0.021321228,-0.12704818,-0.069564916,-0.7414322,-0.6674122,-0.10842766,0.670689,-0.7337709,,-0.09815648,0.26867697,-0.09126459,0.44217616,0.31318033,0.840475,-0.8185694,-0.24213763,0.5208776,0.36663926,-0.9183068,0.14929235,,0.017950432,0.38723955,-0.36462712,0.50273615,0.73192245,-0.4599412,-0.7793105,0.15350294,-0.6075458,-0.37407407,0.6638723,0.6475664,,1.2675012557149719,0.5632111857843193,0.19545590249000003,-0.08052093829805736,0.4237097857726308,1.372196985793421,-0.4075434450050268,,-0.5908894604055399,-0.3249725993473674,0.18949815365000003,0.8375016342771904,0.3506092583981202,-0.17130306846780846,0.8753608504136026,,-0.08834420341282298,-0.04034983064454391,0.08425707732,-0.07490262470414771,,-0.0001457408,-1.3709068e-05,2.3841858e-05,1.0,0.00013322383,0.00012179464,-0.00013323128,1.0,1.9699335e-05,-0.00012177974,-1.9729137e-05,1.0,432,1.318,0,0,0.0,False,-0.2543373078012081,1.049804668563404
1.3369977190159261,14:54:30.991700,14:54:22.839724,0,,0.12519512,0.006150037,0.036707133,-0.3715121,-0.40105453,-0.8373375,-0.32280725,-0.78981864,0.52151877,-0.87050223,0.4640492,0.16396382,,0.014055893,-0.045000836,0.008523047,-0.4268168,-0.71394026,0.55508256,-0.77572256,0.60453784,0.18107665,-0.46484625,-0.35330358,-0.8118464,,0.10338993,1.3393606,0.4416539,0.9916674,0.021321228,-0.12704818,-0.069564916,-0.7414322,-0.6674122,-0.10842766,0.670689,-0.7337709,,-0.09807928,0.26868504,-0.09131641,0.42692274,0.31495437,0.8476678,-0.81924367,-0.26215768,0.51001287,0.38285342,-0.91218257,0.14610331,,0.01792558,0.38724887,-0.3646219,0.5023324,0.7316822,-0.46076393,-0.7798018,0.1531124,-0.6070138,-0.37359253,0.66422725,0.64748037,,1.2674858102492235,0.5622612896407897,0.19547275426000002,-0.09645737400288121,0.4416091672419035,1.3733652372563183,-0.40460325181460965,,-0.5910207468644018,-0.3249725993473674,0.18949944994,0.8372919443337058,0.3512924408969474,-0.17186015798629056,0.8753608504136026,,-0.08834420341282298,-0.04034983064454391,0.08425707732,-0.07490262470414771,,-0.0001457408,-1.3709068e-05,2.3841858e-05,1.0,0.00013322383,0.00012179464,-0.00013323128,1.0,1.9699335e-05,-0.00012177974,-1.9729137e-05,1.0,440,1.343,0,0,0.0,False,-0.25439688551972894,1.049804668563404
1.3634319550474174,14:54:31.026820,14:54:22.839724,0,,0.12511635,0.0060926527,0.036678284,-0.36404517,-0.40249944,-0.83991987,-0.31708905,-0.79436815,0.518106,-0.8757429,0.45494342,0.16155769,,0.014078863,-0.04499401,0.00853014,-0.42682707,-0.7131116,0.5561389,-0.77550226,0.6049776,0.18055063,-0.46520424,-0.35422304,-0.8112405,,0.10338993,1.3393606,0.4416539,0.9916674,0.021321228,-0.12704818,-0.069564916,-0.7414322,-0.6674122,-0.10842766,0.670689,-0.7337709,,-0.09800161,0.2686246,-0.09134185,0.42026606,0.31692672,0.8502552,-0.81869566,-0.2716351,0.50591683,0.3912977,-0.9087199,0.14530751,,0.017901726,0.387256,-0.36461955,0.50237805,0.7309546,-0.46186757,-0.779958,0.15254016,-0.6069572,-0.3732048,0.6651593,0.64674675,,1.2674858102492235,0.5613500071616312,0.19548830974000003,-0.10316745219438597,0.45144699522501525,1.3730209497633887,-0.4049299399468782,,-0.5911520333232635,-0.3249725993473674,0.18949944994,0.8375016342771904,0.3515657138964783,-0.17298145993522968,0.8751975063474682,,-0.08834420341282298,-0.04034983064454391,0.08425707732,-0.07490262470414771,,-0.0001457408,-1.3709068e-05,2.3841858e-05,1.0,0.00013322383,0.00012179464,-0.00013323128,1.0,1.9699335e-05,-0.00012177974,-1.9729137e-05,1.0,448,1.367,0,0,0.0,False,-0.25481392954937654,1.0500943497680806
1.3985582620371133,14:54:31.053624,14:54:22.839724,0,,0.12500758,0.006039053,0.036638767,-0.35130417,-0.40071046,-0.8461775,-0.31630737,-0.79984796,0.51009095,-0.8812121,0.44684938,0.15424222,,0.014101699,-0.044990033,0.008535564,-0.4269089,-0.71309465,0.55609787,-0.77554345,0.604972,0.1803926,-0.4650606,-0.35426688,-0.81130373,,0.10338993,1.3393606,0.4416539,0.9916674,0.021321228,-0.12704818,-0.069564916,-0.7414322,-0.6674122,-0.10842766,0.670689,-0.7337709,,-0.09789298,0.26856032,-0.091359995,0.40810898,0.31554314,0.8566677,-0.8220353,-0.2811723,0.49517682,0.3971209,-0.9062972,0.14463867,,0.0178783,0.38726005,-0.3646185,0.50244355,0.7309431,-0.4618146,-0.7798578,0.1524998,-0.6070961,-0.37332603,0.6651812,0.6466542,,1.2674626420506008,0.5604927838125923,0.19550127264000003,-0.11721667840784912,0.45814218371352183,1.3723805181505573,-0.40411321961620694,,-0.5912987652478738,-0.3249725993473674,0.18949944994,0.8375016342771904,0.3512924408969474,-0.17292198160811795,0.8755241944797367,,-0.08834420341282298,-0.04034983064454391,0.08425707732,-0.07490262470414771,,-0.0001457408,-1.3709068e-05,2.3841858e-05,1.0,0.00013322383,0.00012179464,-0.00013323128,1.0,1.9699335e-05,-0.00012177974,-1.9729137e-05,1.0,460,1.404,0,0,0.0,False,-0.2550522404234603,1.0498529487641832
1.425285667006392,14:54:31.087925,14:54:22.904909,0,,0.12491936,0.0059975684,0.0366368,-0.33870402,-0.4017978,-0.85078675,-0.31078646,-0.80570483,0.5042334,-0.88808286,0.43519896,0.14802215,,0.014119312,-0.044985726,0.008540392,-0.42688358,-0.7130429,0.55618364,-0.775517,0.60500264,0.18040338,-0.46512783,-0.35431862,-0.8112425,,0.10338993,1.3393606,0.4416539,0.9916674,0.021321228,-0.12704818,-0.069564916,-0.7414322,-0.6674122,-0.10842766,0.670689,-0.7337709,,-0.097807355,0.26852995,-0.09139542,0.39647627,0.31730738,0.8614654,-0.8228234,-0.29333812,0.48673847,0.40714636,-0.90181416,0.14478634,,0.017860116,0.38726446,-0.36461705,0.50242555,0.7308969,-0.46190727,-0.77989906,0.15247048,-0.6070504,-0.373264,0.6652387,0.6466309,,1.2674317511191038,0.5596510059293017,0.19551423554000003,-0.12979807501692056,0.46948301319405333,1.3704839187564049,-0.4057466602775497,,-0.591406883508113,-0.3249725993473674,0.18949944994,0.8375016342771904,0.3512924408969474,-0.17292198160811795,0.8755241944797367,,-0.08834420341282298,-0.04034983064454391,0.08425707732,-0.07490262470414771,,-0.0001457408,-1.3709068e-05,2.3841858e-05,1.0,0.00013322383,0.00012179464,-0.00013323128,1.0,1.9699335e-05,-0.00012177974,-1.9729137e-05,1.0,472,1.441,0,0,0.0,False,-0.2545756186752919,1.0496115477602863
1.4595962430466898,14:54:31.117815,14:54:22.904909,0,,0.12487667,0.005983934,0.03670004,-0.3275965,-0.4038477,-0.854159,-0.29842177,-0.8135396,0.4990968,-0.8964513,0.41840202,0.14599574,,0.014129378,-0.044983223,0.008543193,-0.4268691,-0.71301335,0.55623263,-0.77550185,0.6050202,0.18040955,-0.4651663,-0.3543482,-0.81120753,,0.10338993,1.3393606,0.4416539,0.9916674,0.021321228,-0.12704818,-0.069564916,-0.7414322,-0.6674122,-0.10842766,0.670689,-0.7337709,,-0.097771116,0.26856333,-0.09145524,0.38683766,0.32036442,0.8647099,-0.8195492,-0.31042024,0.48164138,0.42272422,-0.8949893,0.14247215,,0.017849727,0.387267,-0.36461622,0.50241524,0.7308705,-0.46196023,-0.77992266,0.15245374,-0.6070243,-0.3732286,0.6652715,0.64661753,,1.2673931374547327,0.5589636827034958,0.19552590215,-0.1388147425867551,0.48697248516402974,1.3709246003085642,-0.40541997214528114,,-0.5914686653711068,-0.3249725993473674,0.18949944994,0.8375016342771904,0.3512924408969474,-0.17292198160811795,0.8755241944797367,,-0.08834420341282298,-0.04034983064454391,0.08425707732,-0.07490262470414771,,-0.0001457408,-1.3709068e-05,2.3841858e-05,1.0,0.00013322383,0.00012179464,-0.00013323128,1.0,1.9699335e-05,-0.00012177974,-1.9729137e-05,1.0,497,1.519,0,0,0.0,False,-0.25481392954937654,1.0496115477602863
1.4895310560241342,14:54:31.197751,14:54:22.973047,0,,0.124645695,0.0059380084,0.036800414,-0.28169245,-0.41999447,-0.86270154,-0.28659922,-0.8212358,0.4933889,-0.915702,0.38623357,0.1109658,,0.014138512,-0.044982374,0.008543909,-0.42659906,-0.7131635,0.5562473,-0.7757503,0.6047154,0.18036348,-0.4649999,-0.35456616,-0.8112077,,0.10338993,1.3393606,0.4416539,0.9916674,0.021321228,-0.12704818,-0.069564916,-0.7414322,-0.6674122,-0.10842766,0.670689,-0.7337709,,-0.09755259,0.26860127,-0.09158309,0.343498,0.338781,0.8759204,-0.8246325,-0.33753034,0.45393223,0.44943333,-0.87823725,0.16342883,,0.017840547,0.38726705,-0.36461553,0.5021352,0.7310546,-0.46197337,-0.7799659,0.15211709,-0.6070532,-0.373515,0.66514623,0.646581,,1.2671382872698833,0.5574345815943993,0.19553108731000002,-0.1876724994186493,0.5163493326135995,1.3414155966842753,-0.40509328401301237,,-0.5915304472341005,-0.3249803220802416,0.18950074623000002,0.8370822543902212,0.35115580439718197,-0.1730555999248432,0.8753608504136025,,-0.08834420341282298,-0.04034983064454391,0.08425707732,-0.07490262470414771,,-0.0001457408,-1.3709068e-05,2.3841858e-05,1.0,0.00013322383,0.00012179464,-0.00013323128,1.0,1.9699335e-05,-0.00012177974,-1.9729137e-05,1.0,509,1.556,0,0,0.0,False,-0.2544564632382502,1.0502391903704191
1.5694782730424777,14:54:31.233379,14:54:23.042756,0,,0.12459339,0.0059073865,0.036841482,-0.26993003,-0.42976546,-0.8616492,-0.27953327,-0.8213512,0.49723572,-0.9214113,0.37507862,0.10157351,,0.014139771,-0.04498206,0.008544266,-0.42659718,-0.7131598,0.55625343,-0.7757484,0.6047176,0.18036425,-0.46500474,-0.35456985,-0.8112033,,0.10338993,1.3393606,0.4416539,0.9916674,0.021321228,-0.12704818,-0.069564916,-0.7414322,-0.6674122,-0.10842766,0.670689,-0.7337709,,-0.09750583,0.26860735,-0.09163909,0.3326839,0.3494587,0.87589955,-0.8234824,-0.34497488,0.45040986,0.459563,-0.871132,0.1730055,,0.01783925,0.38726735,-0.36461544,0.5021339,0.7310513,-0.46198,-0.77996886,0.152115,-0.60704994,-0.3735106,0.66515034,0.6465793,,1.2669838326123988,0.5568939902932036,0.19552719844000002,-0.19920544631029813,0.5278267985938964,1.3284626282075913,-0.4054199721452809,,-0.5915381699669747,-0.3249803220802416,0.18950074623000002,0.8370822543902212,0.35115580439718197,-0.1730555999248432,0.8753608504136025,,-0.08834420341282298,-0.04034983064454391,0.08425707732,-0.07490262470414771,,-0.0001457408,-1.3709068e-05,2.3841858e-05,1.0,0.00013322383,0.00012179464,-0.00013323128,1.0,1.9699335e-05,-0.00012177974,-1.9729137e-05,1.0,517,1.58,0,0,0.0,False,-0.2541585746456452,1.0503840309727575
1.6051126200472936,14:54:31.260720,14:54:23.042756,0,,0.12449177,0.00588271,0.036896557,-0.25047046,-0.4348412,-0.86497265,-0.2731585,-0.8254084,0.49404994,-0.9287889,0.36001962,0.08795975,,0.01414261,-0.044981435,0.00854367,-0.4265936,-0.7131524,0.5562657,-0.77574456,0.604722,0.18036577,-0.46501428,-0.3545772,-0.8111946,,0.10338993,1.3393606,0.4416539,0.9916674,0.021321228,-0.12704818,-0.069564916,-0.7414322,-0.6674122,-0.10842766,0.670689,-0.7337709,,-0.09741087,0.2686281,-0.09170631,0.3143193,0.3555849,0.8802061,-0.8241034,-0.35804462,0.43892774,0.47122914,-0.8633443,0.18049839,,0.017836474,0.38726696,-0.3646145,0.50213134,0.7310447,-0.46199322,-0.7799747,0.15211082,-0.60704345,-0.37350175,0.66515857,0.64657605,,1.2668448234206628,0.5562761716632657,0.19552201328000002,-0.21996475071526606,0.5408072660716132,1.3168977824747445,-0.40541997214528136,,-0.5915536154327232,-0.3249803220802416,0.18950204252000002,0.8370822543902212,0.35115580439718197,-0.1730555999248432,0.8753608504136025,,-0.08834420341282298,-0.04034983064454391,0.08425707732,-0.07490262470414771,,-0.0001457408,-1.3709068e-05,2.3841858e-05,1.0,0.00013322383,0.00012179464,-0.00013323128,1.0,1.9699335e-05,-0.00012177974,-1.9729137e-05,1.0,525,1.605,0,0,0.0,False,-0.25397984149008224,1.05014262996886
1.632458754000254,14:54:31.292956,14:54:23.108972,0,,0.12440759,0.005847752,0.036951184,-0.23420188,-0.44427794,-0.86473495,-0.26415056,-0.8269309,0.49639678,-0.93561417,0.3446774,0.07631242,,0.01414784,-0.044981837,0.008544207,-0.42670068,-0.7132325,0.55608076,-0.77581215,0.604671,0.1802462,-0.46480328,-0.3545031,-0.81134796,,0.10338993,1.3393606,0.4416539,0.9916674,0.021321228,-0.12704818,-0.069564916,-0.7414322,-0.6674122,-0.10842766,0.670689,-0.7337709,,-0.097333804,0.26864067,-0.0917784,0.2992272,0.36621422,0.8811074,-0.82235354,-0.3693597,0.43279096,0.48393977,-0.8540846,0.1906351,,0.01783123,0.38726658,-0.36461487,0.50221485,0.73111707,-0.4617879,-0.7798332,0.15214935,-0.6072156,-0.37368494,0.66507024,0.646561,,1.2666672005645556,0.5556042939032081,0.19551942070000003,-0.23653025625054347,0.55529073504675,1.302065371297723,-0.4049299399468782,,-0.5915922290970943,-0.3249803220802416,0.18950204252000002,0.8370822543902212,0.350882531397651,-0.17291444285759094,0.8755241944797367,,-0.08834420341282298,-0.04034983064454391,0.08425707732,-0.07490262470414771,,-0.0001457408,-1.3709068e-05,2.3841858e-05,1.0,0.00013322383,0.00012179464,-0.00013323128,1.0,1.9699335e-05,-0.00012177974,-1.9729137e-05,1.0,537,1.642,0,0,0.0,False,-0.2549926627049395,1.050046069567301
1.6645322359981947,14:54:31.328165,14:54:23.108972,0,,0.12426413,0.0058125257,0.037021846,-0.2095417,-0.4548241,-0.8655792,-0.2548533,-0.8292304,0.49741995,-0.9440032,0.324826,0.057844862,,0.014159158,-0.04497905,0.008547366,-0.42668444,-0.71315384,0.5561942,-0.7757951,0.60470545,0.18020374,-0.46484655,-0.35460263,-0.81127965,,0.10338993,1.3393606,0.4416539,0.9916674,0.021321228,-0.12704818,-0.069564916,-0.7414322,-0.6674122,-0.10842766,0.670689,-0.7337709,,-0.097199164,0.26866493,-0.09186838,0.27593926,0.37829396,0.88360125,-0.8215934,-0.3842726,0.42109248,0.4988405,-0.8421569,0.20476791,,0.01781954,0.38726944,-0.36461395,0.5022033,0.73104966,-0.4619072,-0.7798597,0.15208091,-0.60719866,-0.3736451,0.66516,0.6464917,,1.2664895777084484,0.554808852417163,0.19551423554000003,-0.26316087907307806,0.5720970245178991,1.2810915612705531,-0.40574666027754924,,-0.5916617336929624,-0.3249803220802416,0.18950204252000002,0.8370822543902212,0.350882531397651,-0.17299612159773148,0.875687538545871,,-0.08834420341282298,-0.04034983064454391,0.08425707732,-0.07490262470414771,,-0.0001457408,-1.3709068e-05,2.3841858e-05,1.0,0.00013322383,0.00012179464,-0.00013323128,1.0,1.9699335e-05,-0.00012177974,-1.9729137e-05,1.0,574,1.756,0,0,0.0,False,-0.2552905512975445,1.05014262996886
1.6999012810410932,14:54:31.430542,14:54:23.248207,0,,0.12360252,0.005606249,0.037222207,-0.11039537,-0.48626903,-0.8668075,-0.20967704,-0.8411145,0.49855974,-0.97151864,0.23678842,-0.009104371,,0.014214784,-0.04496497,0.008561373,-0.42677438,-0.7130672,0.5562363,-0.7758186,0.6047379,0.17999396,-0.46472484,-0.35472172,-0.8112973,,0.10338993,1.3393606,0.4416539,0.9916674,0.021321228,-0.12704818,-0.069564916,-0.7414322,-0.6674122,-0.10842766,0.670689,-0.7337709,,-0.09656984,0.26865968,-0.09222102,0.18220536,0.41652766,0.8906772,-0.8085928,-0.45192134,0.37675565,0.5594452,-0.7888421,0.25445879,,0.01776225,0.3872826,-0.36460832,0.5022789,0.73097664,-0.46194053,-0.7797658,0.15199469,-0.6073409,-0.37373948,0.66525996,0.6463343,,1.2654315633046798,0.5511946134320259,0.19554405021000001,-0.37324809940245335,0.6423281853973355,1.1984206705868778,-0.40656338060822095,,-0.5920169794051767,-0.32496487661449314,0.18950204252000002,0.8370822543902212,0.35047262189835476,-0.17290690410706389,0.8748708182151996,,-0.08834420341282298,-0.04034983064454391,0.08425707732,-0.07490262470414771,,-0.0001457408,-1.3709068e-05,2.3841858e-05,1.0,0.00013322383,0.00012179464,-0.00013323128,1.0,1.9699335e-05,-0.00012177974,-1.9729137e-05,1.0,582,1.781,0,0,0.0,False,-0.2547543518308557,1.0502874705711984
1.8022510530427098,14:54:31.454772,14:54:23.248207,0,,0.12333119,0.005573362,0.03725423,-0.081681274,-0.494079,-0.8655715,-0.19417167,-0.8439435,0.50005674,-0.977561,0.20891473,-0.027001753,,0.01429458,-0.044926472,0.008556545,-0.42677194,-0.7131065,0.55618775,-0.77588475,0.604674,0.17992315,-0.4646166,-0.35475144,-0.8113464,,0.10338106,1.339362,0.44165146,0.9916672,0.021319605,-0.12704964,-0.069567084,-0.74143225,-0.6674119,-0.10842766,0.670689,-0.7337709,,-0.096295625,0.26866475,-0.092296064,0.15502615,0.42654833,0.8910799,-0.8017411,-0.47268954,0.3657537,0.5772158,-0.7711168,0.2687021,,0.017691152,0.38729498,-0.3645729,0.50226396,0.7310224,-0.46188435,-0.77971905,0.15193677,-0.6074153,-0.373857,0.6652229,0.6463045,,1.2649759220651005,0.5501211535625087,0.1955842352,-0.40637911047300823,0.6635068428609788,1.1723295915787517,-0.40656338060822117,,-0.5921328203982901,-0.3249494311487447,0.18950204252000002,0.8370822543902212,0.35019934889882387,-0.1728474257799522,0.8755241944797367,,-0.08834420341282298,-0.04034983064454391,0.08425707732,-0.07490262470414771,,-0.0001543723,-1.6510487e-05,2.5868416e-05,0.99999994,0.00013162196,0.000120311975,-0.00013162941,1.0,1.9460917e-05,-0.000120304525,-1.9490719e-05,1.0,590,1.806,0,0,0.0,False,-0.2545756186752919,1.0498529487641832
1.826463463017717,14:54:31.490904,14:54:23.322371,0,,0.1231104,0.005502358,0.03724076,-0.051727213,-0.49660227,-0.8664355,-0.18176591,-0.8484236,0.49713027,-0.9819803,0.18320364,-0.046378776,,0.014301486,-0.04491792,0.008561552,-0.426372,-0.71233463,0.55748194,-0.7758276,0.6048681,0.17951682,-0.46507916,-0.35596895,-0.8105477,,0.10338106,1.339362,0.44165146,0.9916672,0.021319605,-0.12704964,-0.069567084,-0.74143225,-0.6674119,-0.10842766,0.670689,-0.7337709,,-0.096078776,0.26860714,-0.09235634,0.12630156,0.43103346,0.8934529,-0.79610133,-0.4933075,0.35052872,0.59183663,-0.75555134,0.2808408,,0.017683437,0.38730323,-0.36456865,0.5019198,0.730394,-0.46325064,-0.7801014,0.15098785,-0.607161,-0.37352154,0.6661286,0.64556515,,1.2644507762296533,0.5490785846244884,0.19563090164000002,-0.4424457807523464,0.6808596783311898,1.1487864626931414,-0.40640003654208656,,-0.5921714340626612,-0.32493398568299625,0.18950074623000002,0.8368725644467366,0.35074589489788566,-0.1743549210165652,0.8753608504136026,,-0.08834420341282298,-0.04034983064454391,0.08425707732,-0.07490262470414771,,-0.0001543723,-1.6510487e-05,2.5868416e-05,0.99999994,0.00013162196,0.000120311975,-0.00013162941,1.0,1.9460917e-05,-0.000120304525,-1.9490719e-05,1.0,602,1.842,1,1,0.012,False,-0.2546351963938136,1.0501909101696396
1.862582158006262,14:54:31.520789,14:54:23.322371,0,,0.12287319,0.0054255873,0.037217155,-0.019476563,-0.5018302,-0.8647468,-0.16674545,-0.851167,0.49770522,-0.98580754,0.1538862,-0.06710012,,0.014301248,-0.04491449,0.008561134,-0.4264264,-0.71195304,0.5579276,-0.7758565,0.604982,0.17900735,-0.46498096,-0.3565383,-0.81035376,,0.10338106,1.339362,0.44165146,0.9916672,0.021319605,-0.12704964,-0.069567084,-0.74143225,-0.6674119,-0.10842766,0.670689,-0.7337709,,-0.09584504,0.26853877,-0.092414744,0.095386446,0.4386173,0.89359736,-0.78817374,-0.5150319,0.3369336,0.6080161,-0.7364489,0.2965796,,0.017683625,0.38730493,-0.3645656,0.50196314,0.7300789,-0.46370015,-0.7800336,0.15055534,-0.6073555,-0.3736049,0.66657174,0.6450593,,1.263794343935344,0.5479896792892227,0.19569441985000002,-0.4820771800709215,0.7002620612978823,1.11850798336337,-0.4055833162114153,,-0.5921791567955355,-0.32491081748437356,0.18950074623000002,0.8368725644467366,0.3506092583981202,-0.17506029051427435,0.8756875385458709,,-0.08834420341282298,-0.04034983064454391,0.08425707732,-0.07490262470414771,,-0.0001543723,-1.6510487e-05,2.5868416e-05,0.99999994,0.00013162196,0.000120311975,-0.00013162941,1.0,1.9460917e-05,-0.000120304525,-1.9490719e-05,1.0,615,1.883,1,1,0.053,False,-0.25493308498641865,1.050046069567301
1.892520546040032,14:54:31.556359,14:54:23.322371,0,,0.12261675,0.005335897,0.0371653,0.012838155,-0.5081915,-0.8611484,-0.15340564,-0.8520247,0.5005203,-0.98807985,0.12567931,-0.088897884,,0.014295809,-0.044906728,0.008558452,-0.42659754,-0.7120514,0.5576713,-0.77595323,0.6049185,0.17880291,-0.46466255,-0.35645002,-0.81057525,,0.10338106,1.339362,0.44165146,0.9916672,0.021319605,-0.12704964,-0.069567084,-0.74143225,-0.6674119,-0.10842766,0.670689,-0.7337709,,-0.09559046,0.2684421,-0.092463076,0.06417983,0.4473371,0.8920597,-0.780437,-0.5345959,0.3242304,0.62193173,-0.71700543,0.31480813,,0.017689094,0.38730797,-0.36455804,0.5020984,0.730168,-0.46341336,-0.77981585,0.15059985,-0.607624,-0.37387758,0.66646415,0.6450125,,1.263137911641035,0.5469084966868313,0.19575664177000002,-0.5231764089938883,0.716931714269266,1.0842502778568446,-0.4067267246743551,,-0.5921714340626612,-0.3248490356213798,0.18950074623000002,0.8368725644467366,0.35019934889882387,-0.17497107302360676,0.8751975063474682,,-0.08834420341282298,-0.04034983064454391,0.08425707732,-0.07490262470414771,,-0.0001543723,-1.6510487e-05,2.5868416e-05,0.99999994,0.00013162196,0.000120311975,-0.00013162941,1.0,1.9460917e-05,-0.000120304525,-1.9490719e-05,1.0,623,1.908,1,1,0.078,False,-0.25493308498641865,1.049708108161845
1.92809451604262,14:54:31.591660,14:54:23.426827,0,,0.122226104,0.0051992983,0.037051514,0.058768738,-0.51910067,-0.85269034,-0.13912514,-0.85008967,0.5079287,-0.9885294,0.088780284,-0.12217863,,0.014294475,-0.044895552,0.00856179,-0.4266341,-0.710884,0.5591307,-0.77574706,0.60545856,0.17786649,-0.46497297,-0.35786012,-0.8097755,,0.10338106,1.339362,0.44165146,0.9916672,0.021319605,-0.12704964,-0.069567084,-0.74143225,-0.6674119,-0.10842766,0.670689,-0.7337709,,-0.09519961,0.26827142,-0.092511214,0.01932401,0.4614875,0.88693625,-0.7710148,-0.55788875,0.30707705,0.63652396,-0.68977493,0.34503305,,0.017689686,0.38731733,-0.364551,0.50216496,0.729159,-0.4649274,-0.7799393,0.14965501,-0.607699,-0.37353045,0.6677803,0.6438513,,1.262311579223493,0.5455261275023452,0.19583182659,-0.5837768026609158,0.7338746402401807,1.029431730247926,-0.4057466602775497,,-0.5921714340626612,-0.3247949764912602,0.18949815365000003,0.8370822543902212,0.35047262189835476,-0.1768274836338109,0.8755241944797367,,-0.08834420341282298,-0.04034983064454391,0.08425707732,-0.07490262470414771,,-0.0001543723,-1.6510487e-05,2.5868416e-05,0.99999994,0.00013162196,0.000120311975,-0.00013162941,1.0,1.9460917e-05,-0.000120304525,-1.9490719e-05,1.0,632,1.937,1,1,0.107,False,-0.25386068605304013,1.049370146756389
1.9633647500304505,14:54:31.616091,14:54:23.426827,0,,0.12191801,0.0050878823,0.036938503,0.09245193,-0.5252955,-0.8458826,-0.12990114,-0.8486235,0.5127999,-0.98720723,0.062471807,-0.14669335,,0.014290266,-0.04488171,0.008559525,-0.42679906,-0.7105257,0.55946004,-0.7758298,0.6055489,0.17719695,-0.46468353,-0.35841832,-0.80969477,,0.10338106,1.339362,0.44165146,0.9916672,0.021319605,-0.12704964,-0.069567084,-0.74143225,-0.6674119,-0.10842766,0.670689,-0.7337709,,-0.09488955,0.26811835,-0.09253461,-0.013783191,0.4700065,0.88255537,-0.76391083,-0.57446015,0.29399955,0.64517456,-0.67014134,0.36696094,,0.017693708,0.38732415,-0.3645387,0.5022971,0.72886646,-0.46524322,-0.7797373,0.14922027,-0.60806507,-0.3737745,0.6681968,0.6432773,,1.2617709879222974,0.5445221722286959,0.19588627077,-0.6294892103405422,0.7435758317235269,0.9887678842891147,-0.4049299399468782,,-0.5921791567955355,-0.3247023036967695,0.18949815365000003,0.8370822543902212,0.3500627123990584,-0.17755505354454887,0.875034162281334,,-0.08834420341282298,-0.04034983064454391,0.08425707732,-0.07490262470414771,,-0.0001543723,-1.6510487e-05,2.5868416e-05,0.99999994,0.00013162196,0.000120311975,-0.00013162941,1.0,1.9460917e-05,-0.000120304525,-1.9490719e-05,1.0,641,1.965,1,1,0.135,False,-0.25493308498641865,1.0495632675595068
1.9878243110142648,14:54:31.644204,14:54:23.426827,0,,0.12168111,0.0050195605,0.036873892,0.11592923,-0.5282106,-0.84116226,-0.12069762,-0.8480881,0.51592505,-0.9858968,0.041715473,-0.16207191,,0.014289208,-0.044869997,0.008558154,-0.4269616,-0.7107503,0.5590506,-0.7759138,0.6054527,0.17715803,-0.46439388,-0.3581354,-0.8099861,,0.10338106,1.339362,0.44165146,0.9916672,0.021319605,-0.12704964,-0.069567084,-0.74143225,-0.6674119,-0.10842766,0.670689,-0.7337709,,-0.094652124,0.2680285,-0.09255725,-0.03673867,0.47473115,0.8793637,-0.75665057,-0.5880272,0.28583905,0.6527865,-0.65486974,0.38080892,,0.017694557,0.38733006,-0.36452845,0.50242686,0.729059,-0.46480125,-0.7795361,0.1494159,-0.6082749,-0.37401956,0.667943,0.6433984,,1.2615006922716994,0.5438425717357642,0.19593164092,-0.662200841524128,0.7523205677085151,0.960318987275857,-0.40803347720342975,,-0.592202324994158,-0.3246250763680273,0.18949815365000003,0.8370822543902212,0.3496528028997621,-0.17722079983345967,0.875034162281334,,-0.08834420341282298,-0.04034983064454391,0.08425707732,-0.07490262470414771,,-0.0001543723,-1.6510487e-05,2.5868416e-05,0.99999994,0.00013162196,0.000120311975,-0.00013162941,1.0,1.9460917e-05,-0.000120304525,-1.9490719e-05,1.0,654,2.006,1,1,0.176,False,-0.25540970673458663,1.0500943497680806
2.0159179409965873,14:54:31.684109,14:54:23.497497,0,,0.121217996,0.004886374,0.036721066,0.15744302,-0.5310126,-0.83260876,-0.102915555,-0.84735596,0.52095705,-0.9821507,0.0036673248,-0.18805969,,0.014295332,-0.04482449,0.008558631,-0.42697674,-0.71078455,0.5589956,-0.77584815,0.6054961,0.1772969,-0.46448952,-0.35799405,-0.80999374,,0.10338106,1.339362,0.44165146,0.9916672,0.021319605,-0.12704964,-0.069567084,-0.74143225,-0.6674119,-0.10842766,0.670689,-0.7337709,,-0.09418563,0.26783523,-0.092581816,-0.07736964,0.48085,0.8733826,-0.741736,-0.61312526,0.27185503,0.6662144,-0.626786,0.40410104,,0.017687025,0.3873565,-0.36449164,0.5024511,0.729075,-0.46474996,-0.77957255,0.14955853,-0.60819316,-0.37391108,0.66789365,0.6435127,,1.2611222783608624,0.5425065389485234,0.19603275154000002,-0.7219624754172174,0.7677604921820099,0.9091763988118159,-0.40443990774847527,,-0.592302720521523,-0.3243856716489263,0.18949944994,0.8370822543902212,0.34951616639999666,-0.1771910606699038,0.8751975063474682,,-0.08834420341282298,-0.04034983064454391,0.08425707732,-0.07490262470414771,,-0.0001543723,-1.6510487e-05,2.5868416e-05,0.99999994,0.00013162196,0.000120311975,-0.00013162941,1.0,1.9460917e-05,-0.000120304525,-1.9490719e-05,1.0,663,2.035,1,1,0.205,False,-0.25493308498641865,1.0499012289649627
2.0558267010492273,14:54:31.710937,14:54:23.497497,0,,0.12091896,0.0048151165,0.036647037,0.18257737,-0.52981895,-0.82822543,-0.09071717,-0.84786916,0.5223871,-0.97899735,-0.020241797,-0.20286536,,0.014294349,-0.044783317,0.008559346,-0.42689022,-0.7106944,0.5591763,-0.7757266,0.6055973,0.17748332,-0.4647721,-0.35800207,-0.8098281,,0.10338106,1.339362,0.44165146,0.9916672,0.021319605,-0.12704964,-0.069567084,-0.74143225,-0.6674119,-0.10842766,0.670689,-0.7337709,,-0.09388572,0.26773793,-0.092605814,-0.10196657,0.48170224,0.87038255,-0.73105204,-0.62966627,0.26283708,0.6746597,-0.6094943,0.4163543,,0.01768665,0.38738135,-0.3644588,0.50239486,0.7289833,-0.46495467,-0.7797373,0.1496013,-0.60797143,-0.37364316,0.6679842,0.64357436,,1.2610296055663717,0.5418269384555916,0.19608849201000003,-0.7594969753009472,0.7773250471655907,0.879242206974974,-0.4098302619309069,,-0.5923490569187684,-0.32416943512844804,0.18949944994,0.8370822543902212,0.3496528028997621,-0.17738415731374074,0.8753608504136026,,-0.08834420341282298,-0.04034983064454391,0.08425707732,-0.07490262470414771,,-0.0001543723,-1.6510487e-05,2.5868416e-05,0.99999994,0.00013162196,0.000120311975,-0.00013162941,1.0,1.9460917e-05,-0.000120304525,-1.9490719e-05,1.0,676,2.076,1,1,0.246,False,-0.2550522404234603,1.0503840309727575
2.082673477008939,14:54:31.754837,14:54:23.568490,0,,0.12027885,0.004609138,0.036404356,0.23306954,-0.5346434,-0.8123023,-0.07168913,-0.84247994,0.53393644,-0.969814,-0.066211104,-0.23468453,,0.014301971,-0.04472866,0.00856173,-0.42689604,-0.7107282,0.55912876,-0.77563995,0.60565466,0.17766613,-0.46491128,-0.35783762,-0.8098209,,0.10338106,1.339362,0.44165146,0.9916672,0.021319605,-0.12704964,-0.069567084,-0.74143225,-0.6674119,-0.10842766,0.670689,-0.7337709,,-0.09323945,0.26743343,-0.0926315,-0.15192953,0.49077645,0.857937,-0.71170527,-0.656642,0.24959338,0.68585205,-0.5726777,0.4490515,,0.017677119,0.38741452,-0.36441568,0.5024144,0.72899574,-0.4649139,-0.77979726,0.14977062,-0.6078528,-0.37349167,0.66793257,0.6437158,,1.260967823703378,0.5402360554835014,0.19618182489000002,-0.8364531845597677,0.7886658766461222,0.8072652485402192,-0.40656338060822117,,-0.5924726206447559,-0.3238836940121017,0.18949944994,0.8370822543902212,0.34951616639999666,-0.17735441815018488,0.8751975063474682,,-0.08834420341282298,-0.04034983064454391,0.08425707732,-0.07490262470414771,,-0.0001543723,-1.6510487e-05,2.5868416e-05,0.99999994,0.00013162196,0.000120311975,-0.00013162941,1.0,1.9460917e-05,-0.000120304525,-1.9490719e-05,1.0,685,2.105,1,1,0.275,False,-0.25535012901606535,1.0500943497680806
2.12655576702673,14:54:31.786341,14:54:23.568490,0,,0.11991966,0.0044813603,0.03630264,0.2582224,-0.53479546,-0.8045589,-0.05731857,-0.8398168,0.53983533,-0.9643836,-0.09328139,-0.2475132,,0.014324635,-0.044693135,0.008568406,-0.42699847,-0.710009,0.5599637,-0.7754313,0.60606843,0.17716515,-0.4651652,-0.35856414,-0.8093536,,0.10338106,1.339362,0.44165146,0.9916672,0.021319605,-0.12704964,-0.069567084,-0.74143225,-0.6674119,-0.10842766,0.670689,-0.7337709,,-0.092880465,0.26727682,-0.09267935,-0.17662124,0.493417,0.85167164,-0.69788235,-0.6729511,0.24514692,0.69409305,-0.5510685,0.4632045,,0.01765275,0.38743815,-0.36438987,0.5025396,0.7283548,-0.46578234,-0.77986646,0.14935006,-0.6078675,-0.37317857,0.6687255,0.64307386,,1.260998714634875,0.539363386668714,0.19621941730000003,-0.87734272353925,0.7978205221304068,0.7695791151405509,-0.4075434450050264,,-0.5926502435008631,-0.323721516621743,0.18949944994,0.8372919443337058,0.34951616639999666,-0.17833456303187173,0.8751975063474682,,-0.08834420341282298,-0.04034983064454391,0.08425707732,-0.07490262470414771,,-0.0001543723,-1.6510487e-05,2.5868416e-05,0.99999994,0.00013162196,0.000120311975,-0.00013162941,1.0,1.9460917e-05,-0.000120304525,-1.9490719e-05,1.0,698,2.146,1,1,0.316,False,-0.2561842170753601,1.0502391903704191
2.158035060041584,14:54:31.818717,14:54:23.637068,0,,0.11946648,0.0043186992,0.036180243,0.2867695,-0.5297181,-0.7982243,-0.03588289,-0.8385744,0.543604,-0.95732725,-0.12724647,-0.25948542,,0.014362596,-0.044671886,0.008574784,-0.42750165,-0.70920205,0.56060207,-0.7757082,0.6062307,0.17538911,-0.4642405,-0.3598845,-0.80929846,,0.10338106,1.339362,0.44165146,0.9916672,0.021319605,-0.12704964,-0.069567084,-0.74143225,-0.6674119,-0.10842766,0.670689,-0.7337709,,-0.092428125,0.26708218,-0.09274506,-0.20443773,0.49137333,0.8466153,-0.67781085,-0.69505453,0.23973243,0.7062419,-0.5248347,0.47515357,,0.017613655,0.38745147,-0.36437473,0.50293845,0.7277046,-0.4663678,-0.77923125,0.14829598,-0.60893923,-0.3739674,0.6696673,0.6416339,,1.2610604964978687,0.5382513131348257,0.19628034293000002,-0.9270392401450821,0.8120307181060126,0.7279338767843962,-0.4062366924759526,,-0.5929437073500836,-0.3236133983615039,0.18949944994,0.8372919443337058,0.34814980140234225,-0.17975242493926485,0.8756875385458711,,-0.08834420341282298,-0.04034983064454391,0.08425707732,-0.07490262470414771,,-0.0001543723,-1.6510487e-05,2.5868416e-05,0.99999994,0.00013162196,0.000120311975,-0.00013162941,1.0,1.9460917e-05,-0.000120304525,-1.9490719e-05,1.0,707,2.174,1,1,0.344,False,-0.2556480176086704,1.0497563883626244
2.1903628650470637,14:54:31.855555,14:54:23.637068,0,,0.1191915,0.004207149,0.036084726,0.30360454,-0.53319186,-0.7896396,-0.0240224,-0.8327787,0.5530846,-0.9524952,-0.14894995,-0.26564392,,0.014398761,-0.044662796,0.008582592,-0.4274057,-0.7091774,0.5607064,-0.7758372,0.6061151,0.17521802,-0.4641133,-0.36012766,-0.8092632,,0.10338106,1.339362,0.44165146,0.9916672,0.021319605,-0.12704964,-0.069567084,-0.74143225,-0.6674119,-0.10842766,0.670689,-0.7337709,,-0.092152536,0.26694027,-0.09277802,-0.22094323,0.49702764,0.83913505,-0.66609704,-0.70537174,0.24241585,0.7123895,-0.5053852,0.48691577,,0.01757656,0.38745895,-0.36437035,0.5028322,0.7277124,-0.46647024,-0.779216,0.14803046,-0.6090234,-0.37414202,0.6697176,0.64147955,,1.261106832895114,0.537540821710397,0.19631534276,-0.9570249020633692,0.81899917959405,0.6940723983473849,-0.4096669178647725,,-0.5931753893363103,-0.32360567562862963,0.18950074623000002,0.8370822543902212,0.34787652840281136,-0.1798563040924343,0.8753608504136026,,-0.08834420341282298,-0.04034983064454391,0.08425707732,-0.07490262470414771,,-0.0001543723,-1.6510487e-05,2.5868416e-05,0.99999994,0.00013162196,0.000120311975,-0.00013162941,1.0,1.9460917e-05,-0.000120304525,-1.9490719e-05,1.0,720,2.215,1,1,0.385,False,-0.25546928445310746,1.05014262996886
2.227280237013474,14:54:31.887797,14:54:23.701861,0,,0.11891669,0.0040916055,0.035988346,0.32224774,-0.53429955,-0.7814604,-0.012222439,-0.8277756,0.5609261,-0.9465765,-0.17120576,-0.27327925,,0.014434524,-0.04465183,0.008591592,-0.42729655,-0.70895576,0.5610697,-0.77574337,0.6062307,0.17523351,-0.46437055,-0.36036947,-0.809008,,0.10338106,1.339362,0.44165146,0.9916672,0.021319605,-0.12704964,-0.069567084,-0.74143225,-0.6674119,-0.10842766,0.670689,-0.7337709,,-0.09187725,0.2667948,-0.09281298,-0.23934467,0.50033224,0.8320948,-0.653726,-0.716688,0.24290057,0.71788335,-0.48582503,0.49861562,,0.017539669,0.38746855,-0.36436516,0.5027513,0.72751737,-0.46686146,-0.7793793,0.14787948,-0.608851,-0.37391043,0.6699628,0.64135855,,1.2611300010937367,0.5369616167448301,0.19634126856000003,-0.990155913133924,0.8247379125841986,0.6598251424612516,-0.4096669178647723,,-0.5933916258567886,-0.3235979528957554,0.18950204252000002,0.8370822543902212,0.34801316490257683,-0.18004940073627124,0.8755241944797367,,-0.08834420341282298,-0.04034983064454391,0.08425707732,-0.07490262470414771,,-0.0001543723,-1.6510487e-05,2.5868416e-05,0.99999994,0.00013162196,0.000120311975,-0.00013162941,1.0,1.9460917e-05,-0.000120304525,-1.9490719e-05,1.0,729,2.244,1,1,0.414,False,-0.25558843989015,1.0502391903704191
2.2595100010512397,14:54:31.922485,14:54:23.701861,0,,0.11859012,0.003952965,0.035869792,0.3448066,-0.53328675,-0.7724724,0.0016195774,-0.8226011,0.5686166,-0.9386723,-0.19731393,-0.28277457,,0.014468633,-0.044643156,0.008600056,-0.42687577,-0.7090259,0.5613013,-0.77587926,0.60600126,0.17542529,-0.46453044,-0.36061728,-0.8088057,,0.10338106,1.339362,0.44165146,0.9916672,0.021319605,-0.12704964,-0.069567084,-0.74143225,-0.6674119,-0.10842766,0.670689,-0.7337709,,-0.09154984,0.26661825,-0.092852525,-0.26169947,0.5018702,0.8244026,-0.6385772,-0.7305157,0.24200405,0.72369367,-0.46311235,0.5116585,,0.017504543,0.3874766,-0.3643616,0.5023567,0.7276233,-0.4671211,-0.779635,0.1475541,-0.6086025,-0.37390772,0.66991955,0.64140534,,1.2611995056896046,0.5363592435806407,0.19636719436000002,-1.0308357621699218,0.8303400090745816,0.6201351501492566,-0.4096669178647725,,-0.5936001396443927,-0.32360567562862963,0.18950333881,0.8366628745032522,0.34814980140234225,-0.18016081863996763,0.8755241944797367,,-0.08834420341282298,-0.04034983064454391,0.08425707732,-0.07490262470414771,,-0.0001543723,-1.6510487e-05,2.5868416e-05,0.99999994,0.00013162196,0.000120311975,-0.00013162941,1.0,1.9460917e-05,-0.000120304525,-1.9490719e-05,1.0,742,2.285,1,1,0.455,False,-0.25540970673458663,1.0501909101696396
2.2942147530266084,14:54:31.958481,14:54:23.768801,0,,0.118390664,0.0038813353,0.035796866,0.36076,-0.53195333,-0.76607955,0.010410607,-0.8190453,0.5736344,-0.93260056,-0.21491972,-0.28994077,,0.0144853145,-0.04464049,0.008604705,-0.42685297,-0.7089754,0.5613825,-0.7758573,0.60602844,0.17542824,-0.46458805,-0.36067057,-0.80874884,,0.10338106,1.339362,0.44165146,0.9916672,0.021319605,-0.12704964,-0.069567084,-0.74143225,-0.6674119,-0.10842766,0.670689,-0.7337709,,-0.09134912,0.2665197,-0.092867516,-0.2776056,0.5022641,0.81894195,-0.6282747,-0.73980284,0.24075437,0.72677785,-0.44768572,0.5209332,,0.017487368,0.38747993,-0.3643614,0.5023402,0.72757864,-0.46720836,-0.7796709,0.1475217,-0.60856444,-0.3738551,0.6699751,0.641378,,1.2612612875525984,0.5361893434574078,0.19638534242000003,-1.059353594483817,0.8326628295705941,0.5929206363428431,-0.40476659588074426,,-0.5937005351717576,-0.3236133983615039,0.18950333881,0.8366628745032522,0.34814980140234225,-0.18016081863996763,0.8755241944797367,,-0.08834420341282298,-0.04034983064454391,0.08425707732,-0.07490262470414771,,-0.0001543723,-1.6510487e-05,2.5868416e-05,0.99999994,0.00013162196,0.000120311975,-0.00013162941,1.0,1.9460917e-05,-0.000120304525,-1.9490719e-05,1.0,751,2.314,1,1,0.484,False,-0.2564821056679656,1.0502391903704191
2.330220311006997,14:54:31.993331,14:54:23.836596,0,,0.11818652,0.0038333982,0.035718426,0.378801,-0.53359073,-0.7561684,0.020034164,-0.8121377,0.58312166,-0.92526126,-0.23603621,-0.29694852,,0.014498219,-0.044637404,0.008606911,-0.42683494,-0.70893806,0.5614434,-0.7758384,0.6060505,0.1754359,-0.4646362,-0.36070722,-0.8087049,,0.10338106,1.339362,0.44165146,0.9916672,0.021319605,-0.12704964,-0.069567084,-0.74143225,-0.6674119,-0.10842766,0.670689,-0.7337709,,-0.09114193,0.26643497,-0.09286297,-0.2956517,0.50610274,0.81021607,-0.6165391,-0.7489361,0.2428461,0.72970515,-0.42773202,0.5334564,,0.017474199,0.38748205,-0.36435965,0.5023274,0.72754514,-0.46727428,-0.7797004,0.147501,-0.60853165,-0.37381083,0.67001605,0.64136106,,1.2613771285457118,0.5362202343889046,0.19641904596,-1.0916458457804339,0.8343024675677794,0.5576052656000122,-0.40443990774847527,,-0.5937777625004999,-0.3236133983615039,0.1895046351,0.8366628745032522,0.34814980140234225,-0.18016081863996763,0.8755241944797367,,-0.08834420341282298,-0.04034983064454391,0.08425707732,-0.07490262470414771,,-0.0001543723,-1.6510487e-05,2.5868416e-05,0.99999994,0.00013162196,0.000120311975,-0.00013162941,1.0,1.9460917e-05,-0.000120304525,-1.9490719e-05,1.0,760,2.342,1,1,0.512,False,-0.25588632848275505,1.0505288715750958
2.3650490610161796,14:54:32.020664,14:54:23.836596,0,,0.11806063,0.003808558,0.03564854,0.39178547,-0.53315073,-0.74983627,0.026498616,-0.80811244,0.58843184,-0.9196749,-0.25040862,-0.3024789,,0.0144978985,-0.044636063,0.008606851,-0.42683426,-0.7089398,0.5614416,-0.7758359,0.6060517,0.17544279,-0.46464103,-0.36070156,-0.8087047,,0.10338106,1.339362,0.44165146,0.9916672,0.021319605,-0.12704964,-0.069567084,-0.74143225,-0.6674119,-0.10842766,0.670689,-0.7337709,,-0.09101204,0.26637167,-0.09284123,-0.3086918,0.50713164,0.80469054,-0.608228,-0.7556783,0.2429175,0.73127836,-0.4144487,0.5417234,,0.017474486,0.38748285,-0.3643585,0.5023272,0.7275462,-0.46727276,-0.77970284,0.1475065,-0.6085272,-0.37380588,0.67001367,0.6413664,,1.2614002967443345,0.5363129071833953,0.19645534208,-1.1147117395637316,0.8347123770670757,0.5342376071692844,-0.40509328401301237,,-0.5937777625004999,-0.32360567562862963,0.1895046351,0.8366628745032522,0.34814980140234225,-0.18016081863996763,0.8755241944797367,,-0.08834420341282298,-0.04034983064454391,0.08425707732,-0.07490262470414771,,-0.0001543723,-1.6510487e-05,2.5868416e-05,0.99999994,0.00013162196,0.000120311975,-0.00013162941,1.0,1.9460917e-05,-0.000120304525,-1.9490719e-05,1.0,773,2.383,1,1,0.553,False,-0.25600548391979716,1.0503840309727575
2.3923394040321,14:54:32.058790,14:54:23.836596,0,,0.11795889,0.0038070828,0.035584077,0.40174574,-0.53087455,-0.7461719,0.032868475,-0.80593514,0.5910906,-0.91516125,-0.2619936,-0.306332,,0.0144989565,-0.04463672,0.008607149,-0.42667577,-0.7090572,0.56141376,-0.7759478,0.6058896,0.1755074,-0.4645996,-0.36074314,-0.8087099,,0.10338106,1.339362,0.44165146,0.9916672,0.021319605,-0.12704964,-0.069567084,-0.74143225,-0.6674119,-0.10842766,0.670689,-0.7337709,,-0.09090534,0.26632884,-0.092805296,-0.31863615,0.50599045,0.8015265,-0.6006578,-0.7619338,0.24221274,0.7332675,-0.40426543,0.5467068,,0.01747342,0.38748255,-0.3643592,0.5021685,0.72767264,-0.46724656,-0.7797534,0.14739126,-0.6084903,-0.37391368,0.6699017,0.6414205,,1.2614311876758315,0.5364210254436345,0.19650978626,-1.133374144533854,0.8360787420647302,0.5173594312851916,-0.41048363819544387,,-0.5937854852333742,-0.3236133983615039,0.1895046351,0.8364531845597677,0.34814980140234225,-0.18016081863996763,0.8755241944797367,,-0.08834420341282298,-0.04034983064454391,0.08425707732,-0.07490262470414771,,-0.0001543723,-1.6510487e-05,2.5868416e-05,0.99999994,0.00013162196,0.000120311975,-0.00013162941,1.0,1.9460917e-05,-0.000120304525,-1.9490719e-05,1.0,782,2.412,1,1,0.582,False,-0.25600548391979716,1.049804668563404
2.430503496027086,14:54:32.090167,14:54:23.903534,0,,0.117862925,0.0038206428,0.035472378,0.41142958,-0.5289931,-0.742221,0.037905097,-0.803702,0.5938233,-0.910653,-0.2724505,-0.31061524,,0.014498442,-0.04463502,0.008605659,-0.42651778,-0.7091819,0.56137633,-0.7760565,0.6057279,0.17558503,-0.46456307,-0.3607697,-0.80871904,,0.10338106,1.339362,0.44165146,0.9916672,0.021319605,-0.12704964,-0.069567084,-0.74143225,-0.6674119,-0.10842766,0.670689,-0.7337709,,-0.09079947,0.26626512,-0.09272406,-0.32837912,0.5051474,0.7981186,-0.5940697,-0.7673796,0.24126704,0.7343353,-0.394911,0.5520842,,0.017474048,0.38748246,-0.36435696,0.5020107,0.7278045,-0.4672107,-0.77980596,0.14728908,-0.60844773,-0.37401596,0.66978097,0.641487,,1.261454355874454,0.5364441936422571,0.19660182285000002,-1.1509880997865543,0.8362153785644955,0.5011573015738044,-0.41032029412930937,,-0.5937854852333742,-0.32360567562862963,0.18950593139000002,0.8362434946162831,0.34814980140234225,-0.18016081863996763,0.8755241944797367,,-0.08834420341282298,-0.04034983064454391,0.08425707732,-0.07490262470414771,,-0.0001543723,-1.6510487e-05,2.5868416e-05,0.99999994,0.00013162196,0.000120311975,-0.00013162941,1.0,1.9460917e-05,-0.000120304525,-1.9490719e-05,1.0,795,2.453,1,1,0.623,False,-0.25683957197909146,1.0499977893665218
2.461883125011809,14:54:32.129487,14:54:23.969457,0,,0.11772956,0.0038658679,0.035315678,0.42277357,-0.52184093,-0.74090797,0.04356414,-0.8049187,0.59178376,-0.9051876,-0.28246757,-0.3175648,,0.014507778,-0.044633098,0.008604705,-0.4266189,-0.70929974,0.56115067,-0.7761158,0.6056696,0.17552438,-0.46437126,-0.36063588,-0.80888885,,0.10338106,1.339362,0.44165146,0.9916672,0.021319605,-0.12704964,-0.069567084,-0.74143225,-0.6674119,-0.10842766,0.670689,-0.7337709,,-0.090650745,0.26619503,-0.092592336,-0.3398217,0.49883196,0.7973004,-0.58640546,-0.7751652,0.23504801,0.7352889,-0.3876669,0.55593574,,0.017464831,0.38748175,-0.36435443,0.5020903,0.7279075,-0.46696475,-0.7796756,0.14737545,-0.6085938,-0.37418082,0.6696501,0.6415275,,1.261655146929184,0.5364519163751313,0.19674441475,-1.1717474041915221,0.8358054690651993,0.4886679930828254,-0.4108103263277122,,-0.5938472670963679,-0.3235979528957554,0.18950852397,0.8362434946162831,0.34787652840281136,-0.17993798283257484,0.8755241944797367,,-0.08834420341282298,-0.04034983064454391,0.08425707732,-0.07490262470414771,,-0.0001543723,-1.6510487e-05,2.5868416e-05,0.99999994,0.00013162196,0.000120311975,-0.00013162941,1.0,1.9460917e-05,-0.000120304525,-1.9490719e-05,1.0,804,2.481,1,1,0.651,False,-0.25546928445310746,1.0501909101696396
2.501226028020028,14:54:32.158799,14:54:23.969457,0,,0.117633805,0.003997028,0.03517489,0.42633083,-0.52798486,-0.73448896,0.04501325,-0.7985892,0.6001909,-0.90344656,-0.28894162,-0.31669688,,0.0145222545,-0.044622533,0.008604825,-0.42659405,-0.7092639,0.56121486,-0.77608037,0.60570234,0.17556825,-0.46445334,-0.36065146,-0.8088348,,0.10338106,1.339362,0.44165146,0.9916672,0.021319605,-0.12704964,-0.069567084,-0.74143225,-0.6674119,-0.10842766,0.670689,-0.7337709,,-0.09053605,0.2661984,-0.09241061,-0.34343028,0.50585467,0.791307,-0.5842238,-0.7747601,0.24172148,0.735349,-0.3792859,0.56160843,,0.017450139,0.38748637,-0.3643453,0.5020742,0.7278727,-0.4670362,-0.77972335,0.1473781,-0.608532,-0.37410295,0.6696873,0.6415341,,1.2621648472988827,0.5364441936422571,0.19692978422000001,-1.178457482383027,0.8349856500666065,0.4734091461775943,-0.41162704665838357,,-0.5939399398908586,-0.3235593392313843,0.18951241284,0.8362434946162831,0.34787652840281136,-0.17993798283257484,0.8755241944797367,,-0.08834420341282298,-0.04034983064454391,0.08425707732,-0.07490262470414771,,-0.0001543723,-1.6510487e-05,2.5868416e-05,0.99999994,0.00013162196,0.000120311975,-0.00013162941,1.0,1.9460917e-05,-0.000120304525,-1.9490719e-05,1.0,817,2.522,1,1,0.692,False,-0.25535012901606535,1.0506737121774343
2.530518273997586,14:54:32.202939,14:54:24.039715,0,,0.1174628,0.0040908754,0.035056874,0.43345532,-0.5229337,-0.7339325,0.04717648,-0.800133,0.59796435,-0.89993936,-0.2938151,-0.32215178,,0.014544971,-0.044595845,0.0086116195,-0.42630666,-0.7080346,0.56298274,-0.77563953,0.6063588,0.17524987,-0.4654525,-0.3619615,-0.8076744,,0.10338106,1.339362,0.44165146,0.9916672,0.021319605,-0.12704964,-0.069567084,-0.74143225,-0.6674119,-0.10842766,0.670689,-0.7337709,,-0.09035053,0.26619092,-0.0922783,-0.3507003,0.5011661,0.7911017,-0.5803857,-0.7792776,0.23638694,0.734957,-0.3762431,0.56416255,,0.017425958,0.38750497,-0.36432672,0.5018932,0.72678685,-0.468918,-0.78029746,0.14657477,-0.60798985,-0.3731475,0.67104155,0.6406748,,1.2629757342506762,0.5363824117792633,0.19706330209000003,-1.1912485689355827,0.8327994660703596,0.46710563736282135,-0.40917688566636956,,-0.5940712263497204,-0.32347438916976784,0.18951500542000002,0.8364531845597677,0.34883298390116946,-0.18169805304013653,0.8760142266781397,,-0.08834420341282298,-0.04034983064454391,0.08425707732,-0.07490262470414771,,-0.0001543723,-1.6510487e-05,2.5868416e-05,0.99999994,0.00013162196,0.000120311975,-0.00013162941,1.0,1.9460917e-05,-0.000120304525,-1.9490719e-05,1.0,826,2.551,1,1,0.721,False,-0.25540970673458663,1.0502391903704191
2.5746059759985656,14:54:32.228557,14:54:24.039715,0,,0.11736591,0.0041351914,0.034977987,0.43842655,-0.5182987,-0.7342674,0.04937151,-0.8018497,0.5954825,-0.89741,-0.29732722,-0.32596302,,0.01455687,-0.044586785,0.008612454,-0.42645565,-0.7079442,0.5629835,-0.775717,0.6063626,0.17489332,-0.4651869,-0.36213163,-0.8077512,,0.10338106,1.339362,0.44165146,0.9916672,0.021319605,-0.12704964,-0.069567084,-0.74143225,-0.6674119,-0.10842766,0.670689,-0.7337709,,-0.09024487,0.26617205,-0.092200495,-0.35574216,0.49676412,0.79162675,-0.5771465,-0.7829961,0.23198944,0.7350847,-0.37435612,0.5652504,,0.01741378,0.38750955,-0.36431932,0.50201213,0.7267172,-0.46889868,-0.7801133,0.14643049,-0.6082609,-0.3733726,0.6711485,0.6404316,,1.263346425428639,0.5363437981148922,0.19714496836,-1.2004749264489019,0.8319796470717669,0.46360852903783123,-0.40541997214528125,,-0.5941638991442111,-0.32342805277252246,0.18951630171000003,0.8364531845597677,0.34842307440187315,-0.18185387176989065,0.8755241944797368,,-0.08834420341282298,-0.04034983064454391,0.08425707732,-0.07490262470414771,,-0.0001543723,-1.6510487e-05,2.5868416e-05,0.99999994,0.00013162196,0.000120311975,-0.00013162941,1.0,1.9460917e-05,-0.000120304525,-1.9490719e-05,1.0,835,2.58,1,1,0.75,False,-0.2566608388235285,1.0504805913743163
2.6002953970455565,14:54:32.256669,14:54:24.039715,0,,0.11717406,0.004251793,0.03482558,0.44457468,-0.51924837,-0.72988665,0.05242133,-0.79836166,0.5998921,-0.8942065,-0.3049585,-0.3277117,,0.014575101,-0.044570945,0.008611977,-0.42681876,-0.70803595,0.56259286,-0.77591765,0.6062656,0.17433867,-0.4645188,-0.3621147,-0.80814314,,0.10338106,1.339362,0.44165146,0.9916672,0.021319605,-0.12704964,-0.069567084,-0.74143225,-0.6674119,-0.10842766,0.670689,-0.7337709,,-0.09003437,0.26615852,-0.09202979,-0.36196554,0.49856246,0.7876652,-0.5728424,-0.78555906,0.233984,0.73541313,-0.36651388,0.569943,,0.017395247,0.38751647,-0.36430547,0.5022999,0.72680914,-0.4684477,-0.7796547,0.14639744,-0.6088566,-0.37394303,0.67105603,0.6401956,,1.264242262442049,0.5361661752587851,0.19732644896,-1.2126369431710045,0.8308865550736434,0.44938930534139854,-0.4068900687404895,,-0.5943183538016956,-0.32333537997803175,0.18951889429000002,0.8364531845597677,0.3474666189035151,-0.18172737636514025,0.8755241944797367,,-0.08834420341282298,-0.04034983064454391,0.08425707732,-0.07490262470414771,,-0.0001543723,-1.6510487e-05,2.5868416e-05,0.99999994,0.00013162196,0.000120311975,-0.00013162941,1.0,1.9460917e-05,-0.000120304525,-1.9490719e-05,1.0,848,2.621,1,1,0.791,False,-0.2556480176086704,1.05014262996886
2.6283884280128404,14:54:32.298847,14:54:24.039715,0,,0.11696568,0.0044132173,0.034617767,0.44958943,-0.5162612,-0.7289333,0.049219728,-0.80050135,0.5973064,-0.89187825,-0.30442056,-0.33448666,,0.014599398,-0.044539623,0.008618176,-0.42670816,-0.7078153,0.5629543,-0.77579236,0.606405,0.17441168,-0.4648295,-0.36231273,-0.80787563,,0.10338106,1.339362,0.44165146,0.9916672,0.021319605,-0.12704964,-0.069567084,-0.74143225,-0.6674119,-0.10842766,0.670689,-0.7337709,,-0.08980018,0.26614094,-0.09178999,-0.36733282,0.49542588,0.7871593,-0.57371974,-0.7868263,0.22748639,0.7320603,-0.3680456,0.5732627,,0.017369432,0.3875371,-0.36428267,0.50222296,0.72660923,-0.4688402,-0.7798426,0.14629562,-0.6086404,-0.37365445,0.67129475,0.64011383,,1.265508790633422,0.5357954840808222,0.19754552197000003,-1.2191373314190246,0.8246012760844331,0.44822526592061085,-0.40803347720342964,,-0.5944959766578027,-0.32320409351916995,0.18952019058000003,0.8364531845597677,0.3476032554032805,-0.1820021517491177,0.8755241944797367,,-0.08834420341282298,-0.04034983064454391,0.08425707732,-0.07490262470414771,,-0.0001543723,-1.6510487e-05,2.5868416e-05,0.99999994,0.00013162196,0.000120311975,-0.00013162941,1.0,1.9460917e-05,-0.000120304525,-1.9490719e-05,1.0,857,2.649,1,1,0.819,False,-0.2564821056679656,1.0506737121774343
2.670564275002107,14:54:32.328149,14:54:24.148230,0,,0.116776064,0.0045099407,0.03446056,0.45121348,-0.5123685,-0.73067427,0.048692882,-0.80340505,0.59343857,-0.89108664,-0.30334607,-0.33755848,,0.014612652,-0.044522874,0.008618951,-0.42673638,-0.70781195,0.56293714,-0.7757807,0.6064219,0.17440468,-0.4648232,-0.3622909,-0.8078891,,0.10338106,1.339362,0.44165146,0.9916672,0.021319605,-0.12704964,-0.069567084,-0.74143225,-0.6674119,-0.10842766,0.670689,-0.7337709,,-0.0895926,0.26610947,-0.09162891,-0.36904597,0.49129963,0.78894216,-0.5736024,-0.7883107,0.2225906,0.7312902,-0.37039295,0.5727335,,0.017355671,0.38754603,-0.364269,0.50224984,0.7266028,-0.46882138,-0.7798274,0.1463227,-0.60865337,-0.37365,0.67129576,0.6401153,,1.2664895777084484,0.5352548927796266,0.19771274338000003,-1.222492370514777,0.8226883650877169,0.4505202252336257,-0.4081968212695638,,-0.5945963721851677,-0.3231268661904277,0.18952278316,0.8364531845597677,0.3474666189035151,-0.1819724125855619,0.8756875385458711,,-0.08834420341282298,-0.04034983064454391,0.08425707732,-0.07490262470414771,,-0.0001543723,-1.6510487e-05,2.5868416e-05,0.99999994,0.00013162196,0.000120311975,-0.00013162941,1.0,1.9460917e-05,-0.000120304525,-1.9490719e-05,1.0,870,2.69,1,1,0.86,False,-0.25683957197909146,1.0502874705711984
2.6998863519984297,14:54:32.370339,14:54:24.148230,0,,0.11651194,0.0045882463,0.034266397,0.4528914,-0.5080184,-0.7326709,0.049069613,-0.8063314,0.5894249,-0.8902143,-0.30289736,-0.34025234,,0.014619827,-0.04450535,0.008618474,-0.42671484,-0.7078019,0.56296605,-0.7757374,0.60645354,0.17448708,-0.46491504,-0.36225763,-0.80785114,,0.10338106,1.339362,0.44165146,0.9916672,0.021319605,-0.12704964,-0.069567084,-0.74143225,-0.6674119,-0.10842766,0.670689,-0.7337709,,-0.08930873,0.26604074,-0.091460705,-0.3707696,0.48677135,0.79093844,-0.57276505,-0.7902423,0.21784689,0.73107463,-0.37225085,0.57180345,,0.017348068,0.38755515,-0.3642542,0.502238,0.72658795,-0.46885714,-0.7798781,0.14636679,-0.6085778,-0.37356016,0.67130226,0.640161,,1.2677020467697018,0.5343667784990908,0.19789940914,-1.2271055492714364,0.821458636589828,0.4518497013274558,-0.40787013313729525,,-0.5946581540481615,-0.3230419161288112,0.18952537574000003,0.8364531845597677,0.3474666189035151,-0.1819724125855619,0.8756875385458711,,-0.08834420341282298,-0.04034983064454391,0.08425707732,-0.07490262470414771,,-0.0001543723,-1.6510487e-05,2.5868416e-05,0.99999994,0.00013162196,0.000120311975,-0.00013162941,1.0,1.9460917e-05,-0.000120304525,-1.9490719e-05,1.0,879,2.719,0,1,0.863,False,-0.25540970673458663,1.050335750771978
2.74206929304637,14:54:32.401229,14:54:24.219000,0,,0.11633475,0.004634559,0.034113094,0.45457512,-0.50481874,-0.7338388,0.049129426,-0.8084175,0.5865556,-0.8893524,-0.3026867,-0.342685,,0.014619805,-0.044496797,0.008615911,-0.42670912,-0.7077631,0.5630192,-0.7757202,0.6064776,0.17447999,-0.46494907,-0.36229318,-0.8078157,,0.10338106,1.339362,0.44165146,0.9916672,0.021319605,-0.12704964,-0.069567084,-0.74143225,-0.6674119,-0.10842766,0.670689,-0.7337709,,-0.08911664,0.26597452,-0.09133517,-0.37251562,0.48345459,0.79215133,-0.5721686,-0.7916947,0.21410894,0.73065394,-0.3734852,0.5715362,,0.017348127,0.38755813,-0.3642458,0.5022358,0.72655284,-0.46891385,-0.77989584,0.14634806,-0.60855955,-0.37352604,0.67134434,0.6401368,,1.2684588745913756,0.5337103462047816,0.19803551959000001,-1.2308799682541578,0.820228908091939,0.4524440687600207,-0.4080334772034294,,-0.5946658767810357,-0.3229955797315659,0.18952796832000002,0.8364531845597677,0.3474666189035151,-0.18205409132570244,0.8758508826120053,,-0.08834420341282298,-0.04034983064454391,0.08425707732,-0.07490262470414771,,-0.0001543723,-1.6510487e-05,2.5868416e-05,0.99999994,0.00013162196,0.000120311975,-0.00013162941,1.0,1.9460917e-05,-0.000120304525,-1.9490719e-05,1.0,892,2.76,0,1,0.863,False,-0.2566608388235285,1.0505771517758753
2.7728958040243015,14:54:32.440727,14:54:24.219000,0,,0.116155654,0.004709542,0.033904776,0.45636287,-0.5017969,-0.73480123,0.04860887,-0.81051785,0.5836934,-0.88846505,-0.3020938,-0.34549847,,0.014619894,-0.044493355,0.008614242,-0.42676356,-0.707838,0.56288373,-0.775749,0.606445,0.17446491,-0.46485096,-0.3622013,-0.8079133,,0.10338106,1.339362,0.44165146,0.9916672,0.021319605,-0.12704964,-0.069567084,-0.74143225,-0.6674119,-0.10842766,0.670689,-0.7337709,,-0.08891632,0.26589233,-0.0911502,-0.3743995,0.48028088,0.7931931,-0.5719848,-0.7928965,0.21011552,0.7298345,-0.37502727,0.57157344,,0.017348133,0.3875588,-0.36424202,0.5022791,0.7266174,-0.46876737,-0.779828,0.14641105,-0.6086313,-0.3736094,0.6712607,0.6401758,,1.2692157024130497,0.5329844093146046,0.1982286668,-1.234444697293395,0.8184526335949883,0.4531573928468091,-0.40852350940183246,,-0.59467359951391,-0.3229724115329432,0.18952926461000003,0.8364531845597677,0.3473299824037496,-0.18194267342200598,0.8758508826120053,,-0.08834420341282298,-0.04034983064454391,0.08425707732,-0.07490262470414771,,-0.0001543723,-1.6510487e-05,2.5868416e-05,0.99999994,0.00013162196,0.000120311975,-0.00013162941,1.0,1.9460917e-05,-0.000120304525,-1.9490719e-05,1.0,901,2.789,0,1,0.863,False,-0.25636295023092304,1.0499977893665218
