AlexandreBanks6/ExpertPlaybackApp/resources/Motions/P_06/PC1/Data_PC1_8.csv
Task Time,PC1 Time,PC2 Time,Gaze Calib,s_T_psm1,Tx,Ty,Tz,R00,R01,R02,R10,R11,R12,R20,R21,R22,s_T_psm3,Tx,Ty,Tz,R00,R01,R02,R10,R11,R12,R20,R21,R22,cart_T_ecm,Tx,Ty,Tz,R00,R01,R02,R10,R11,R12,R20,R21,R22,ecm_T_psm1,Tx,Ty,Tz,R00,R01,R02,R10,R11,R12,R20,R21,R22,ecm_T_psm3,Tx,Ty,Tz,R00,R01,R02,R10,R11,R12,R20,R21,R22,psm1_joints,q1,q2,q3,q4,q5,q6,jaw,psm3_joints,q1,q2,q3,q4,q5,q6,jaw,ecm_joints,q1,q2,q3,q4,ecmi_T_ecm,Tx,Ty,Tz,R00,R01,R02,R10,R11,R12,R20,R21,R22,Sample #,Task Duration (s),Collisions (binary),Collisions (increments),Cumulative Collision Time (s),Clutch Press,MTMR Angle,MTML Angle
""
lci_T_si,,,,,-0.060823515,0.029859815,0.22619304,0.990712,-0.051887166,0.12568814,0.04697213,-0.7368394,-0.67443407,0.12760644,0.67407376,-0.7275584
rci_T_si,,,,,-0.07009534,0.034067318,0.23510589,0.98514,-0.06991788,0.15687762,0.057551738,-0.7262056,-0.68506444,0.16182366,0.68391293,-0.7113903
ecm_T_lc,,,,,-4.4061628e-05,-0.00034663224,-0.01840835,-0.99912,0.030754527,0.028518902,-0.031987965,-0.99852574,-0.043852776,0.027128186,-0.04472645,0.9986309
ecm_T_rc,,,,,-0.0043358393,0.01870579,-0.007592615,-0.99555075,-0.052743673,-0.078081585,0.04863213,-0.9973746,0.053654674,-0.08070653,0.04961868,0.9955021
cart_T_ecmi,,,,,0.10353776,1.3393562,0.4416647,0.9916547,0.021186605,-0.12716936,-0.069744974,-0.74143606,-0.6673891,-0.10842766,0.670689,-0.7337709
ecmac_T_ecmrep_psm1,,,,,0.008075713,-0.26004106,-0.30289736,0.99667877,0.061445758,0.053440064,-0.058828812,0.9970531,-0.049237434,-0.056308012,0.04593009,0.9973564
ecmac_T_ecmrep_psm3,,,,,-0.012692571,-0.457308,-0.5458498,0.99509805,-0.029463936,0.094401784,0.014504567,0.9877462,0.15539348,-0.09782351,-0.1532625,0.9833317
""
0,14:49:48.069165,14:49:39.849904,0,,0.14317617,0.011865333,0.023499563,-0.5621848,-0.052482724,-0.8253446,-0.82311785,0.13223755,0.55225915,0.08015752,0.98982763,-0.1175414,,0.030500688,-0.039060164,0.021373332,-0.4033242,-0.66018814,0.63362527,-0.55389863,0.7273141,0.4052292,-0.7283722,-0.18752539,-0.65902066,,0.10341432,1.3393571,0.44165748,0.99166554,0.021301717,-0.12706575,-0.069591016,-0.7414327,-0.6674088,-0.10842766,0.670689,-0.7337709,,-0.11452578,0.2636641,-0.07596803,0.506566,-0.026068153,0.86180705,-0.54307306,0.76670015,0.34240702,-0.6696735,-0.6414759,0.3742273,,-0.0001178392,0.39916307,-0.3666207,0.5032523,0.6550186,-0.5636379,-0.8632778,0.35196346,-0.36176398,-0.038582213,0.66863465,0.7425895,,1.161282787762888,0.6351484425077206,0.21261748580000003,0.20360893512347317,-0.7665307636841209,1.1115330160141128,-0.4034598433516697,,-0.7014403815000637,-0.3173811529320047,0.18347299773000003,1.0383846001353645,0.5547441890476882,0.04000275655983826,0.8719306250247827,,-0.08770279491271507,-0.040362920613933866,0.0842606492,-0.07490262470414771,,-0.00012169778,-8.165836e-06,2.0384789e-05,0.99999994,0.00011391938,0.000104121864,-0.00011391938,1.0,1.680851e-05,-0.000104121864,-1.6868114e-05,1.0,39,0.117,0,0,0.0,False,-0.25183504362332476,1.0467147357135185
0.12399382697185501,14:49:48.108499,14:49:39.915625,0,,0.14316618,0.011700004,0.023779556,-0.5625866,-0.04795082,-0.8253465,-0.8230436,0.12676072,0.5536523,0.07807347,0.9907736,-0.11077951,,0.030491322,-0.03906152,0.021371663,-0.40326694,-0.6601935,0.63365614,-0.5538667,0.7273095,0.40528098,-0.728428,-0.18752463,-0.65895915,,0.10341432,1.3393571,0.44165748,0.99166554,0.021301717,-0.12706575,-0.069591016,-0.7414327,-0.6674088,-0.10842766,0.670689,-0.7337709,,-0.11454926,0.26373136,-0.076285444,0.50715005,-0.030962005,0.8613014,-0.5444182,0.7632202,0.3479996,-0.66813743,-0.64539623,0.37021092,,-0.00010829533,0.399162,-0.3666212,0.5032011,0.655024,-0.5636774,-0.86331034,0.35196197,-0.36168775,-0.038521137,0.66863024,0.7425966,,1.1612750650300137,0.635472797288438,0.21228822814000003,0.20318955523650412,-0.7647544891871703,1.1186608509808182,-0.40313315521940113,,-0.7013785996370699,-0.3173811529320047,0.18347170144000002,1.0383846001353645,0.5548808255474537,0.039973017396282395,0.872093969090917,,-0.08770279491271507,-0.040362920613933866,0.0842606492,-0.07490262470414771,,-0.00012169778,-8.165836e-06,2.0384789e-05,0.99999994,0.00011391938,0.000104121864,-0.00011391938,1.0,1.680851e-05,-0.000104121864,-1.6868114e-05,1.0,47,0.142,0,0,0.0,False,-0.2516563104677614,1.046763015914298
0.16332988999783993,14:49:48.130069,14:49:39.915625,0,,0.14315544,0.011615902,0.023925126,-0.5633737,-0.046131365,-0.8249132,-0.82269174,0.12326434,0.5549632,0.076081276,0.99130106,-0.1073958,,0.030488417,-0.03905933,0.02137065,-0.40327445,-0.6602034,0.633641,-0.55386347,0.7273052,0.40529317,-0.72842634,-0.18750624,-0.6589663,,0.10341432,1.3393571,0.44165748,0.99166554,0.021301717,-0.12706575,-0.069591016,-0.7414327,-0.6674088,-0.10842766,0.670689,-0.7337709,,-0.11455583,0.2637678,-0.076449774,0.5081248,-0.033011585,0.86065054,-0.5454899,0.7609658,0.3512432,-0.6665208,-0.6479516,0.36865813,,-0.00010536002,0.39916277,-0.36661896,0.5032083,0.6550318,-0.5636619,-0.8633062,0.35197535,-0.36168456,-0.038519803,0.6686155,0.74261,,1.1612982332286363,0.6355963610144256,0.21211063641000003,0.20339924517998864,-0.7627049416906886,1.1219719855739463,-0.40280646708713264,,-0.7013631541713216,-0.31736570746625625,0.18347170144000002,1.0383846001353645,0.5548808255474537,0.039973017396282395,0.872093969090917,,-0.08770279491271507,-0.040362920613933866,0.0842606492,-0.07490262470414771,,-0.00012169778,-8.165836e-06,2.0384789e-05,0.99999994,0.00011391938,0.000104121864,-0.00011391938,1.0,1.680851e-05,-0.000104121864,-1.6868114e-05,1.0,55,0.165,0,0,0.0,False,-0.25117968871959295,1.0461353733041652
0.1849041489767842,14:49:48.155261,14:49:39.985774,0,,0.14313014,0.011445925,0.024242058,-0.5655511,-0.04387408,-0.82354534,-0.8216127,0.11648092,0.55801845,0.07144481,0.99222344,-0.10192339,,0.03048579,-0.039058495,0.021369576,-0.40328237,-0.6601594,0.6336819,-0.55386424,0.7273345,0.40523958,-0.7284214,-0.1875478,-0.6589599,,0.10341432,1.3393571,0.44165748,0.99166554,0.021301717,-0.12706575,-0.069591016,-0.7414327,-0.6674088,-0.10842766,0.670689,-0.7337709,,-0.11456752,0.26385686,-0.07679894,0.51075166,-0.035713382,0.8589862,-0.5477862,0.75654614,0.357167,-0.66261834,-0.6529644,0.3668439,,-0.00010265936,0.39916274,-0.36661783,0.50321555,0.6549921,-0.56370157,-0.8633018,0.35195422,-0.3617156,-0.038523715,0.6686655,0.74256474,,1.1613754605573787,0.6358821021307719,0.21172952715,0.20444769489741124,-0.7577860276991327,1.1268639237161964,-0.40296981115326685,,-0.7013477087055731,-0.317357984733382,0.18347170144000002,1.0383846001353645,0.5548808255474537,0.03989133865614186,0.8722573131570512,,-0.08770279491271507,-0.040362920613933866,0.0842606492,-0.07490262470414771,,-0.00012169778,-8.165836e-06,2.0384789e-05,0.99999994,0.00011391938,0.000104121864,-0.00011391938,1.0,1.680851e-05,-0.000104121864,-1.6868114e-05,1.0,66,0.199,0,0,0.0,False,-0.2519541990603664,1.0463284941072828
0.21006063296226785,14:49:48.187391,14:49:39.985774,0,,0.14313422,0.011356369,0.024409458,-0.5661007,-0.04488145,-0.8231133,-0.8217141,0.110299855,0.5591241,0.06569505,0.9928845,-0.09932059,,0.030488417,-0.039057124,0.021370292,-0.40327755,-0.66016346,0.6336807,-0.5538601,0.72733206,0.40524948,-0.7284272,-0.18754248,-0.658955,,0.10341432,1.3393571,0.44165748,0.99166554,0.021301717,-0.12706575,-0.069591016,-0.7414327,-0.6674088,-0.10842766,0.670689,-0.7337709,,-0.114591025,0.26390377,-0.07698143,0.51179004,-0.035111763,0.8583928,-0.5517331,0.75245166,0.35973206,-0.6585299,-0.65771097,0.36572495,,-0.000105389,0.39916378,-0.36661696,0.5032113,0.6549957,-0.5637013,-0.8633046,0.35195756,-0.3617057,-0.038516745,0.6686603,0.7425698,,1.1614449651532466,0.6359979431238852,0.21151304672000001,0.20235079546256599,-0.7523205677085151,1.130901796542958,-0.4052566280791468,,-0.7013554314384473,-0.31735026200050775,0.18347170144000002,1.0383846001353645,0.5548808255474537,0.03989133865614186,0.8722573131570512,,-0.08770933989741005,-0.040362920613933866,0.0842606492,-0.07490262470414771,,-0.00012169778,-8.165836e-06,2.0384789e-05,0.99999994,0.00011391938,0.000104121864,-0.00011391938,1.0,1.680851e-05,-0.000104121864,-1.6868114e-05,1.0,74,0.223,0,0,0.0,False,-0.25171588818628265,1.046038812902606
0.24222097697202116,14:49:48.216219,14:49:39.985774,0,,0.14315084,0.011213988,0.024700463,-0.5677924,-0.045520253,-0.82191217,-0.82144105,0.0960426,0.56214786,0.053349525,0.99433583,-0.09192449,,0.030484892,-0.03905784,0.021368802,-0.40328982,-0.6602235,0.63361037,-0.55386746,0.72729385,0.40530807,-0.72841483,-0.18747954,-0.6589866,,0.10341432,1.3393571,0.44165748,0.99166554,0.021301717,-0.12706575,-0.069591016,-0.7414327,-0.6674088,-0.10842766,0.670689,-0.7337709,,-0.11464063,0.26399493,-0.077288784,0.5145558,-0.035393585,0.8567261,-0.5598368,0.74292797,0.3669343,-0.6494729,-0.668435,0.3624633,,-0.00010169001,0.3991626,-0.36661687,0.5032223,0.65504897,-0.5636295,-0.8632976,0.35199234,-0.36168864,-0.03853049,0.6685898,0.74263257,,1.1615685288792343,0.6361755659799925,0.21113323375,0.19878606642332908,-0.7402965557291563,1.1407815973915485,-0.40215309082259554,,-0.7013322632398247,-0.31735026200050775,0.18347170144000002,1.0383846001353645,0.5548808255474537,0.039973017396282395,0.8717672809586484,,-0.08770933989741005,-0.040362920613933866,0.0842606492,-0.07490262470414771,,-0.00012169778,-8.165836e-06,2.0384789e-05,0.99999994,0.00011391938,0.000104121864,-0.00011391938,1.0,1.680851e-05,-0.000104121864,-1.6868114e-05,1.0,82,0.247,0,0,0.0,False,-0.2514179995936776,1.0457491316979295
0.27105529099935666,14:49:48.246846,14:49:40.055216,0,,0.14311725,0.011078581,0.025034502,-0.57069635,-0.039408494,-0.8202149,-0.8200718,0.07878256,0.56681156,0.04228145,0.9961126,-0.07727873,,0.03048516,-0.039059196,0.021368861,-0.4032902,-0.6602212,0.6336124,-0.5538715,0.72729427,0.40530175,-0.72841156,-0.18748567,-0.6589885,,0.10341432,1.3393571,0.44165748,0.99166554,0.021301717,-0.12706575,-0.069591016,-0.7414327,-0.6674088,-0.10842766,0.670689,-0.7337709,,-0.11464363,0.26412117,-0.07762804,0.51847774,-0.04258511,0.8540301,-0.56624836,0.7312911,0.38023168,-0.64073676,-0.68073475,0.35504442,,-0.00010192472,0.39916182,-0.36661795,0.5032224,0.6550474,-0.5636312,-0.8632973,0.35198742,-0.36169413,-0.03853574,0.6685938,0.74262863,,1.1619237745914486,0.636399525233345,0.21072360611000002,0.197947306649391,-0.7289557262486248,1.1558741759466329,-0.4031331552194011,,-0.7013322632398247,-0.317357984733382,0.18347170144000002,1.0383846001353645,0.5548808255474537,0.039973017396282395,0.8717672809586484,,-0.08770933989741005,-0.040362920613933866,0.0842606492,-0.07490262470414771,,-0.00012169778,-8.165836e-06,2.0384789e-05,0.99999994,0.00011391938,0.000104121864,-0.00011391938,1.0,1.680851e-05,-0.000104121864,-1.6868114e-05,1.0,93,0.281,0,0,0.0,False,-0.2529074425567037,1.044976648485458
0.30166995397303253,14:49:48.278598,14:49:40.055216,0,,0.14308038,0.010920554,0.025341079,-0.5737528,-0.037751686,-0.818158,-0.81849205,0.062576085,0.57109976,0.029637158,0.9973259,-0.06680268,,0.03048516,-0.039059196,0.021368861,-0.4032902,-0.660273,0.63355845,-0.5538715,0.7272612,0.4053611,-0.72841156,-0.18743183,-0.65900385,,0.10341432,1.3393571,0.44165748,0.99166554,0.021301717,-0.12706575,-0.069591016,-0.7414327,-0.6674088,-0.10842766,0.670689,-0.7337709,,-0.114642255,0.26421225,-0.077962756,0.5226995,-0.045238037,0.8513159,-0.5735661,0.720129,0.39043075,-0.6307196,-0.69236386,0.35046405,,-0.00010192472,0.39916182,-0.36661795,0.5032224,0.6550935,-0.56357765,-0.8632973,0.35201696,-0.36166537,-0.03853574,0.66853315,0.74268323,,1.1622326839064177,0.636399525233345,0.21031008960000003,0.19668916698848385,-0.7158386222711426,1.1670679595494473,-0.4034598433516697,,-0.7013322632398247,-0.317357984733382,0.18347170144000002,1.0383846001353645,0.5548808255474537,0.04005469613642293,0.8706238724957084,,-0.08770933989741005,-0.040362920613933866,0.0842606492,-0.07490262470414771,,-0.00012169778,-8.165836e-06,2.0384789e-05,0.99999994,0.00011391938,0.000104121864,-0.00011391938,1.0,1.680851e-05,-0.000104121864,-1.6868114e-05,1.0,105,0.318,0,0,0.0,False,-0.252371243090014,1.04478352768234
0.33341213600942865,14:49:48.310009,14:49:40.125580,0,,0.14303638,0.010751963,0.025664434,-0.5773253,-0.03295663,-0.81584877,-0.8163228,0.044929683,0.5758458,0.017677873,0.9984464,-0.05284226,,0.030484892,-0.03905784,0.021368802,-0.40328982,-0.6602753,0.63355637,-0.55386746,0.72726077,0.4053675,-0.72841483,-0.18742566,-0.65900195,,0.10341432,1.3393571,0.44165748,0.99166554,0.021301717,-0.12706575,-0.069591016,-0.7414327,-0.6674088,-0.10842766,0.670689,-0.7337709,,-0.11463582,0.264307,-0.07831756,0.5274079,-0.05108453,0.84807503,-0.57997763,0.70778716,0.40331542,-0.6208598,-0.7045763,0.34366465,,-0.00010169001,0.3991626,-0.36661687,0.5032223,0.655095,-0.563576,-0.8632976,0.3520219,-0.36165988,-0.03853049,0.6685291,0.74268717,,1.1625261477556381,0.6364072479662192,0.20987972132000002,0.19668916698848385,-0.7031314277929566,1.1808830015872864,-0.40345984335166973,,-0.7013322632398247,-0.31735026200050775,0.18347170144000002,1.0383846001353645,0.5548808255474537,0.04005469613642293,0.87029718436344,,-0.08770933989741005,-0.040362920613933866,0.0842606492,-0.07490262470414771,,-0.00012169778,-8.165836e-06,2.0384789e-05,0.99999994,0.00011391938,0.000104121864,-0.00011391938,1.0,1.680851e-05,-0.000104121864,-1.6868114e-05,1.0,113,0.341,0,0,0.0,False,-0.2515371550307197,1.046038812902606
0.3648306769900955,14:49:48.339214,14:49:40.125580,0,,0.14299592,0.010573149,0.026023403,-0.5818519,-0.029475909,-0.81276035,-0.8132869,0.025459826,0.58130556,0.0035582483,0.99924123,-0.038786203,,0.03048344,-0.039056797,0.021368325,-0.40329358,-0.6601767,0.6336566,-0.55386585,0.72732484,0.40525472,-0.728414,-0.18752417,-0.6589748,,0.10341432,1.3393571,0.44165748,0.99166554,0.021301717,-0.12706575,-0.069591016,-0.7414327,-0.6674088,-0.10842766,0.670689,-0.7337709,,-0.11463656,0.26441818,-0.078705,0.5333004,-0.055696722,0.84409034,-0.58719176,0.69390374,0.4167774,-0.6089306,-0.71791047,0.3373545,,-0.00010022231,0.39916298,-0.36661577,0.50322586,0.6550068,-0.5636752,-0.86329556,0.35196948,-0.3617158,-0.03852982,0.66864306,0.7425846,,1.1628196116048586,0.6364149706990934,0.20940398289000003,0.1973182368189374,-0.6879647763189927,1.1943260961614015,-0.40509328401301253,,-0.7013245405069504,-0.31734253926763356,0.18347170144000002,1.0383846001353645,0.5548808255474537,0.039891338656141806,0.8709505606279769,,-0.08770933989741005,-0.040362920613933866,0.0842606492,-0.07490262470414771,,-0.00012169778,-8.165836e-06,2.0384789e-05,0.99999994,0.00011391938,0.000104121864,-0.00011391938,1.0,1.680851e-05,-0.000104121864,-1.6868114e-05,1.0,121,0.366,0,0,0.0,False,-0.25207335449740853,1.0462802139065033
0.3940452029928565,14:49:48.359573,14:49:40.125580,0,,0.14296533,0.010494322,0.026236013,-0.58594865,-0.027756989,-0.80987257,-0.810333,0.01397258,0.5858029,-0.0049440563,0.99951696,-0.030679643,,0.030482985,-0.03905681,0.021369457,-0.40329358,-0.66002136,0.6338184,-0.55386585,0.7274241,0.4050765,-0.728414,-0.18768558,-0.6589289,,0.10341432,1.3393571,0.44165748,0.99166554,0.021301717,-0.12706575,-0.069591016,-0.7414327,-0.6674088,-0.10842766,0.670689,-0.7337709,,-0.114628896,0.2645041,-0.07891692,0.5382749,-0.058068283,0.84076643,-0.59068155,0.68558806,0.4255165,-0.60112846,-0.7256701,0.33473498,,-9.991664e-05,0.399164,-0.36661652,0.50322586,0.65486866,-0.56383574,-0.86329556,0.35188085,-0.361802,-0.03852982,0.668825,0.74242073,,1.163035848125337,0.6364458616305902,0.20913565086000002,0.19983451614075173,-0.6782635848356463,1.2006275257834131,-0.40313315521940124,,-0.7013245405069504,-0.31734253926763356,0.18347040515000002,1.0383846001353645,0.5548808255474537,0.03964630243572009,0.8714405928263798,,-0.08770933989741005,-0.040362920613933866,0.0842606492,-0.07490262470414771,,-0.00012169778,-8.165836e-06,2.0384789e-05,0.99999994,0.00011391938,0.000104121864,-0.00011391938,1.0,1.680851e-05,-0.000104121864,-1.6868114e-05,1.0,140,0.424,0,0,0.0,False,-0.25254997624557696,1.0458456920994883
0.41435986396390945,14:49:48.411283,14:49:40.125580,0,,0.1429218,0.010349944,0.026705205,-0.59665495,-0.030195277,-0.8019295,-0.80199754,-0.012842894,0.5971891,-0.02833137,0.9994615,-0.016553745,,0.030482985,-0.03905681,0.021369457,-0.40329358,-0.66002136,0.6338184,-0.55386585,0.7274241,0.4050765,-0.728414,-0.18768558,-0.6589289,,0.10341432,1.3393571,0.44165748,0.99166554,0.021301717,-0.12706575,-0.069591016,-0.7414327,-0.6674088,-0.10842766,0.670689,-0.7337709,,-0.11463419,0.26471516,-0.07936225,0.55141026,-0.057127174,0.8322759,-0.60013574,0.66581696,0.4433112,-0.57946855,-0.74392486,0.33285424,,-9.991664e-05,0.399164,-0.36661652,0.50322586,0.65486866,-0.56383574,-0.86329556,0.35188085,-0.361802,-0.03852982,0.668825,0.74242073,,1.1634992120977905,0.6364613070963387,0.20854065375000003,0.20612521444528742,-0.6516194673813854,1.2101839920364463,-0.40394987555007256,,-0.7013245405069504,-0.31734253926763356,0.18347040515000002,1.0383846001353645,0.5548808255474537,0.03964630243572009,0.8714405928263798,,-0.08770933989741005,-0.040362920613933866,0.0842606492,-0.07490262470414771,,-0.00012169778,-8.165836e-06,2.0384789e-05,0.99999994,0.00011391938,0.000104121864,-0.00011391938,1.0,1.680851e-05,-0.000104121864,-1.6868114e-05,1.0,148,0.449,0,0,0.0,False,-0.2529074425567037,1.045604291095591
0.4661040869541466,14:49:48.442063,14:49:40.250650,0,,0.14294499,0.010347664,0.02688995,-0.6017844,-0.035058975,-0.79788864,-0.79742223,-0.029190034,0.60271525,-0.044420987,0.9989588,-0.010390669,,0.03048253,-0.03905684,0.021370769,-0.40329358,-0.6600732,0.6337645,-0.55386585,0.727391,0.40513596,-0.728414,-0.18763176,-0.6589442,,0.10341432,1.3393571,0.44165748,0.99166554,0.021301717,-0.12706575,-0.069591016,-0.7414327,-0.6674088,-0.10842766,0.670689,-0.7337709,,-0.11467336,0.2648378,-0.07949677,0.55815834,-0.05315352,0.82803017,-0.607534,0.65350693,0.4514767,-0.56512105,-0.7550519,0.33246773,,-9.961096e-05,0.399165,-0.3666173,0.50322586,0.65491474,-0.5637822,-0.86329556,0.3519104,-0.36177328,-0.03852982,0.66876435,0.7424754,,1.163723171351143,0.6364767525620872,0.20831250671,0.2073833541061946,-0.6341299954114091,1.2151170042963366,-0.40574666027754963,,-0.7013245405069504,-0.31734253926763356,0.18346910886,1.0383846001353645,0.5548808255474537,0.03972798117586068,0.8712772487602455,,-0.08770933989741005,-0.040362920613933866,0.0842606492,-0.07490262470414771,,-0.00012169778,-8.165836e-06,2.0384789e-05,0.99999994,0.00011391938,0.000104121864,-0.00011391938,1.0,1.680851e-05,-0.000104121864,-1.6868114e-05,1.0,160,0.485,0,0,0.0,False,-0.252847864838182,1.045169769288576
0.4968772580032237,14:49:48.477547,14:49:40.250650,0,,0.14304106,0.010407239,0.027077422,-0.6094932,-0.045228273,-0.7915001,-0.78971195,-0.053272784,0.61116034,-0.06980711,0.9975552,-0.0032479167,,0.030481085,-0.039055753,0.021370173,-0.40329733,-0.66018176,0.63364905,-0.5538642,0.7273227,0.40526086,-0.7284131,-0.1875149,-0.65897834,,0.10341432,1.3393571,0.44165748,0.99166554,0.021301717,-0.12706575,-0.069591016,-0.7414327,-0.6674088,-0.10842766,0.670689,-0.7337709,,-0.114781834,0.26500663,-0.0795843,0.56845015,-0.04425399,0.82152665,-0.61885124,0.6349767,0.46241513,-0.54211396,-0.7712627,0.33356598,,-9.814327e-05,0.39916536,-0.36661616,0.50322944,0.65501076,-0.5636675,-0.86329347,0.3519762,-0.36171418,-0.038529154,0.6686357,0.74259126,,1.1638081214127594,0.6364767525620872,0.20808435967000002,0.2092705635975553,-0.6065294224587902,1.2204630381375912,-0.40460325181460965,,-0.7013168177740762,-0.3173348165347593,0.18346910886,1.0383846001353645,0.5548808255474537,0.039891338656141806,0.8712772487602455,,-0.08770933989741005,-0.040362920613933866,0.0842606492,-0.07490262470414771,,-0.00012169778,-8.165836e-06,2.0384789e-05,0.99999994,0.00011391938,0.000104121864,-0.00011391938,1.0,1.680851e-05,-0.000104121864,-1.6868114e-05,1.0,168,0.509,0,0,0.0,False,-0.25278828711966117,1.044880088083899
0.5323756719590165,14:49:48.502398,14:49:40.250650,0,,0.14309312,0.010443777,0.027138665,-0.6120843,-0.050429113,-0.78918284,-0.78667676,-0.06285447,0.614157,-0.08057505,0.99674773,-0.0011991858,,0.030481584,-0.039055068,0.021371126,-0.4032072,-0.66021687,0.63366985,-0.5538128,0.7272986,0.4053742,-0.7285021,-0.18748468,-0.6588887,,0.10341432,1.3393571,0.44165748,0.99166554,0.021301717,-0.12706575,-0.069591016,-0.7414327,-0.6674088,-0.10842766,0.670689,-0.7337709,,-0.11483689,0.26507398,-0.07959929,0.5721275,-0.039542932,0.8192109,-0.62383705,0.6274563,0.46596768,-0.5324448,-0.777647,0.33431667,,-9.876893e-05,0.39916644,-0.36661613,0.5031489,0.65504277,-0.56370217,-0.8633448,0.35199025,-0.36157805,-0.038431413,0.6685969,0.74263126,,1.1638158441456337,0.6364844752949614,0.20801306372000003,0.2092705635975553,-0.5950519564784932,1.2222122428862083,-0.4049299399468783,,-0.7013168177740762,-0.3173348165347593,0.18346910886,1.0383846001353645,0.5550174620472191,0.039943278232726476,0.87029718436344,,-0.08770933989741005,-0.040362920613933866,0.0842606492,-0.07490262470414771,,-0.00012169778,-8.165836e-06,2.0384789e-05,0.99999994,0.00011391938,0.000104121864,-0.00011391938,1.0,1.680851e-05,-0.000104121864,-1.6868114e-05,1.0,187,0.568,0,0,0.0,False,-0.2519541990603664,1.0450249286862374
0.557159726973623,14:49:48.553142,14:49:40.349544,0,,0.14326829,0.010593176,0.027289972,-0.6184597,-0.07982842,-0.7817513,-0.77739453,-0.08310458,0.6234992,-0.11474007,0.99333835,-0.0106613785,,0.03048303,-0.03905614,0.021371663,-0.4032035,-0.6602636,0.6336235,-0.5538145,0.7272676,0.40542752,-0.7285029,-0.1874401,-0.65890044,,0.10341432,1.3393571,0.44165748,0.99166554,0.021301717,-0.12706575,-0.069591016,-0.7414327,-0.6674088,-0.10842766,0.670689,-0.7337709,,-0.115015924,0.26528326,-0.07959187,0.5819397,-0.011128929,0.81315583,-0.6399452,0.6107356,0.46633908,-0.50181305,-0.7917564,0.34828937,,-0.00010023662,0.39916608,-0.36661723,0.50314534,0.6550849,-0.5636564,-0.8633468,0.3520131,-0.3615509,-0.03843208,0.66854364,0.7426792,,1.1638776260086274,0.6364999207607098,0.20785102747000003,0.2073833541061946,-0.5591165570401824,1.2125939105879249,-0.40411321961620694,,-0.7013245405069504,-0.31734253926763356,0.18346910886,1.0383846001353645,0.5550174620472191,0.04002495697286701,0.8704605284295741,,-0.08770933989741005,-0.040362920613933866,0.0842606492,-0.07490262470414771,,-0.00012169778,-8.165836e-06,2.0384789e-05,0.99999994,0.00011391938,0.000104121864,-0.00011391938,1.0,1.680851e-05,-0.000104121864,-1.6868114e-05,1.0,195,0.592,0,0,0.0,False,-0.25278828711966117,1.044976648485458
0.607974705984816,14:49:48.588546,14:49:40.414847,0,,0.143496,0.01079379,0.027454823,-0.6245714,-0.10840828,-0.77340686,-0.7652381,-0.11280516,0.6337866,-0.15595192,0.98768556,-0.012503296,,0.030482762,-0.03905483,0.021371603,-0.40320313,-0.6602658,0.6336214,-0.5538104,0.72726715,0.4054339,-0.7285062,-0.18743388,-0.65889853,,0.10341432,1.3393571,0.44165748,0.99166554,0.021301717,-0.12706575,-0.069591016,-0.7414327,-0.6674088,-0.10842766,0.670689,-0.7337709,,-0.11524556,0.2655385,-0.079554535,0.59225875,0.016139224,0.8055862,-0.6586958,0.58551633,0.47253615,-0.4640575,-0.81049997,0.35740802,,-0.00010000191,0.39916685,-0.36661616,0.5031453,0.6550864,-0.5636547,-0.8633471,0.35201803,-0.36154538,-0.03842683,0.6685395,0.7426831,,1.1639162396729985,0.6365230889593325,0.20769806525,0.20444769489741124,-0.5158027866145377,1.2104360036132276,-0.4050932840130125,,-0.7013245405069504,-0.3173348165347593,0.18346910886,1.0383846001353645,0.5550174620472191,0.04002495697286701,0.8704605284295741,,-0.08770933989741005,-0.040362920613933866,0.0842606492,-0.07490262470414771,,-0.00012169778,-8.165836e-06,2.0384789e-05,0.99999994,0.00011391938,0.000104121864,-0.00011391938,1.0,1.680851e-05,-0.000104121864,-1.6868114e-05,1.0,207,0.628,0,0,0.0,False,-0.2532649088678296,1.04478352768234
0.64336084399838,14:49:48.623272,14:49:40.414847,0,,0.1436207,0.010886118,0.027585745,-0.6265558,-0.12831733,-0.7687407,-0.75807416,-0.12869644,0.639344,-0.18097311,0.9833473,-0.016638577,,0.030482762,-0.03905483,0.021371603,-0.40320313,-0.6602658,0.6336214,-0.5538104,0.72726715,0.4054339,-0.7285062,-0.18743388,-0.65889853,,0.10341432,1.3393571,0.44165748,0.99166554,0.021301717,-0.12706575,-0.069591016,-0.7414327,-0.6674088,-0.10842766,0.670689,-0.7337709,,-0.11537578,0.2656928,-0.07957569,0.5967947,0.03543562,0.8016111,-0.67026997,0.5712168,0.47376108,-0.4411057,-0.82003397,0.3646506,,-0.00010000191,0.39916685,-0.36661616,0.5031453,0.6550864,-0.5636547,-0.8633471,0.35201803,-0.36154538,-0.03842683,0.6685395,0.7426831,,1.1640089124674893,0.6365153662264583,0.20756973254000002,0.20109265580165883,-0.48984185165910404,1.2066641735608474,-0.40525662807914686,,-0.7013245405069504,-0.3173348165347593,0.18346910886,1.0383846001353645,0.5550174620472191,0.04002495697286701,0.8704605284295741,,-0.08770933989741005,-0.040362920613933866,0.0842606492,-0.07490262470414771,,-0.00012169778,-8.165836e-06,2.0384789e-05,0.99999994,0.00011391938,0.000104121864,-0.00011391938,1.0,1.680851e-05,-0.000104121864,-1.6868114e-05,1.0,219,0.665,0,0,0.0,False,-0.2537415306159976,1.0449283682846786
0.6780939839663915,14:49:48.659632,14:49:40.478641,0,,0.14376679,0.011023641,0.027775124,-0.6297648,-0.15556663,-0.7610488,-0.74692726,-0.14775252,0.64828146,-0.21329784,0.976713,-0.023147672,,0.03048186,-0.039056394,0.021371126,-0.40320763,-0.6603181,0.6335641,-0.5538169,0.7272328,0.40548664,-0.7284988,-0.1873832,-0.65892124,,0.10341432,1.3393571,0.44165748,0.99166554,0.021301717,-0.12706575,-0.069591016,-0.7414327,-0.6674088,-0.10842766,0.670689,-0.7337709,,-0.115529835,0.2659195,-0.079607084,0.6034016,0.062056255,0.7950192,-0.683816,0.55316186,0.4758231,-0.41024652,-0.8307593,0.37621382,,-9.9003635e-05,0.39916566,-0.3666172,0.50314903,0.6551333,-0.56359684,-0.8633445,0.35204437,-0.36152604,-0.038436662,0.6684797,0.7427365,,1.164240594453716,0.6365308116922067,0.20740380742000003,0.19857637647984455,-0.4555460902179784,1.1988729285477644,-0.40541997214528114,,-0.7013168177740762,-0.31734253926763356,0.18346910886,1.0383846001353645,0.5550174620472191,0.0401066357130076,0.8706238724957084,,-0.08770933989741005,-0.040362920613933866,0.0842606492,-0.07490262470414771,,-0.00012169778,-8.165836e-06,2.0384789e-05,0.99999994,0.00011391938,0.000104121864,-0.00011391938,1.0,1.680851e-05,-0.000104121864,-1.6868114e-05,1.0,234,0.711,0,0,0.0,False,-0.25397984149008224,1.0442041652729868
0.7144630230031908,14:49:48.700371,14:49:40.478641,0,,0.1439259,0.01116994,0.028039232,-0.633667,-0.1806131,-0.7522267,-0.7316656,-0.17589328,0.65857935,-0.25125965,0.9676985,-0.02069068,,0.03048186,-0.039056394,0.021371126,-0.40320763,-0.6602663,0.633618,-0.5538169,0.72726595,0.40542722,-0.7284988,-0.18743703,-0.65890586,,0.10341432,1.3393571,0.44165748,0.99166554,0.021301717,-0.12706575,-0.069591016,-0.7414327,-0.6674088,-0.10842766,0.670689,-0.7337709,,-0.11570284,0.26620293,-0.07968597,0.61141413,0.08618711,0.78660315,-0.69812113,0.5267615,0.48492187,-0.3725582,-0.8456324,0.38223845,,-9.9003635e-05,0.39916566,-0.3666172,0.50314903,0.6550873,-0.5636503,-0.8633445,0.35201484,-0.36155477,-0.038436662,0.66854036,0.7426819,,1.1645649492344334,0.636538534425081,0.20717566038000002,0.1971085468754529,-0.41441850378858086,1.1984160292920694,-0.40525662807914686,,-0.7013168177740762,-0.31734253926763356,0.18346910886,1.0383846001353645,0.5550174620472191,0.040024956972867065,0.8701338402973057,,-0.08770933989741005,-0.040362920613933866,0.0842606492,-0.07490262470414771,,-0.00012169778,-8.165836e-06,2.0384789e-05,0.99999994,0.00011391938,0.000104121864,-0.00011391938,1.0,1.680851e-05,-0.000104121864,-1.6868114e-05,1.0,246,0.748,0,0,0.0,False,-0.2549926627049395,1.044011044469869
0.755198005004786,14:49:48.735811,14:49:40.544997,0,,0.1439906,0.011186063,0.028298572,-0.6357615,-0.19718114,-0.7462753,-0.7214204,-0.19205561,0.6653324,-0.27451733,0.961371,-0.020148933,,0.030481584,-0.039055068,0.021371126,-0.4032072,-0.66026855,0.6336159,-0.5538128,0.7272655,0.40543362,-0.7285021,-0.18743083,-0.65890396,,0.10341432,1.3393571,0.44165748,0.99166554,0.021301717,-0.12706575,-0.069591016,-0.7414327,-0.6674088,-0.10842766,0.670689,-0.7337709,,-0.115788735,0.26638877,-0.079858564,0.61607826,0.1023172,0.7810114,-0.70623034,0.51086044,0.49016356,-0.34883568,-0.85355306,0.38698953,,-9.876893e-05,0.39916644,-0.36661613,0.5031489,0.6550888,-0.56364864,-0.8633448,0.3520198,-0.3615493,-0.038431413,0.66853625,0.74268585,,1.1648661358165282,0.6365308116922067,0.20691640238000003,0.19647947704499932,-0.3888674783324435,1.196530349013449,-0.40656338060822106,,-0.7013168177740762,-0.3173348165347593,0.18346910886,1.0383846001353645,0.5550174620472191,0.040024956972867065,0.8701338402973057,,-0.08770933989741005,-0.040362920613933866,0.0842606492,-0.07490262470414771,,-0.00012169778,-8.165836e-06,2.0384789e-05,0.99999994,0.00011391938,0.000104121864,-0.00011391938,1.0,1.680851e-05,-0.000104121864,-1.6868114e-05,1.0,254,0.771,0,0,0.0,False,-0.25386068605304013,1.043721363265192
0.7905619359808043,14:49:48.763147,14:49:40.544997,0,,0.14399397,0.011163965,0.028427765,-0.6369732,-0.20627907,-0.7427745,-0.71748364,-0.19374198,0.6690898,-0.28192577,0.9591209,-0.024593443,,0.03048303,-0.03905614,0.021371663,-0.4032035,-0.6602636,0.6336235,-0.5538145,0.7272676,0.40542752,-0.7285029,-0.1874401,-0.65890044,,0.10341432,1.3393571,0.44165748,0.99166554,0.021301717,-0.12706575,-0.069591016,-0.7414327,-0.6674088,-0.10842766,0.670689,-0.7337709,,-0.11580447,0.26645964,-0.079967745,0.6181429,0.11146793,0.77812225,-0.7083074,0.5082572,0.48987266,-0.34088117,-0.85396105,0.39312917,,-0.00010023662,0.39916608,-0.36661723,0.50314534,0.6550849,-0.5636564,-0.8633468,0.3520131,-0.3615509,-0.03843208,0.66854364,0.7426792,,1.1650283132068868,0.636538534425081,0.20677899564000002,0.1971085468754529,-0.3803960153469862,1.1904392263856765,-0.4055833162114154,,-0.7013245405069504,-0.31734253926763356,0.18346910886,1.0383846001353645,0.5550174620472191,0.040024956972867065,0.8701338402973057,,-0.08770933989741005,-0.040362920613933866,0.0842606492,-0.07490262470414771,,-0.00012169778,-8.165836e-06,2.0384789e-05,0.99999994,0.00011391938,0.000104121864,-0.00011391938,1.0,1.680851e-05,-0.000104121864,-1.6868114e-05,1.0,266,0.808,0,0,0.0,False,-0.2531457534307875,1.043817923666751
0.8179617249988951,14:49:48.794754,14:49:40.608930,0,,0.14401236,0.011143908,0.028604105,-0.6383626,-0.21722879,-0.73844755,-0.7115699,-0.19930106,0.67375606,-0.29353264,0.95555776,-0.027347118,,0.030484214,-0.039055903,0.02137214,-0.4031994,-0.6603126,0.6335751,-0.553812,0.7272362,0.40548718,-0.7285071,-0.18738928,-0.65891033,,0.10341432,1.3393571,0.44165748,0.99166554,0.021301717,-0.12706575,-0.069591016,-0.7414327,-0.6674088,-0.10842766,0.670689,-0.7337709,,-0.115839124,0.26656356,-0.080108576,0.62085724,0.12235914,0.77431554,-0.71175766,0.5019438,0.4913791,-0.32853818,-0.8562013,0.3987255,,-0.0001014696,0.39916646,-0.36661726,0.5031417,0.6551285,-0.563609,-0.86334914,0.3520409,-0.36151823,-0.0384275,0.66848624,0.7427311,,1.1652291042616167,0.6365462571579552,0.20659621875000003,0.19752792676242192,-0.36727891136950397,1.1856239769209405,-0.4062366924759524,,-0.7013322632398247,-0.31734253926763356,0.18346910886,1.0383846001353645,0.5550174620472191,0.0401066357130076,0.869807152165037,,-0.08770933989741005,-0.040362920613933866,0.0842606492,-0.07490262470414771,,-0.00012169778,-8.165836e-06,2.0384789e-05,0.99999994,0.00011391938,0.000104121864,-0.00011391938,1.0,1.680851e-05,-0.000104121864,-1.6868114e-05,1.0,277,0.842,0,0,0.0,False,-0.2536223751789555,1.0429971602535004
0.849565400974825,14:49:48.830327,14:49:40.608930,0,,0.14410011,0.011201844,0.028867722,-0.6387292,-0.23598132,-0.73235077,-0.6996187,-0.21803367,0.68043727,-0.32024765,0.94698155,-0.025832474,,0.030485116,-0.039054323,0.021372557,-0.40319484,-0.66031206,0.6335784,-0.5538055,0.72723746,0.40549386,-0.72851455,-0.18738614,-0.65890294,,0.10341432,1.3393571,0.44165748,0.99166554,0.021301717,-0.12706575,-0.069591016,-0.7414327,-0.6674088,-0.10842766,0.670689,-0.7337709,,-0.115946,0.26678273,-0.08025383,0.62419635,0.14071393,0.768491,-0.72097313,0.48266742,0.49722216,-0.3009595,-0.86442566,0.4027302,,-0.00010246788,0.39916763,-0.3666162,0.5031379,0.6551276,-0.5636134,-0.8633518,0.35204408,-0.36150885,-0.038417667,0.66848546,0.7427323,,1.1655997954395794,0.6365617026237037,0.20636418284000002,0.19522133738409217,-0.3380387004196997,1.1847322715094042,-0.4057466602775496,,-0.7013399859726989,-0.3173348165347593,0.18346910886,1.0383846001353645,0.5550174620472191,0.0401066357130076,0.8693171199666342,,-0.08770933989741005,-0.040362920613933866,0.0842606492,-0.07490262470414771,,-0.00012169778,-8.165836e-06,2.0384789e-05,0.99999994,0.00011391938,0.000104121864,-0.00011391938,1.0,1.680851e-05,-0.000104121864,-1.6868114e-05,1.0,285,0.867,0,0,0.0,False,-0.2536223751789555,1.042031556237911
0.885152748960536,14:49:48.856444,14:49:40.676267,0,,0.14411794,0.011188328,0.029059336,-0.63879997,-0.24672388,-0.7287399,-0.6933585,-0.2259028,0.6842674,-0.3334495,0.94238806,-0.026761353,,0.030485116,-0.039054323,0.021372557,-0.40319484,-0.6603638,0.6335244,-0.5538055,0.7272044,0.40555322,-0.72851455,-0.18733235,-0.65891826,,0.10341432,1.3393571,0.44165748,0.99166554,0.021301717,-0.12706575,-0.069591016,-0.7414327,-0.6674088,-0.10842766,0.670689,-0.7337709,,-0.11598105,0.26690182,-0.08040151,0.62575626,0.15135993,0.76519233,-0.7252679,0.47395113,0.49935642,-0.2870812,-0.8674448,0.40635437,,-0.00010246788,0.39916763,-0.3666162,0.5031379,0.6551736,-0.5635599,-0.8633518,0.35207358,-0.3614801,-0.038417667,0.6684248,0.7427869,,1.1658855365559257,0.6365694253565779,0.20617492450000002,0.19417288766666954,-0.3234185949447975,1.1822036109300518,-0.4068900687404896,,-0.7013399859726989,-0.3173348165347593,0.18346910886,1.0383846001353645,0.5550174620472191,0.04018831445314813,0.8675203352391571,,-0.08770933989741005,-0.040362920613933866,0.0842606492,-0.07490262470414771,,-0.00012169778,-8.165836e-06,2.0384789e-05,0.99999994,0.00011391938,0.000104121864,-0.00011391938,1.0,1.680851e-05,-0.000104121864,-1.6868114e-05,1.0,293,0.891,0,0,0.0,False,-0.2536819528974772,1.0425626384464852
0.9112263629795052,14:49:48.885319,14:49:40.676267,0,,0.14412013,0.011169255,0.029149577,-0.6383298,-0.25270092,-0.727102,-0.6911914,-0.22758627,0.6859001,-0.33880603,0.9403971,-0.02938959,,0.030486569,-0.03905544,0.021373034,-0.40319112,-0.66035885,0.633532,-0.5538071,0.7272065,0.4055472,-0.7285153,-0.18734154,-0.6589148,,0.10341432,1.3393571,0.44165748,0.99166554,0.021301717,-0.12706575,-0.069591016,-0.7414327,-0.6674088,-0.10842766,0.670689,-0.7337709,,-0.1159921,0.26694864,-0.08048022,0.6258722,0.15738405,0.7638811,-0.7272942,0.47147024,0.4987574,-0.28165072,-0.86772466,0.40954462,,-0.000103935556,0.39916724,-0.36661732,0.5031343,0.6551697,-0.56356764,-0.86335385,0.3520669,-0.3614817,-0.038418338,0.6684322,0.74278027,,1.1660168230147876,0.6365694253565779,0.20608029533000002,0.19312443794924694,-0.31767986195464903,1.1791576337776135,-0.4050932840130125,,-0.7013477087055731,-0.31734253926763356,0.18346910886,1.0383846001353645,0.5550174620472191,0.04018831445314819,0.8678470233714256,,-0.08770933989741005,-0.040362920613933866,0.0842606492,-0.07490262470414771,,-0.00012169778,-8.165836e-06,2.0384789e-05,0.99999994,0.00011391938,0.000104121864,-0.00011391938,1.0,1.680851e-05,-0.000104121864,-1.6868114e-05,1.0,305,0.927,0,0,0.0,False,-0.25403941920860307,1.0423212374425879
0.9401366689708084,14:49:48.920565,14:49:40.741359,0,,0.1441638,0.011173278,0.029338568,-0.6356543,-0.2716081,-0.7226151,-0.68552434,-0.23181364,0.6901585,-0.35496473,0.9340725,-0.03884062,,0.030485753,-0.039055053,0.021372795,-0.40330797,-0.66017026,0.63365424,-0.5536731,0.7273809,0.40541738,-0.7285526,-0.18732922,-0.658877,,0.10341432,1.3393571,0.44165748,0.99166554,0.021301717,-0.12706575,-0.069591016,-0.7414327,-0.6674088,-0.10842766,0.670689,-0.7337709,,-0.116051674,0.26707843,-0.08061155,0.6249232,0.17650342,0.7604719,-0.7340708,0.4644142,0.4954387,-0.2657273,-0.8678514,0.41978922,,-0.000103103295,0.3991673,-0.3666169,0.50325054,0.6549757,-0.5636894,-0.8632917,0.35215786,-0.3615416,-0.038293313,0.66857433,0.7426587,,1.1662871186653854,0.6365925935552006,0.20590529618000003,0.1885112591925874,-0.3008735724834999,1.16929213240956,-0.405419972145281,,-0.7013399859726989,-0.3173348165347593,0.18346910886,1.0385942900788492,0.5550174620472191,0.0401066357130076,0.8686637437020972,,-0.08770933989741005,-0.040362920613933866,0.0842606492,-0.07490262470414771,,-0.00012169778,-8.165836e-06,2.0384789e-05,0.99999994,0.00011391938,0.000104121864,-0.00011391938,1.0,1.680851e-05,-0.000104121864,-1.6868114e-05,1.0,324,0.985,0,0,0.0,False,-0.25403941920860307,1.0421763968402495
0.9753874999587424,14:49:48.973361,14:49:40.741359,0,,0.14422502,0.011210591,0.029612109,-0.6300269,-0.2985754,-0.7168812,-0.6769588,-0.24117091,0.69538707,-0.38051638,0.9234117,-0.050179064,,0.030487843,-0.03905325,0.02137369,-0.40329933,-0.6602188,0.6336092,-0.5536641,0.7273508,0.4054837,-0.72856414,-0.18727538,-0.65887964,,0.10341432,1.3393571,0.44165748,0.99166554,0.021301717,-0.12706575,-0.069591016,-0.7414327,-0.6674088,-0.10842766,0.670689,-0.7337709,,-0.116134144,0.26728955,-0.080780625,0.6220114,0.20373034,0.7560395,-0.74510294,0.45078886,0.4915394,-0.2406727,-0.8690704,0.4321959,,-0.00010533455,0.39916885,-0.36661586,0.5032431,0.65501845,-0.5636464,-0.8632966,0.35218883,-0.36149955,-0.0382789,0.6685162,0.7427118,,1.1668122645008328,0.6366234844866975,0.20567196398,0.17991397150972188,-0.27450272802876985,1.1578349620334398,-0.40656338060822106,,-0.7013554314384473,-0.3173270938018851,0.18346910886,1.0385942900788492,0.5550174620472191,0.04018831445314819,0.8685003996359628,,-0.08770933989741005,-0.040362920613933866,0.0842606492,-0.07490262470414771,,-0.00012169778,-8.165836e-06,2.0384789e-05,0.99999994,0.00011391938,0.000104121864,-0.00011391938,1.0,1.680851e-05,-0.000104121864,-1.6868114e-05,1.0,349,1.062,0,0,0.0,False,-0.254218152364166,1.04212811663947
1.028175999992527,14:49:49.052498,14:49:40.876026,0,,0.14436677,0.0111518055,0.030174598,-0.621168,-0.33597967,-0.70800275,-0.6626433,-0.25715348,0.70340306,-0.41839454,0.90608484,-0.06289914,,0.030541204,-0.039036743,0.021390378,-0.40279785,-0.65962416,0.6345469,-0.55342376,0.7277102,0.40516675,-0.72902405,-0.18797314,-0.6581719,,0.10353546,1.339353,0.44165394,0.991657,0.021211274,-0.12714715,-0.06971198,-0.74143535,-0.6673933,-0.10842766,0.670689,-0.7337709,,-0.11643055,0.2676295,-0.08120192,0.6171861,0.24151477,0.7488337,-0.760331,0.42792666,0.48864672,-0.2024305,-0.8709474,0.44774157,,-0.00027583752,0.39917776,-0.36660516,0.5027118,0.65458566,-0.5646224,-0.8636263,0.3517238,-0.36116478,-0.03782214,0.66918457,0.7421331,,1.1682100791510674,0.6367393254798108,0.20518326265000003,0.1677519547876195,-0.2344682335974958,1.1430771603411713,-0.4067267246743552,,-0.7012164222467112,-0.31731937106901087,0.18345873854000003,1.0385942900788492,0.5558372810458118,0.03911141333026691,0.866376926776217,,-0.08770933989741005,-0.040362920613933866,0.0842606492,-0.07490262470414771,,-8.9779496e-07,-4.887581e-06,1.0371208e-05,0.99999994,2.4415553e-05,2.232194e-05,-2.4408102e-05,1.0,3.606081e-06,-2.2299588e-05,-3.6358833e-06,1.0,357,1.087,0,0,0.0,False,-0.25332448658635043,1.0400520680059533
1.1073271249770187,14:49:49.078451,14:49:40.876026,0,,0.14430775,0.011172071,0.030418918,-0.6178742,-0.34682956,-0.705649,-0.65833485,-0.26250607,0.7054684,-0.42991453,0.90044427,-0.066134274,,0.030512542,-0.039036818,0.021387637,-0.40280068,-0.6596842,0.6344827,-0.5534146,0.7276747,0.40524304,-0.7290295,-0.18789986,-0.65818673,,0.10353546,1.339353,0.44165394,0.991657,0.021211274,-0.12714715,-0.06971198,-0.74143535,-0.6673933,-0.10842766,0.670689,-0.7337709,,-0.11639185,0.26781043,-0.08137327,0.615146,0.25249714,0.74688727,-0.7649883,0.4203603,0.48794475,-0.1907571,-0.8715173,0.45174032,,-0.00024706512,0.39917877,-0.3666049,0.50271493,0.6546377,-0.5645593,-0.86362493,0.35176846,-0.36112455,-0.037811577,0.6691102,0.7422007,,1.1690750252329805,0.6369401165345406,0.20498363399000002,0.1633484659744445,-0.22244422161813707,1.1389898966257257,-0.4064000365420868,,-0.7010387993906041,-0.317288480137514,0.1834509608,1.0385942900788492,0.5559739175455772,0.03908167416671099,0.8662135827100828,,-0.08771588488210502,-0.040362920613933866,0.0842606492,-0.07490262470414771,,-8.9779496e-07,-4.887581e-06,1.0371208e-05,0.99999994,2.4415553e-05,2.232194e-05,-2.4408102e-05,1.0,3.606081e-06,-2.2299588e-05,-3.6358833e-06,1.0,365,1.111,0,0,0.0,False,-0.2533840643048717,1.0400037878051738
1.1332455299561843,14:49:49.105408,14:49:40.876026,0,,0.14426476,0.011212036,0.030630067,-0.6156047,-0.35635504,-0.7028811,-0.6538204,-0.2669695,0.7079873,-0.4399427,0.8953984,-0.06864455,,0.03048636,-0.039037935,0.021382809,-0.402882,-0.6598495,0.6342592,-0.5534512,0.7275731,0.40537557,-0.7289568,-0.18771297,-0.65832055,,0.10353546,1.339353,0.44165394,0.991657,0.021211274,-0.12714715,-0.06971198,-0.74143535,-0.6673933,-0.10842766,0.670689,-0.7337709,,-0.116365135,0.2679832,-0.081505425,0.6140071,0.26216015,0.74449134,-0.76846874,0.41382816,0.48805943,-0.18014175,-0.8717903,0.45555532,,-0.00022048144,0.39917725,-0.36660415,0.5027882,0.65478283,-0.56432575,-0.863579,0.35187718,-0.36112857,-0.03788743,0.668911,0.7423763,,1.1698318530546545,0.6371795212536416,0.20482807919,0.16041280676566114,-0.21164993813666727,1.1350069279020016,-0.40656338060822095,,-0.7008843447331196,-0.3172653119388913,0.18344577564000003,1.0385942900788492,0.5559739175455772,0.03924503164699211,0.8658868945778142,,-0.08771588488210502,-0.040362920613933866,0.0842606492,-0.07490262470414771,,-8.9779496e-07,-4.887581e-06,1.0371208e-05,0.99999994,2.4415553e-05,2.232194e-05,-2.4408102e-05,1.0,3.606081e-06,-2.2299588e-05,-3.6358833e-06,1.0,373,1.136,0,0,0.0,False,-0.2536819528974772,1.0397623868012766
1.1601919480017386,14:49:49.130051,14:49:40.942246,0,,0.14416823,0.011298314,0.030945256,-0.6134793,-0.36319667,-0.7012355,-0.64995444,-0.2721501,0.7095728,-0.44855583,0.8910794,-0.069102794,,0.030460808,-0.039037652,0.021375597,-0.40296292,-0.65991324,0.6341414,-0.5534836,0.7275373,0.4053956,-0.7288874,-0.18762751,-0.65842175,,0.10353546,1.339353,0.44165394,0.991657,0.021211274,-0.12714715,-0.06971198,-0.74143535,-0.6673933,-0.10842766,0.670689,-0.7337709,,-0.116291575,0.2682613,-0.08168803,0.61285317,0.26905078,0.7429823,-0.77146953,0.40721092,0.48889065,-0.1710141,-0.8728064,0.45712498,,-0.00019427293,0.39917448,-0.3666008,0.5028613,0.6548372,-0.5641975,-0.86353326,0.35193184,-0.36118457,-0.03795804,0.668829,0.7424466,,1.1711292721775242,0.6378591217465733,0.20462326537000003,0.15747714755687778,-0.20276856565191362,1.1329105247905895,-0.40476659588074393,,-0.7007298900756351,-0.3172344210073944,0.18344318306000001,1.0385942900788492,0.5559739175455772,0.03924503164699211,0.8658868945778142,,-0.08771588488210502,-0.040362920613933866,0.0842606492,-0.07490262470414771,,-8.9779496e-07,-4.887581e-06,1.0371208e-05,0.99999994,2.4415553e-05,2.232194e-05,-2.4408102e-05,1.0,3.606081e-06,-2.2299588e-05,-3.6358833e-06,1.0,385,1.173,0,0,0.0,False,-0.252847864838182,1.0400037878051738
1.1848730850033462,14:49:49.159317,14:49:40.942246,0,,0.14409064,0.011557847,0.031390443,-0.6113595,-0.37383902,-0.6974839,-0.6440883,-0.27701342,0.71303135,-0.45977145,0.88515985,-0.071430564,,0.030439794,-0.039037727,0.021371484,-0.4030277,-0.6599639,0.63404745,-0.55351037,0.72750866,0.40541026,-0.72883123,-0.18756032,-0.65850306,,0.10353546,1.339353,0.44165394,0.991657,0.021211274,-0.12714715,-0.06971198,-0.74143535,-0.6673933,-0.10842766,0.670689,-0.7337709,,-0.11623845,0.26875463,-0.08184738,0.6120411,0.27987805,0.73964447,-0.77475214,0.39981347,0.4898044,-0.15863433,-0.87282157,0.46153837,,-0.00017292601,0.39917353,-0.3665994,0.50291985,0.65488034,-0.56409514,-0.86349666,0.35197458,-0.36123046,-0.03801558,0.66876423,0.742502,,1.1729981735330866,0.639426836520041,0.20443789590000003,0.15454148834809445,-0.19142773617138206,1.1271750246098309,-0.4042765636823412,,-0.7006063263496475,-0.3172112528087717,0.18343929419000002,1.0385942900788492,0.5559739175455772,0.03924503164699211,0.8658868945778142,,-0.08771588488210502,-0.040362920613933866,0.0842606492,-0.07490262470414771,,-8.9779496e-07,-4.887581e-06,1.0371208e-05,0.99999994,2.4415553e-05,2.232194e-05,-2.4408102e-05,1.0,3.606081e-06,-2.2299588e-05,-3.6358833e-06,1.0,393,1.198,0,0,0.0,False,-0.252847864838182,1.0406314304153068
1.2141476949909702,14:49:49.196115,14:49:41.009761,0,,0.1440972,0.0121239275,0.03219317,-0.60695666,-0.3793412,-0.6983578,-0.6416613,-0.28455624,0.7122488,-0.46890745,0.88041353,-0.07069522,,0.0304369,-0.03903406,0.021373272,-0.40303075,-0.66007686,0.6339279,-0.55350065,0.7274394,0.4055479,-0.72883695,-0.18743125,-0.6585335,,0.10353546,1.339353,0.44165394,0.991657,0.021211274,-0.12714715,-0.06971198,-0.74143535,-0.6673933,-0.10842766,0.670689,-0.7337709,,-0.11628291,0.26971394,-0.082053825,0.60858697,0.2853418,0.7404066,-0.77920693,0.39114228,0.48973897,-0.14986132,-0.8749787,0.4603844,,-0.0001703778,0.39917746,-0.36659765,0.50292325,0.6549794,-0.56397706,-0.8634952,0.35205016,-0.3611604,-0.038004402,0.66862744,0.7426258,,1.175732020970562,0.6435739440734995,0.20422011918000002,0.14825079004355873,-0.1860989126805299,1.1265052696719957,-0.40607334840981824,,-0.7005986036167733,-0.3171880846101491,0.18343670161000003,1.0385942900788492,0.5559739175455772,0.039408389127273236,0.8658868945778142,,-0.08771588488210502,-0.040362920613933866,0.0842606492,-0.07490262470414771,,-8.9779496e-07,-4.887581e-06,1.0371208e-05,0.99999994,2.4415553e-05,2.232194e-05,-2.4408102e-05,1.0,3.606081e-06,-2.2299588e-05,-3.6358833e-06,1.0,410,1.251,1,1,0.025,False,-0.25451604095677105,1.0402451888090711
1.2509176059975289,14:49:49.239596,14:49:41.009761,0,,0.1443928,0.013647214,0.033933982,-0.595847,-0.40274847,-0.69480926,-0.6307006,-0.30092812,0.7153034,-0.49717504,0.8644281,-0.074706554,,0.030437507,-0.039020605,0.021377921,-0.40300807,-0.6600224,0.6339991,-0.55345744,0.7274817,0.4055311,-0.7288823,-0.18745926,-0.6584753,,0.10353546,1.339353,0.44165394,0.991657,0.021211274,-0.12714715,-0.06971198,-0.74143535,-0.6673933,-0.10842766,0.670689,-0.7337709,,-0.11664274,0.27200744,-0.08227394,0.6005912,0.3090965,0.73739374,-0.7904012,0.36868426,0.48922166,-0.12064878,-0.87665915,0.46573877,,-0.00017194528,0.39918903,-0.36658946,0.5029047,0.6549273,-0.56405413,-0.8635087,0.35204634,-0.36113173,-0.03794186,0.6686805,0.7425812,,1.1810684293866511,0.6537293378031047,0.20399067585000003,0.13378218394312655,-0.1656034377157138,1.117143670730183,-0.4050932840130125,,-0.7006372172811444,-0.3171340254800295,0.18343151645000003,1.0385942900788492,0.5559739175455772,0.039326710387132646,0.8660502386439485,,-0.08770933989741005,-0.040362920613933866,0.08425707732,-0.07490262470414771,,-8.9779496e-07,-4.887581e-06,1.0371208e-05,0.99999994,2.4415553e-05,2.232194e-05,-2.4408102e-05,1.0,3.606081e-06,-2.2299588e-05,-3.6358833e-06,1.0,418,1.275,1,1,0.049,False,-0.25350321974191337,1.0389416233880258
1.2944239070056938,14:49:49.266386,14:49:41.077504,0,,0.14421129,0.013629213,0.034180358,-0.5873768,-0.41440243,-0.6951683,-0.6303824,-0.30441856,0.7141059,-0.5075494,0.85767126,-0.0824236,,0.030436963,-0.039016463,0.021380723,-0.40300286,-0.6600781,0.63394433,-0.5534427,0.7274489,0.40560985,-0.72889626,-0.18739001,-0.6584795,,0.10353546,1.339353,0.44165394,0.991657,0.021211274,-0.12714715,-0.06971198,-0.74143535,-0.6673933,-0.10842766,0.670689,-0.7337709,,-0.11648452,0.2721637,-0.08248496,0.59308094,0.32107884,0.7383518,-0.7973183,0.36175168,0.48313487,-0.11197562,-0.8752395,0.47055003,,-0.00017186283,0.39919376,-0.36658776,0.5029008,0.6549755,-0.5640017,-0.86351186,0.3520889,-0.3610826,-0.037921514,0.6686109,0.7426449,,1.182543471365628,0.6536598332072368,0.20376123252000003,0.12308799682541581,-0.15631215573166388,1.1114458643020593,-0.40591000434368374,,-0.7006449400140187,-0.3171108572814068,0.18342892387,1.0385942900788492,0.5559739175455772,0.039408389127273236,0.8649068301810087,,-0.08770279491271507,-0.040362920613933866,0.08425707732,-0.07490262470414771,,-8.9779496e-07,-4.887581e-06,1.0371208e-05,0.99999994,2.4415553e-05,2.232194e-05,-2.4408102e-05,1.0,3.606081e-06,-2.2299588e-05,-3.6358833e-06,1.0,431,1.316,1,1,0.09,False,-0.2551713958605024,1.0383622609786725
1.3212214679806493,14:49:49.307312,14:49:41.077504,0,,0.14409699,0.013388023,0.034212634,-0.57796675,-0.43422174,-0.69094557,-0.62732327,-0.30511773,0.7164974,-0.52193856,0.847558,-0.09604955,,0.030421995,-0.039004825,0.021380007,-0.40301758,-0.6600906,0.63392204,-0.5534062,0.7274527,0.40565288,-0.7289159,-0.18733114,-0.65847456,,0.10353546,1.339353,0.44165394,0.991657,0.021211274,-0.12714715,-0.06971198,-0.74143535,-0.6673933,-0.10842766,0.670689,-0.7337709,,-0.116387025,0.27200958,-0.08268253,0.58513564,0.3416289,0.73546314,-0.80494076,0.35475415,0.47562578,-0.098421074,-0.8703098,0.48257032,,-0.00015728024,0.39920175,-0.3665786,0.5029166,0.65498084,-0.5639814,-0.86350447,0.3521397,-0.36105084,-0.03788113,0.66857886,0.7426758,,1.1827519851532322,0.6520766729680207,0.20353956693000003,0.11239380970770506,-0.14073559475840366,1.0989075807609485,-0.4062366924759525,,-0.7006140490825218,-0.3170413526855388,0.18342633129000002,1.0385942900788492,0.5559739175455772,0.039408389127273236,0.86458014204874,,-0.08768315995863013,-0.040362920613933866,0.08425707732,-0.07490262470414771,,-8.9779496e-07,-4.887581e-06,1.0371208e-05,0.99999994,2.4415553e-05,2.232194e-05,-2.4408102e-05,1.0,3.606081e-06,-2.2299588e-05,-3.6358833e-06,1.0,444,1.357,1,1,0.131,False,-0.2539202637715605,1.0375897777662009
1.362105531967245,14:49:49.348306,14:49:41.146216,0,,0.1438513,0.01339525,0.034510925,-0.5704728,-0.44964963,-0.68729603,-0.6247949,-0.30557257,0.71851,-0.5330967,0.8393095,-0.10661793,,0.030419212,-0.0389956,0.021394253,-0.40300655,-0.6600536,0.6339676,-0.55337507,0.72748256,0.40564176,-0.7289457,-0.18734567,-0.6584375,,0.10353546,1.339353,0.44165394,0.991657,0.021211274,-0.12714715,-0.06971198,-0.74143535,-0.6673933,-0.10842766,0.670689,-0.7337709,,-0.11616804,0.27222058,-0.0829211,0.5787872,0.3576631,0.7328591,-0.8107399,0.34911907,0.46991143,-0.0877851,-0.8661368,0.4920374,,-0.00015647743,0.3992189,-0.36657965,0.5029082,0.6549449,-0.56403065,-0.86351126,0.35214144,-0.36103284,-0.037838046,0.6686132,0.7426471,,1.1847058365704108,0.6520071683721527,0.20327901264,0.10316745219438597,-0.12953140177763753,1.0873209504536248,-0.40591000434368385,,-0.7006294945482702,-0.3169872935554192,0.18341207210000002,1.0385942900788492,0.5559739175455772,0.0393267103871327,0.8637634217180687,,-0.0876897049433251,-0.040362920613933866,0.08425707732,-0.07490262470414771,,-8.9779496e-07,-4.887581e-06,1.0371208e-05,0.99999994,2.4415553e-05,2.232194e-05,-2.4408102e-05,1.0,3.606081e-06,-2.2299588e-05,-3.6358833e-06,1.0,453,1.386,1,1,0.16,False,-0.25427773008268684,1.0376380579669804
1.403116515954025,14:49:49.379148,14:49:41.146216,0,,0.1436697,0.01331459,0.03472455,-0.56234866,-0.46798056,-0.68173164,-0.6205964,-0.30598447,0.72196496,-0.546465,0.8290764,-0.11835718,,0.030422825,-0.038981803,0.021398246,-0.4029748,-0.66004986,0.6339916,-0.55331886,0.72749424,0.40569758,-0.7290059,-0.18731366,-0.65838,,0.10353546,1.339353,0.44165394,0.991657,0.021211274,-0.12714715,-0.06971198,-0.74143535,-0.6673933,-0.10842766,0.670689,-0.7337709,,-0.116010375,0.27230847,-0.0831503,0.5720961,0.37675902,0.72853184,-0.8168104,0.34222648,0.464437,-0.07434205,-0.86077505,0.50352716,,-0.0001609544,0.39922976,-0.36657065,0.50288206,0.654937,-0.564063,-0.86353004,0.3521735,-0.36095667,-0.037755832,0.668604,0.74265957,,1.185949196563161,0.6513893497422147,0.20302882867000002,0.09394109468106691,-0.11504793280250085,1.074040435339274,-0.4062366924759525,,-0.7006835536783897,-0.3169177889595512,0.18341077581,1.0385942900788492,0.5559739175455772,0.0393267103871327,0.8637634217180687,,-0.08768315995863013,-0.040362920613933866,0.08425707732,-0.07490262470414771,,-8.9779496e-07,-4.887581e-06,1.0371208e-05,0.99999994,2.4415553e-05,2.232194e-05,-2.4408102e-05,1.0,3.606081e-06,-2.2299588e-05,-3.6358833e-06,1.0,466,1.427,1,1,0.201,False,-0.25451604095677105,1.0377346183685394
1.433967538003344,14:49:49.417963,14:49:41.215143,0,,0.14337474,0.013063386,0.034823224,-0.5462301,-0.48535854,-0.6826856,-0.62389386,-0.30808136,0.7182216,-0.5589177,0.8182377,-0.13452889,,0.030380651,-0.038961016,0.021396339,-0.4030641,-0.6600425,0.6339424,-0.5532623,0.7275281,0.40571398,-0.72899944,-0.18720773,-0.6584172,,0.10353546,1.339353,0.44165394,0.991657,0.021211274,-0.12714715,-0.06971198,-0.74143535,-0.6673933,-0.10842766,0.670689,-0.7337709,,-0.11573949,0.27219498,-0.08342158,0.55695665,0.39486563,0.73067117,-0.82793057,0.33366573,0.45077506,-0.06580436,-0.8560072,0.5127587,,-0.00011950869,0.39924523,-0.36655462,0.5029682,0.6549163,-0.5640103,-0.8634815,0.35227743,-0.3609713,-0.037717897,0.66856956,0.7426925,,1.1872234474874082,0.6497675758386275,0.20274753374,0.07464961988049067,-0.10425364932103107,1.0636048461444458,-0.4062366924759526,,-0.7006912764112639,-0.31680967069931204,0.18340688694,1.0385942900788492,0.5558372810458118,0.039438128290829155,0.8634367335858001,,-0.0875391702953406,-0.040362920613933866,0.08425707732,-0.07490262470414771,,-8.9779496e-07,-4.887581e-06,1.0371208e-05,0.99999994,2.4415553e-05,2.232194e-05,-2.4408102e-05,1.0,3.606081e-06,-2.2299588e-05,-3.6358833e-06,1.0,479,1.468,1,1,0.242,False,-0.25493308498641865,1.0386036619825694
1.4727607859531417,14:49:49.459076,14:49:41.282434,0,,0.14307636,0.012955949,0.03515385,-0.53335387,-0.49873003,-0.68322897,-0.62654924,-0.30972683,0.7151959,-0.5683042,0.8095293,-0.14728494,,0.030375171,-0.038938053,0.021409035,-0.4031279,-0.6600789,0.63386405,-0.5532298,0.7275237,0.4057662,-0.7289889,-0.18709679,-0.65846044,,0.10353546,1.339353,0.44165394,0.991657,0.021211274,-0.12714715,-0.06971198,-0.74143535,-0.6673933,-0.10842766,0.670689,-0.7337709,,-0.11547728,0.27234417,-0.08376635,0.54481286,0.4088279,0.7321466,-0.8364505,0.3268062,0.43994123,-0.059409812,-0.85209006,0.5200125,,-0.00011627049,0.39926952,-0.36654377,0.5030293,0.65493935,-0.563929,-0.8634467,0.35236785,-0.36096635,-0.03770063,0.6684993,0.74275655,,1.1891927443703354,0.649505002920904,0.20238716512000002,0.05892287411915135,-0.0970119148334627,1.0543508689027723,-0.40672672467435533,,-0.7007298900756351,-0.31668610697332444,0.18339392404000002,1.0385942900788492,0.5557006445460463,0.03946786745438502,0.863926765784203,,-0.08753262531064562,-0.040362920613933866,0.08425707732,-0.07490262470414771,,-8.9779496e-07,-4.887581e-06,1.0371208e-05,0.99999994,2.4415553e-05,2.232194e-05,-2.4408102e-05,1.0,3.606081e-06,-2.2299588e-05,-3.6358833e-06,1.0,488,1.496,1,1,0.27,False,-0.25481392954937654,1.0383622609786725
1.5139054529718123,14:49:49.490108,14:49:41.282434,0,,0.14287645,0.012748182,0.035309568,-0.5223805,-0.51295006,-0.681176,-0.6259337,-0.3118177,0.7148262,-0.579073,0.7997824,-0.15818524,,0.030377585,-0.038922228,0.021408498,-0.40310827,-0.66008794,0.633867,-0.55318326,0.72752655,0.40582448,-0.729035,-0.1870535,-0.65842164,,0.10353546,1.339353,0.44165394,0.991657,0.021211274,-0.12714715,-0.06971198,-0.74143535,-0.6673933,-0.10842766,0.670689,-0.7337709,,-0.11530344,0.27229956,-0.08404054,0.53486335,0.42369917,0.7310268,-0.84345824,0.3189319,0.43227378,-0.049993727,-0.847798,0.52795756,,-0.000119086086,0.3992781,-0.36653054,0.5030138,0.6549432,-0.5639384,-0.8634586,0.35240528,-0.36090136,-0.03763503,0.6684758,0.74278104,,1.1900576904522484,0.6484160975856382,0.20209290729,0.046551167453564406,-0.08608099485222749,1.0451107216464963,-0.40705341280662377,,-0.700760781007132,-0.3166166023774564,0.18339392404000002,1.0385942900788492,0.5557006445460463,0.039467867454385075,0.8642534539164716,,-0.08753262531064562,-0.040362920613933866,0.08425350544,-0.07490262470414771,,-8.9779496e-07,-4.887581e-06,1.0371208e-05,0.99999994,2.4415553e-05,2.232194e-05,-2.4408102e-05,1.0,3.606081e-06,-2.2299588e-05,-3.6358833e-06,1.0,501,1.537,1,1,0.311,False,-0.2537415306159976,1.0386519421833489
1.5449322939966805,14:49:49.523143,14:49:41.347714,0,,0.14258583,0.012419701,0.03545551,-0.5062105,-0.52957124,-0.68066525,-0.6269391,-0.3159956,0.71210533,-0.5921978,0.78721094,-0.17204866,,0.03038393,-0.03890822,0.02141726,-0.40306798,-0.6600834,0.63389754,-0.5531245,0.72753793,0.4058842,-0.72910184,-0.18702538,-0.6583556,,0.10353546,1.339353,0.44165394,0.991657,0.021211274,-0.12714715,-0.06971198,-0.74143535,-0.6673933,-0.10842766,0.670689,-0.7337709,,-0.11504527,0.2721609,-0.08439798,0.51985836,0.44108707,0.7315664,-0.85334265,0.30765343,0.42089868,-0.039415967,-0.8430846,0.53633463,,-0.00012684538,0.39929265,-0.36652407,0.5029799,0.654935,-0.5639782,-0.8634822,0.35243395,-0.36081684,-0.037546523,0.6684687,0.74279195,,1.191107982123143,0.646585809894447,0.20170661287000002,0.027888762483441742,-0.07282725437497976,1.0350382936492084,-0.4064000365420868,,-0.700830285603,-0.3165470977815884,0.18338873888,1.0385942900788492,0.5557006445460463,0.039467867454385075,0.8642534539164716,,-0.08753262531064562,-0.040362920613933866,0.08425350544,-0.07490262470414771,,-8.9779496e-07,-4.887581e-06,1.0371208e-05,0.99999994,2.4415553e-05,2.232194e-05,-2.4408102e-05,1.0,3.606081e-06,-2.2299588e-05,-3.6358833e-06,1.0,510,1.566,1,1,0.34,False,-0.2541585746456452,1.0385071015810106
1.5779753829701804,14:49:49.552587,14:49:41.347714,0,,0.14236316,0.012130216,0.035546526,-0.4964772,-0.539326,-0.68017477,-0.62764376,-0.3182481,0.7104796,-0.5996446,0.7796445,-0.1805017,,0.030384243,-0.038903125,0.021418393,-0.40314838,-0.6601553,0.6337715,-0.5531548,0.72749734,0.40591562,-0.7290344,-0.18692952,-0.6584575,,0.10353546,1.339353,0.44165394,0.991657,0.021211274,-0.12714715,-0.06971198,-0.74143535,-0.6673933,-0.10842766,0.670689,-0.7337709,,-0.11484778,0.27201274,-0.08468207,0.5107816,0.45131925,0.73171926,-0.8590596,0.3010541,0.41398436,-0.033447955,-0.84004605,0.54148304,,-0.00012744016,0.3992965,-0.36652058,0.50305265,0.65499634,-0.56384206,-0.8634368,0.35249507,-0.36086568,-0.03761416,0.66837645,0.7428715,,1.1917180780202068,0.6451339361140929,0.20141624391000001,0.017404265309215523,-0.06531224688788054,1.0292370239064677,-0.4062366924759524,,-0.7008457310687485,-0.3165162068500915,0.18338744259,1.0385942900788492,0.5555640080462809,0.03957928535808142,0.8642534539164716,,-0.08753262531064562,-0.040362920613933866,0.08425350544,-0.07490262470414771,,-8.9779496e-07,-4.887581e-06,1.0371208e-05,0.99999994,2.4415553e-05,2.232194e-05,-2.4408102e-05,1.0,3.606081e-06,-2.2299588e-05,-3.6358833e-06,1.0,523,1.607,1,1,0.381,False,-0.2545756186752919,1.039714106600497
1.6074011349701323,14:49:49.593133,14:49:41.413418,0,,0.14200997,0.011644483,0.03558947,-0.4824748,-0.55154115,-0.680456,-0.62993723,-0.32128805,0.70707357,-0.6086026,0.7697898,-0.19242294,,0.03038073,-0.038903914,0.021420598,-0.40315595,-0.6599582,0.63397187,-0.5531514,0.7276256,0.4056901,-0.72903275,-0.18712619,-0.6584035,,0.10353546,1.339353,0.44165394,0.991657,0.021211274,-0.12714715,-0.06971198,-0.74143535,-0.6673933,-0.10842766,0.670689,-0.7337709,,-0.11452721,0.27168965,-0.08507625,0.49750066,0.4641528,0.73284054,-0.867043,0.2923721,0.403429,-0.027009437,-0.8361105,0.5478958,,-0.00012419937,0.39929825,-0.3665227,0.50305986,0.6548199,-0.5640405,-0.8634327,0.35239053,-0.36097765,-0.03761282,0.6686044,0.7426664,,1.1924594603761323,0.6424927614711081,0.20100531998,0.0016775195478761949,-0.0557476919042997,1.0216011281279993,-0.40656338060822117,,-0.700830285603,-0.3165007613843431,0.18338614630000002,1.0385942900788492,0.5555640080462809,0.039252570397519115,0.8658868945778143,,-0.08753262531064562,-0.040362920613933866,0.08425707732,-0.07490262470414771,,-8.9779496e-07,-4.887581e-06,1.0371208e-05,0.99999994,2.4415553e-05,2.232194e-05,-2.4408102e-05,1.0,3.606081e-06,-2.2299588e-05,-3.6358833e-06,1.0,532,1.636,0,1,0.397,False,-0.2544564632382502,1.040438309612189
1.6478981119580567,14:49:49.630088,14:49:41.413418,0,,0.1416826,0.011314943,0.03559725,-0.4665984,-0.56348836,-0.68173796,-0.63177294,-0.3270947,0.7027602,-0.6189901,0.7586105,-0.20337485,,0.030383397,-0.038898326,0.021422744,-0.4032281,-0.6600246,0.6338569,-0.5531769,0.7275884,0.40572217,-0.72897357,-0.18703638,-0.6584945,,0.10353546,1.339353,0.44165394,0.991657,0.021211274,-0.12714715,-0.06971198,-0.74143535,-0.6673933,-0.10842766,0.670689,-0.7337709,,-0.11422057,0.27145758,-0.08533692,0.48250479,0.47668046,0.73482305,-0.8756867,0.28075075,0.3928764,-0.019025624,-0.83303946,0.5528863,,-0.0001272596,0.39930287,-0.36651927,0.5031253,0.6548764,-0.56391656,-0.86339206,0.35244814,-0.3610187,-0.037671294,0.66851866,0.74274063,,1.1934248019854103,0.6402068325403376,0.20072661763000002,-0.01593643570482385,-0.0449534084228299,1.0154128334204797,-0.40656338060822117,,-0.700861176534497,-0.3164698704528462,0.18338485001000002,1.0385942900788492,0.5554273715465154,0.03936398830121551,0.8658868945778143,,-0.08753262531064562,-0.040362920613933866,0.08425707732,-0.07490262470414771,,-8.9779496e-07,-4.887581e-06,1.0371208e-05,0.99999994,2.4415553e-05,2.232194e-05,-2.4408102e-05,1.0,3.606081e-06,-2.2299588e-05,-3.6358833e-06,1.0,545,1.677,0,1,0.397,False,-0.25397984149008224,1.0411142324231015
1.684902951004915,14:49:49.670213,14:49:41.479989,0,,0.14111927,0.010897085,0.03558354,-0.45981517,-0.5666889,-0.683691,-0.6337941,-0.32983977,0.69965035,-0.6219927,0.7550293,-0.20749876,,0.030381314,-0.03889867,0.021424651,-0.4032322,-0.66007906,0.63379747,-0.5531793,0.7275536,0.40578133,-0.7289694,-0.18697956,-0.6585152,,0.10353546,1.339353,0.44165394,0.991657,0.021211274,-0.12714715,-0.06971198,-0.74143535,-0.6673933,-0.10842766,0.670689,-0.7337709,,-0.1136823,0.27115,-0.085665226,0.47590476,0.48002106,0.7369494,-0.8793227,0.27636436,0.38783282,-0.017498627,-0.83258784,0.5536165,,-0.00012541661,0.39930448,-0.3665208,0.50312895,0.65492487,-0.56385696,-0.8633897,0.35247937,-0.3609938,-0.037675876,0.6684547,0.742798,,1.1953940988683376,0.6372799167810066,0.20037532304000003,-0.02453372338768935,-0.04030776743080493,1.0130948420173316,-0.40721675687275827,,-0.7008534538016227,-0.3164698704528462,0.18338225743000003,1.0385942900788492,0.5554273715465154,0.03944566704135605,0.8667036149084856,,-0.08753262531064562,-0.040362920613933866,0.08425707732,-0.07490262470414771,,-8.9779496e-07,-4.887581e-06,1.0371208e-05,0.99999994,2.4415553e-05,2.232194e-05,-2.4408102e-05,1.0,3.606081e-06,-2.2299588e-05,-3.6358833e-06,1.0,554,1.705,0,1,0.397,False,-0.2549926627049395,1.04212811663947
1.7250074239564128,14:49:49.695364,14:49:41.479989,0,,0.14064789,0.01060304,0.035584375,-0.4568749,-0.56798494,-0.6845862,-0.6354216,-0.3301843,0.6980098,-0.6224987,0.7539041,-0.21005693,,0.030382492,-0.038898446,0.021425128,-0.4032281,-0.6600764,0.63380295,-0.5531769,0.72755533,0.4057816,-0.72897357,-0.18698266,-0.65850973,,0.10353546,1.339353,0.44165394,0.991657,0.021211274,-0.12714715,-0.06971198,-0.74143535,-0.6673933,-0.10842766,0.670689,-0.7337709,,-0.11322985,0.2709419,-0.08591152,0.47293326,0.48138833,0.7379698,-0.8809159,0.2753732,0.38491142,-0.017925248,-0.83212674,0.5542958,,-0.00012664938,0.39930487,-0.36652082,0.5031253,0.6549224,-0.56386304,-0.86339206,0.3524776,-0.3609899,-0.037671294,0.66845804,0.7427952,,1.1972089410937803,0.6351329970419721,0.20011217617000002,-0.02893721220086436,-0.0385314929338542,1.0108296218678725,-0.4075434450050266,,-0.700861176534497,-0.3164698704528462,0.18338225743000003,1.0385942900788492,0.5554273715465154,0.03944566704135605,0.8667036149084856,,-0.08753262531064562,-0.040362920613933866,0.08425707732,-0.07490262470414771,,-8.9779496e-07,-4.887581e-06,1.0371208e-05,0.99999994,2.4415553e-05,2.232194e-05,-2.4408102e-05,1.0,3.606081e-06,-2.2299588e-05,-3.6358833e-06,1.0,567,1.746,0,1,0.397,False,-0.2537415306159976,1.0419349958363522
1.7501657669781707,14:49:49.741140,14:49:41.549144,0,,0.14013943,0.010273635,0.035608873,-0.45023468,-0.5718131,-0.6857976,-0.6372801,-0.33218908,0.69535923,-0.6254301,0.7501201,-0.21484204,,0.030381225,-0.038894482,0.0214262,-0.40322703,-0.6599795,0.6339045,-0.5531646,0.7276203,0.40568185,-0.72898346,-0.18707168,-0.6584735,,0.10353546,1.339353,0.44165394,0.991657,0.021211274,-0.12714715,-0.06971198,-0.74143535,-0.6673933,-0.10842766,0.670689,-0.7337709,,-0.112744555,0.2707244,-0.08620272,0.4664784,0.4854119,0.7394411,-0.88438135,0.27140677,0.37974724,-0.016355501,-0.8310918,0.5558947,,-0.00012563908,0.3993082,-0.36651832,0.503125,0.6548348,-0.563965,-0.8633929,0.35243344,-0.361031,-0.03765554,0.6685671,0.74269783,,1.1991705152438334,0.6327466725838368,0.19980365915,-0.03732480994024533,-0.034432397940890994,1.0074054060168394,-0.40738010093889243,,-0.700861176534497,-0.3164467022542235,0.18338096114000002,1.0385942900788492,0.5554273715465154,0.039282309561074924,0.8670303030407541,,-0.08753262531064562,-0.040362920613933866,0.08425707732,-0.07490262470414771,,-8.9779496e-07,-4.887581e-06,1.0371208e-05,0.99999994,2.4415553e-05,2.232194e-05,-2.4408102e-05,1.0,3.606081e-06,-2.2299588e-05,-3.6358833e-06,1.0,580,1.787,0,1,0.397,False,-0.25493308498641865,1.0420798364386905
1.7959442099672742,14:49:49.774151,14:49:41.549144,0,,0.13990125,0.009987816,0.035617724,-0.4421764,-0.57594407,-0.68758154,-0.6400588,-0.33441266,0.69173175,-0.6283348,0.7459601,-0.22076872,,0.030379593,-0.03889475,0.021426976,-0.40323117,-0.6598787,0.63400686,-0.5531671,0.72768486,0.4055627,-0.72897935,-0.1871762,-0.6584484,,0.10353546,1.339353,0.44165394,0.991657,0.021211274,-0.12714715,-0.06971198,-0.74143535,-0.6673933,-0.10842766,0.670689,-0.7337709,,-0.11252429,0.27052373,-0.08642571,0.45855948,0.48975706,0.7415263,-0.88853234,0.26703054,0.37310186,-0.015280896,-0.82995945,0.5576144,,-0.00012410122,0.39930883,-0.36651906,0.5031287,0.6547451,-0.56406593,-0.86339056,0.35237622,-0.36109248,-0.037660122,0.66868514,0.7425913,,1.1997265520107776,0.6310940077487527,0.19956384550000003,-0.04697054734053346,-0.0314263949460513,1.0048725333953774,-0.4075434450050268,,-0.7008534538016227,-0.3164467022542235,0.18337966485,1.0385942900788492,0.5554273715465154,0.039118952080793856,0.8676836793052914,,-0.08753262531064562,-0.040362920613933866,0.08425707732,-0.07490262470414771,,-8.9779496e-07,-4.887581e-06,1.0371208e-05,0.99999994,2.4415553e-05,2.232194e-05,-2.4408102e-05,1.0,3.606081e-06,-2.2299588e-05,-3.6358833e-06,1.0,593,1.828,0,1,0.397,False,-0.2545756186752919,1.0419832760371317
1.8289828759734519,14:49:49.815016,14:49:41.624216,0,,0.13971904,0.009427011,0.035628244,-0.4288628,-0.58543044,-0.68800277,-0.64296997,-0.3371606,0.6876862,-0.63455987,0.7372882,-0.23181856,,0.030385487,-0.0388935,0.02142936,-0.40321052,-0.6600721,0.6338186,-0.5531548,0.7275608,0.40580177,-0.72900003,-0.18697631,-0.6584823,,0.10353546,1.339353,0.44165394,0.991657,0.021211274,-0.12714715,-0.06971198,-0.74143535,-0.6673933,-0.10842766,0.670689,-0.7337709,,-0.112375185,0.2701204,-0.08682935,0.4456929,0.4997903,0.7426759,-0.89511424,0.2593148,0.36266562,-0.01133008,-0.82641727,0.5629442,,-0.00013026496,0.3993108,-0.36651918,0.5031103,0.6549173,-0.5638824,-0.86340225,0.35248542,-0.36095783,-0.03763721,0.66845894,0.7427961,,1.1992014061753302,0.6286767923591204,0.19916329189,-0.06060039366702753,-0.024731206457544723,0.9990863411536905,-0.4075434450050267,,-0.7008920674659939,-0.3164467022542235,0.18337966485,1.0385942900788492,0.5554273715465154,0.0394456670413561,0.866376926776217,,-0.08753262531064562,-0.040362920613933866,0.08425707732,-0.07490262470414771,,-8.9779496e-07,-4.887581e-06,1.0371208e-05,0.99999994,2.4415553e-05,2.232194e-05,-2.4408102e-05,1.0,3.606081e-06,-2.2299588e-05,-3.6358833e-06,1.0,602,1.857,0,1,0.397,False,-0.25397984149008224,1.0401969086082916
1.8698510919930413,14:49:49.849624,14:49:41.624216,0,,0.13970265,0.009093031,0.035623536,-0.41887677,-0.59769225,-0.6835979,-0.64111364,-0.33846658,0.68877685,-0.64305174,0.72677666,-0.24141288,,0.030382857,-0.038892694,0.021428406,-0.40321842,-0.6601833,0.6336977,-0.5531556,0.72749066,0.40592647,-0.728995,-0.18685648,-0.65852183,,0.10353546,1.339353,0.44165394,0.991657,0.021211274,-0.12714715,-0.06971198,-0.74143535,-0.6673933,-0.10842766,0.670689,-0.7337709,,-0.112377055,0.2698712,-0.087052345,0.43659762,0.5128236,0.73918504,-0.89965236,0.251469,0.35691586,-0.002847249,-0.8208382,0.5711537,,-0.0001275644,0.3993108,-0.36651805,0.50311756,0.6550157,-0.56376153,-0.86339784,0.35255283,-0.36090255,-0.037641123,0.6683269,0.7429147,,1.198328737360543,0.6270859093870302,0.19893903372000002,-0.07003644112383114,-0.014346832475371248,0.9898834718114975,-0.407053412806624,,-0.7008766220002454,-0.3164389795213493,0.18337966485,1.0385942900788492,0.5554273715465154,0.039609024521637226,0.8660502386439485,,-0.08753262531064562,-0.040362920613933866,0.08425707732,-0.07490262470414771,,-8.9779496e-07,-4.887581e-06,1.0371208e-05,0.99999994,2.4415553e-05,2.232194e-05,-2.4408102e-05,1.0,3.606081e-06,-2.2299588e-05,-3.6358833e-06,1.0,615,1.898,0,1,0.397,False,-0.25403941920860307,1.0398589472028357
1.904459440964274,14:49:49.886092,14:49:41.695024,0,,0.13965148,0.008718565,0.035584375,-0.39741045,-0.61645913,-0.67973745,-0.6407971,-0.34379095,0.6864305,-0.656844,0.7083685,-0.2583991,,0.030379053,-0.038892098,0.021426857,-0.40323046,-0.660142,0.6337331,-0.55315894,0.7275183,0.40587258,-0.72898597,-0.18689498,-0.658521,,0.10353546,1.339353,0.44165394,0.991657,0.021211274,-0.12714715,-0.06971198,-0.74143535,-0.6673933,-0.10842766,0.670689,-0.7337709,,-0.112343594,0.26956952,-0.08728088,0.41645575,0.53278685,0.73668367,-0.9091048,0.23544188,0.34365034,0.009646192,-0.81283784,0.5824102,,-0.00012363108,0.39931038,-0.3665169,0.5031285,0.6549784,-0.56379515,-0.8633911,0.35253352,-0.36093754,-0.037649617,0.6683737,0.74287224,,1.1974483458128813,0.6249312669151216,0.19870959039000002,-0.09142481535925262,0.0009564554983580831,0.9768329154165145,-0.4075434450050267,,-0.7008534538016227,-0.31643125678847506,0.18337966485,1.0385942900788492,0.5554273715465154,0.03952734578149664,0.8662135827100828,,-0.08753262531064562,-0.040362920613933866,0.08425707732,-0.07490262470414771,,-8.9779496e-07,-4.887581e-06,1.0371208e-05,0.99999994,2.4415553e-05,2.232194e-05,-2.4408102e-05,1.0,3.606081e-06,-2.2299588e-05,-3.6358833e-06,1.0,624,1.926,0,1,0.397,False,-0.2543373078012081,1.0411625126238806
1.9409272409975529,14:49:49.924978,14:49:41.695024,0,,0.13956681,0.0084311515,0.03554009,-0.38187855,-0.6300241,-0.676194,-0.63983965,-0.34773257,0.6853372,-0.6669137,0.69437146,-0.27032286,,0.030382857,-0.038892694,0.021428406,-0.40321842,-0.66007984,0.6338056,-0.5531556,0.72755694,0.4058076,-0.728995,-0.18696404,-0.6584914,,0.10353546,1.339353,0.44165394,0.991657,0.021211274,-0.12714715,-0.06971198,-0.74143535,-0.6673933,-0.10842766,0.670689,-0.7337709,,-0.112271555,0.2693291,-0.08745043,0.40193045,0.5472712,0.73412955,-0.915468,0.22332188,0.33473223,0.019242115,-0.8066112,0.5907691,,-0.0001275644,0.3993108,-0.36651805,0.50311756,0.6549236,-0.5638686,-0.86339784,0.35249385,-0.36096016,-0.037641123,0.66844827,0.74280554,,1.1969772591075536,0.6231087019568046,0.1985397764,-0.1067321812336229,0.012843830977951401,0.9667311640942231,-0.4070534128066239,,-0.7008766220002454,-0.3164389795213493,0.18337966485,1.0385942900788492,0.5554273715465154,0.0394456670413561,0.8660502386439486,,-0.08753262531064562,-0.040362920613933866,0.08425707732,-0.07490262470414771,,-8.9779496e-07,-4.887581e-06,1.0371208e-05,0.99999994,2.4415553e-05,2.232194e-05,-2.4408102e-05,1.0,3.606081e-06,-2.2299588e-05,-3.6358833e-06,1.0,637,1.967,0,1,0.397,False,-0.25439688551972894,1.041403913627778
1.9798093889839947,14:49:49.963349,14:49:41.695024,0,,0.13938318,0.007969052,0.035442337,-0.36799422,-0.64113414,-0.6734442,-0.6423153,-0.34840578,0.6826744,-0.6723178,0.6837839,-0.28359905,,0.030382581,-0.038891368,0.021428347,-0.4032181,-0.6598749,0.6340191,-0.55315155,0.727689,0.40557623,-0.72899836,-0.18717304,-0.6584283,,0.10353546,1.339353,0.44165394,0.991657,0.021211274,-0.12714715,-0.06971198,-0.74143535,-0.6673933,-0.10842766,0.670689,-0.7337709,,-0.11210616,0.26892552,-0.08770847,0.3884494,0.55920064,0.7323945,-0.9211844,0.21587132,0.3237574,0.0229424,-0.80043375,0.59898204,,-0.00012732935,0.39931157,-0.36651698,0.5031175,0.65474087,-0.56408083,-0.86339813,0.35238084,-0.3610698,-0.03763587,0.66868687,0.742591,,1.196506172402226,0.6205524773754363,0.19828051840000002,-0.12099109739057055,0.019539019466457985,0.9566159986250864,-0.4075434450050268,,-0.7008766220002454,-0.31643125678847506,0.18337966485,1.0385942900788492,0.5554273715465154,0.0391189520807938,0.8673569911730228,,-0.08753262531064562,-0.040362920613933866,0.08425707732,-0.07490262470414771,,-8.9779496e-07,-4.887581e-06,1.0371208e-05,0.99999994,2.4415553e-05,2.232194e-05,-2.4408102e-05,1.0,3.606081e-06,-2.2299588e-05,-3.6358833e-06,1.0,650,2.008,0,1,0.397,False,-0.25481392954937654,1.0422246770410288
2.018146471993532,14:49:49.997435,14:49:41.807082,0,,0.13919663,0.0075546205,0.035336062,-0.36021727,-0.6508354,-0.6683237,-0.63886046,-0.34994486,0.68512464,-0.67977995,0.67375946,-0.28973684,,0.03038013,-0.03889013,0.021427453,-0.402996,-0.66016144,0.633862,-0.5534187,0.72740066,0.40572912,-0.7289184,-0.1872839,-0.6584853,,0.10353546,1.339353,0.44165394,0.991657,0.021211274,-0.12714715,-0.06971198,-0.74143535,-0.6673933,-0.10842766,0.670689,-0.7337709,,-0.11193448,0.26855138,-0.08792845,0.38155144,0.5696319,0.7279684,-0.92380995,0.20813775,0.3213314,0.031522915,-0.7951089,0.60564685,,-0.00012482409,0.39931184,-0.36651555,0.50289583,0.6550471,-0.56392294,-0.8635162,0.352155,-0.3610078,-0.037888866,0.6685059,0.74274105,,1.1961354812242633,0.6178804118009545,0.19806144539,-0.12791086552555986,0.031016485446754984,0.9480736821159923,-0.4062366924759525,,-0.7008688992673712,-0.31643125678847506,0.18337966485,1.03817491019188,0.5554273715465154,0.039118952080793856,0.8670303030407541,,-0.08753262531064562,-0.040362920613933866,0.08425707732,-0.07490262470414771,,-8.9779496e-07,-4.887581e-06,1.0371208e-05,0.99999994,2.4415553e-05,2.232194e-05,-2.4408102e-05,1.0,3.606081e-06,-2.2299588e-05,-3.6358833e-06,1.0,659,2.037,0,1,0.397,False,-0.25356279746043464,1.0413556334269989
2.052258057985455,14:49:50.028227,14:49:41.807082,0,,0.13907379,0.00728707,0.035236552,-0.35027668,-0.65840065,-0.66619414,-0.636023,-0.35493618,0.685197,-0.68759066,0.66372347,-0.29443213,,0.03038013,-0.03889013,0.021427453,-0.402996,-0.6602132,0.6338081,-0.5534187,0.7273675,0.40578854,-0.7289184,-0.18723014,-0.65850055,,0.10353546,1.339353,0.44165394,0.991657,0.021211274,-0.12714715,-0.06971198,-0.74143535,-0.6673933,-0.10842766,0.670689,-0.7337709,,-0.11181855,0.26828903,-0.08804807,0.37249705,0.57774734,0.72626024,-0.9271639,0.19781311,0.3181777,0.04016251,-0.7918826,0.6093513,,-0.00012482409,0.39931184,-0.36651555,0.50289583,0.6550932,-0.5638694,-0.8635162,0.35218447,-0.36097905,-0.037888866,0.6684452,0.74279565,,1.19581884917642,0.6158802239865304,0.19794477929,-0.13713722303887893,0.04194740542799022,0.9431625080871663,-0.4064000365420868,,-0.7008688992673712,-0.31643125678847506,0.18337966485,1.03817491019188,0.5554273715465154,0.03920063082093439,0.8671936471068884,,-0.08753262531064562,-0.040362920613933866,0.08425707732,-0.07490262470414771,,-8.9779496e-07,-4.887581e-06,1.0371208e-05,0.99999994,2.4415553e-05,2.232194e-05,-2.4408102e-05,1.0,3.606081e-06,-2.2299588e-05,-3.6358833e-06,1.0,672,2.078,0,1,0.397,False,-0.2550522404234603,1.041065952222322
2.0830061529995874,14:49:50.068598,14:49:41.876123,0,,0.13893205,0.006941542,0.035172537,-0.33859694,-0.66609186,-0.66458523,-0.63421834,-0.36018687,0.6841289,-0.6950677,0.65313625,-0.3004896,,0.03038013,-0.03889013,0.021427453,-0.402996,-0.6603167,0.6337002,-0.5534187,0.72730124,0.40590733,-0.7289184,-0.18712258,-0.6585312,,0.10353546,1.339353,0.44165394,0.991657,0.021211274,-0.12714715,-0.06971198,-0.74143535,-0.6673933,-0.10842766,0.670689,-0.7337709,,-0.11169126,0.26799345,-0.08824811,0.36162642,0.5860213,0.72512436,-0.93108463,0.18692724,0.3132724,0.048038814,-0.78843975,0.61323327,,-0.00012482409,0.39931184,-0.36651555,0.50289583,0.6551853,-0.56376237,-0.8635162,0.35224342,-0.36092153,-0.037888866,0.6683239,0.74290484,,1.1954327125327087,0.6137255815146218,0.19774903950000003,-0.14825079004355873,0.0523317794101637,0.9379618970118607,-0.40738010093889243,,-0.7008688992673712,-0.31643125678847506,0.18337966485,1.03817491019188,0.5554273715465154,0.03936398830121551,0.8668669589746199,,-0.08753262531064562,-0.040362920613933866,0.08425707732,-0.07490262470414771,,-8.9779496e-07,-4.887581e-06,1.0371208e-05,0.99999994,2.4415553e-05,2.232194e-05,-2.4408102e-05,1.0,3.606081e-06,-2.2299588e-05,-3.6358833e-06,1.0,681,2.107,0,1,0.397,False,-0.2541585746456452,1.0415970344308958
2.123416919959709,14:49:50.104966,14:49:41.876123,0,,0.13883883,0.0067546368,0.035202906,-0.32900468,-0.67146087,-0.6640001,-0.6345079,-0.36358368,0.6820605,-0.69939667,0.6457144,-0.30642653,,0.030380405,-0.038889937,0.021430373,-0.40299186,-0.66026217,0.6337596,-0.55341625,0.72733605,0.40584823,-0.7289225,-0.18717939,-0.65851045,,0.10353546,1.339353,0.44165394,0.991657,0.021211274,-0.12714715,-0.06971198,-0.74143535,-0.6673933,-0.10842766,0.670689,-0.7337709,,-0.111611575,0.26787773,-0.08840558,0.35244334,0.5918147,0.7249407,-0.93438804,0.1795052,0.30772862,0.051987685,-0.7858328,0.61625,,-0.0001254466,0.39931425,-0.3665171,0.50289214,0.6551368,-0.563822,-0.86351854,0.35221222,-0.3609464,-0.037884284,0.66838783,0.74284756,,1.195401821601212,0.6127525171724695,0.19759348470000002,-0.15789652744384683,0.057523966401250425,0.9338096954115374,-0.40721675687275816,,-0.7008766220002454,-0.31643125678847506,0.18337707227000002,1.03817491019188,0.5554273715465154,0.03928230956107498,0.8667036149084856,,-0.08753262531064562,-0.040362920613933866,0.08425707732,-0.07490262470414771,,-8.9779496e-07,-4.887581e-06,1.0371208e-05,0.99999994,2.4415553e-05,2.232194e-05,-2.4408102e-05,1.0,3.606081e-06,-2.2299588e-05,-3.6358833e-06,1.0,694,2.148,0,1,0.397,False,-0.254694774112334,1.0424660780449262
2.1597967479610816,14:49:50.137693,14:49:41.944423,0,,0.13866615,0.0067726225,0.035336673,-0.31849036,-0.68430036,-0.6559701,-0.62582844,-0.3679613,0.68770874,-0.7119709,0.6295533,-0.31106246,,0.030299067,-0.038908016,0.02142042,-0.40304723,-0.660067,0.63392764,-0.5533846,0.72747827,0.40563655,-0.7289159,-0.18731508,-0.6584791,,0.10346947,1.3393563,0.44165584,0.9916619,0.021263355,-0.12710027,-0.06964232,-0.74143386,-0.66740227,-0.10842766,0.670689,-0.7337709,,-0.11139415,0.2679819,-0.08851699,0.3436005,0.6057685,0.71762335,-0.93664235,0.16562717,0.30865645,0.06811643,-0.7782109,0.624298,,1.95664e-05,0.39931032,-0.36653128,0.5029917,0.65490514,-0.5640024,-0.86346215,0.35219353,-0.36109942,-0.037847865,0.6686247,0.7426362,,1.1957725127791747,0.6121810349397769,0.19745478167000002,-0.1669131950136814,0.07433025587239961,0.9224739767209538,-0.40770678907116087,,-0.7008766220002454,-0.3164235340556008,0.18337707227000002,1.03817491019188,0.5554273715465154,0.03903727334065332,0.8681737115036943,,-0.08753262531064562,-0.040362920613933866,0.08425707732,-0.07490262470414771,,-6.67721e-05,-7.5101852e-06,1.513958e-05,0.9999999,7.595867e-05,6.943196e-05,-7.595867e-05,1.0,1.12354755e-05,-6.941706e-05,-1.12354755e-05,1.0,707,2.189,0,1,0.397,False,-0.25397984149008224,1.0434316820605154
2.1924540619947948,14:49:50.185509,14:49:42.011510,0,,0.13860345,0.0068552345,0.03560397,-0.29998663,-0.6968898,-0.6514233,-0.61580855,-0.38005847,0.6901705,-0.7285518,0.60819405,-0.31513828,,0.030317254,-0.03890672,0.021420717,-0.40334162,-0.66045207,0.633339,-0.55355155,0.72723716,0.40584105,-0.7286264,-0.18689317,-0.65891933,,0.10346947,1.3393563,0.44165584,0.9916619,0.021263355,-0.12710027,-0.06964232,-0.74143386,-0.66740227,-0.10842766,0.670689,-0.7337709,,-0.11135031,0.2682244,-0.08866356,0.32718596,0.61946636,0.71359,-0.94077057,0.14250568,0.30764085,0.088882536,-0.7719803,0.62940156,,1.4286212e-06,0.3993093,-0.3665296,0.50325483,0.655245,-0.5633725,-0.86329484,0.3524336,-0.36126527,-0.038165864,0.668165,0.7430335,,1.1964675587378548,0.6121887576726511,0.19731996751000003,-0.18368839049244332,0.09550891333604287,0.9139438268430486,-0.4075434450050267,,-0.701000185726233,-0.3164235340556008,0.18338096114000002,1.03817491019188,0.5548808255474537,0.03972798117586068,0.8686637437020971,,-0.08753262531064562,-0.040362920613933866,0.08425707732,-0.07490262470414771,,-6.67721e-05,-7.5101852e-06,1.513958e-05,0.9999999,7.595867e-05,6.943196e-05,-7.595867e-05,1.0,1.12354755e-05,-6.941706e-05,-1.12354755e-05,1.0,716,2.217,0,1,0.397,False,-0.2547543518308557,1.0433351216589564
2.240298101969529,14:49:50.212052,14:49:42.011510,0,,0.1385522,0.00693357,0.035755306,-0.28920215,-0.7084006,-0.6438403,-0.60806656,-0.3835154,0.695105,-0.7393356,0.5925237,-0.3198413,,0.030343622,-0.03890125,0.021430016,-0.403251,-0.66049534,0.63335156,-0.55349785,0.7272084,0.40596592,-0.72871727,-0.18685254,-0.6588303,,0.10346947,1.3393563,0.44165584,0.9916619,0.021263355,-0.12710027,-0.06964232,-0.74143386,-0.66740227,-0.10842766,0.670689,-0.7337709,,-0.11130806,0.2683852,-0.0887269,0.31782168,0.6320794,0.70672834,-0.9425299,0.1295782,0.30797222,0.10308633,-0.76399285,0.63693655,,-2.5997902e-05,0.39931697,-0.36652946,0.50317395,0.655284,-0.5633993,-0.8633464,0.3524541,-0.361122,-0.038065072,0.668116,0.7430828,,1.1969927045733022,0.6121424212754057,0.19726681962,-0.19312443794924694,0.10999238231117957,0.9025419227519309,-0.40803347720342953,,-0.7011700858494659,-0.3164235340556008,0.18338225743000003,1.03817491019188,0.5548808255474537,0.039891338656141806,0.8693171199666343,,-0.08753262531064562,-0.040362920613933866,0.08425707732,-0.07490262470414771,,-6.67721e-05,-7.5101852e-06,1.513958e-05,0.9999999,7.595867e-05,6.943196e-05,-7.595867e-05,1.0,1.12354755e-05,-6.941706e-05,-1.12354755e-05,1.0,729,2.258,0,1,0.397,False,-0.25403941920860307,1.04304544045428
2.2668847699533217,14:49:50.248604,14:49:42.079460,0,,0.13846798,0.0069877356,0.03589651,-0.2777974,-0.7200657,-0.63587254,-0.60013056,-0.38678008,0.70017457,-0.75011456,0.5761132,-0.32468694,,0.030364178,-0.0388997,0.021438241,-0.40318173,-0.6603926,0.6335029,-0.55346453,0.7272714,0.40589845,-0.72878087,-0.1869705,-0.65872645,,0.10346947,1.3393563,0.44165584,0.9916619,0.021263355,-0.12710027,-0.06964232,-0.74143386,-0.66740227,-0.10842766,0.670689,-0.7337709,,-0.1112335,0.26852196,-0.08880244,0.30785078,0.64492065,0.6995036,-0.9441538,0.116295494,0.3083002,0.11748004,-0.7553494,0.6447059,,-4.7424088e-05,0.39932212,-0.36653212,0.50311166,0.655194,-0.56355965,-0.8633857,0.35238498,-0.36109558,-0.037997697,0.6682407,0.7429741,,1.1975950777374915,0.6118875710905564,0.19720330141000003,-0.20318955523650412,0.12488576078561256,0.890397371249021,-0.40803347720342953,,-0.7013013723083277,-0.3164389795213493,0.18338225743000003,1.03817491019188,0.5548808255474537,0.03980965991600127,0.8688270877682314,,-0.08753262531064562,-0.040362920613933866,0.08425707732,-0.07490262470414771,,-6.67721e-05,-7.5101852e-06,1.513958e-05,0.9999999,7.595867e-05,6.943196e-05,-7.595867e-05,1.0,1.12354755e-05,-6.941706e-05,-1.12354755e-05,1.0,751,2.328,0,1,0.397,False,-0.2544564632382502,1.0422729572418084
2.3034394849673845,14:49:50.318418,14:49:42.147056,0,,0.13817862,0.0070411116,0.03614527,-0.24731489,-0.7454451,-0.6189885,-0.5825629,-0.3960736,0.7097508,-0.7742452,0.53613174,-0.33631372,,0.03037098,-0.038896915,0.021441102,-0.40315667,-0.66037834,0.6335336,-0.5534458,0.72728115,0.4059064,-0.72880894,-0.1869826,-0.6586919,,0.10346947,1.3393563,0.44165584,0.9916619,0.021263355,-0.12710027,-0.06964232,-0.74143386,-0.66740227,-0.10842766,0.670689,-0.7337709,,-0.11096422,0.26873434,-0.08897806,0.28059345,0.6731072,0.684247,-0.9480221,0.0828932,0.30721772,0.15007102,-0.7348846,0.6613798,,-5.4585704e-05,0.39932525,-0.3665312,0.50308955,0.655181,-0.56359446,-0.8634,0.3523794,-0.36106673,-0.037964962,0.66825634,0.7429617,,1.199093287915091,0.6105901519676866,0.19706200580000002,-0.2308686277764613,0.159454795226269,0.8625353565743885,-0.4080334772034294,,-0.7013477087055731,-0.31643125678847506,0.18338225743000003,1.03817491019188,0.5548808255474537,0.03980965991600122,0.8658868945778143,,-0.08753262531064562,-0.040362920613933866,0.08425707732,-0.07490262470414771,,-6.67721e-05,-7.5101852e-06,1.513958e-05,0.9999999,7.595867e-05,6.943196e-05,-7.595867e-05,1.0,1.12354755e-05,-6.941706e-05,-1.12354755e-05,1.0,764,2.369,0,1,0.397,False,-0.25332448658635043,1.04034174921063
2.373230943980161,14:49:50.359039,14:49:42.147056,0,,0.13797675,0.0071180463,0.036347717,-0.22871861,-0.7589257,-0.60968786,-0.56721187,-0.40510523,0.71704984,-0.79117525,0.50982493,-0.3378165,,0.03036926,-0.038898136,0.021440327,-0.40327802,-0.660242,0.63359845,-0.5533183,0.72742116,0.40582943,-0.7288387,-0.18691948,-0.658677,,0.10346947,1.3393563,0.44165584,0.9916619,0.021263355,-0.12710027,-0.06964232,-0.74143386,-0.66740227,-0.10842766,0.670689,-0.7337709,,-0.110776655,0.26893127,-0.089095056,0.26441336,0.6882898,0.6755314,-0.948456,0.058707982,0.31142348,0.17469051,-0.7230564,0.6683358,,-5.275578e-05,0.39932412,-0.36653182,0.5032096,0.65503395,-0.56365824,-0.86333513,0.35249677,-0.36110732,-0.03784984,0.6683386,0.7428936,,1.2002439751133507,0.6098410468788868,0.19697774695000003,-0.2470147534247697,0.18527909368193726,0.8480933507271504,-0.4075434450050268,,-0.7013322632398247,-0.31643125678847506,0.18338225743000003,1.0383846001353645,0.5548808255474537,0.03980965991600122,0.8658868945778143,,-0.08753262531064562,-0.040362920613933866,0.08425707732,-0.07490262470414771,,-6.67721e-05,-7.5101852e-06,1.513958e-05,0.9999999,7.595867e-05,6.943196e-05,-7.595867e-05,1.0,1.12354755e-05,-6.941706e-05,-1.12354755e-05,1.0,773,2.397,0,1,0.397,False,-0.25356279746043464,1.0405831502145273
2.4138691579573788,14:49:50.389464,14:49:42.215011,0,,0.13779774,0.0071994066,0.036528468,-0.21151574,-0.77045834,-0.6013775,-0.5563431,-0.41097873,0.7222042,-0.80358154,0.48732975,-0.3417107,,0.030371062,-0.038890358,0.021440089,-0.40338072,-0.6600564,0.6337266,-0.5531565,0.72759837,0.4057323,-0.72890466,-0.18688536,-0.65861356,,0.10346947,1.3393563,0.44165584,0.9916619,0.021263355,-0.12710027,-0.06964232,-0.74143386,-0.66740227,-0.10842766,0.670689,-0.7337709,,-0.1106097,0.26911643,-0.08919085,0.24897884,0.70138067,0.6678883,-0.949117,0.039391052,0.31245038,0.19283782,-0.71169764,0.67549986,,-5.4753895e-05,0.39932826,-0.36652532,0.5033143,0.65484023,-0.56378984,-0.8632813,0.35260722,-0.36112818,-0.037684876,0.6684702,0.74278355,,1.2013097122499936,0.6094162965708045,0.19690904358000003,-0.262741499186109,0.20427156714933348,0.8338314432154561,-0.407053412806624,,-0.7013477087055731,-0.31638492039122973,0.18338355372,1.0385942900788492,0.5548808255474537,0.03972798117586068,0.8660502386439486,,-0.08753262531064562,-0.040362920613933866,0.08425707732,-0.07490262470414771,,-6.67721e-05,-7.5101852e-06,1.513958e-05,0.9999999,7.595867e-05,6.943196e-05,-7.595867e-05,1.0,1.12354755e-05,-6.941706e-05,-1.12354755e-05,1.0,786,2.438,0,1,0.397,False,-0.2555288621716292,1.041403913627778
2.444294449989684,14:49:50.427548,14:49:42.215011,0,,0.13754354,0.0073475987,0.036815584,-0.18424898,-0.7866313,-0.58929044,-0.5427414,-0.41843092,0.72824943,-0.8194412,0.45401162,-0.34984198,,0.03037418,-0.03887501,0.021442771,-0.40344208,-0.6599777,0.63376945,-0.5531484,0.7276609,0.4056311,-0.7288768,-0.18691984,-0.65863466,,0.10346947,1.3393563,0.44165584,0.9916619,0.021263355,-0.12710027,-0.06964232,-0.74143386,-0.66740227,-0.10842766,0.670689,-0.7337709,,-0.11037345,0.26942402,-0.08932721,0.22398438,0.7199356,0.65690464,-0.9502701,0.0116842585,0.31120765,0.21637402,-0.6939425,0.6867504,,-5.86369e-05,0.3993391,-0.36651435,0.5033717,0.65476424,-0.56382686,-0.8632473,0.35260743,-0.36120933,-0.037697427,0.66854453,0.742716,,1.202908317954958,0.6091614463859552,0.19681182183,-0.2885333622347055,0.2287295006073473,0.8114372762495801,-0.40803347720342953,,-0.7013940451028184,-0.31629997032961327,0.18338225743000003,1.0385942900788492,0.5547441890476882,0.03959436285913548,0.86686695897462,,-0.08753262531064562,-0.040362920613933866,0.08425707732,-0.07490262470414771,,-6.67721e-05,-7.5101852e-06,1.513958e-05,0.9999999,7.595867e-05,6.943196e-05,-7.595867e-05,1.0,1.12354755e-05,-6.941706e-05,-1.12354755e-05,1.0,799,2.479,0,1,0.397,False,-0.2548735072678969,1.042755759249603
2.4823390019591898,14:49:50.470042,14:49:42.283282,0,,0.1372795,0.007536739,0.037130743,-0.16599686,-0.7998036,-0.5768527,-0.52642393,-0.42277348,0.73765874,-0.83386016,0.4261182,-0.35085666,,0.030373707,-0.038861047,0.021441936,-0.40360594,-0.66013086,0.6335055,-0.5531991,0.7275768,0.40571296,-0.72874767,-0.18670642,-0.6588381,,0.10346947,1.3393563,0.44165584,0.9916619,0.021263355,-0.12710027,-0.06964232,-0.74143386,-0.66740227,-0.10842766,0.670689,-0.7337709,,-0.110127546,0.2697809,-0.08945754,0.20798309,0.73520935,0.64514357,-0.9482899,-0.010119393,0.31724432,0.23976944,-0.6777646,0.6950869,,-5.8501126e-05,0.3993467,-0.3665026,0.50352067,0.6548937,-0.56354344,-0.86315495,0.3527463,-0.36129433,-0.037821524,0.66834444,0.74288976,,1.204800387509143,0.609122832721584,0.19672497040000003,-0.30509886776998296,0.2526408880662994,0.7920208218428468,-0.40787013313729514,,-0.7014172133014411,-0.31621502026799675,0.18338225743000003,1.0385942900788492,0.5544709160481573,0.039817198666528275,0.8678470233714257,,-0.08753262531064562,-0.040362920613933866,0.08425707732,-0.07490262470414771,,-6.67721e-05,-7.5101852e-06,1.513958e-05,0.9999999,7.595867e-05,6.943196e-05,-7.595867e-05,1.0,1.12354755e-05,-6.941706e-05,-1.12354755e-05,1.0,808,2.508,0,1,0.397,False,-0.25397984149008224,1.0425626384464852
2.52486428496195,14:49:50.498602,14:49:42.283282,0,,0.1370501,0.007682383,0.037343264,-0.14924634,-0.8076723,-0.57043034,-0.5160881,-0.42845273,0.74167466,-0.84343255,0.40508455,-0.35288516,,0.030373521,-0.038854193,0.021442175,-0.4036,-0.660191,0.6334466,-0.5531762,0.7275431,0.4058045,-0.72876817,-0.18662485,-0.6588384,,0.10346947,1.3393563,0.44165584,0.9916619,0.021263355,-0.12710027,-0.06964232,-0.74143386,-0.66740227,-0.10842766,0.670689,-0.7337709,,-0.10990967,0.2700358,-0.08953846,0.19272378,0.7445401,0.63915384,-0.9474228,-0.028370399,0.31872422,0.255436,-0.66697466,0.6999266,,-5.856016e-05,0.39935097,-0.36649722,0.5035165,0.65494484,-0.5634877,-0.8631587,0.3527987,-0.36123413,-0.0377907,0.66826665,0.74296135,,1.2063217658853653,0.609053328125716,0.19667571138,-0.3212449934182913,0.26876399503862136,0.7792002241672313,-0.4081968212695638,,-0.7014249360343153,-0.31617640660362567,0.18338225743000003,1.0385942900788492,0.5544709160481573,0.039898877406668865,0.86801036743756,,-0.08753262531064562,-0.040362920613933866,0.08425707732,-0.07490262470414771,,-6.67721e-05,-7.5101852e-06,1.513958e-05,0.9999999,7.595867e-05,6.943196e-05,-7.595867e-05,1.0,1.12354755e-05,-6.941706e-05,-1.12354755e-05,1.0,821,2.549,0,1,0.397,False,-0.2538011083345184,1.042948880052721
2.5534336349810474,14:49:50.540561,14:49:42.348641,0,,0.13669838,0.007877931,0.037605673,-0.12856638,-0.81684715,-0.5623443,-0.50371987,-0.43466514,0.746547,-0.8542464,0.37924486,-0.3555789,,0.030370899,-0.038851824,0.021444082,-0.40360343,-0.6601982,0.6334369,-0.55317044,0.7275405,0.40581694,-0.7287707,-0.1866095,-0.65884006,,0.10346947,1.3393563,0.44165584,0.9916619,0.021263355,-0.12710027,-0.06964232,-0.74143386,-0.66740227,-0.10842766,0.670689,-0.7337709,,-0.10957163,0.27036333,-0.08963473,0.17377621,0.75555605,0.6316145,-0.94596374,-0.050236445,0.3203575,0.2737781,-0.6531549,0.7059987,,-5.6246532e-05,0.39935416,-0.36649653,0.50352,0.65495026,-0.5634783,-0.8631569,0.35281032,-0.36122704,-0.037784785,0.6682552,0.7429719,,1.2086076948161357,0.6089065962011057,0.19661867462000002,-0.3417946078797747,0.28761983200625213,0.7624360148747356,-0.4077067890711611,,-0.7014172133014411,-0.31616096113787723,0.18337966485,1.0385942900788492,0.5544709160481573,0.039898877406668865,0.86801036743756,,-0.08753262531064562,-0.040362920613933866,0.08425707732,-0.07490262470414771,,-6.67721e-05,-7.5101852e-06,1.513958e-05,0.9999999,7.595867e-05,6.943196e-05,-7.595867e-05,1.0,1.12354755e-05,-6.941706e-05,-1.12354755e-05,1.0,830,2.578,0,1,0.397,False,-0.2544564632382502,1.0428523196511617
2.595352675009053,14:49:50.567448,14:49:42.348641,0,,0.13642773,0.00801906,0.037775427,-0.11360022,-0.8241181,-0.55490905,-0.4927851,-0.4382432,0.7517351,-0.8627037,0.35884824,-0.35632867,,0.030376785,-0.038850587,0.021446466,-0.40358284,-0.66013277,0.6335182,-0.5531583,0.72758216,0.40575892,-0.72879136,-0.18667853,-0.6587976,,0.10346947,1.3393563,0.44165584,0.9916619,0.021263355,-0.12710027,-0.06964232,-0.74143386,-0.66740227,-0.10842766,0.670689,-0.7337709,,-0.10930926,0.27058676,-0.08969151,0.16022865,0.76435375,0.6245719,-0.94387096,-0.06651828,0.32354745,0.28885016,-0.6413569,0.7107932,,-6.241048e-05,0.39935613,-0.36649668,0.50350165,0.65489215,-0.5635622,-0.86316866,0.35277206,-0.36123636,-0.03776187,0.66833234,0.7429037,,1.2102603596512198,0.6086131323518852,0.19659793398000003,-0.3564729039236914,0.3033330294792778,0.7484794535876793,-0.4073801009388923,,-0.7014558269658122,-0.31616096113787723,0.18337966485,1.0385942900788492,0.5544709160481573,0.03981719866652833,0.8681737115036943,,-0.08753262531064562,-0.040362920613933866,0.08425707732,-0.07490262470414771,,-6.67721e-05,-7.5101852e-06,1.513958e-05,0.9999999,7.595867e-05,6.943196e-05,-7.595867e-05,1.0,1.12354755e-05,-6.941706e-05,-1.12354755e-05,1.0,843,2.619,0,1,0.397,False,-0.25427773008268684,1.0422246770410288
2.6222817070083693,14:49:50.610147,14:49:42.415870,0,,0.13606219,0.008149877,0.037873358,-0.10281344,-0.8269937,-0.55273014,-0.48710144,-0.44263023,0.7528683,-0.8672724,0.34664068,-0.3573215,,0.03037551,-0.038849097,0.02144605,-0.40335658,-0.6603647,0.6334206,-0.5534232,0.72732854,0.40585226,-0.7287155,-0.1868465,-0.658834,,0.10346947,1.3393563,0.44165584,0.9916619,0.021263355,-0.12710027,-0.06964232,-0.74143386,-0.66740227,-0.10842766,0.670689,-0.7337709,,-0.108946845,0.27075574,-0.08971226,0.15021011,0.7680262,0.62255335,-0.9429524,-0.07794497,0.3236747,0.29711556,-0.6356574,0.712504,,-6.1140425e-05,0.3993568,-0.36649528,0.5032762,0.65514994,-0.5634639,-0.8632892,0.35251477,-0.36119956,-0.03801049,0.66821545,0.74299616,,1.212469061253248,0.6081034319821863,0.1965953414,-0.3684252307023093,0.31194112896450055,0.7408066957336803,-0.407706789071161,,-0.7014558269658122,-0.31616096113787723,0.18337966485,1.03817491019188,0.5544709160481573,0.03973551992638774,0.86801036743756,,-0.08753262531064562,-0.040362920613933866,0.08425707732,-0.07490262470414771,,-6.67721e-05,-7.5101852e-06,1.513958e-05,0.9999999,7.595867e-05,6.943196e-05,-7.595867e-05,1.0,1.12354755e-05,-6.941706e-05,-1.12354755e-05,1.0,856,2.66,0,1,0.397,False,-0.25332448658635043,1.042755759249603
2.664973631966859,14:49:50.652689,14:49:42.490014,0,,0.13559955,0.00827682,0.037962496,-0.094199,-0.8329108,-0.54533106,-0.4781001,-0.4426207,0.7586218,-0.8732392,0.33218434,-0.35652035,,0.030375786,-0.038850438,0.021446109,-0.40335697,-0.660259,0.63353056,-0.5534273,0.7273953,0.40572703,-0.72871214,-0.1869603,-0.6588053,,0.10346947,1.3393563,0.44165584,0.9916619,0.021263355,-0.12710027,-0.06964232,-0.74143386,-0.66740227,-0.10842766,0.670689,-0.7337709,,-0.10848733,0.27091762,-0.08973897,0.14265774,0.7751629,0.615444,-0.940493,-0.087594196,0.3283294,0.3084181,-0.6256595,0.7165392,,-6.137517e-05,0.399356,-0.36649635,0.50327635,0.65505636,-0.5635726,-0.8632889,0.35245085,-0.36126262,-0.038015738,0.6683409,0.742883,,1.215156572293478,0.6071458131057825,0.19659663769000002,-0.3780709681025974,0.32396514094385925,0.7275714131224915,-0.4064000365420867,,-0.7014558269658122,-0.3161686838707514,0.18337966485,1.03817491019188,0.5544709160481573,0.03957216244610656,0.8680103674375599,,-0.08753262531064562,-0.040362920613933866,0.08425707732,-0.07490262470414771,,-6.67721e-05,-7.5101852e-06,1.513958e-05,0.9999999,7.595867e-05,6.943196e-05,-7.595867e-05,1.0,1.12354755e-05,-6.941706e-05,-1.12354755e-05,1.0,865,2.688,0,1,0.397,False,-0.25386068605304013,1.0409211116199837
2.707517499977257,14:49:50.680770,14:49:42.490014,0,,0.1354281,0.008308917,0.037978232,-0.09046829,-0.8340652,-0.5441972,-0.47522902,-0.444056,0.75958645,-0.8751987,0.3273368,-0.35619897,,0.030376688,-0.038848873,0.021446526,-0.4033525,-0.6604137,0.6333721,-0.5534208,0.72729707,0.40591192,-0.7287196,-0.18679571,-0.65884376,,0.10346947,1.3393563,0.44165584,0.9916619,0.021263355,-0.12710027,-0.06964232,-0.74143386,-0.66740227,-0.10842766,0.670689,-0.7337709,,-0.10831635,0.27095494,-0.08974629,0.13927586,0.77665067,0.6143419,-0.9397637,-0.09190523,0.32923794,0.3121641,-0.6231911,0.7170679,,-6.237321e-05,0.3993572,-0.3664953,0.5032726,0.6551935,-0.5634165,-0.8632915,0.35254252,-0.36116686,-0.038005907,0.66815805,0.743048,,1.2160755775055108,0.6067056173319517,0.19659923027,-0.3822647669722879,0.3280642359368225,0.7243105547517394,-0.4068900687404896,,-0.7014635496986864,-0.31616096113787723,0.18337966485,1.03817491019188,0.5544709160481573,0.039817198666528275,0.8678470233714257,,-0.08753262531064562,-0.040362920613933866,0.08425707732,-0.07490262470414771,,-6.67721e-05,-7.5101852e-06,1.513958e-05,0.9999999,7.595867e-05,6.943196e-05,-7.595867e-05,1.0,1.12354755e-05,-6.941706e-05,-1.12354755e-05,1.0,878,2.729,0,1,0.397,False,-0.2537415306159976,1.0416453146316753
2.7355926749878563,14:49:50.720106,14:49:42.554852,0,,0.13507248,0.008317351,0.03793609,-0.09010196,-0.83305836,-0.5457977,-0.4752682,-0.4456347,0.75863683,-0.8752152,0.32775503,-0.35577366,,0.03038403,-0.038848724,0.021449447,-0.40332815,-0.6604467,0.6333532,-0.55341023,0.72727466,0.40596658,-0.7287411,-0.18676636,-0.6588283,,0.10346947,1.3393563,0.44165584,0.9916619,0.021263355,-0.12710027,-0.06964232,-0.74143386,-0.66740227,-0.10842766,0.670689,-0.7337709,,-0.1079585,0.27093893,-0.08974578,0.13891073,0.7755253,0.6158444,-0.93981016,-0.09280475,0.32885274,0.3121869,-0.6244581,0.71595496,,-7.000464e-05,0.39935878,-0.36649656,0.50325066,0.65522355,-0.56340116,-0.86330533,0.3525566,-0.3611202,-0.037983667,0.66812116,0.7430823,,1.2179753697925702,0.6056630483939314,0.19659793398000003,-0.38436166640713315,0.32847414543611886,0.7241396585209313,-0.40721675687275816,,-0.7015098860959318,-0.3161686838707514,0.18337966485,1.03817491019188,0.5544709160481573,0.039898877406668865,0.8663769267762171,,-0.08753262531064562,-0.040362920613933866,0.08425707732,-0.07490262470414771,,-6.67721e-05,-7.5101852e-06,1.513958e-05,0.9999999,7.595867e-05,6.943196e-05,-7.595867e-05,1.0,1.12354755e-05,-6.941706e-05,-1.12354755e-05,1.0,891,2.77,0,1,0.397,False,-0.25451604095677105,1.041403913627778
