AlexandreBanks6/ExpertPlaybackApp/resources/Motions/P_06/PC1/Data_PC1_6.csv
Task Time,PC1 Time,PC2 Time,Gaze Calib,s_T_psm1,Tx,Ty,Tz,R00,R01,R02,R10,R11,R12,R20,R21,R22,s_T_psm3,Tx,Ty,Tz,R00,R01,R02,R10,R11,R12,R20,R21,R22,cart_T_ecm,Tx,Ty,Tz,R00,R01,R02,R10,R11,R12,R20,R21,R22,ecm_T_psm1,Tx,Ty,Tz,R00,R01,R02,R10,R11,R12,R20,R21,R22,ecm_T_psm3,Tx,Ty,Tz,R00,R01,R02,R10,R11,R12,R20,R21,R22,psm1_joints,q1,q2,q3,q4,q5,q6,jaw,psm3_joints,q1,q2,q3,q4,q5,q6,jaw,ecm_joints,q1,q2,q3,q4,ecmi_T_ecm,Tx,Ty,Tz,R00,R01,R02,R10,R11,R12,R20,R21,R22,Sample #,Task Duration (s),Collisions (binary),Collisions (increments),Cumulative Collision Time (s),Clutch Press,MTMR Angle,MTML Angle
""
lci_T_si,,,,,-0.060823515,0.029859815,0.22619304,0.990712,-0.051887166,0.12568814,0.04697213,-0.7368394,-0.67443407,0.12760644,0.67407376,-0.7275584
rci_T_si,,,,,-0.07009534,0.034067318,0.23510589,0.98514,-0.06991788,0.15687762,0.057551738,-0.7262056,-0.68506444,0.16182366,0.68391293,-0.7113903
ecm_T_lc,,,,,-4.4061628e-05,-0.00034663224,-0.01840835,-0.99912,0.030754527,0.028518902,-0.031987965,-0.99852574,-0.043852776,0.027128186,-0.04472645,0.9986309
ecm_T_rc,,,,,-0.0043358393,0.01870579,-0.007592615,-0.99555075,-0.052743673,-0.078081585,0.04863213,-0.9973746,0.053654674,-0.08070653,0.04961868,0.9955021
cart_T_ecmi,,,,,0.10353776,1.3393562,0.4416647,0.9916547,0.021186605,-0.12716936,-0.069744974,-0.74143606,-0.6673891,-0.10842766,0.670689,-0.7337709
ecmac_T_ecmrep_psm1,,,,,0.008075713,-0.26004106,-0.30289736,0.99667877,0.061445758,0.053440064,-0.058828812,0.9970531,-0.049237434,-0.056308012,0.04593009,0.9973564
ecmac_T_ecmrep_psm3,,,,,-0.012692571,-0.457308,-0.5458498,0.99509805,-0.029463936,0.094401784,0.014504567,0.9877462,0.15539348,-0.09782351,-0.1532625,0.9833317
""
0,14:43:35.184205,14:43:26.995184,0,,0.13041218,0.004563242,0.01383625,-0.8948595,-0.14778191,-0.4211732,-0.42958462,0.02898413,0.90256125,-0.12117489,0.9885951,-0.08942157,,0.0023540407,-0.051167533,0.016374111,-0.22896118,-0.55670244,0.7985356,-0.39000595,0.8040714,0.4487368,-0.89189243,-0.20869035,-0.40121847,,0.10357846,1.3393533,0.4416649,0.9916532,0.021170804,-0.12718359,-0.069766104,-0.7414365,-0.6673864,-0.10842766,0.670689,-0.7337709,,-0.101537526,0.25197914,-0.075065,0.876662,0.06310355,0.47695038,-0.3830532,0.6913681,0.6126013,-0.29109097,-0.71974164,0.63026816,,0.028624948,0.3912137,-0.37472183,0.34433952,0.55257666,-0.7590055,-0.9178072,0.36831266,-0.1482418,0.19763638,0.74766624,0.6339835,,1.1919729282050562,0.5332624276980766,0.21266026337000002,0.6194240930532849,-0.25346070706489204,0.9279851655381668,-0.40460325181460965,,-0.4687544399996793,-0.36159379863693997,0.18233744769000002,1.106953211654804,1.051964411694126,-0.1342961603936481,0.8650701742471429,,-0.08327838525890945,-0.04185517712438902,0.0842785086,-0.07359428191455561,,4.053116e-05,3.0994415e-06,-3.4570694e-06,0.99999994,-1.5638769e-05,-1.4297664e-05,1.5638769e-05,1.0,-2.2947788e-06,1.4297664e-05,2.2649765e-06,1.0,37,0.111,0,0,0.0,False,-0.25427773008268684,1.0394727055965998
0.1261734630097635,14:43:35.218073,14:43:26.995184,0,,0.13048375,0.00459446,0.013878182,-0.8931001,-0.15660346,-0.42171985,-0.43069348,0.026951551,0.9020957,-0.12990531,0.9872937,-0.09151849,,0.002351679,-0.051168174,0.016373694,-0.22897238,-0.5566433,0.7985735,-0.39001095,0.8041049,0.44867235,-0.8918875,-0.2087189,-0.4012148,,0.10357846,1.3393533,0.4416649,0.9916532,0.021170804,-0.12718359,-0.069766104,-0.7414365,-0.6673864,-0.10842766,0.670689,-0.7337709,,-0.10161059,0.25202924,-0.075067446,0.8756052,0.07187763,0.4776496,-0.3897957,0.68914396,0.61085176,-0.28526276,-0.72105074,0.63143563,,0.028627371,0.3912132,-0.3747222,0.3443502,0.5525203,-0.75904167,-0.9178049,0.3683028,-0.14828105,0.19762887,0.7477128,0.6339309,,1.1920038191365532,0.5334632187528064,0.21263822644000002,0.6131333947487492,-0.24703879157591632,0.927404212252447,-0.4037865314839383,,-0.46873899453393086,-0.36159379863693997,0.18233744769000002,1.106953211654804,1.051964411694126,-0.13437783913378876,0.8652335183132771,,-0.08327838525890945,-0.04185517712438902,0.0842785086,-0.07359428191455561,,4.053116e-05,3.0994415e-06,-3.4570694e-06,0.99999994,-1.5638769e-05,-1.4297664e-05,1.5638769e-05,1.0,-2.2947788e-06,1.4297664e-05,2.2649765e-06,1.0,52,0.156,0,0,0.0,False,-0.25427773008268684,1.0400037878051738
0.1600225240108557,14:43:35.270559,14:43:27.059856,0,,0.1305376,0.0046352,0.013933733,-0.89312476,-0.15785383,-0.42120093,-0.42969865,0.022555381,0.90269053,-0.13299283,0.9872048,-0.08797431,,0.0023528636,-0.05116789,0.016373932,-0.22896677,-0.5570316,0.79830444,-0.39000845,0.80388653,0.44906574,-0.89189,-0.20852435,-0.40131035,,0.10357846,1.3393533,0.4416649,0.9916532,0.021170804,-0.12718359,-0.069766104,-0.7414365,-0.6673864,-0.10842766,0.670689,-0.7337709,,-0.101666704,0.25209585,-0.07507526,0.8759523,0.072884165,0.47686002,-0.39114603,0.68586355,0.61367416,-0.28233376,-0.7240712,0.6292921,,0.028626159,0.39121345,-0.37472203,0.34434485,0.5528894,-0.7587753,-0.9178061,0.3683743,-0.14809595,0.19763263,0.74740463,0.634293,,1.1920038191365532,0.5337798508006497,0.21261748580000003,0.6122946349748111,-0.24416942508084208,0.9308636268248021,-0.4062366924759524,,-0.46874671726680506,-0.36159379863693997,0.18233744769000002,1.106953211654804,1.051964411694126,-0.13388776669294533,0.8658868945778144,,-0.08327838525890945,-0.04185517712438902,0.0842785086,-0.07359428191455561,,4.053116e-05,3.0994415e-06,-3.4570694e-06,0.99999994,-1.5638769e-05,-1.4297664e-05,1.5638769e-05,1.0,-2.2947788e-06,1.4297664e-05,2.2649765e-06,1.0,64,0.193,0,0,0.0,False,-0.254218152364166,1.0400520680059533
0.2125597749836743,14:43:35.310433,14:43:27.129180,0,,0.13058934,0.004691303,0.01399672,-0.89324707,-0.15809597,-0.42085057,-0.4293242,0.022243172,0.90287644,-0.13338007,0.98717314,-0.087743044,,0.002351679,-0.051168174,0.016373694,-0.22897238,-0.5569694,0.7983461,-0.39001095,0.80392164,0.44900078,-0.8918875,-0.20855501,-0.40130004,,0.10357846,1.3393533,0.4416649,0.9916532,0.021170804,-0.12718359,-0.069766104,-0.7414365,-0.6673864,-0.10842766,0.670689,-0.7337709,,-0.1017205,0.25217885,-0.07507842,0.8761283,0.07311037,0.47650185,-0.39112917,0.68561614,0.61396134,-0.2818104,-0.7242827,0.6292833,,0.028627371,0.3912132,-0.3747222,0.3443502,0.5528302,-0.758816,-0.9178049,0.36836332,-0.14813064,0.19762887,0.7474538,0.6342363,,1.1919729282050562,0.5342509375059774,0.21260581919000002,0.6125043249182957,-0.24403278858107663,0.9307522089211057,-0.40541997214528114,,-0.46873899453393086,-0.36159379863693997,0.18233744769000002,1.106953211654804,1.051964411694126,-0.13396944543308598,0.8660502386439486,,-0.08327838525890945,-0.04185517712438902,0.0842785086,-0.07359428191455561,,4.053116e-05,3.0994415e-06,-3.4570694e-06,0.99999994,-1.5638769e-05,-1.4297664e-05,1.5638769e-05,1.0,-2.2947788e-06,1.4297664e-05,2.2649765e-06,1.0,79,0.238,0,0,0.0,False,-0.2544564632382502,1.04034174921063
0.25241157499840483,14:43:35.345501,14:43:27.129180,0,,0.13065375,0.0047645867,0.014072567,-0.89286697,-0.15854621,-0.42148733,-0.42993683,0.021715552,0.9025977,-0.13395062,0.98711264,-0.08755395,,0.0023540407,-0.051167533,0.016374111,-0.22896118,-0.5569633,0.79835355,-0.39000595,0.8039247,0.44899946,-0.89189243,-0.20855922,-0.4012866,,0.10357846,1.3393533,0.4416649,0.9916532,0.021170804,-0.12718359,-0.069766104,-0.7414365,-0.6673864,-0.10842766,0.670689,-0.7337709,,-0.10178704,0.25228298,-0.0750781,0.87576544,0.07353407,0.47710335,-0.39197278,0.685194,0.6138945,-0.2817662,-0.7246391,0.6288926,,0.028624948,0.3912137,-0.37472183,0.34433952,0.5528246,-0.7588249,-0.9178072,0.3683611,-0.14812146,0.19763638,0.74745905,0.6342277,,1.191934314540685,0.5348687561359153,0.21259674516000002,0.6116655651443575,-0.24444269808037297,0.9309231051519138,-0.4055833162114155,,-0.4687544399996793,-0.36159379863693997,0.18233744769000002,1.106953211654804,1.051964411694126,-0.13396944543308587,0.86572355051168,,-0.08327838525890945,-0.04185517712438902,0.0842785086,-0.07359428191455561,,4.053116e-05,3.0994415e-06,-3.4570694e-06,0.99999994,-1.5638769e-05,-1.4297664e-05,1.5638769e-05,1.0,-2.2947788e-06,1.4297664e-05,2.2649765e-06,1.0,87,0.263,0,0,0.0,False,-0.2533840643048717,1.0406314304153068
0.28749429201707244,14:43:35.375416,14:43:27.193070,0,,0.13069129,0.0047936738,0.014106646,-0.89178705,-0.15836781,-0.42383415,-0.43217522,0.020845234,0.9015486,-0.13394137,0.9871601,-0.08703214,,0.0023540407,-0.051167533,0.016374111,-0.22896118,-0.5569633,0.79835355,-0.39000595,0.8039247,0.44899946,-0.89189243,-0.20855922,-0.4012866,,0.10357846,1.3393533,0.4416649,0.9916532,0.021170804,-0.12718359,-0.069766104,-0.7414365,-0.6673864,-0.10842766,0.670689,-0.7337709,,-0.10182571,0.2523268,-0.075079694,0.8745658,0.07330403,0.47933412,-0.39363617,0.68458104,0.61351395,-0.28317,-0.72524154,0.6275663,,0.028624948,0.3912137,-0.37472183,0.34433952,0.5528246,-0.7588249,-0.9178072,0.3683611,-0.14812146,0.19763638,0.74745905,0.6342277,,1.1918416417461943,0.5352162791152554,0.21259415258000003,0.6095686657095123,-0.24608233607755825,0.9321784412561303,-0.4057466602775497,,-0.4687544399996793,-0.36159379863693997,0.18233744769000002,1.106953211654804,1.051964411694126,-0.13396944543308598,0.8660502386439486,,-0.08327838525890945,-0.04185517712438902,0.0842785086,-0.07359428191455561,,4.053116e-05,3.0994415e-06,-3.4570694e-06,0.99999994,-1.5638769e-05,-1.4297664e-05,1.5638769e-05,1.0,-2.2947788e-06,1.4297664e-05,2.2649765e-06,1.0,99,0.299,0,0,0.0,False,-0.25332448658635043,1.0407279908168656
0.3174197429907508,14:43:35.407951,14:43:27.193070,0,,0.13075703,0.004808992,0.014129221,-0.8906766,-0.16137412,-0.42503354,-0.4336176,0.0205504,0.9008626,-0.13664131,0.98667926,-0.08827838,,0.0023540407,-0.051167533,0.016374111,-0.22896118,-0.5568329,0.7984445,-0.39000595,0.80399805,0.44886816,-0.89189243,-0.2086248,-0.40125257,,0.10357846,1.3393533,0.4416649,0.9916532,0.021170804,-0.12718359,-0.069766104,-0.7414365,-0.6673864,-0.10842766,0.670689,-0.7337709,,-0.1018922,0.25235218,-0.075079255,0.8736144,0.076319546,0.48059675,-0.39654204,0.6840913,0.61218745,-0.2820502,-0.7253926,0.6278959,,0.028624948,0.3912137,-0.37472183,0.34433952,0.55270064,-0.7589152,-0.9178072,0.3683369,-0.14818163,0.19763638,0.74756265,0.6341056,,1.1916408506914644,0.5354634065672306,0.21258896742000002,0.6066330065007289,-0.24498924407943473,0.9318588492075429,-0.40460325181460977,,-0.4687544399996793,-0.36159379863693997,0.18233744769000002,1.106953211654804,1.051964411694126,-0.13413280291336704,0.8663769267762172,,-0.08327838525890945,-0.04185517712438902,0.0842785086,-0.07359428191455561,,4.053116e-05,3.0994415e-06,-3.4570694e-06,0.99999994,-1.5638769e-05,-1.4297664e-05,1.5638769e-05,1.0,-2.2947788e-06,1.4297664e-05,2.2649765e-06,1.0,110,0.331,0,0,0.0,False,-0.25350321974191337,1.041065952222322
0.34993156499695033,14:43:35.438192,14:43:27.193070,0,,0.13082357,0.0048048347,0.014133275,-0.8907451,-0.16138971,-0.42488408,-0.4334119,0.020146579,0.9009707,-0.13684745,0.98668504,-0.087893665,,0.002350673,-0.05116543,0.016373396,-0.2288298,-0.55717385,0.7982444,-0.39016163,0.8037526,0.44917238,-0.8918581,-0.20866036,-0.4013104,,0.10357846,1.3393533,0.4416649,0.9916532,0.021170804,-0.12718359,-0.069766104,-0.7414365,-0.6673864,-0.10842766,0.670689,-0.7337709,,-0.10195897,0.2523507,-0.07507829,0.87371176,0.076312065,0.48042083,-0.3965283,0.68379766,0.61252433,-0.28176764,-0.72567016,0.627702,,0.028628312,0.39121473,-0.37471986,0.34420982,0.55305076,-0.75871897,-0.9178861,0.36820278,-0.14802657,0.19749622,0.74736977,0.6343766,,1.1913164959107472,0.5356178612247151,0.21258896742000002,0.6068426964442135,-0.24498924407943473,0.9323489216483862,-0.4049299399468783,,-0.46874671726680506,-0.36159379863693997,0.18233744769000002,1.106533831767835,1.051964411694126,-0.13413280291336704,0.8663769267762172,,-0.08327838525890945,-0.04185517712438902,0.0842785086,-0.07359428191455561,,4.053116e-05,3.0994415e-06,-3.4570694e-06,0.99999994,-1.5638769e-05,-1.4297664e-05,1.5638769e-05,1.0,-2.2947788e-06,1.4297664e-05,2.2649765e-06,1.0,121,0.365,0,0,0.0,False,-0.2544564632382502,1.0415004740293372
0.38019643200095743,14:43:35.469624,14:43:27.263136,0,,0.1309149,0.00479804,0.014134318,-0.88924384,-0.1678474,-0.4255263,-0.43480325,0.0211792,0.9002763,-0.14209674,0.98558545,-0.0918141,,0.0023518652,-0.05116509,0.016373634,-0.2288242,-0.557236,0.79820263,-0.39015907,0.8037175,0.44923747,-0.89186066,-0.20862968,-0.40132082,,0.10357846,1.3393533,0.4416649,0.9916532,0.021170804,-0.12718359,-0.069766104,-0.7414365,-0.6673864,-0.10842766,0.670689,-0.7337709,,-0.10205028,0.2523448,-0.07507435,0.872595,0.08288812,0.48136005,-0.40112448,0.68392926,0.60937667,-0.27870613,-0.72482437,0.6300417,,0.0286271,0.39121497,-0.37471965,0.3442045,0.5531099,-0.75867826,-0.9178873,0.36821374,-0.14799191,0.19749998,0.7473206,0.6344334,,1.1909921411300297,0.5357259794849543,0.21258507855000003,0.6024392076310385,-0.24170996808506415,0.9298382494399533,-0.40525662807914675,,-0.4687544399996793,-0.36159379863693997,0.18233744769000002,1.106533831767835,1.051964411694126,-0.1340511241732265,0.8663769267762171,,-0.08327838525890945,-0.04185517712438902,0.0842785086,-0.07359428191455561,,4.053116e-05,3.0994415e-06,-3.4570694e-06,0.99999994,-1.5638769e-05,-1.4297664e-05,1.5638769e-05,1.0,-2.2947788e-06,1.4297664e-05,2.2649765e-06,1.0,132,0.398,0,0,0.0,False,-0.2551713958605024,1.0410176720215425
0.41161602101055905,14:43:35.504111,14:43:27.263136,0,,0.13099664,0.004788518,0.014137492,-0.8893865,-0.16871257,-0.42488557,-0.4342432,0.021227181,0.9005455,-0.14291424,0.9854367,-0.09214148,,0.0023525506,-0.051167637,0.016373873,-0.22882126,-0.55729866,0.79815966,-0.39017177,0.8036789,0.44929552,-0.89185584,-0.2086111,-0.40134105,,0.10357846,1.3393533,0.4416649,0.9916532,0.021170804,-0.12718359,-0.069766104,-0.7414365,-0.6673864,-0.10842766,0.670689,-0.7337709,,-0.10213241,0.2523385,-0.07507481,0.8728388,0.08376425,0.48076603,-0.40126085,0.68387926,0.609343,-0.27774474,-0.72477084,0.6305277,,0.02862646,0.39121357,-0.37472183,0.3442014,0.5531711,-0.75863504,-0.9178912,0.36821306,-0.14796917,0.19748707,0.74727565,0.6344903,,1.19059055902057,0.5358727114095645,0.21258248597,0.602648897574523,-0.24102678558623697,0.9296078748820333,-0.40591000434368385,,-0.4687544399996793,-0.36160924410268847,0.18233744769000002,1.106533831767835,1.051964411694126,-0.13396944543308587,0.8663769267762171,,-0.08327838525890945,-0.04185517712438902,0.0842785086,-0.07359428191455561,,4.053116e-05,3.0994415e-06,-3.4570694e-06,0.99999994,-1.5638769e-05,-1.4297664e-05,1.5638769e-05,1.0,-2.2947788e-06,1.4297664e-05,2.2649765e-06,1.0,143,0.431,0,0,0.0,False,-0.2550522404234603,1.0411142324231015
0.4461083479691297,14:43:35.538061,14:43:27.330874,0,,0.13105331,0.0047965497,0.01414524,-0.8894374,-0.16952607,-0.42445496,-0.43390113,0.021342278,0.9007076,-0.14363459,0.98529446,-0.092540175,,0.0023525506,-0.051167637,0.016373873,-0.22882126,-0.55723345,0.79820514,-0.39017177,0.8037156,0.44922987,-0.89185584,-0.20864384,-0.40132403,,0.10357846,1.3393533,0.4416649,0.9916532,0.021170804,-0.12718359,-0.069766104,-0.7414365,-0.6673864,-0.10842766,0.670689,-0.7337709,,-0.10218899,0.25234866,-0.07506932,0.8729708,0.084592134,0.48038125,-0.401494,0.68388236,0.6091859,-0.27699193,-0.72467166,0.63097256,,0.02862646,0.39121357,-0.37472183,0.3442014,0.5531091,-0.7586802,-0.9178912,0.368201,-0.14799924,0.19748707,0.74732745,0.6344293,,1.1903588770343432,0.5360348887999232,0.21258507855000003,0.602648897574523,-0.24048023958717518,0.9292438820073883,-0.4057466602775496,,-0.4687544399996793,-0.36160924410268847,0.18233744769000002,1.106533831767835,1.051964411694126,-0.1340511241732264,0.8665402708423514,,-0.08327838525890945,-0.04185517712438902,0.0842785086,-0.07359428191455561,,4.053116e-05,3.0994415e-06,-3.4570694e-06,0.99999994,-1.5638769e-05,-1.4297664e-05,1.5638769e-05,1.0,-2.2947788e-06,1.4297664e-05,2.2649765e-06,1.0,150,0.451,0,0,0.0,False,-0.254694774112334,1.0407279908168656
0.4800433019991033,14:43:35.562818,14:43:27.330874,0,,0.13109757,0.0048110783,0.014155164,-0.8896489,-0.17076707,-0.4235131,-0.43313277,0.021799803,0.9010664,-0.14463998,0.98507017,-0.093358964,,0.0023513734,-0.05116798,0.016373634,-0.2288268,-0.55723655,0.79820144,-0.3901742,0.803714,0.4492305,-0.89185333,-0.20864175,-0.40133074,,0.10357846,1.3393533,0.4416649,0.9916532,0.021170804,-0.12718359,-0.069766104,-0.7414365,-0.6673864,-0.10842766,0.670689,-0.7337709,,-0.10223306,0.25236532,-0.075062335,0.873311,0.08587143,0.4795352,-0.40160242,0.6840899,0.60888135,-0.27575967,-0.72432524,0.63190943,,0.028627673,0.39121333,-0.374722,0.3442067,0.5531119,-0.75867575,-0.91789,0.3682021,-0.14800383,0.19748332,0.7473248,0.63443357,,1.1902198678426072,0.5361738979916593,0.21258767113000002,0.6028585875180075,-0.23938714758905166,0.9282708600376763,-0.4062366924759524,,-0.46874671726680506,-0.36160924410268847,0.18233744769000002,1.106533831767835,1.051964411694126,-0.1340511241732264,0.8665402708423514,,-0.08327838525890945,-0.04185517712438902,0.0842785086,-0.07359428191455561,,4.053116e-05,3.0994415e-06,-3.4570694e-06,0.99999994,-1.5638769e-05,-1.4297664e-05,1.5638769e-05,1.0,-2.2947788e-06,1.4297664e-05,2.2649765e-06,1.0,161,0.484,0,0,0.0,False,-0.25493308498641865,1.041403913627778
0.5048237490118481,14:43:35.589634,14:43:27.401096,0,,0.13116002,0.0048318654,0.014172196,-0.88947123,-0.17339903,-0.42281646,-0.43280238,0.022612125,0.9012051,-0.14670733,0.98459196,-0.095160276,,0.0023513734,-0.05116798,0.016373634,-0.2288268,-0.55730176,0.7981559,-0.3901742,0.8036773,0.44929612,-0.89185333,-0.20860896,-0.4013478,,0.10357846,1.3393533,0.4416649,0.9916532,0.021170804,-0.12718359,-0.069766104,-0.7414365,-0.6673864,-0.10842766,0.670689,-0.7337709,,-0.102295496,0.25239104,-0.07505449,0.8733314,0.08857604,0.47900575,-0.40275756,0.68441194,0.6077554,-0.2740047,-0.7236951,0.6333931,,0.028627673,0.39121333,-0.374722,0.3442067,0.5531739,-0.7586306,-0.91789,0.3682142,-0.14797376,0.19748332,0.747273,0.6344946,,1.1900422449865,0.5363824117792633,0.21258896742000002,0.6020198277440695,-0.23774750959186638,0.926607130232757,-0.4062366924759525,,-0.46874671726680506,-0.36160924410268847,0.18233744769000002,1.106533831767835,1.051964411694126,-0.13396944543308587,0.8667036149084858,,-0.08327838525890945,-0.04185517712438902,0.0842785086,-0.07359428191455561,,4.053116e-05,3.0994415e-06,-3.4570694e-06,0.99999994,-1.5638769e-05,-1.4297664e-05,1.5638769e-05,1.0,-2.2947788e-06,1.4297664e-05,2.2649765e-06,1.0,172,0.517,0,0,0.0,False,-0.2551713958605024,1.041065952222322
0.53164195996942,14:43:35.619659,14:43:27.401096,0,,0.13124019,0.0048651695,0.01418969,-0.8898371,-0.17893925,-0.4197271,-0.4307347,0.025962919,0.902105,-0.15052466,0.9835174,-0.10017809,,0.0023525506,-0.051167637,0.016373873,-0.22882126,-0.55723345,0.79820514,-0.39017177,0.8037156,0.44922987,-0.89185584,-0.20864384,-0.40132403,,0.10357846,1.3393533,0.4416649,0.9916532,0.021170804,-0.12718359,-0.069766104,-0.7414365,-0.6673864,-0.10842766,0.670689,-0.7337709,,-0.102374904,0.25242603,-0.07503674,0.8741407,0.09436647,0.47641692,-0.40380344,0.6862542,0.60497767,-0.2698535,-0.72121435,0.63798815,,0.02862646,0.39121357,-0.37472183,0.3442014,0.5531091,-0.7586802,-0.9178912,0.368201,-0.14799924,0.19748707,0.74732745,0.6344293,,1.189872344863267,0.5365832028339932,0.21259415258000003,0.6018101378005849,-0.23364841459890315,0.9212226246183504,-0.4064000365420868,,-0.4687544399996793,-0.36160924410268847,0.18233744769000002,1.106533831767835,1.051964411694126,-0.1340511241732264,0.8665402708423514,,-0.08327838525890945,-0.04185517712438902,0.0842785086,-0.07359428191455561,,4.053116e-05,3.0994415e-06,-3.4570694e-06,0.99999994,-1.5638769e-05,-1.4297664e-05,1.5638769e-05,1.0,-2.2947788e-06,1.4297664e-05,2.2649765e-06,1.0,183,0.549,0,0,0.0,False,-0.2550522404234603,1.041065952222322
0.5616591820144095,14:43:35.654430,14:43:27.467103,0,,0.13134563,0.004913509,0.014221311,-0.8895376,-0.18459156,-0.41790995,-0.43026897,0.030959219,0.9021696,-0.1535947,0.9823276,-0.106963456,,0.0023513734,-0.05116798,0.016373634,-0.2288268,-0.55723655,0.79820144,-0.3901742,0.803714,0.4492305,-0.89185333,-0.20864175,-0.40133074,,0.10357846,1.3393533,0.4416649,0.9916532,0.021170804,-0.12718359,-0.069766104,-0.7414365,-0.6673864,-0.10842766,0.670689,-0.7337709,,-0.102479815,0.2524812,-0.07501671,0.87413436,0.10037001,0.47519994,-0.4055378,0.689234,0.6004128,-0.26726052,-0.717553,0.643187,,0.028627673,0.39121333,-0.374722,0.3442067,0.5531119,-0.75867575,-0.91789,0.3682021,-0.14800383,0.19748332,0.7473248,0.63443357,,1.189594326479795,0.5370002304092013,0.21260322661000003,0.6005519981396777,-0.23132559410289066,0.914509474587218,-0.4068900687404896,,-0.46874671726680506,-0.36160924410268847,0.18233744769000002,1.106533831767835,1.051964411694126,-0.1340511241732264,0.8665402708423514,,-0.08327838525890945,-0.04185517712438902,0.0842785086,-0.07359428191455561,,4.053116e-05,3.0994415e-06,-3.4570694e-06,0.99999994,-1.5638769e-05,-1.4297664e-05,1.5638769e-05,1.0,-2.2947788e-06,1.4297664e-05,2.2649765e-06,1.0,194,0.582,0,0,0.0,False,-0.25481392954937654,1.0409211116199837
0.5964193519903347,14:43:35.689378,14:43:27.467103,0,,0.13146082,0.0049474984,0.014250666,-0.88977504,-0.18916862,-0.41534993,-0.42857033,0.03338462,0.90289134,-0.15693243,0.9813769,-0.1107769,,0.0023501962,-0.051168293,0.016373396,-0.22883242,-0.5572396,0.79819775,-0.39017677,0.8037125,0.44923112,-0.89185077,-0.20863962,-0.40133747,,0.10357846,1.3393533,0.4416649,0.9916532,0.021170804,-0.12718359,-0.069766104,-0.7414365,-0.6673864,-0.10842766,0.670689,-0.7337709,,-0.102595046,0.25252408,-0.07500364,0.87475383,0.105140135,0.47302356,-0.40653428,0.6904606,0.59832597,-0.26369607,-0.7156882,0.64672613,,0.028628884,0.3912131,-0.37472218,0.34421203,0.5531148,-0.7586713,-0.9178888,0.36820322,-0.14800842,0.19747956,0.7473222,0.63443786,,1.1892468035004549,0.5373477533885413,0.2126045229,0.6003423081961932,-0.2280463181085201,0.9104469063161144,-0.40607334840981824,,-0.46873899453393086,-0.36160924410268847,0.18233744769000002,1.106533831767835,1.051964411694126,-0.1340511241732264,0.8665402708423514,,-0.08327838525890945,-0.04185517712438902,0.0842785086,-0.07359428191455561,,4.053116e-05,3.0994415e-06,-3.4570694e-06,0.99999994,-1.5638769e-05,-1.4297664e-05,1.5638769e-05,1.0,-2.2947788e-06,1.4297664e-05,2.2649765e-06,1.0,202,0.606,0,0,0.0,False,-0.2551118181419816,1.0412590730254399
0.6313748299726285,14:43:35.719598,14:43:27.536462,0,,0.13157278,0.0049726963,0.014276803,-0.88931483,-0.1923201,-0.41488814,-0.4287573,0.03518343,0.9027343,-0.15901674,0.9807013,-0.113747835,,0.0023513734,-0.05116798,0.016373634,-0.2288268,-0.55723655,0.79820144,-0.3901742,0.803714,0.4492305,-0.89185333,-0.20864175,-0.40133074,,0.10357846,1.3393533,0.4416649,0.9916532,0.021170804,-0.12718359,-0.069766104,-0.7414365,-0.6673864,-0.10842766,0.670689,-0.7337709,,-0.10270727,0.25255835,-0.07499449,0.8744659,0.108433515,0.47281244,-0.40808737,0.691386,0.59619635,-0.26224822,-0.7143022,0.6488438,,0.028627673,0.39121333,-0.374722,0.3442067,0.5531119,-0.75867575,-0.91789,0.3682021,-0.14800383,0.19748332,0.7473248,0.63443357,,1.1888220531923726,0.5377338900322526,0.21260711548000003,0.5990841685352861,-0.2269532261103966,0.9078403095435912,-0.4062366924759525,,-0.46874671726680506,-0.36160924410268847,0.18233744769000002,1.106533831767835,1.051964411694126,-0.1340511241732264,0.8665402708423514,,-0.08327838525890945,-0.04185517712438902,0.0842785086,-0.07359428191455561,,4.053116e-05,3.0994415e-06,-3.4570694e-06,0.99999994,-1.5638769e-05,-1.4297664e-05,1.5638769e-05,1.0,-2.2947788e-06,1.4297664e-05,2.2649765e-06,1.0,213,0.639,0,0,0.0,False,-0.2546351963938136,1.0414521938285575
0.6615959989721887,14:43:35.749785,14:43:27.536462,0,,0.13170457,0.004976347,0.014289618,-0.8894553,-0.1964696,-0.41263658,-0.4273695,0.037635565,0.9032933,-0.16193987,0.97978735,-0.11744025,,0.0023525506,-0.051167637,0.016373873,-0.22882126,-0.55729866,0.79815966,-0.39017177,0.8036789,0.44929552,-0.89185584,-0.2086111,-0.40134105,,0.10357846,1.3393533,0.4416649,0.9916532,0.021170804,-0.12718359,-0.069766104,-0.7414365,-0.6673864,-0.10842766,0.670689,-0.7337709,,-0.10283926,0.2525674,-0.07498807,0.8749358,0.11277667,0.47092333,-0.40903488,0.6926496,0.59407663,-0.25918686,-0.71240294,0.6521535,,0.02862646,0.39121357,-0.37472183,0.3442014,0.5531711,-0.75863504,-0.9178912,0.36821306,-0.14796917,0.19748707,0.74727565,0.6344903,,1.1882969073569254,0.5379964629499763,0.21260581919000002,0.5988744785918015,-0.22422049611508776,0.9041417341471325,-0.40672672467435544,,-0.4687544399996793,-0.36160924410268847,0.18233744769000002,1.106533831767835,1.051964411694126,-0.13396944543308587,0.8667036149084858,,-0.08327838525890945,-0.04185517712438902,0.0842785086,-0.07359428191455561,,4.053116e-05,3.0994415e-06,-3.4570694e-06,0.99999994,-1.5638769e-05,-1.4297664e-05,1.5638769e-05,1.0,-2.2947788e-06,1.4297664e-05,2.2649765e-06,1.0,224,0.671,0,0,0.0,False,-0.2551713958605024,1.0417901552340136
0.6917414820054546,14:43:35.778145,14:43:27.609603,0,,0.13184789,0.0049467236,0.01427345,-0.8891524,-0.20026162,-0.4114648,-0.4271891,0.04087457,0.9032379,-0.16406544,0.97888935,-0.12189332,,0.002353564,-0.05117041,0.016374111,-0.22896384,-0.5572246,0.7981705,-0.39002115,0.8037745,0.44925517,-0.8918852,-0.20844018,-0.4013647,,0.10357846,1.3393533,0.4416649,0.9916532,0.021170804,-0.12718359,-0.069766104,-0.7414365,-0.6673864,-0.10842766,0.670689,-0.7337709,,-0.102982074,0.25253215,-0.074981615,0.8748284,0.11680666,0.47013986,-0.4103421,0.6944982,0.591009,-0.2574775,-0.7099496,0.65549743,,0.02862552,0.39121205,-0.37472418,0.34434175,0.55307454,-0.7586418,-0.91781,0.3683978,-0.14801303,0.19761972,0.74725604,0.6344721,,1.1875478022681256,0.5381509176074607,0.21261100435000002,0.5980357188178634,-0.22285413111743338,0.9002504779453893,-0.40656338060822106,,-0.46874671726680506,-0.36160924410268847,0.18233744769000002,1.106953211654804,1.051964411694126,-0.13364273047252362,0.8676836793052913,,-0.08327838525890945,-0.04185517712438902,0.0842785086,-0.07359428191455561,,4.053116e-05,3.0994415e-06,-3.4570694e-06,0.99999994,-1.5638769e-05,-1.4297664e-05,1.5638769e-05,1.0,-2.2947788e-06,1.4297664e-05,2.2649765e-06,1.0,235,0.704,0,0,0.0,False,-0.2547543518308557,1.0428040394503826
0.7201469040010124,14:43:35.807352,14:43:27.609603,0,,0.13190788,0.004926771,0.014257297,-0.8891346,-0.20068792,-0.4112953,-0.42711306,0.041125685,0.9032625,-0.16435903,0.97879153,-0.12228271,,0.0024021864,-0.051154394,0.016365647,-0.22906063,-0.557515,0.79793984,-0.39010626,0.8036038,0.4494866,-0.89182305,-0.20832165,-0.40156412,,0.10356485,1.3393551,0.44166005,0.99165344,0.021173181,-0.12718144,-0.06976293,-0.7414364,-0.66738683,-0.10842766,0.670689,-0.7337709,,-0.1030288,0.25251016,-0.074981436,0.8748419,0.117253035,0.47000352,-0.41048238,0.6946253,0.59076214,-0.25720766,-0.70975167,0.6558176,,0.028590737,0.39121428,-0.37470812,0.34443486,0.5533516,-0.75839746,-0.9177986,0.3684264,-0.14801276,0.19751056,0.7470368,0.6347642,,1.1872620611517792,0.5381663630732092,0.21261230064000003,0.5980357188178634,-0.22271749461766793,0.9000573813015523,-0.40672672467435533,,-0.46873899453393086,-0.3616015213698142,0.18233744769000002,1.106953211654804,1.0518277751943608,-0.13336795508854615,0.8680103674375599,,-0.08327838525890945,-0.04185517712438902,0.0842785086,-0.07359428191455561,,2.7440488e-05,-1.7881393e-06,7.1525574e-07,0.99999994,-1.3284385e-05,-1.2136996e-05,1.3284385e-05,1.0,-1.937151e-06,1.2151897e-05,1.937151e-06,1.0,242,0.726,0,0,0.0,False,-0.25481392954937654,1.0428040394503826
0.7493511509965174,14:43:35.835974,14:43:27.609603,0,,0.13197282,0.0049010217,0.01424925,-0.88891125,-0.20143068,-0.41141498,-0.42739773,0.041533083,0.9031092,-0.16482657,0.9786217,-0.12301016,,0.002403766,-0.051152218,0.016370177,-0.2285934,-0.557177,0.79830986,-0.38988465,0.8037845,0.44935572,-0.89203984,-0.2085291,-0.4009746,,0.10356485,1.3393551,0.44166005,0.99165344,0.021173181,-0.12718144,-0.06976293,-0.7414364,-0.66738683,-0.10842766,0.670689,-0.7337709,,-0.10309413,0.2524846,-0.0749863,0.87464434,0.11802923,0.47017696,-0.41101187,0.694824,0.5901601,-0.2570341,-0.7094284,0.6562353,,0.02858857,0.39121902,-0.37470892,0.34398988,0.5530349,-0.75883025,-0.91789496,0.3683281,-0.14765923,0.1978378,0.74731976,0.6343291,,1.1868913699738164,0.5382049767375803,0.21261230064000003,0.5976163389308944,-0.22271749461766793,0.8997306663409901,-0.40738010093889243,,-0.46874671726680506,-0.36160924410268847,0.18233744769000002,1.1067435217113195,1.0523743211934222,-0.13397698418361292,0.86801036743756,,-0.08327838525890945,-0.04185517712438902,0.0842785086,-0.07359428191455561,,2.7440488e-05,-1.7881393e-06,7.1525574e-07,0.99999994,-1.3284385e-05,-1.2136996e-05,1.3284385e-05,1.0,-1.937151e-06,1.2151897e-05,1.937151e-06,1.0,253,0.758,0,0,0.0,False,-0.25439688551972894,1.0435765226628537
0.7779775229864754,14:43:35.866569,14:43:27.683544,0,,0.13205974,0.004894525,0.014246166,-0.8872772,-0.20815568,-0.4115948,-0.4287086,0.043009013,0.9024185,-0.17014122,0.9771496,-0.12739909,,0.0024026856,-0.05115113,0.016373158,-0.22823529,-0.557003,0.79853374,-0.38974336,0.8038683,0.44932842,-0.8921932,-0.20867066,-0.4005594,,0.10356485,1.3393551,0.44166005,0.99165344,0.021173181,-0.12718144,-0.06976293,-0.7414364,-0.66738683,-0.10842766,0.670689,-0.7337709,,-0.103180684,0.25247622,-0.07497958,0.8734056,0.12492811,0.47069702,-0.4155951,0.6950357,0.5866908,-0.25385705,-0.7080384,0.65896755,,0.028589256,0.39122215,-0.37470984,0.3436482,0.5528764,-0.7591005,-0.9179754,0.3682442,-0.14736794,0.1980581,0.74747837,0.63407344,,1.1865824606588475,0.5382822040663225,0.21261230064000003,0.5932128501177194,-0.21930158212353193,0.8966185037880172,-0.4070534128066239,,-0.4687312718010566,-0.36161696683556266,0.18233744769000002,1.106533831767835,1.0527842306927186,-0.13439291663484265,0.8691537759005,,-0.08327838525890945,-0.04185517712438902,0.0842785086,-0.07359428191455561,,2.7440488e-05,-1.7881393e-06,7.1525574e-07,0.99999994,-1.3284385e-05,-1.2136996e-05,1.3284385e-05,1.0,-1.937151e-06,1.2151897e-05,1.937151e-06,1.0,264,0.791,0,0,0.0,False,-0.2536223751789555,1.0429005998519412
0.808560514007695,14:43:35.895536,14:43:27.683544,0,,0.13208358,0.0048931986,0.0142505765,-0.88614404,-0.20843464,-0.4138883,-0.43089312,0.041946143,0.9014275,-0.17052767,0.97713625,-0.12698343,,0.0024019182,-0.051154483,0.016372025,-0.22833586,-0.55709666,0.7984396,-0.3898341,0.8038076,0.44935828,-0.8921279,-0.2086544,-0.40071338,,0.10356485,1.3393551,0.44166005,0.99165344,0.021173181,-0.12718144,-0.06976293,-0.7414364,-0.66738683,-0.10842766,0.670689,-0.7337709,,-0.10320486,0.2524778,-0.07498129,0.87219024,0.12514754,0.4728872,-0.41748682,0.6942477,0.58628047,-0.2549293,-0.7087723,0.65776354,,0.028590256,0.39121938,-0.37471193,0.3437431,0.5529693,-0.7589899,-0.917965,0.36823216,-0.14746313,0.1979419,0.74741554,0.6341837,,1.1864588969328598,0.5383980450594359,0.21261230064000003,0.5909062607393897,-0.22039467412165545,0.897999919458432,-0.4060733484098181,,-0.4687312718010566,-0.3616324123013111,0.18233744769000002,1.106533831767835,1.0526475941929532,-0.13428149873114636,0.8691537759005,,-0.08327838525890945,-0.04185517712438902,0.0842785086,-0.07359428191455561,,2.7440488e-05,-1.7881393e-06,7.1525574e-07,0.99999994,-1.3284385e-05,-1.2136996e-05,1.3284385e-05,1.0,-1.937151e-06,1.2151897e-05,1.937151e-06,1.0,275,0.824,0,0,0.0,False,-0.2544564632382502,1.042948880052721
0.8375412829918787,14:43:35.938142,14:43:27.754232,0,,0.13214302,0.0049520284,0.014287457,-0.8863097,-0.21358696,-0.41089597,-0.42913184,0.045283765,0.90210605,-0.17407112,0.9758738,-0.13179249,,0.0024500862,-0.0512227,0.01636982,-0.23303206,-0.55311316,0.79985106,-0.3869664,0.8073145,0.44553375,-0.8921619,-0.20569192,-0.4021664,,0.10356485,1.3393551,0.44166005,0.99165344,0.021173181,-0.12718144,-0.06976293,-0.7414364,-0.66738683,-0.10842766,0.670689,-0.7337709,,-0.1032639,0.25254506,-0.07496268,0.87275964,0.13056763,0.47036445,-0.41857725,0.69594663,0.5834821,-0.25116467,-0.7061235,0.6620468,,0.02854479,0.39117208,-0.37476364,0.34832066,0.5485589,-0.76010257,-0.91577536,0.37221506,-0.15103437,0.20007038,0.7486916,0.6320069,,1.186466619665734,0.5386992316415307,0.21261748580000003,0.5904868808524206,-0.21670548862798855,0.8926229525945524,-0.4068900687404896,,-0.46871582633530817,-0.3616324123013111,0.18233744769000002,1.1170183289420612,1.0508713196960024,-0.12874912897606472,0.8689904318343656,,-0.08327838525890945,-0.04185517712438902,0.0842785086,-0.07359428191455561,,2.7440488e-05,-1.7881393e-06,7.1525574e-07,0.99999994,-1.3284385e-05,-1.2136996e-05,1.3284385e-05,1.0,-1.937151e-06,1.2151897e-05,1.937151e-06,1.0,286,0.857,0,0,0.0,False,-0.2532649088678296,1.0418867156355727
0.8801487159798853,14:43:35.962953,14:43:27.754232,0,,0.13216153,0.004970938,0.014296681,-0.88557464,-0.21609525,-0.4111693,-0.42986274,0.04587099,0.9017283,-0.17599843,0.97529405,-0.13351357,,0.00245139,-0.05122489,0.016371012,-0.23305075,-0.555428,0.7982399,-0.3865837,0.8061105,0.44803908,-0.892323,-0.20417073,-0.40258408,,0.10356485,1.3393551,0.44166005,0.99165344,0.021173181,-0.12718144,-0.06976293,-0.7414364,-0.66738683,-0.10842766,0.670689,-0.7337709,,-0.10328204,0.2525649,-0.074954845,0.8721544,0.13314547,0.4707642,-0.4204302,0.6960319,0.58204633,-0.25017008,-0.7055578,0.66302574,,0.02854343,0.39117157,-0.37476602,0.34834647,0.55071396,-0.75853074,-0.9156774,0.37298855,-0.14971441,0.20047346,0.7467219,0.6342056,,1.1864820651314825,0.5387996271688956,0.21262137467000003,0.5885996713610598,-0.21561239662986503,0.8913232156642781,-0.4064000365420868,,-0.46870038086955973,-0.3616246895684369,0.18233874398000002,1.1176473987725148,1.0511445926955334,-0.12521474273699185,0.8671936471068885,,-0.08327838525890945,-0.04185517712438902,0.0842785086,-0.07359428191455561,,2.7440488e-05,-1.7881393e-06,7.1525574e-07,0.99999994,-1.3284385e-05,-1.2136996e-05,1.3284385e-05,1.0,-1.937151e-06,1.2151897e-05,1.937151e-06,1.0,297,0.889,0,0,0.0,False,-0.25302659799374494,1.042659198848044
0.9049581909785047,14:43:35.995941,14:43:27.754232,0,,0.13221017,0.0050053,0.0143059045,-0.8849814,-0.22266829,-0.40893355,-0.42886168,0.04775101,0.90210724,-0.18134367,0.97372407,-0.13775265,,0.002449058,-0.051213313,0.016385972,-0.23128611,-0.5556986,0.79856473,-0.38562346,0.80595124,0.44915164,-0.89319724,-0.20406279,-0.4006958,,0.10356485,1.3393551,0.44166005,0.99165344,0.021173181,-0.12718144,-0.06976293,-0.7414364,-0.66738683,-0.10842766,0.670689,-0.7337709,,-0.10332931,0.25259563,-0.074933544,0.8720824,0.13992414,0.46892807,-0.42331094,0.6964729,0.57942504,-0.24552014,-0.7038087,0.66661316,,0.028543612,0.39119062,-0.37476555,0.3466687,0.5509747,-0.7591098,-0.9160135,0.37301216,-0.1475846,0.20184179,0.7465178,0.6340119,,1.186497510597231,0.5388845772305121,0.21263044870000003,0.5862930819827301,-0.21069348263830917,0.8871488136509258,-0.4060733484098181,,-0.46867721267093704,-0.36161696683556266,0.18234004027000003,1.1170183289420612,1.0533307766917805,-0.1253638543933232,0.8683370555698284,,-0.08327838525890945,-0.04185517712438902,0.0842785086,-0.07359428191455561,,2.7440488e-05,-1.7881393e-06,7.1525574e-07,0.99999994,-1.3284385e-05,-1.2136996e-05,1.3284385e-05,1.0,-1.937151e-06,1.2151897e-05,1.937151e-06,1.0,308,0.922,0,0,0.0,False,-0.25320533114930877,1.0422246770410288
0.937947541999165,14:43:36.026630,14:43:27.825999,0,,0.13222563,0.0050209463,0.014305159,-0.8854724,-0.22378227,-0.4072591,-0.42752355,0.048862487,0.90268266,-0.18210468,0.97341347,-0.13893858,,0.0024486408,-0.05121519,0.016381681,-0.23175019,-0.55629337,0.79801595,-0.3858385,0.80562705,0.44954842,-0.89298403,-0.20372242,-0.40134364,,0.10356485,1.3393551,0.44166005,0.99165344,0.021173181,-0.12718144,-0.06976293,-0.7414364,-0.66738683,-0.10842766,0.670689,-0.7337709,,-0.103343755,0.2526064,-0.074920885,0.8727112,0.14112099,0.4673971,-0.4228293,0.6971023,0.5790196,-0.24411179,-0.7029461,0.6680391,,0.028544594,0.39118612,-0.37476456,0.34711075,0.55153483,-0.7585008,-0.9159165,0.37316173,-0.14780836,0.20152202,0.74602926,0.63468826,,1.1864897878643568,0.538915468162009,0.21263952273000003,0.5871318417566682,-0.2093271176406548,0.8854628834329776,-0.40525662807914686,,-0.46867721267093704,-0.36160924410268847,0.18234004027000003,1.1172280188855457,1.0527842306927186,-0.12450978907783461,0.8676836793052913,,-0.08327838525890945,-0.04185517712438902,0.0842785086,-0.07359428191455561,,2.7440488e-05,-1.7881393e-06,7.1525574e-07,0.99999994,-1.3284385e-05,-1.2136996e-05,1.3284385e-05,1.0,-1.937151e-06,1.2151897e-05,1.937151e-06,1.0,319,0.955,0,0,0.0,False,-0.25332448658635043,1.0428040394503826
0.9686343079665676,14:43:36.059052,14:43:27.825999,0,,0.13224801,0.005050823,0.01430665,-0.8855775,-0.22603953,-0.40578127,-0.4268281,0.051414043,0.90287006,-0.18322147,0.97276026,-0.14201114,,0.0024478734,-0.051218513,0.016380548,-0.23185156,-0.556126,0.7981031,-0.3859284,0.8057139,0.44931576,-0.8929189,-0.20383608,-0.40143082,,0.10356485,1.3393551,0.44166005,0.99165344,0.021173181,-0.12718144,-0.06976293,-0.7414364,-0.66738683,-0.10842766,0.670689,-0.7337709,,-0.10336448,0.25262904,-0.07489961,0.8729511,0.1435649,0.46620333,-0.42306855,0.6985824,0.5770577,-0.2428362,-0.7009791,0.670566,,0.028545598,0.39118335,-0.37476665,0.34720644,0.55137944,-0.75856996,-0.9159056,0.3731027,-0.1480248,0.20140667,0.7461736,0.63455516,,1.1864897878643568,0.5390235864222481,0.21265637450000002,0.5871318417566682,-0.2080973891427658,0.8820914388356336,-0.40541997214528114,,-0.46866948993806284,-0.3616246895684369,0.18234004027000003,1.1172280188855457,1.0526475941929532,-0.12472508613470057,0.8680103674375599,,-0.08327838525890945,-0.04185517712438902,0.0842785086,-0.07359428191455561,,2.7440488e-05,-1.7881393e-06,7.1525574e-07,0.99999994,-1.3284385e-05,-1.2136996e-05,1.3284385e-05,1.0,-1.937151e-06,1.2151897e-05,1.937151e-06,1.0,330,0.988,0,0,0.0,False,-0.2531457534307875,1.0422729572418084
1.001039976021275,14:43:36.090104,14:43:27.893693,0,,0.1322701,0.0050955117,0.014323339,-0.885608,-0.22668433,-0.40535486,-0.42659825,0.05199018,0.90294576,-0.18360914,0.9725796,-0.14274615,,0.0024489462,-0.05121975,0.016380787,-0.23191917,-0.5559567,0.79820144,-0.38585114,0.8058354,0.44916397,-0.89293474,-0.20381719,-0.40140525,,0.10356485,1.3393551,0.44166005,0.99165344,0.021173181,-0.12718144,-0.06976293,-0.7414364,-0.66738683,-0.10842766,0.670689,-0.7337709,,-0.103385404,0.25267288,-0.07487954,0.87302774,0.144254,0.46584696,-0.42316023,0.6988966,0.5766099,-0.24240057,-0.70052433,0.67119867,,0.028544534,0.39118272,-0.37476775,0.34727305,0.55120546,-0.7586659,-0.91586524,0.3731701,-0.14810461,0.20147537,0.74626845,0.6344218,,1.1865206787958538,0.5392552684084748,0.21267192998,0.5871318417566682,-0.20782411614323493,0.8811334943669757,-0.4055833162114154,,-0.46866948993806284,-0.3616246895684369,0.18234004027000003,1.1174377088290304,1.0526475941929532,-0.12472508613470057,0.8680103674375599,,-0.08327838525890945,-0.04185517712438902,0.0842785086,-0.07359428191455561,,2.7440488e-05,-1.7881393e-06,7.1525574e-07,0.99999994,-1.3284385e-05,-1.2136996e-05,1.3284385e-05,1.0,-1.937151e-06,1.2151897e-05,1.937151e-06,1.0,342,1.025,0,0,0.0,False,-0.25260955396409823,1.0427074790488235
1.0321110759978183,14:43:36.127956,14:43:27.893693,0,,0.1322889,0.0051217377,0.01433605,-0.88566774,-0.22769202,-0.40465888,-0.42618266,0.052744657,0.9030982,-0.18428466,0.9723035,-0.14375263,,0.0024470687,-0.051217545,0.01638037,-0.23192774,-0.55596226,0.7981951,-0.38584095,0.8058358,0.44917214,-0.8929369,-0.20380092,-0.40140867,,0.10356485,1.3393551,0.44166005,0.99165344,0.021173181,-0.12718144,-0.06976293,-0.7414364,-0.66738683,-0.10842766,0.670689,-0.7337709,,-0.10340375,0.25270048,-0.07486928,0.87316877,0.14532225,0.46525022,-0.42330873,0.69928414,0.57603073,-0.24163204,-0.6999165,0.67210925,,0.028546385,0.39118388,-0.37476578,0.3472815,0.55120903,-0.7586595,-0.91586,0.37318397,-0.14810185,0.20148447,0.7462589,0.63443017,,1.1865284015287278,0.5393942776002109,0.21267841143000002,0.5871318417566682,-0.20714093364440772,0.8799229749273692,-0.40525662807914686,,-0.4686617672051886,-0.36160924410268847,0.18234004027000003,1.1174377088290304,1.0526475941929532,-0.12472508613470057,0.8680103674375599,,-0.08327838525890945,-0.04185517712438902,0.0842785086,-0.07359428191455561,,2.7440488e-05,-1.7881393e-06,7.1525574e-07,0.99999994,-1.3284385e-05,-1.2136996e-05,1.3284385e-05,1.0,-1.937151e-06,1.2151897e-05,1.937151e-06,1.0,379,1.138,0,0,0.0,False,-0.25278828711966117,1.0425626384464852
1.069962402980309,14:43:36.241280,14:43:28.033467,0,,0.13241458,0.005259469,0.014386237,-0.88569266,-0.2342185,-0.40086162,-0.4243127,0.05792722,0.903661,-0.18843329,0.97045654,-0.15068758,,0.0024460852,-0.051217947,0.01637888,-0.23193336,-0.55603045,0.7981459,-0.38584346,0.8057975,0.4492386,-0.8929343,-0.20376602,-0.40143204,,0.10356485,1.3393551,0.44166005,0.99165344,0.021173181,-0.12718144,-0.06976293,-0.7414364,-0.66738683,-0.10842766,0.670689,-0.7337709,,-0.10352543,0.25283375,-0.0748006,0.8736565,0.15226251,0.46210432,-0.42473003,0.70197296,0.5716978,-0.23733662,-0.69573706,0.6779537,,0.028547548,0.39118254,-0.37476528,0.34728685,0.55127376,-0.75860995,-0.9158588,0.37319717,-0.14807597,0.2014807,0.7462045,0.6344954,,1.186428006001363,0.5401356599561364,0.21272767045000002,0.5865027719262146,-0.20331511165097538,0.8721475854358572,-0.40541997214528114,,-0.46865404447231435,-0.36160924410268847,0.18234133656,1.1174377088290304,1.0526475941929532,-0.12464340739456004,0.8694804640327684,,-0.08327838525890945,-0.04185517712438902,0.0842785086,-0.07359428191455561,,2.7440488e-05,-1.7881393e-06,7.1525574e-07,0.99999994,-1.3284385e-05,-1.2136996e-05,1.3284385e-05,1.0,-1.937151e-06,1.2151897e-05,1.937151e-06,1.0,387,1.163,0,0,0.0,False,-0.25332448658635043,1.044011044469869
1.1832564959768206,14:43:36.271689,14:43:28.033467,0,,0.13246077,0.005306229,0.014395818,-0.88570476,-0.23810335,-0.3985394,-0.42314637,0.060889155,0.9040131,-0.19098182,0.9693292,-0.1546824,,0.00244762,-0.05121893,0.016379178,-0.23192623,-0.55602616,0.79815096,-0.38584727,0.8057982,0.44923425,-0.8929345,-0.20377524,-0.40142697,,0.10356485,1.3393551,0.44166005,0.99165344,0.021173181,-0.12718144,-0.06976293,-0.7414364,-0.66738683,-0.10842766,0.670689,-0.7337709,,-0.1035696,0.2528739,-0.074771464,0.873954,0.15638927,0.46015954,-0.4255902,0.7034639,0.56922007,-0.23468573,-0.6933115,0.68135285,,0.028546017,0.39118207,-0.37476617,0.34727994,0.5512706,-0.75861543,-0.915862,0.3731897,-0.14807504,0.20147803,0.7462106,0.6344891,,1.1864048378027403,0.540328728277992,0.21274841109000003,0.5860833920392455,-0.20071901815543203,0.8677436405416895,-0.4037865314839383,,-0.4686617672051886,-0.36161696683556266,0.18234133656,1.1174377088290304,1.0526475941929532,-0.12464340739456004,0.8694804640327684,,-0.08327838525890945,-0.04185517712438902,0.0842785086,-0.07359428191455561,,2.7440488e-05,-1.7881393e-06,7.1525574e-07,0.99999994,-1.3284385e-05,-1.2136996e-05,1.3284385e-05,1.0,-1.937151e-06,1.2151897e-05,1.937151e-06,1.0,399,1.2,0,0,0.0,False,-0.25254997624557696,1.044349005875325
1.213667283009272,14:43:36.309550,14:43:28.103048,0,,0.13251272,0.005357653,0.014398262,-0.88568425,-0.24087688,-0.39691508,-0.42261463,0.0642685,0.90402794,-0.19225027,0.9684254,-0.15871975,,0.002448164,-0.051220257,0.016378045,-0.23192477,-0.55595976,0.7981977,-0.3858536,0.8058339,0.4491646,-0.8929322,-0.2038151,-0.40141195,,0.10356485,1.3393551,0.44166005,0.99165344,0.021173181,-0.12718144,-0.06976293,-0.7414364,-0.66738683,-0.10842766,0.670689,-0.7337709,,-0.10361863,0.25291258,-0.07473338,0.8740729,0.1594145,0.4588939,-0.42605478,0.7053943,0.566477,-0.23339649,-0.6906561,0.6844854,,0.02854565,0.39118028,-0.37476656,0.3472784,0.55120826,-0.75866145,-0.91586405,0.3731712,-0.1481092,0.2014716,0.7462658,0.6344261,,1.1863121650082495,0.5405835784628414,0.21278081834,0.5858737020957611,-0.19962592615730848,0.8634217902262146,-0.404766595880744,,-0.4686617672051886,-0.3616246895684369,0.18234263285000002,1.1174377088290304,1.0526475941929532,-0.12472508613470057,0.8693171199666342,,-0.08327838525890945,-0.04185517712438902,0.0842785086,-0.07359428191455561,,2.7440488e-05,-1.7881393e-06,7.1525574e-07,0.99999994,-1.3284385e-05,-1.2136996e-05,1.3284385e-05,1.0,-1.937151e-06,1.2151897e-05,1.937151e-06,1.0,407,1.224,0,0,0.0,False,-0.25332448658635043,1.044735247481561
1.2515575040015392,14:43:36.339392,14:43:28.103048,0,,0.13261071,0.0054380894,0.014398694,-0.8856416,-0.24659474,-0.39348426,-0.42101508,0.06889036,0.9044337,-0.19592135,0.96666694,-0.1648323,,0.002447337,-0.05122185,0.016377926,-0.2319289,-0.5562222,0.79801357,-0.38586244,0.8056846,0.44942468,-0.8929273,-0.20368898,-0.40148684,,0.10356485,1.3393551,0.44166005,0.99165344,0.021173181,-0.12718144,-0.06976293,-0.7414364,-0.66738683,-0.10842766,0.670689,-0.7337709,,-0.103711665,0.2529705,-0.07466963,0.8744371,0.16551156,0.45603257,-0.42735425,0.70771533,0.5625899,-0.2296261,-0.6868369,0.68958455,,0.028546542,0.39117935,-0.3747678,0.34728217,0.5514585,-0.75847787,-0.9158648,0.37321433,-0.14799553,0.2014614,0.7460594,0.6346721,,1.1861345421521425,0.54094654690793,0.21283266994000002,0.5852446322653074,-0.19607337716340703,0.8567677026836418,-0.4054199721452811,,-0.46865404447231435,-0.3616324123013111,0.18234263285000002,1.1174377088290304,1.0526475941929532,-0.12439837117413832,0.8699704962311713,,-0.08327838525890945,-0.04185517712438902,0.0842785086,-0.07359428191455561,,2.7440488e-05,-1.7881393e-06,7.1525574e-07,0.99999994,-1.3284385e-05,-1.2136996e-05,1.3284385e-05,1.0,-1.937151e-06,1.2151897e-05,1.937151e-06,1.0,419,1.262,0,0,0.0,False,-0.25344364202339253,1.0445421266784427
1.2813639710075222,14:43:36.368893,14:43:28.166436,0,,0.13273573,0.005531475,0.014408797,-0.88540405,-0.2532187,-0.38979456,-0.4195155,0.074202955,0.9047103,-0.20016566,0.96455896,-0.1719288,,0.0024458915,-0.051222805,0.016379833,-0.23174109,-0.55617166,0.7981034,-0.3857246,0.80572045,0.44947883,-0.8930356,-0.20368545,-0.40124765,,0.10356485,1.3393551,0.44166005,0.99165344,0.021173181,-0.12718144,-0.06976293,-0.7414364,-0.66738683,-0.10842766,0.670689,-0.7337709,,-0.10383169,0.253044,-0.0746015,0.87465143,0.17257863,0.45299166,-0.42911786,0.71032554,0.55793864,-0.22548325,-0.68238866,0.69534385,,0.028547782,0.3911805,-0.37476978,0.3471043,0.5514068,-0.75859684,-0.9158919,0.37323245,-0.14778224,0.20164482,0.74608856,0.6345796,,1.185879691967293,0.5414330790790062,0.21288711412000003,0.5841961825478849,-0.19224755516997472,0.8491556706724109,-0.4042765636823411,,-0.4686385990065659,-0.36164013503418535,0.18234263285000002,1.1174377088290304,1.0529208671924841,-0.12445784950125005,0.8706238724957085,,-0.08327838525890945,-0.04185517712438902,0.0842785086,-0.07359428191455561,,2.7440488e-05,-1.7881393e-06,7.1525574e-07,0.99999994,-1.3284385e-05,-1.2136996e-05,1.3284385e-05,1.0,-1.937151e-06,1.2151897e-05,1.937151e-06,1.0,427,1.287,0,0,0.0,False,-0.2533840643048717,1.043817923666751
1.3108946629799902,14:43:36.392847,14:43:28.166436,0,,0.13287337,0.00563851,0.014401108,-0.8848749,-0.2608599,-0.38593835,-0.4183041,0.080396146,0.90474206,-0.20498297,0.962023,-0.18025932,,0.0024475679,-0.051227424,0.016381383,-0.23163638,-0.55626935,0.79806566,-0.38567534,0.8056632,0.4496237,-0.89308405,-0.20364511,-0.4011603,,0.10356485,1.3393551,0.44166005,0.99165344,0.021173181,-0.12718144,-0.06976293,-0.7414364,-0.66738683,-0.10842766,0.670689,-0.7337709,,-0.10396196,0.25311536,-0.07450985,0.87460923,0.18074362,0.44987825,-0.43148592,0.713314,0.5522708,-0.22108501,-0.67713726,0.70185935,,0.028546073,0.39117882,-0.37477434,0.3470046,0.55150074,-0.7585742,-0.91591364,0.3732422,-0.14762287,0.20171778,0.74601424,0.6346438,,1.1855862281180725,0.5419350567158308,0.21296489152000003,0.5825186630000087,-0.18814846017701148,0.8404223367122412,-0.405910004343684,,-0.4686385990065659,-0.36167102596568224,0.18234263285000002,1.1174377088290304,1.0530575036922496,-0.12432423118452474,0.869807152165037,,-0.08327838525890945,-0.04185517712438902,0.0842785086,-0.07359428191455561,,2.7440488e-05,-1.7881393e-06,7.1525574e-07,0.99999994,-1.3284385e-05,-1.2136996e-05,1.3284385e-05,1.0,-1.937151e-06,1.2151897e-05,1.937151e-06,1.0,460,1.388,0,0,0.0,False,-0.25403941920860307,1.0437696434659716
1.3347964379936457,14:43:36.491319,14:43:28.298914,0,,0.1335811,0.0061551183,0.014603674,-0.88438475,-0.28232437,-0.37169388,-0.4125139,0.10016537,0.90542763,-0.21839345,0.9540753,-0.20504743,,0.0024482235,-0.05124106,0.016381979,-0.23170738,-0.55609775,0.79816467,-0.38566267,0.8057719,0.44943982,-0.8930711,-0.20368382,-0.40116945,,0.10356485,1.3393551,0.44166005,0.99165344,0.021173181,-0.12718144,-0.06976293,-0.7414364,-0.66738683,-0.10842766,0.670689,-0.7337709,,-0.104654685,0.25362077,-0.07423881,0.8756042,0.20388283,0.4378916,-0.43627787,0.72290176,0.53579354,-0.20731351,-0.66018546,0.7219254,,0.028545767,0.39117122,-0.3747857,0.34707317,0.5513317,-0.7586657,-0.9158878,0.37325558,-0.14774947,0.20171724,0.7461325,0.6345049,,1.183956731481611,0.5454257319749802,0.21317359421,0.580631453508648,-0.17749081319530713,0.8126189150310288,-0.406563380608221,,-0.46861543080794327,-0.36174053056155026,0.18234263285000002,1.1176473987725148,1.0530575036922496,-0.12432423118452474,0.869807152165037,,-0.08327838525890945,-0.04185517712438902,0.0842785086,-0.07359428191455561,,2.7440488e-05,-1.7881393e-06,7.1525574e-07,0.99999994,-1.3284385e-05,-1.2136996e-05,1.3284385e-05,1.0,-1.937151e-06,1.2151897e-05,1.937151e-06,1.0,468,1.413,0,0,0.0,False,-0.2540989969271239,1.0441558850722072
1.4333214780199341,14:43:36.519738,14:43:28.298914,0,,0.13375765,0.006258905,0.014659494,-0.8836651,-0.2883438,-0.36877322,-0.4128548,0.10872257,0.9042845,-0.22065076,0.95133436,-0.21511847,,0.0024465472,-0.051244248,0.01638174,-0.23171562,-0.55610126,0.7981598,-0.38568038,0.8057669,0.44943354,-0.89306134,-0.2036938,-0.4011861,,0.10356485,1.3393551,0.44166005,0.99165344,0.021173181,-0.12718144,-0.06976293,-0.7414364,-0.66738683,-0.10842766,0.670689,-0.7337709,,-0.10482934,0.25373194,-0.07419195,0.8750646,0.210584,0.43579385,-0.43806574,0.72746706,0.52810043,-0.2058162,-0.65302837,0.72883034,,0.028547551,0.39116937,-0.37478822,0.34708074,0.55133647,-0.7586587,-0.9158894,0.37324506,-0.14776598,0.20169684,0.74613416,0.6345094,,1.1834470311119123,0.5463061235226419,0.21320989033,0.5791636239042562,-0.17680763069647995,0.8022603766956792,-0.406563380608221,,-0.4685999853421948,-0.3617559760272987,0.18234263285000002,1.1176473987725148,1.0530575036922496,-0.12432423118452474,0.869807152165037,,-0.08327838525890945,-0.04185517712438902,0.0842785086,-0.07359428191455561,,2.7440488e-05,-1.7881393e-06,7.1525574e-07,0.99999994,-1.3284385e-05,-1.2136996e-05,1.3284385e-05,1.0,-1.937151e-06,1.2151897e-05,1.937151e-06,1.0,476,1.437,0,0,0.0,False,-0.2551713958605024,1.0443972860761046
1.4617349579930305,14:43:36.547949,14:43:28.367304,0,,0.13391148,0.0063385516,0.0146995485,-0.88321286,-0.29255366,-0.36653414,-0.41303372,0.11506757,0.9034172,-0.22212179,0.94930065,-0.2224637,,0.0024453625,-0.05124459,0.016381562,-0.23172125,-0.55610424,0.7981561,-0.38568288,0.80576533,0.44943416,-0.8930588,-0.20369169,-0.40119287,,0.10356485,1.3393551,0.44166005,0.99165344,0.021173181,-0.12718144,-0.06976293,-0.7414364,-0.66738683,-0.10842766,0.670689,-0.7337709,,-0.104981385,0.25381505,-0.0741521,0.874732,0.2153009,0.43415368,-0.4391987,0.73084676,0.52246296,-0.20481306,-0.6476948,0.73385495,,0.028548764,0.39116913,-0.3747884,0.34708607,0.55133927,-0.75865424,-0.9158882,0.37324616,-0.14777057,0.20169307,0.74613154,0.6345137,,1.182952776207962,0.5470243376799447,0.21324229758000002,0.5783248641303183,-0.17653435769694906,0.7946864542756358,-0.40819682126956386,,-0.4685922626093206,-0.3617559760272987,0.18234263285000002,1.1176473987725148,1.0530575036922496,-0.12432423118452474,0.8694804640327682,,-0.08327838525890945,-0.04185517712438902,0.0842785086,-0.07359428191455561,,2.7440488e-05,-1.7881393e-06,7.1525574e-07,0.99999994,-1.3284385e-05,-1.2136996e-05,1.3284385e-05,1.0,-1.937151e-06,1.2151897e-05,1.937151e-06,1.0,484,1.462,0,0,0.0,False,-0.2555288621716292,1.0443972860761046
1.489956067991443,14:43:36.573301,14:43:28.367304,0,,0.13406366,0.0063830316,0.014717832,-0.88258195,-0.2936918,-0.367143,-0.4140938,0.115765214,0.90284264,-0.22265507,0.9488642,-0.22378832,,0.0024468973,-0.051245544,0.01638192,-0.23171419,-0.5561,0.79816115,-0.38568664,0.805766,0.44942975,-0.89305896,-0.20370093,-0.40118778,,0.10356485,1.3393551,0.44166005,0.99165344,0.021173181,-0.12718144,-0.06976293,-0.7414364,-0.66738683,-0.10842766,0.670689,-0.7337709,,-0.105131865,0.25385755,-0.07412012,0.87409157,0.21650961,0.4348419,-0.4403515,0.7310865,0.52115554,-0.20507187,-0.64702094,0.7343769,,0.028547233,0.39116865,-0.3747893,0.3470792,0.5513361,-0.7586597,-0.91589135,0.37323868,-0.14776966,0.2016904,0.7461377,0.63450736,,1.1823195121122756,0.5476112653783858,0.21327211225000003,0.5772764144128956,-0.17749081319530713,0.7939144835388401,-0.40803347720342953,,-0.4685999853421948,-0.36176369876017295,0.18234263285000002,1.1176473987725148,1.0530575036922496,-0.12432423118452474,0.8694804640327682,,-0.08327838525890945,-0.04185517712438902,0.0842785086,-0.07359428191455561,,2.7440488e-05,-1.7881393e-06,7.1525574e-07,0.99999994,-1.3284385e-05,-1.2136996e-05,1.3284385e-05,1.0,-1.937151e-06,1.2151897e-05,1.937151e-06,1.0,496,1.5,0,0,0.0,False,-0.2548735072678969,1.043721363265192
1.5152740890043788,14:43:36.609662,14:43:28.367304,0,,0.13421726,0.0064123273,0.014741957,-0.88225466,-0.294255,-0.36747867,-0.41449797,0.11544564,0.90269804,-0.22319959,0.9487287,-0.22382054,,0.0024457201,-0.051245857,0.016381681,-0.23171975,-0.556103,0.7981574,-0.3856892,0.80576444,0.4494304,-0.8930564,-0.20369887,-0.4011945,,0.10356485,1.3393551,0.44166005,0.99165344,0.021173181,-0.12718144,-0.06976293,-0.7414364,-0.66738683,-0.10842766,0.670689,-0.7337709,,-0.1052851,0.25389278,-0.07410251,0.87379056,0.21706372,0.4351705,-0.44102287,0.7307691,0.521033,-0.2049118,-0.64719385,0.7342692,,0.028548444,0.39116842,-0.37478948,0.34708452,0.5513389,-0.75865525,-0.91589016,0.3732398,-0.14777425,0.20168664,0.74613506,0.63451165,,1.1816553570850923,0.5481518566795814,0.21328766773000002,0.5768570345259265,-0.17803735919436892,0.7942784764134851,-0.40787013313729525,,-0.4685922626093206,-0.36176369876017295,0.18234263285000002,1.1176473987725148,1.0530575036922496,-0.12432423118452474,0.8694804640327682,,-0.08327838525890945,-0.04185517712438902,0.0842785086,-0.07359428191455561,,2.7440488e-05,-1.7881393e-06,7.1525574e-07,0.99999994,-1.3284385e-05,-1.2136996e-05,1.3284385e-05,1.0,-1.937151e-06,1.2151897e-05,1.937151e-06,1.0,504,1.524,0,0,0.0,False,-0.2552309735790237,1.0432385612573978
1.551638673990965,14:43:36.634621,14:43:28.433393,0,,0.1343406,0.006448373,0.014782727,-0.8822387,-0.29430106,-0.36748022,-0.41452444,0.115504384,0.9026784,-0.22321361,0.9487073,-0.2238974,,0.0024468973,-0.051245544,0.01638192,-0.23171419,-0.55616516,0.7981157,-0.38568664,0.8057292,0.44949555,-0.89305896,-0.20366815,-0.4012044,,0.10356485,1.3393551,0.44166005,0.99165344,0.021173181,-0.12718144,-0.06976293,-0.7414364,-0.66738683,-0.10842766,0.670689,-0.7337709,,-0.10540931,0.25394472,-0.0740956,0.8737744,0.21711469,0.4351776,-0.4410522,0.7307987,0.5209666,-0.20491771,-0.6471433,0.7343121,,0.028547233,0.39116865,-0.3747893,0.3470792,0.55139804,-0.75861466,-0.91589135,0.37325075,-0.14773917,0.2016904,0.7460858,0.6345683,,1.181168824914016,0.5486924479807772,0.21329155660000002,0.577066724469411,-0.1787205416931961,0.7942638147509833,-0.40836016533569813,,-0.4685999853421948,-0.36176369876017295,0.18234263285000002,1.1176473987725148,1.0530575036922496,-0.12424255244438409,0.8689904318343655,,-0.08327838525890945,-0.04185517712438902,0.0842785086,-0.07359428191455561,,2.7440488e-05,-1.7881393e-06,7.1525574e-07,0.99999994,-1.3284385e-05,-1.2136996e-05,1.3284385e-05,1.0,-1.937151e-06,1.2151897e-05,1.937151e-06,1.0,537,1.626,0,0,0.0,False,-0.25493308498641865,1.0437696434659716
1.576602244982496,14:43:36.727039,14:43:28.501055,0,,0.13463573,0.0065535456,0.014900506,-0.8821794,-0.29622608,-0.36607298,-0.41452953,0.11964348,0.9021367,-0.22343817,0.9475945,-0.22834152,,0.0024431944,-0.051245306,0.016379833,-0.23173246,-0.5561754,0.7981032,-0.3856879,0.8057256,0.44950125,-0.8930537,-0.20365475,-0.4012229,,0.10356485,1.3393551,0.44166005,0.99165344,0.021173181,-0.12718144,-0.06976293,-0.7414364,-0.66738683,-0.10842766,0.670689,-0.7337709,,-0.105707206,0.25409666,-0.07408119,0.8737346,0.21935628,0.43413204,-0.44120857,0.7331336,0.51754236,-0.20475061,-0.6437375,0.73734605,,0.028551139,0.39116758,-0.37478808,0.34709677,0.5514068,-0.7586003,-0.9158858,0.37326047,-0.14774926,0.20168553,0.7460745,0.6345832,,1.1800799195787504,0.5500979853638861,0.21329674176000002,0.57748610435638,-0.18022354319061595,0.7896085424015236,-0.4090135416002352,,-0.46857681714357213,-0.3617559760272987,0.18234392914000003,1.1176473987725148,1.0530575036922496,-0.12424255244438409,0.8689904318343655,,-0.08327838525890945,-0.04185517712438902,0.0842785086,-0.07359428191455561,,2.7440488e-05,-1.7881393e-06,7.1525574e-07,0.99999994,-1.3284385e-05,-1.2136996e-05,1.3284385e-05,1.0,-1.937151e-06,1.2151897e-05,1.937151e-06,1.0,545,1.65,0,0,0.0,False,-0.25588632848275505,1.0440593246706484
1.6690462980186567,14:43:36.761007,14:43:28.571376,0,,0.13466987,0.0065954924,0.014940128,-0.8822143,-0.29588062,-0.3662683,-0.414841,0.12048063,0.9018821,-0.22272116,0.9475964,-0.22903311,,0.0024447292,-0.05124626,0.01638019,-0.23172536,-0.556106,0.7981537,-0.3856917,0.8057629,0.449431,-0.8930538,-0.20369673,-0.4012012,,0.10356485,1.3393551,0.44166005,0.99165344,0.021173181,-0.12718144,-0.06976293,-0.7414364,-0.66738683,-0.10842766,0.670689,-0.7337709,,-0.10574225,0.25415376,-0.074078515,0.87368995,0.21905912,0.43437195,-0.44095364,0.73374623,0.51689106,-0.20548908,-0.6431404,0.7376616,,0.028549608,0.3911671,-0.37478897,0.34708986,0.55134165,-0.7586508,-0.91588897,0.37324092,-0.14777884,0.20168287,0.74613243,0.6345159,,1.180033583181505,0.5504609538089746,0.21329674176000002,0.5776957942998646,-0.1813166351887395,0.7887846320881431,-0.408850197534101,,-0.4685845398764463,-0.36176369876017295,0.18234392914000003,1.1176473987725148,1.0530575036922496,-0.12432423118452463,0.8691537759004999,,-0.08327838525890945,-0.04185517712438902,0.0842785086,-0.07359428191455561,,2.7440488e-05,-1.7881393e-06,7.1525574e-07,0.99999994,-1.3284385e-05,-1.2136996e-05,1.3284385e-05,1.0,-1.937151e-06,1.2151897e-05,1.937151e-06,1.0,553,1.675,0,0,0.0,False,-0.2552905512975445,1.0434316820605154
1.7030121790012345,14:43:36.783456,14:43:28.571376,0,,0.13469103,0.0066295117,0.014969632,-0.8823119,-0.29596838,-0.36596203,-0.41459793,0.120685965,0.90196645,-0.22278705,0.9475428,-0.22919065,,0.002443552,-0.051246572,0.016379893,-0.231731,-0.556109,0.7981499,-0.38569418,0.80576134,0.4494316,-0.89305127,-0.20369464,-0.40120792,,0.10356485,1.3393551,0.44166005,0.99165344,0.021173181,-0.12718144,-0.06976293,-0.7414364,-0.66738683,-0.10842766,0.670689,-0.7337709,,-0.105763964,0.2541984,-0.07407508,0.8738063,0.21916251,0.43408564,-0.44081712,0.73386306,0.5168416,-0.20528711,-0.6429718,0.7378648,,0.028550819,0.39116687,-0.37478915,0.34709522,0.55134445,-0.7586463,-0.9158878,0.37324202,-0.14778343,0.2016791,0.7461298,0.6345202,,1.1800490286472536,0.5507003585280755,0.21329674176000002,0.5779054842433491,-0.1813166351887395,0.7883762383874402,-0.4090135416002352,,-0.46857681714357213,-0.36176369876017295,0.18234392914000003,1.1176473987725148,1.0530575036922496,-0.12432423118452463,0.8691537759004999,,-0.08327838525890945,-0.04185517712438902,0.0842785086,-0.07359428191455561,,2.7440488e-05,-1.7881393e-06,7.1525574e-07,0.99999994,-1.3284385e-05,-1.2136996e-05,1.3284385e-05,1.0,-1.937151e-06,1.2151897e-05,1.937151e-06,1.0,561,1.699,0,0,0.0,False,-0.25588632848275505,1.0445904068792222
1.7254629569943063,14:43:36.810801,14:43:28.571376,0,,0.13471138,0.0066605657,0.014998615,-0.8824018,-0.29584348,-0.3658464,-0.41443318,0.120619506,0.902051,-0.22273767,0.9475903,-0.22904223,,0.0024399906,-0.05124754,0.016379297,-0.2317478,-0.5561181,0.7981388,-0.38570175,0.8057567,0.44943348,-0.8930437,-0.20368832,-0.40122804,,0.10356485,1.3393551,0.44166005,0.99165344,0.021173181,-0.12718144,-0.06976293,-0.7414364,-0.66738683,-0.10842766,0.670689,-0.7337709,,-0.10578498,0.2542405,-0.07407337,0.8739006,0.21903044,0.4339625,-0.44066074,0.7338439,0.5170021,-0.20522155,-0.6430387,0.73782474,,0.028554453,0.39116618,-0.3747897,0.34711123,0.5513528,-0.7586329,-0.9158842,0.37324536,-0.1477972,0.2016678,0.74612194,0.634533,,1.1800567513801277,0.5509320405143023,0.21329544547,0.5781151741868337,-0.18145327168850492,0.7883242988108556,-0.40836016533569813,,-0.46855364894494944,-0.36176369876017295,0.18234392914000003,1.1176473987725148,1.0530575036922496,-0.12432423118452463,0.8691537759004999,,-0.08327838525890945,-0.04185517712438902,0.0842785086,-0.07359428191455561,,2.7440488e-05,-1.7881393e-06,7.1525574e-07,0.99999994,-1.3284385e-05,-1.2136996e-05,1.3284385e-05,1.0,-1.937151e-06,1.2151897e-05,1.937151e-06,1.0,569,1.724,0,0,0.0,False,-0.2555288621716292,1.0446869672807815
1.7527990359812975,14:43:36.839483,14:43:28.636659,0,,0.13473038,0.006677419,0.015018538,-0.8824182,-0.29700473,-0.3648647,-0.4141537,0.12247059,0.90193,-0.22319226,0.9469894,-0.23107585,,0.0024384633,-0.051246602,0.01637894,-0.23175487,-0.5561875,0.7980883,-0.38569793,0.8057194,0.44950372,-0.8930436,-0.20364635,-0.40124977,,0.10356485,1.3393551,0.44166005,0.99165344,0.021173181,-0.12718144,-0.06976293,-0.7414364,-0.66738683,-0.10842766,0.670689,-0.7337709,,-0.10580466,0.25426608,-0.074074686,0.87397176,0.22034061,0.43315518,-0.44076124,0.73482364,0.51552284,-0.20470205,-0.6414704,0.7393327,,0.028555984,0.39116663,-0.37478882,0.3471181,0.55141795,-0.7585824,-0.91588104,0.3732649,-0.14776762,0.20167047,0.746064,0.6346003,,1.1800413059143793,0.5510710497060384,0.21329155660000002,0.5781151741868337,-0.18104336218920858,0.7860297553363929,-0.40966691786477233,,-0.46854592621207525,-0.3617559760272987,0.18234392914000003,1.1176473987725148,1.0530575036922496,-0.1242425524443842,0.8696438080989026,,-0.08327838525890945,-0.04185517712438902,0.0842785086,-0.07359428191455561,,2.7440488e-05,-1.7881393e-06,7.1525574e-07,0.99999994,-1.3284385e-05,-1.2136996e-05,1.3284385e-05,1.0,-1.937151e-06,1.2151897e-05,1.937151e-06,1.0,581,1.762,0,0,0.0,False,-0.2549926627049395,1.045169769288576
1.7814679290167987,14:43:36.867571,14:43:28.636659,0,,0.13472542,0.0066764057,0.015023142,-0.88268244,-0.29693687,-0.36428005,-0.414,0.1244283,0.90173256,-0.22243086,0.94675547,-0.2327626,,0.0024408326,-0.05124596,0.016379416,-0.23174368,-0.55631185,0.79800487,-0.3856929,0.80564904,0.44963408,-0.89304864,-0.20358503,-0.4012696,,0.10356485,1.3393551,0.44166005,0.99165344,0.021173181,-0.12718144,-0.06976293,-0.7414364,-0.66738683,-0.10842766,0.670689,-0.7337709,,-0.105800174,0.25426853,-0.074079245,0.8741774,0.22040239,0.43270853,-0.44012922,0.73610836,0.5142283,-0.20518322,-0.6399744,0.74049485,,0.02855356,0.3911671,-0.37478846,0.34710744,0.5515363,-0.75850123,-0.9158834,0.3732868,-0.14769746,0.20167801,0.7459656,0.6347136,,1.1800490286472536,0.5510864951717868,0.21328766773000002,0.5787442440172872,-0.18158990818827037,0.7841067434871023,-0.40656338060822106,,-0.4685613716778237,-0.3617559760272987,0.18234392914000003,1.1176473987725148,1.0530575036922496,-0.12407919496410302,0.8712772487602455,,-0.08327838525890945,-0.04185517712438902,0.0842785086,-0.07359428191455561,,2.7440488e-05,-1.7881393e-06,7.1525574e-07,0.99999994,-1.3284385e-05,-1.2136996e-05,1.3284385e-05,1.0,-1.937151e-06,1.2151897e-05,1.937151e-06,1.0,610,1.851,0,0,0.0,False,-0.25427773008268684,1.044976648485458
1.8095476140151732,14:43:36.948538,14:43:28.774625,0,,0.13476713,0.006681904,0.0150420815,-0.8836684,-0.2999354,-0.35940048,-0.41122198,0.13054365,0.90213895,-0.22366591,0.94498515,-0.23869738,,0.002423443,-0.05124519,0.016385734,-0.23156534,-0.556172,0.79815406,-0.38554597,0.80573833,0.44959992,-0.8931583,-0.20361343,-0.401011,,0.10354429,1.3393549,0.44166195,0.99165684,0.021209408,-0.12714884,-0.06971448,-0.7414354,-0.667393,-0.10842766,0.670689,-0.7337709,,-0.105829105,0.25428015,-0.07408861,0.875442,0.22387306,0.4283481,-0.43886465,0.7394869,0.51044786,-0.20248227,-0.6348544,0.7456278,,0.028588895,0.39117652,-0.3747906,0.3469651,0.5513603,-0.7586943,-0.9158938,0.37331656,-0.14755777,0.20187564,0.7460808,0.6345153,,1.1800876423116247,0.5511328315690321,0.21327340854000001,0.580631453508648,-0.178993814692727,0.7766806852077336,-0.40803347720342964,,-0.46855364894494944,-0.3617559760272987,0.18234392914000003,1.1176473987725148,1.0533307766917805,-0.12422035203135529,0.8707872165618427,,-0.08327838525890945,-0.04185517712438902,0.0842785086,-0.07359428191455561,,6.854534e-06,-7.1525574e-07,2.026558e-06,0.99999994,2.2567809e-05,2.0630658e-05,-2.2567809e-05,1.0,3.33786e-06,-2.0615757e-05,-3.3676624e-06,1.0,618,1.876,0,0,0.0,False,-0.2550522404234603,1.0452663296901348
1.8905389250139706,14:43:36.984130,14:43:28.774625,0,,0.1347824,0.006691724,0.015056923,-0.8850284,-0.30044463,-0.35560852,-0.40791196,0.13235411,0.90337706,-0.22434853,0.9445715,-0.23969227,,0.0024249777,-0.051246144,0.016386032,-0.2315582,-0.5561678,0.7981591,-0.38554978,0.8057389,0.4495955,-0.8931585,-0.20362264,-0.40100592,,0.10354429,1.3393549,0.44166195,0.99165684,0.021209408,-0.12714884,-0.06971448,-0.7414354,-0.667393,-0.10842766,0.670689,-0.7337709,,-0.10584504,0.25429714,-0.074091345,0.8770381,0.22451617,0.4247312,-0.43686062,0.74055165,0.51062316,-0.19989224,-0.63338435,0.7475743,,0.028587364,0.39117604,-0.3747915,0.3469582,0.55135715,-0.7586998,-0.915897,0.37330908,-0.14755686,0.20187297,0.7460869,0.63450897,,1.180103087777373,0.5511405543019063,0.21326563080000002,0.5833574227739468,-0.17653435769694906,0.7742667692404952,-0.40787013313729537,,-0.4685613716778237,-0.36176369876017295,0.18234392914000003,1.1176473987725148,1.0533307766917805,-0.12422035203135529,0.8707872165618427,,-0.08327838525890945,-0.04185517712438902,0.0842785086,-0.07359428191455561,,6.854534e-06,-7.1525574e-07,2.026558e-06,0.99999994,2.2567809e-05,2.0630658e-05,-2.2567809e-05,1.0,3.33786e-06,-2.0615757e-05,-3.3676624e-06,1.0,630,1.912,0,0,0.0,False,-0.2545756186752919,1.0443972860761046
1.9261193830170669,14:43:37.015546,14:43:28.841850,0,,0.13483302,0.006712973,0.015083119,-0.8858088,-0.30709964,-0.3478971,-0.40314585,0.1379922,0.9046721,-0.22981735,0.94161975,-0.2460407,,0.0024283305,-0.05124507,0.01638794,-0.23154142,-0.5562239,0.79812485,-0.38554227,0.80570686,0.44965953,-0.8931661,-0.20359617,-0.40100244,,0.10354429,1.3393549,0.44166195,0.99165684,0.021209408,-0.12714884,-0.06971448,-0.7414354,-0.667393,-0.10842766,0.670689,-0.7337709,,-0.10589647,0.25432962,-0.07409111,0.8785526,0.23170495,0.41768184,-0.43702412,0.7428331,0.50715774,-0.19275694,-0.62810177,0.7538786,,0.028583778,0.39117783,-0.37479162,0.3469422,0.55141073,-0.7586681,-0.9159006,0.37331778,-0.1475126,0.20188427,0.7460429,0.6345571,,1.18013397870887,0.5511328315690321,0.21325266790000003,0.5844058724913694,-0.1692926232093807,0.765911258140368,-0.40754344500502665,,-0.4685845398764463,-0.36176369876017295,0.18234263285000002,1.1176473987725148,1.0533307766917805,-0.12413867329121475,0.8706238724957085,,-0.08327838525890945,-0.04185517712438902,0.0842785086,-0.07359428191455561,,6.854534e-06,-7.1525574e-07,2.026558e-06,0.99999994,2.2567809e-05,2.0630658e-05,-2.2567809e-05,1.0,3.33786e-06,-2.0615757e-05,-3.3676624e-06,1.0,638,1.937,0,0,0.0,False,-0.254694774112334,1.044638687080002
1.9575519100180827,14:43:37.046118,14:43:28.841850,0,,0.1348374,0.0067149997,0.015091553,-0.88594913,-0.3098949,-0.34504947,-0.40238655,0.14368263,0.904124,-0.2306058,0.9398512,-0.25199312,,0.0024271458,-0.051245384,0.016387701,-0.23154701,-0.5562922,0.7980757,-0.38554478,0.80566853,0.44972593,-0.89316356,-0.20356128,-0.40102574,,0.10354429,1.3393549,0.44166195,0.99165684,0.021209408,-0.12714884,-0.06971448,-0.7414354,-0.667393,-0.10842766,0.670689,-0.7337709,,-0.10590144,0.25433674,-0.074095465,0.87880266,0.23495504,0.4153337,-0.436994,0.74588454,0.5026853,-0.19168252,-0.6232595,0.7581592,,0.028584989,0.3911776,-0.3747918,0.34694752,0.5514755,-0.7586186,-0.9158994,0.37333095,-0.14748669,0.2018805,0.7459884,0.63462234,,1.1801571469074927,0.5511328315690321,0.21324618645,0.5846155624348539,-0.1681995312112572,0.7593024031009572,-0.40689006874048966,,-0.46857681714357213,-0.36176369876017295,0.18234263285000002,1.1176473987725148,1.0533307766917805,-0.12405699455107422,0.8704605284295741,,-0.08327838525890945,-0.04185517712438902,0.0842785086,-0.07359428191455561,,6.854534e-06,-7.1525574e-07,2.026558e-06,0.99999994,2.2567809e-05,2.0630658e-05,-2.2567809e-05,1.0,3.33786e-06,-2.0615757e-05,-3.3676624e-06,1.0,646,1.963,0,0,0.0,False,-0.2545756186752919,1.044349005875325
1.9881236879737116,14:43:37.069502,14:43:28.841850,0,,0.1348341,0.0067044795,0.015135631,-0.886152,-0.31355593,-0.34119955,-0.4019781,0.15383306,0.9026344,-0.23053859,0.93702614,-0.26236218,,0.0024259537,-0.05124574,0.016387522,-0.23155263,-0.5563603,0.79802656,-0.38554728,0.8056303,0.4497924,-0.89316106,-0.20352647,-0.4010491,,0.10354429,1.3393549,0.44166195,0.99165684,0.021209408,-0.12714884,-0.06971448,-0.7414354,-0.667393,-0.10842766,0.670689,-0.7337709,,-0.105902545,0.2543588,-0.07413518,0.87902135,0.23940594,0.4123181,-0.43664384,0.7515271,0.49451917,-0.19147739,-0.6147291,0.76514345,,0.028586201,0.3911774,-0.374792,0.34695286,0.55154026,-0.7585691,-0.9158982,0.3733441,-0.14746079,0.20187674,0.745934,0.63468754,,1.1802034833047381,0.5512100588977744,0.21320470517,0.585034942321823,-0.16806289471149174,0.7480009977980038,-0.4093402297325038,,-0.4685690944106979,-0.36176369876017295,0.18234263285000002,1.1176473987725148,1.0533307766917805,-0.12397531581093368,0.87029718436344,,-0.08327838525890945,-0.04185517712438902,0.0842785086,-0.07359428191455561,,6.854534e-06,-7.1525574e-07,2.026558e-06,0.99999994,2.2567809e-05,2.0630658e-05,-2.2567809e-05,1.0,3.33786e-06,-2.0615757e-05,-3.3676624e-06,1.0,658,1.999,0,0,0.0,False,-0.2545756186752919,1.0444938464776636
2.011501547996886,14:43:37.107416,14:43:28.911789,0,,0.13495763,0.0067617,0.015246913,-0.8863393,-0.31437933,-0.33995306,-0.40167174,0.15678689,0.9022625,-0.23035249,0.93626034,-0.2652438,,0.0024251193,-0.051247336,0.016387403,-0.23155676,-0.5564273,0.7979787,-0.38555607,0.8055911,0.44985497,-0.8931562,-0.20349869,-0.40107402,,0.10354429,1.3393549,0.44166195,0.99165684,0.021209408,-0.12714884,-0.06971448,-0.7414354,-0.667393,-0.10842766,0.670689,-0.7337709,,-0.10603187,0.25447395,-0.074165665,0.8792086,0.24045561,0.4113068,-0.43628898,0.75320286,0.49227774,-0.1914265,-0.61226344,0.7671306,,0.028587094,0.39117643,-0.37479326,0.34695664,0.5516046,-0.75852054,-0.915899,0.3733509,-0.14743856,0.20186654,0.745883,0.63475066,,1.1798482375925237,0.552020945849568,0.21316711276000003,0.5856640121522765,-0.1688827137100844,0.7445855682131544,-0.4064000365420869,,-0.4685613716778237,-0.36177142149304714,0.18234263285000002,1.1176473987725148,1.0533307766917805,-0.12389363707079304,0.8701338402973056,,-0.08327838525890945,-0.04185517712438902,0.0842785086,-0.07359428191455561,,6.854534e-06,-7.1525574e-07,2.026558e-06,0.99999994,2.2567809e-05,2.0630658e-05,-2.2567809e-05,1.0,3.33786e-06,-2.0615757e-05,-3.3676624e-06,1.0,683,2.076,0,0,0.0,False,-0.2544564632382502,1.0444455662768841
2.049419459013734,14:43:37.176844,14:43:28.911789,0,,0.13522775,0.0069127977,0.015459046,-0.88745105,-0.31647986,-0.33506832,-0.3977235,0.15847334,0.9037157,-0.2329084,0.93526816,-0.26650888,,0.0024281815,-0.051249214,0.016388059,-0.23154254,-0.55648386,0.7979433,-0.3855638,0.8055556,0.44991204,-0.8931565,-0.20348433,-0.40108052,,0.10354429,1.3393549,0.44166195,0.99165684,0.021209408,-0.12714884,-0.06971448,-0.7414354,-0.667393,-0.10842766,0.670689,-0.7337709,,-0.106310494,0.2547239,-0.07419201,0.88075536,0.24272467,0.4066383,-0.4350833,0.75381345,0.49241018,-0.18700932,-0.6106145,0.7695307,,0.028584031,0.3911755,-0.37479505,0.34694284,0.55166024,-0.75848645,-0.9159054,0.37334794,-0.14740622,0.2018612,0.74584335,0.634799,,1.1792149734968373,0.5536195515545325,0.21311915003,0.5881802914740908,-0.16614998371477557,0.7412953865173986,-0.4075434450050267,,-0.46857681714357213,-0.3617868669587956,0.18234263285000002,1.1176473987725148,1.0533307766917805,-0.1238119583306525,0.8699704962311714,,-0.08327838525890945,-0.04185517712438902,0.0842785086,-0.07359428191455561,,6.854534e-06,-7.1525574e-07,2.026558e-06,0.99999994,2.2567809e-05,2.0630658e-05,-2.2567809e-05,1.0,3.33786e-06,-2.0615757e-05,-3.3676624e-06,1.0,691,2.101,0,0,0.0,False,-0.2552905512975445,1.045169769288576
2.1188479069969617,14:43:37.207662,14:43:28.911789,0,,0.13530365,0.0069686472,0.015527055,-0.8879885,-0.31859395,-0.33162346,-0.3953402,0.16050673,0.9044024,-0.23490933,0.934203,-0.26848122,,0.0024281815,-0.051249214,0.016388059,-0.23154254,-0.55635357,0.7980342,-0.3855638,0.8056291,0.44978037,-0.8931565,-0.20354989,-0.40104726,,0.10354429,1.3393549,0.44166195,0.99165684,0.021209408,-0.12714884,-0.06971448,-0.7414354,-0.667393,-0.10842766,0.670689,-0.7337709,,-0.10638877,0.25480968,-0.074196555,0.8815956,0.24503285,0.4034205,-0.43466708,0.75463086,0.49152493,-0.18399382,-0.60867983,0.771787,,0.028584031,0.3911755,-0.37479505,0.34694284,0.5515363,-0.7585765,-0.9159054,0.37332386,-0.14746721,0.2018612,0.74594706,0.6346771,,1.1791300234352209,0.5540674700612375,0.21310489084000003,0.5892287411915135,-0.1635538902192322,0.7381166227253392,-0.40738010093889254,,-0.46857681714357213,-0.3617868669587956,0.18234263285000002,1.1176473987725148,1.0533307766917805,-0.12397531581093368,0.87029718436344,,-0.08327838525890945,-0.04185517712438902,0.0842785086,-0.07359428191455561,,6.854534e-06,-7.1525574e-07,2.026558e-06,0.99999994,2.2567809e-05,2.0630658e-05,-2.2567809e-05,1.0,3.33786e-06,-2.0615757e-05,-3.3676624e-06,1.0,699,2.125,0,0,0.0,False,-0.25558843989015,1.045169769288576
2.1496679660049267,14:43:37.236845,14:43:28.911789,0,,0.13534139,0.007003933,0.01557304,-0.88814336,-0.32132703,-0.32855767,-0.39393607,0.16411588,0.9043673,-0.23667611,0.9326386,-0.27234077,,0.002426654,-0.051248275,0.01638776,-0.23154965,-0.5563578,0.7980291,-0.38555998,0.8056284,0.4497848,-0.89315635,-0.20354062,-0.40105236,,0.10354429,1.3393549,0.44166195,0.99165684,0.021209408,-0.12714884,-0.06971448,-0.7414354,-0.667393,-0.10842766,0.670689,-0.7337709,,-0.106428325,0.2548661,-0.07420266,0.8819806,0.2480876,0.40070283,-0.43482167,0.7562841,0.48883995,-0.18177007,-0.6053816,0.77490175,,0.028585562,0.391176,-0.37479416,0.34694976,0.5515395,-0.7585711,-0.9159022,0.37333137,-0.14746813,0.20186387,0.7459409,0.63468343,,1.1791454689009693,0.5543223202460869,0.21309192794,0.5894384311349979,-0.16150434272275063,0.7333415620445516,-0.40901354160023523,,-0.4685690944106979,-0.3617791442259214,0.18234263285000002,1.1176473987725148,1.0533307766917805,-0.12397531581093368,0.87029718436344,,-0.08327838525890945,-0.04185517712438902,0.0842785086,-0.07359428191455561,,6.854534e-06,-7.1525574e-07,2.026558e-06,0.99999994,2.2567809e-05,2.0630658e-05,-2.2567809e-05,1.0,3.33786e-06,-2.0615757e-05,-3.3676624e-06,1.0,707,2.15,0,0,0.0,False,-0.2547543518308557,1.0450249286862374
2.178848072013352,14:43:37.257583,14:43:28.911789,0,,0.13538447,0.0069905818,0.015569583,-0.88766676,-0.32487205,-0.326352,-0.39400038,0.1689941,0.9034405,-0.23835097,0.93053687,-0.27801025,,0.0024249777,-0.051251464,0.016387522,-0.23155789,-0.5562961,0.7980698,-0.38557765,0.80566025,0.44971266,-0.8931465,-0.20358342,-0.40105242,,0.10354429,1.3393549,0.44166195,0.99165684,0.021209408,-0.12714884,-0.06971448,-0.7414354,-0.667393,-0.10842766,0.670689,-0.7337709,,-0.10647163,0.25485316,-0.07420475,0.8816478,0.2520671,0.3989477,-0.43600813,0.7585247,0.48429033,-0.18053803,-0.60091794,0.778655,,0.028587345,0.39117414,-0.3747967,0.34695733,0.5514823,-0.7586092,-0.9159038,0.37330878,-0.14751515,0.20184347,0.7459945,0.634627,,1.1789369551133653,0.554330042978961,0.21308933536000002,0.5883899814175753,-0.16027461422486164,0.7275197552429906,-0.40558331621141536,,-0.46855364894494944,-0.36179458969166983,0.18234263285000002,1.1176473987725148,1.0533307766917805,-0.12405699455107422,0.8704605284295741,,-0.08327838525890945,-0.04185517712438902,0.0842785086,-0.07359428191455561,,6.854534e-06,-7.1525574e-07,2.026558e-06,0.99999994,2.2567809e-05,2.0630658e-05,-2.2567809e-05,1.0,3.33786e-06,-2.0615757e-05,-3.3676624e-06,1.0,715,2.176,0,0,0.0,False,-0.2559459062012759,1.0444455662768841
2.1995827140053734,14:43:37.288412,14:43:29.098988,0,,0.13539581,0.006982088,0.015579611,-0.88749206,-0.3282608,-0.3234231,-0.39384145,0.17590275,0.9021902,-0.2392627,0.92806405,-0.28539503,,0.0024285316,-0.05125048,0.016388178,-0.23154107,-0.55641747,0.79799,-0.38557005,0.80559146,0.4498424,-0.89315414,-0.20352417,-0.4010655,,0.10354429,1.3393549,0.44166195,0.99165684,0.021209408,-0.12714884,-0.06971448,-0.7414354,-0.667393,-0.10842766,0.670689,-0.7337709,,-0.10648424,0.2548535,-0.07421666,0.88156176,0.25603628,0.3966035,-0.43650946,0.7620095,0.47833154,-0.1797454,-0.59479994,0.78352064,,0.028583711,0.39117482,-0.37479612,0.3469413,0.5515979,-0.75853246,-0.9159074,0.37332955,-0.14744039,0.20185477,0.74589866,0.634736,,1.178898341448994,0.554330042978961,0.21307637246000002,0.5879706015306063,-0.159454795226269,0.719581839948302,-0.40901354160023523,,-0.46857681714357213,-0.36179458969166983,0.18234263285000002,1.1176473987725148,1.0533307766917805,-0.12389363707079315,0.8704605284295741,,-0.08327838525890945,-0.04185517712438902,0.0842785086,-0.07359428191455561,,6.854534e-06,-7.1525574e-07,2.026558e-06,0.99999994,2.2567809e-05,2.0630658e-05,-2.2567809e-05,1.0,3.33786e-06,-2.0615757e-05,-3.3676624e-06,1.0,727,2.212,0,0,0.0,False,-0.2549926627049395,1.0439627642690894
2.2304057410219684,14:43:37.315917,14:43:29.098988,0,,0.13538337,0.0069557726,0.015600592,-0.8868902,-0.3304721,-0.3228215,-0.39536178,0.18145686,0.9004234,-0.2389866,0.9262081,-0.2915885,,0.002429828,-0.051248617,0.016388357,-0.23146236,-0.5565807,0.79789907,-0.38564223,0.80547285,0.4499929,-0.8931435,-0.20354722,-0.40107775,,0.10354429,1.3393549,0.44166195,0.99165684,0.021209408,-0.12714884,-0.06971448,-0.7414354,-0.667393,-0.10842766,0.670689,-0.7337709,,-0.10647514,0.25484845,-0.074250996,0.8808546,0.25870547,0.39644247,-0.43745485,0.76489127,0.47283676,-0.18090995,-0.5899261,0.78692997,,0.028582351,0.39117593,-0.37479466,0.3468641,0.5517663,-0.7584453,-0.9159501,0.3732599,-0.14735144,0.20179366,0.745809,0.6348608,,1.178898341448994,0.5543223202460869,0.21304396521000002,0.5867124618696992,-0.16054788722439253,0.7135304902659256,-0.40885019753410096,,-0.4685922626093206,-0.36179458969166983,0.18234263285000002,1.1174377088290304,1.0533307766917805,-0.12389363707079304,0.8701338402973056,,-0.08327838525890945,-0.04185517712438902,0.0842785086,-0.07359428191455561,,6.854534e-06,-7.1525574e-07,2.026558e-06,0.99999994,2.2567809e-05,2.0630658e-05,-2.2567809e-05,1.0,3.33786e-06,-2.0615757e-05,-3.3676624e-06,1.0,748,2.277,0,0,0.0,False,-0.25576717304571295,1.0443007256745458
2.2579055409878492,14:43:37.381834,14:43:29.166395,0,,0.13554282,0.0068826973,0.01576133,-0.8863897,-0.33570313,-0.31877342,-0.39529452,0.19045922,0.8985919,-0.24094678,0.92251205,-0.3015228,,0.0024293736,-0.051248886,0.016388297,-0.23153695,-0.55654603,0.7979016,-0.38556123,0.80552036,0.44997716,-0.8931591,-0.20345366,-0.40109044,,0.10354429,1.3393549,0.44166195,0.99165684,0.021209408,-0.12714884,-0.06971448,-0.7414354,-0.667393,-0.10842766,0.670689,-0.7337709,,-0.10665172,0.25490028,-0.07440178,0.88053006,0.2647295,0.3931732,-0.43873733,0.7691265,0.46470854,-0.17937785,-0.58168954,0.7933857,,0.028582819,0.39117575,-0.37479487,0.3469375,0.55171937,-0.75844586,-0.9159066,0.37335888,-0.14737114,0.20186497,0.7457941,0.6348556,,1.1781569590930685,0.5548938024787795,0.21288970670000001,0.5858737020957611,-0.15972806822579988,0.7030605340268796,-0.4078701331372954,,-0.4685845398764463,-0.3617868669587956,0.18234263285000002,1.1176473987725148,1.0533307766917805,-0.12373027959051197,0.869807152165037,,-0.08327838525890945,-0.04185517712438902,0.0842785086,-0.07359428191455561,,6.854534e-06,-7.1525574e-07,2.026558e-06,0.99999994,2.2567809e-05,2.0630658e-05,-2.2567809e-05,1.0,3.33786e-06,-2.0615757e-05,-3.3676624e-06,1.0,756,2.302,0,0,0.0,False,-0.25600548391979716,1.0436248028636332
2.323826828971505,14:43:37.419095,14:43:29.235611,0,,0.13556904,0.006880969,0.015831545,-0.88635045,-0.3353353,-0.31926924,-0.3956421,0.1903319,0.898466,-0.24052022,0.92267215,-0.30137366,,0.0024317428,-0.05124823,0.016388714,-0.23152576,-0.5566703,0.79781806,-0.38555628,0.80545,0.45010746,-0.89316416,-0.20339236,-0.4011102,,0.10354429,1.3393549,0.44166195,0.99165684,0.021209408,-0.12714884,-0.06971448,-0.7414354,-0.667393,-0.10842766,0.670689,-0.7337709,,-0.10668396,0.25494596,-0.07445173,0.88043475,0.26434267,0.39364648,-0.43870637,0.7691342,0.46472493,-0.17992035,-0.58185524,0.79314137,,0.028580396,0.39117622,-0.37479448,0.34692684,0.5518377,-0.7583646,-0.915909,0.37338072,-0.14730097,0.2018725,0.74569565,0.6349689,,1.1780874544972004,0.5551795435951258,0.21283785510000003,0.5858737020957611,-0.16054788722439253,0.7032389690082146,-0.4091768856663695,,-0.4685999853421948,-0.3617868669587956,0.18234263285000002,1.1176473987725148,1.0533307766917805,-0.12356692211023079,0.8688270877682314,,-0.08327838525890945,-0.04185517712438902,0.0842785086,-0.07359428191455561,,6.854534e-06,-7.1525574e-07,2.026558e-06,0.99999994,2.2567809e-05,2.0630658e-05,-2.2567809e-05,1.0,3.33786e-06,-2.0615757e-05,-3.3676624e-06,1.0,768,2.338,0,0,0.0,False,-0.25576717304571295,1.0435765226628537
2.361091837985441,14:43:37.443900,14:43:29.235611,0,,0.13559209,0.0068579167,0.015886366,-0.8861388,-0.33587116,-0.31929368,-0.39588964,0.19050545,0.8983201,-0.24089262,0.9224413,-0.30178228,,0.002430901,-0.05124984,0.016388595,-0.23152988,-0.55667216,0.7978157,-0.3855651,0.80544746,0.45010436,-0.8931592,-0.20339736,-0.40111858,,0.10354429,1.3393549,0.44166195,0.99165684,0.021209408,-0.12714884,-0.06971448,-0.7414354,-0.667393,-0.10842766,0.670689,-0.7337709,,-0.10671292,0.25496557,-0.07450507,0.88024265,0.2649053,0.39369798,-0.43914405,0.76911575,0.46434194,-0.17979269,-0.5816237,0.7933401,,0.028581288,0.39117527,-0.37479573,0.34693062,0.5518401,-0.75836116,-0.9159098,0.37337545,-0.14730923,0.2018623,0.7456965,0.63497114,,1.1779870589698356,0.5553185527868618,0.21278341092000003,0.585454322208792,-0.16054788722439253,0.7029122540476525,-0.40885019753410096,,-0.4685922626093206,-0.36179458969166983,0.18234263285000002,1.1176473987725148,1.0533307766917805,-0.12356692211023079,0.8688270877682314,,-0.08327838525890945,-0.04185517712438902,0.0842785086,-0.07359428191455561,,6.854534e-06,-7.1525574e-07,2.026558e-06,0.99999994,2.2567809e-05,2.0630658e-05,-2.2567809e-05,1.0,3.33786e-06,-2.0615757e-05,-3.3676624e-06,1.0,776,2.363,0,0,0.0,False,-0.25558843989015,1.0428523196511617
2.3859059829846956,14:43:37.473615,14:43:29.235611,0,,0.13560024,0.006846279,0.01590681,-0.8860303,-0.33606592,-0.3193896,-0.3960995,0.19068891,0.89818865,-0.24094655,0.9223325,-0.3020718,,0.0024270043,-0.05124954,0.01638782,-0.23154819,-0.55668235,0.79780316,-0.3855663,0.80544376,0.45011002,-0.89315397,-0.20338392,-0.40113705,,0.10354429,1.3393549,0.44166195,0.99165684,0.021209408,-0.12714884,-0.06971448,-0.7414354,-0.667393,-0.10842766,0.670689,-0.7337709,,-0.10672344,0.25497064,-0.074527055,0.8801277,0.26511866,0.39381117,-0.4393371,0.76918095,0.46405122,-0.1798834,-0.5814402,0.793454,,0.028585242,0.39117527,-0.37479523,0.3469482,0.5518488,-0.75834674,-0.9159042,0.3733852,-0.14731932,0.20185743,0.74568516,0.634986,,1.1779407225725902,0.5553648891841072,0.21276137399000003,0.5852446322653074,-0.16068452372415798,0.7026969569907866,-0.4085235094018324,,-0.4685690944106979,-0.3617868669587956,0.18234263285000002,1.1176473987725148,1.0533307766917805,-0.12356692211023079,0.8688270877682314,,-0.08327838525890945,-0.04185517712438902,0.0842785086,-0.07359428191455561,,6.854534e-06,-7.1525574e-07,2.026558e-06,0.99999994,2.2567809e-05,2.0630658e-05,-2.2567809e-05,1.0,3.33786e-06,-2.0615757e-05,-3.3676624e-06,1.0,813,2.478,0,0,0.0,False,-0.2551713958605024,1.0422246770410288
2.4155753980157897,14:43:37.580478,14:43:29.376097,0,,0.1356459,0.0067759007,0.015964463,-0.8855798,-0.3372752,-0.31936428,-0.39683968,0.1920766,0.8975661,-0.24138436,0.9216028,-0.3039435,,0.0024324358,-0.05125078,0.016388953,-0.23152281,-0.55679816,0.79772973,-0.38556886,0.80537456,0.45023155,-0.8931594,-0.203341,-0.4011467,,0.10354429,1.3393549,0.44166195,0.99165684,0.021209408,-0.12714884,-0.06971448,-0.7414354,-0.667393,-0.10842766,0.670689,-0.7337709,,-0.106777765,0.25495687,-0.07461204,0.87967634,0.26646188,0.39391318,-0.4401864,0.7697329,0.46232796,-0.18001516,-0.5800942,0.79440874,,0.028579757,0.39117482,-0.37479663,0.34692374,0.5519608,-0.75827646,-0.915913,0.37339202,-0.14724733,0.20185962,0.74559885,0.63508666,,1.1776086450589986,0.555426671047101,0.21267841143000002,0.5844058724913694,-0.16095779672368885,0.7012045392552277,-0.408360165335698,,-0.4685999853421948,-0.3618023124245441,0.18234263285000002,1.1176473987725148,1.0533307766917805,-0.12340356462994972,0.8675203352391571,,-0.08327838525890945,-0.04185517712438902,0.0842785086,-0.07359428191455561,,6.854534e-06,-7.1525574e-07,2.026558e-06,0.99999994,2.2567809e-05,2.0630658e-05,-2.2567809e-05,1.0,3.33786e-06,-2.0615757e-05,-3.3676624e-06,1.0,821,2.502,0,0,0.0,False,-0.2552905512975445,1.0419349958363522
2.52248669101391,14:43:37.608412,14:43:29.376097,0,,0.13564186,0.0067483336,0.016003594,-0.8855795,-0.337333,-0.31930405,-0.39683342,0.19221196,0.89753985,-0.24139568,0.9215535,-0.3040841,,0.0024285316,-0.05125048,0.016388178,-0.23154107,-0.55674326,0.79776275,-0.38557005,0.80540764,0.45017138,-0.89315414,-0.20336038,-0.40114856,,0.10354429,1.3393549,0.44166195,0.99165684,0.021209408,-0.12714884,-0.06971448,-0.7414354,-0.667393,-0.10842766,0.670689,-0.7337709,,-0.10677867,0.25496304,-0.07465968,0.87967736,0.26653114,0.393864,-0.44018948,0.7698004,0.46221265,-0.18000261,-0.5799728,0.79450023,,0.028583711,0.39117482,-0.37479612,0.3469413,0.5519076,-0.75830716,-0.9159074,0.37338972,-0.1472879,0.20185477,0.7456394,0.6350406,,1.1776086450589986,0.5554421165128494,0.21263044870000003,0.5844058724913694,-0.16095779672368885,0.7010411817749467,-0.4080334772034296,,-0.46857681714357213,-0.36179458969166983,0.18234263285000002,1.1176473987725148,1.0533307766917805,-0.12348524337009037,0.8676836793052913,,-0.08327838525890945,-0.04185517712438902,0.0842785086,-0.07359428191455561,,6.854534e-06,-7.1525574e-07,2.026558e-06,0.99999994,2.2567809e-05,2.0630658e-05,-2.2567809e-05,1.0,3.33786e-06,-2.0615757e-05,-3.3676624e-06,1.0,829,2.527,0,0,0.0,False,-0.25535012901606535,1.0424660780449262
2.550407115020789,14:43:37.633266,14:43:29.446016,0,,0.13563348,0.006723389,0.016032591,-0.88558257,-0.33734122,-0.319287,-0.39683917,0.19228944,0.89752066,-0.24137518,0.92153436,-0.3041585,,0.0024285316,-0.05125048,0.016388178,-0.23154107,-0.5566782,0.79780823,-0.38557005,0.80544436,0.4501056,-0.89315414,-0.20339316,-0.40113196,,0.10354429,1.3393549,0.44166195,0.99165684,0.021209408,-0.12714884,-0.06971448,-0.7414354,-0.667393,-0.10842766,0.670689,-0.7337709,,-0.106774226,0.25496435,-0.074698545,0.8796783,0.2665453,0.3938524,-0.4401798,0.7698448,0.462148,-0.18002182,-0.5799075,0.79454356,,0.028583711,0.39117482,-0.37479612,0.3469413,0.55184567,-0.7583522,-0.9159074,0.37337768,-0.14731841,0.20185477,0.74569124,0.63497967,,1.177624090524747,0.555426671047101,0.21259156,0.5844058724913694,-0.16095779672368885,0.7009595030348061,-0.4078701331372953,,-0.46857681714357213,-0.36179458969166983,0.18234263285000002,1.1176473987725148,1.0533307766917805,-0.1235669221102309,0.8678470233714256,,-0.08327838525890945,-0.04185517712438902,0.0842785086,-0.07359428191455561,,6.854534e-06,-7.1525574e-07,2.026558e-06,0.99999994,2.2567809e-05,2.0630658e-05,-2.2567809e-05,1.0,3.33786e-06,-2.0615757e-05,-3.3676624e-06,1.0,837,2.551,0,0,0.0,False,-0.25558843989015,1.0420798364386905
2.575205415021628,14:43:37.661555,14:43:29.446016,0,,0.1356298,0.0066791475,0.016086861,-0.8854824,-0.33772185,-0.31916264,-0.39698702,0.1928482,0.8973354,-0.24149977,0.9212781,-0.30483502,,0.002430901,-0.05124984,0.016388595,-0.23152988,-0.55680245,0.7977247,-0.3855651,0.80537397,0.45023596,-0.8931592,-0.20333183,-0.4011518,,0.10354429,1.3393549,0.44166195,0.99165684,0.021209408,-0.12714884,-0.06971448,-0.7414354,-0.667393,-0.10842766,0.670689,-0.7337709,,-0.106777735,0.25496843,-0.07476846,0.87958115,0.26697716,0.3937769,-0.4403747,0.7700905,0.46155247,-0.18001989,-0.57938224,0.79492706,,0.028581288,0.39117527,-0.37479573,0.34693062,0.551964,-0.758271,-0.9159098,0.37339953,-0.14724824,0.2018623,0.7455928,0.635093,,1.1776009223261243,0.5554343937799752,0.21252156034000003,0.5841961825478849,-0.16095779672368885,0.7003060731136814,-0.4081968212695638,,-0.4685922626093206,-0.36179458969166983,0.18234263285000002,1.1176473987725148,1.0533307766917805,-0.12340356462994972,0.8678470233714257,,-0.08327838525890945,-0.04185517712438902,0.0842785086,-0.07359428191455561,,6.854534e-06,-7.1525574e-07,2.026558e-06,0.99999994,2.2567809e-05,2.0630658e-05,-2.2567809e-05,1.0,3.33786e-06,-2.0615757e-05,-3.3676624e-06,1.0,845,2.577,0,0,0.0,False,-0.2550522404234603,1.0416453146316753
2.603544425975997,14:43:37.685485,14:43:29.446016,0,,0.13562144,0.0066324472,0.01615183,-0.8858658,-0.3376181,-0.31820676,-0.3963798,0.1943602,0.8972776,-0.2410904,0.92099833,-0.30600217,,0.0024344549,-0.051248856,0.01638925,-0.23151305,-0.5567283,0.79778147,-0.3855576,0.8054154,0.4501683,-0.8931668,-0.2033709,-0.40111506,,0.10354429,1.3393549,0.44166195,0.99165684,0.021209408,-0.12714884,-0.06971448,-0.7414354,-0.667393,-0.10842766,0.670689,-0.7337709,,-0.10677764,0.254978,-0.07484835,0.87996095,0.26698232,0.39292383,-0.43964383,0.7710149,0.46070522,-0.17995,-0.57814914,0.79584014,,0.028577654,0.391176,-0.3747952,0.3469146,0.5518937,-0.7583295,-0.9159134,0.37338415,-0.14726497,0.2018736,0.7456525,0.63501924,,1.1776009223261243,0.5554498392457237,0.21244119036000003,0.585034942321823,-0.16095779672368885,0.6987541770510108,-0.4077067890711611,,-0.46861543080794327,-0.36179458969166983,0.18234263285000002,1.1176473987725148,1.0533307766917805,-0.12348524337009037,0.8676836793052913,,-0.08327838525890945,-0.04185517712438902,0.0842785086,-0.07359428191455561,,6.854534e-06,-7.1525574e-07,2.026558e-06,0.99999994,2.2567809e-05,2.0630658e-05,-2.2567809e-05,1.0,3.33786e-06,-2.0615757e-05,-3.3676624e-06,1.0,878,2.678,0,0,0.0,False,-0.2545756186752919,1.04212811663947
2.6274920129799284,14:43:37.778161,14:43:29.587187,0,,0.13561279,0.006514147,0.016398355,-0.8864339,-0.33835405,-0.31583422,-0.39550254,0.19923282,0.8965957,-0.24044226,0.9196861,-0.31042665,,0.002433166,-0.051250733,0.016389072,-0.23159178,-0.5566302,0.79782695,-0.3854854,0.80549717,0.4500836,-0.89317757,-0.20331508,-0.40111944,,0.10354429,1.3393549,0.44166195,0.99165684,0.021209408,-0.12714884,-0.06971448,-0.7414354,-0.667393,-0.10842766,0.670689,-0.7337709,,-0.10679693,0.25505733,-0.07510945,0.8805188,0.26809904,0.39090863,-0.43854934,0.7737354,0.45717388,-0.17989196,-0.5739829,0.79886323,,0.028579013,0.39117488,-0.37479666,0.34699178,0.5517873,-0.7583716,-0.91587067,0.37346584,-0.1473234,0.20193471,0.7456903,0.63495535,,1.1776395359904954,0.5557664712935668,0.21217545091,0.5862930819827301,-0.1612310697232197,0.6933411797887048,-0.40689006874048955,,-0.4685999853421948,-0.36179458969166983,0.18234263285000002,1.1178570887159993,1.0533307766917805,-0.12340356462994972,0.8678470233714257,,-0.08327838525890945,-0.04185517712438902,0.0842785086,-0.07359428191455561,,6.854534e-06,-7.1525574e-07,2.026558e-06,0.99999994,2.2567809e-05,2.0630658e-05,-2.2567809e-05,1.0,3.33786e-06,-2.0615757e-05,-3.3676624e-06,1.0,886,2.703,0,0,0.0,False,-0.2550522404234603,1.0428040394503826
2.720168324012775,14:43:37.810104,14:43:29.587187,0,,0.13563414,0.006512493,0.016483441,-0.88642335,-0.33907473,-0.31509006,-0.39546105,0.20100772,0.8962178,-0.24054925,0.91903436,-0.3122689,,0.0024390891,-0.051249154,0.016390145,-0.23156378,-0.55661523,0.7978456,-0.3854729,0.805505,0.45008048,-0.8931902,-0.2033256,-0.40108588,,0.10354429,1.3393549,0.44166195,0.99165684,0.021209408,-0.12714884,-0.06971448,-0.7414354,-0.667393,-0.10842766,0.670689,-0.7337709,,-0.10682561,0.25511318,-0.07517072,0.88051987,0.26897106,0.39030668,-0.43859118,0.77461696,0.45563844,-0.17978461,-0.57238376,0.8000339,,0.028572956,0.39117602,-0.37479573,0.34696507,0.55177337,-0.75839394,-0.9158766,0.37346026,-0.14730045,0.20195355,0.7457034,0.634934,,1.1776318132576213,0.5560599351427874,0.21211063641000003,0.5862930819827301,-0.16136770622298516,0.6911655929684656,-0.40623669247595257,,-0.4686385990065659,-0.36179458969166983,0.18234263285000002,1.1178570887159993,1.0533307766917805,-0.12340356462994972,0.8678470233714257,,-0.08327838525890945,-0.04185517712438902,0.0842785086,-0.07359428191455561,,6.854534e-06,-7.1525574e-07,2.026558e-06,0.99999994,2.2567809e-05,2.0630658e-05,-2.2567809e-05,1.0,3.33786e-06,-2.0615757e-05,-3.3676624e-06,1.0,894,2.727,0,0,0.0,False,-0.2549926627049395,1.0429971602535004
2.7520487399888225,14:43:37.841158,14:43:29.655005,0,,0.13565788,0.006525725,0.016584948,-0.8868778,-0.3398373,-0.31298286,-0.39492816,0.20610118,0.8952955,-0.23974869,0.9176234,-0.31699795,,0.0024414584,-0.05124847,0.016390622,-0.23155253,-0.55667436,0.7978076,-0.38546783,0.8054713,0.450145,-0.8931953,-0.20329705,-0.40108907,,0.10354429,1.3393549,0.44166195,0.99165684,0.021209408,-0.12714884,-0.06971448,-0.7414354,-0.667393,-0.10842766,0.670689,-0.7337709,,-0.10685726,0.25519106,-0.07523378,0.8809323,0.2701351,0.3885684,-0.43764976,0.7774341,0.45172876,-0.18005852,-0.5679993,0.80309135,,0.028570533,0.3911765,-0.37479535,0.34695438,0.55182976,-0.7583578,-0.915879,0.37347007,-0.14726077,0.20196107,0.7456568,0.63498634,,1.1776472587233697,0.5564692399851213,0.21204322933000003,0.5873415317001528,-0.16205088872181236,0.685515098236265,-0.40819682126956397,,-0.46865404447231435,-0.36179458969166983,0.18234263285000002,1.1178570887159993,1.0533307766917805,-0.12332188588980919,0.868663743702097,,-0.08327838525890945,-0.04185517712438902,0.0842785086,-0.07359428191455561,,6.854534e-06,-7.1525574e-07,2.026558e-06,0.99999994,2.2567809e-05,2.0630658e-05,-2.2567809e-05,1.0,3.33786e-06,-2.0615757e-05,-3.3676624e-06,1.0,906,2.764,0,0,0.0,False,-0.254694774112334,1.0435282424620742
2.7831474369741045,14:43:37.868137,14:43:29.655005,0,,0.13567516,0.0065291226,0.01671496,-0.88682073,-0.33947718,-0.31353462,-0.3958039,0.20780793,0.89451385,-0.23851205,0.91737175,-0.31865484,,0.0024407282,-0.051248513,0.016390443,-0.23148356,-0.55684227,0.7977103,-0.3855514,0.80534863,0.450293,-0.89317715,-0.20332298,-0.40111637,,0.10354429,1.3393549,0.44166195,0.99165684,0.021209408,-0.12714884,-0.06971448,-0.7414354,-0.667393,-0.10842766,0.670689,-0.7337709,,-0.10688552,0.25528103,-0.075325,0.8807199,0.26989365,0.38921705,-0.43746173,0.77851665,0.45004338,-0.18154812,-0.5666297,0.8037232,,0.028571276,0.39117643,-0.37479535,0.34688634,0.55200326,-0.75826263,-0.91592133,0.37339625,-0.1471847,0.20188598,0.7455653,0.63511765,,1.1776781496548665,0.5569634948890716,0.21194860016000003,0.5873415317001528,-0.16396379971852854,0.6837261205422518,-0.4070534128066239,,-0.46865404447231435,-0.3618023124245441,0.18234263285000002,1.1176473987725148,1.0533307766917805,-0.12332188588980919,0.868663743702097,,-0.08327838525890945,-0.04185517712438902,0.0842785086,-0.07359428191455561,,6.854534e-06,-7.1525574e-07,2.026558e-06,0.99999994,2.2567809e-05,2.0630658e-05,-2.2567809e-05,1.0,3.33786e-06,-2.0615757e-05,-3.3676624e-06,1.0,914,2.79,0,0,0.0,False,-0.25397984149008224,1.0435282424620742
2.8100545550114475,14:43:37.887715,14:43:29.655005,0,,0.13569778,0.0065407455,0.016793922,-0.88681775,-0.33983397,-0.31315637,-0.39567602,0.20830193,0.89445555,-0.23873526,0.9171276,-0.3191901,,0.0024396405,-0.05124726,0.016390204,-0.23141603,-0.55701137,0.7976118,-0.38562852,0.80522686,0.45044467,-0.89316136,-0.20334184,-0.401142,,0.10354429,1.3393549,0.44166195,0.99165684,0.021209408,-0.12714884,-0.06971448,-0.7414354,-0.667393,-0.10842766,0.670689,-0.7337709,,-0.10691421,0.2553425,-0.07537273,0.8807433,0.27029714,0.38888386,-0.43751818,0.7787224,0.44963238,-0.18129821,-0.5661545,0.80411446,,0.02857234,0.3911771,-0.37479424,0.34681982,0.55217713,-0.7581665,-0.9159617,0.37332875,-0.14710498,0.20181735,0.74547035,0.6352509,,1.177693595120615,0.5572801269369149,0.21189674856000001,0.5873415317001528,-0.16396379971852854,0.6829093331408462,-0.4073801009388925,,-0.46865404447231435,-0.3618023124245441,0.18234263285000002,1.1174377088290304,1.0533307766917805,-0.12332188588980919,0.868663743702097,,-0.08327838525890945,-0.04185517712438902,0.0842785086,-0.07359428191455561,,6.854534e-06,-7.1525574e-07,2.026558e-06,0.99999994,2.2567809e-05,2.0630658e-05,-2.2567809e-05,1.0,3.33786e-06,-2.0615757e-05,-3.3676624e-06,1.0,939,2.867,0,0,0.0,False,-0.25439688551972894,1.0433351216589564
2.8296960429870524,14:43:37.967217,14:43:29.795386,0,,0.13575521,0.006455615,0.017195687,-0.8803547,-0.35459936,-0.31501544,-0.40339386,0.21039313,0.89051,-0.24949718,0.91103995,-0.32826385,,0.0024411827,-0.051248245,0.016390562,-0.23140897,-0.5570072,0.79761684,-0.38563228,0.8052275,0.45044023,-0.89316154,-0.20335102,-0.40113693,,0.10354429,1.3393549,0.44166195,0.99165684,0.021209408,-0.12714884,-0.06971448,-0.7414354,-0.667393,-0.10842766,0.670689,-0.7337709,,-0.10701082,0.25554997,-0.075718544,0.8748158,0.28562716,0.39129832,-0.4505884,0.7764123,0.4406291,-0.17795321,-0.5617838,0.8079181,,0.028570808,0.3911766,-0.37479514,0.34681293,0.552174,-0.7581719,-0.91596484,0.37332126,-0.14710407,0.20181467,0.7454764,0.6352446,,1.1779021089082191,0.5582223003475703,0.21153249107000002,0.573082615543205,-0.16027461422486164,0.6760621489544363,-0.40721675687275816,,-0.4686617672051886,-0.3618100351574183,0.18234263285000002,1.1174377088290304,1.0533307766917805,-0.12332188588980919,0.868663743702097,,-0.08327838525890945,-0.04185517712438902,0.0842785086,-0.07359428191455561,,6.854534e-06,-7.1525574e-07,2.026558e-06,0.99999994,2.2567809e-05,2.0630658e-05,-2.2567809e-05,1.0,3.33786e-06,-2.0615757e-05,-3.3676624e-06,1.0,947,2.891,0,0,0.0,False,-0.25320533114930877,1.0436248028636332
