AlexandreBanks6/ExpertPlaybackApp/resources/Motions/P_06/PC1/Data_PC1_7.csv
Task Time,PC1 Time,PC2 Time,Gaze Calib,s_T_psm1,Tx,Ty,Tz,R00,R01,R02,R10,R11,R12,R20,R21,R22,s_T_psm3,Tx,Ty,Tz,R00,R01,R02,R10,R11,R12,R20,R21,R22,cart_T_ecm,Tx,Ty,Tz,R00,R01,R02,R10,R11,R12,R20,R21,R22,ecm_T_psm1,Tx,Ty,Tz,R00,R01,R02,R10,R11,R12,R20,R21,R22,ecm_T_psm3,Tx,Ty,Tz,R00,R01,R02,R10,R11,R12,R20,R21,R22,psm1_joints,q1,q2,q3,q4,q5,q6,jaw,psm3_joints,q1,q2,q3,q4,q5,q6,jaw,ecm_joints,q1,q2,q3,q4,ecmi_T_ecm,Tx,Ty,Tz,R00,R01,R02,R10,R11,R12,R20,R21,R22,Sample #,Task Duration (s),Collisions (binary),Collisions (increments),Cumulative Collision Time (s),Clutch Press,MTMR Angle,MTML Angle
""
lci_T_si,,,,,-0.060823515,0.029859815,0.22619304,0.990712,-0.051887166,0.12568814,0.04697213,-0.7368394,-0.67443407,0.12760644,0.67407376,-0.7275584
rci_T_si,,,,,-0.07009534,0.034067318,0.23510589,0.98514,-0.06991788,0.15687762,0.057551738,-0.7262056,-0.68506444,0.16182366,0.68391293,-0.7113903
ecm_T_lc,,,,,-4.4061628e-05,-0.00034663224,-0.01840835,-0.99912,0.030754527,0.028518902,-0.031987965,-0.99852574,-0.043852776,0.027128186,-0.04472645,0.9986309
ecm_T_rc,,,,,-0.0043358393,0.01870579,-0.007592615,-0.99555075,-0.052743673,-0.078081585,0.04863213,-0.9973746,0.053654674,-0.08070653,0.04961868,0.9955021
cart_T_ecmi,,,,,0.10353776,1.3393562,0.4416647,0.9916547,0.021186605,-0.12716936,-0.069744974,-0.74143606,-0.6673891,-0.10842766,0.670689,-0.7337709
ecmac_T_ecmrep_psm1,,,,,0.008075713,-0.26004106,-0.30289736,0.99667877,0.061445758,0.053440064,-0.058828812,0.9970531,-0.049237434,-0.056308012,0.04593009,0.9973564
ecmac_T_ecmrep_psm3,,,,,-0.012692571,-0.457308,-0.5458498,0.99509805,-0.029463936,0.094401784,0.014504567,0.9877462,0.15539348,-0.09782351,-0.1532625,0.9833317
""
0,14:47:15.698009,14:47:07.492940,0,,0.14131495,0.011194661,0.03489247,-0.11520977,-0.9308194,-0.3468455,-0.35029098,-0.28866932,0.8910478,-0.92952836,0.22415432,-0.29280016,,0.028537676,-0.042599015,0.026949883,-0.5206018,-0.6055044,0.60194504,-0.33681482,0.79349005,0.5068822,-0.78455687,0.061139762,-0.61703527,,0.10332874,1.3393639,0.44165567,0.9916712,0.021362389,-0.12701112,-0.069509864,-0.741431,-0.66741925,-0.10842766,0.670689,-0.7337709,,-0.113623574,0.2708957,-0.084966004,0.17557754,0.8904986,0.41974378,-0.8838573,-0.04518182,0.46556935,0.43355364,-0.45273715,0.7791408,,0.0013631608,0.4017857,-0.37284538,0.6196439,0.5693137,-0.5402993,-0.7674077,0.5839028,-0.2648452,0.16470228,0.5787396,0.7987075,,1.1838331677556235,0.615177455294976,0.20227698047,-0.29775971974802456,0.45814218371352183,0.5718471860329069,-0.42943154986702015,,-0.7004055352949177,-0.33148286316033865,0.17784839542000003,1.345580367340193,0.5781090305075786,0.31630061937602316,-0.167917699986039,,-0.0835990895089634,-0.040362920613933866,0.08425707732,-0.07457553900674968,,-0.0002068393,-1.6212463e-05,2.8014183e-05,0.9999999,0.0001739636,0.00015903264,-0.00017397106,1.0,2.5689602e-05,-0.00015899539,-2.5749207e-05,1.0,36,0.107,0,0,0.0,False,-0.25880563669028556,0.006807491124761977
0.12660255999071524,14:47:15.725014,14:47:07.492940,0,,0.14128381,0.0111848265,0.034912497,-0.11507282,-0.93052286,-0.34768525,-0.3506995,-0.28941584,0.89064485,-0.9293912,0.22442213,-0.2930301,,0.028531395,-0.04260429,0.026940167,-0.5217009,-0.60634696,0.6001426,-0.33752286,0.7927617,0.5075505,-0.7835218,0.062227666,-0.6182405,,0.10332874,1.3393639,0.44165567,0.9916712,0.021362389,-0.12701112,-0.069509864,-0.741431,-0.66741925,-0.10842766,0.670689,-0.7337709,,-0.11359489,0.2709025,-0.08499046,0.1754068,0.89013916,0.42057663,-0.8840685,-0.045556806,0.4651317,0.43319207,-0.4534058,0.778953,,0.0013707023,0.40177557,-0.37284422,0.62063456,0.5700441,-0.5383887,-0.7668697,0.5844421,-0.26521373,0.1634735,0.57747483,0.79987454,,1.1840030678788565,0.6151542870963533,0.20224975838000003,-0.29817909963499367,0.45773227421422547,0.5724264759644178,-0.42926820580088576,,-0.7004209807606662,-0.3314983086260871,0.17784709913000002,1.3451609874532238,0.5764693925103933,0.3176376342203802,-0.167917699986039,,-0.0835990895089634,-0.040362920613933866,0.08425707732,-0.07457553900674968,,-0.0002068393,-1.6212463e-05,2.8014183e-05,0.9999999,0.0001739636,0.00015903264,-0.00017397106,1.0,2.5689602e-05,-0.00015899539,-2.5749207e-05,1.0,44,0.132,0,0,0.0,False,-0.2593418361569748,0.007048892128658668
0.15361200494226068,14:47:15.756030,14:47:07.557244,0,,0.14127031,0.011160776,0.0349375,-0.11525996,-0.9303028,-0.34821197,-0.35129508,-0.2897194,0.89031136,-0.929143,0.22494248,-0.29341793,,0.028538123,-0.042607494,0.026942134,-0.5217056,-0.6063856,0.60009956,-0.33771506,0.79274404,0.5074502,-0.7834358,0.062076956,-0.6183646,,0.10332874,1.3393639,0.44165567,0.9916712,0.021362389,-0.12701112,-0.069509864,-0.741431,-0.66741925,-0.10842766,0.670689,-0.7337709,,-0.11358496,0.2709019,-0.085026324,0.17553847,0.88985837,0.4211156,-0.8843369,-0.04543325,0.46463323,0.43259043,-0.45396906,0.77895933,,0.0013638969,0.40177447,-0.37284768,0.62063503,0.5701007,-0.53832823,-0.76691324,0.5843153,-0.26536715,0.16326742,0.5775472,0.79986435,,1.1840571270089761,0.6151542870963533,0.20221086968000002,-0.29817909963499367,0.45704909171539826,0.5729018867427593,-0.4291048617347516,,-0.7004673171579114,-0.331529199557584,0.17784709913000002,1.344951297509739,0.5763327560106278,0.3174223371635144,-0.16775435591990495,,-0.0835990895089634,-0.040362920613933866,0.08425707732,-0.07457553900674968,,-0.0002068393,-1.6212463e-05,2.8014183e-05,0.9999999,0.0001739636,0.00015903264,-0.00017397106,1.0,2.5689602e-05,-0.00015899539,-2.5749207e-05,1.0,56,0.168,0,0,0.0,False,-0.2596993024681016,0.0067592109239820175
0.18460028298432007,14:47:15.785555,14:47:07.557244,0,,0.14124155,0.011118412,0.03497964,-0.11488675,-0.93011874,-0.3488265,-0.35180044,-0.29029796,0.8899232,-0.9289981,0.22495775,-0.2938649,,0.028543636,-0.042611696,0.02694428,-0.5216848,-0.6063241,0.60017985,-0.3377205,0.79279786,0.5073625,-0.7834473,0.06199026,-0.61835873,,0.10332874,1.3393639,0.44165567,0.9916712,0.021362389,-0.12701112,-0.069509864,-0.741431,-0.66741925,-0.10842766,0.670689,-0.7337709,,-0.113562346,0.27089962,-0.08508864,0.17512667,0.8896419,0.42174402,-0.8846183,-0.045852847,0.46405604,0.43218186,-0.45435104,0.7789634,,0.0013582981,0.4017731,-0.3728521,0.6206159,0.5700483,-0.5384059,-0.766928,0.5842705,-0.2654231,0.1632707,0.57764435,0.79979354,,1.1841497998034667,0.615107950699108,0.20214605518000003,-0.2988081694654472,0.456639182216102,0.5731544617137081,-0.4295948939331543,,-0.7004982080894083,-0.33156009048908086,0.17784709913000002,1.344951297509739,0.5763327560106278,0.3174223371635144,-0.16759101185377057,,-0.0835990895089634,-0.040362920613933866,0.08425707732,-0.07457553900674968,,-0.0002068393,-1.6212463e-05,2.8014183e-05,0.9999999,0.0001739636,0.00015903264,-0.00017397106,1.0,2.5689602e-05,-0.00015899539,-2.5749207e-05,1.0,63,0.189,0,0,0.0,False,-0.2596993024681016,0.0065660901208643985
0.2141526879859157,14:47:15.804784,14:47:07.621650,0,,0.14120632,0.011081502,0.03501311,-0.115113966,-0.9299309,-0.34925205,-0.35217375,-0.29054588,0.8896947,-0.9288285,0.22541374,-0.29405144,,0.028544553,-0.042611696,0.026941836,-0.5216848,-0.606226,0.6002788,-0.3377205,0.7928807,0.5072329,-0.7834473,0.06188923,-0.6183688,,0.10332874,1.3393639,0.44165567,0.9916712,0.021362389,-0.12701112,-0.069509864,-0.741431,-0.66741925,-0.10842766,0.670689,-0.7337709,,-0.11353224,0.2708956,-0.08514157,0.17531732,0.88940185,0.4221708,-0.8847751,-0.045731116,0.46376902,0.43178338,-0.45483294,0.7789031,,0.0013576762,0.40177104,-0.3728506,0.6206159,0.5699603,-0.538499,-0.766928,0.5842271,-0.26551852,0.1632707,0.577775,0.7996991,,1.184296531728077,0.6150307233703657,0.20209031471000002,-0.2988081694654472,0.45622927271680563,0.5734887154247973,-0.4295948939331543,,-0.7004982080894083,-0.33156009048908086,0.17784969171,1.344951297509739,0.5763327560106278,0.3172589796832333,-0.167917699986039,,-0.0835990895089634,-0.040362920613933866,0.08425707732,-0.07457553900674968,,-0.0002068393,-1.6212463e-05,2.8014183e-05,0.9999999,0.0001739636,0.00015903264,-0.00017397106,1.0,2.5689602e-05,-0.00015899539,-2.5749207e-05,1.0,71,0.214,0,0,0.0,False,-0.2599376133421849,0.006324689116967264
0.2333562719868496,14:47:15.835145,14:47:07.621650,0,,0.14125913,0.01101394,0.035047993,-0.11507434,-0.929936,-0.34925187,-0.35235912,-0.29051268,0.8896321,-0.92876303,0.22543597,-0.29424098,,0.02858822,-0.042611312,0.02694714,-0.52004534,-0.6085012,0.59939873,-0.34032434,0.7912663,0.508013,-0.78341055,0.060199827,-0.61858225,,0.10327347,1.339366,0.44166124,0.99167573,0.021410806,-0.12696755,-0.06944511,-0.7414296,-0.66742754,-0.10842766,0.670689,-0.7337709,,-0.113545224,0.27086252,-0.08521196,0.17528544,0.88942885,0.42212722,-0.884863,-0.045645703,0.4636096,0.43161604,-0.45478877,0.7790217,,0.0013663117,0.40177226,-0.37285024,0.6190944,0.5724144,-0.53764665,-0.7685859,0.58220655,-0.2651627,0.16123843,0.5773884,0.8003904,,1.1845050455156811,0.6149534960416235,0.20203975940000002,-0.2990178594089317,0.4560926362170402,0.5731917396277909,-0.4304116142638257,,-0.7005059308222826,-0.33159098142057775,0.17785617316000002,1.3413865684705022,0.5768793020096895,0.3164865931078854,-0.16791769998603912,,-0.0835990895089634,-0.040362920613933866,0.08425707732,-0.07457553900674968,,-0.00026239082,-1.513958e-05,2.9683113e-05,0.9999999,0.00022187829,0.0002028048,-0.00022188574,1.0,3.2752752e-05,-0.0002027899,-3.2812357e-05,1.0,79,0.237,0,0,0.0,False,-0.259580147031059,0.006372969317746335
0.26372656296007335,14:47:15.856245,14:47:07.688106,0,,0.14119267,0.0109945685,0.03508477,-0.11441715,-0.9297244,-0.35002992,-0.35315707,-0.29126266,0.88907033,-0.92854106,0.22534049,-0.29501343,,0.02858942,-0.04260042,0.026946545,-0.5181725,-0.6102293,0.5992638,-0.34303176,0.79012454,0.50796914,-0.7834708,0.057649076,-0.6187489,,0.10327347,1.339366,0.44166124,0.99167573,0.021410806,-0.12696755,-0.06944511,-0.7414296,-0.66742754,-0.10842766,0.670689,-0.7337709,,-0.11348337,0.27087423,-0.08525867,0.17456834,0.8891852,0.42293686,-0.8853133,-0.04626701,0.46268752,0.43098292,-0.45520222,0.7791307,,0.0013648495,0.40177804,-0.37284103,0.6173262,0.5744658,-0.53749174,-0.7704375,0.57968825,-0.2653067,0.15916802,0.5778846,0.8004467,,1.184852568495021,0.6148839914457555,0.20198790780000003,-0.3002759990698389,0.455409453718213,0.5731770779652892,-0.43057495832996007,,-0.7005136535551568,-0.3316450405506973,0.17786135832000002,1.3376121494877808,0.5776991210082822,0.31451122584345786,-0.16824438811830766,,-0.0835990895089634,-0.040362920613933866,0.08425707732,-0.07457553900674968,,-0.00026239082,-1.513958e-05,2.9683113e-05,0.9999999,0.00022187829,0.0002028048,-0.00022188574,1.0,3.2752752e-05,-0.0002027899,-3.2812357e-05,1.0,90,0.271,0,0,0.0,False,-0.26059296824591627,0.0059384475107315815
0.2848401969531551,14:47:15.889380,14:47:07.688106,0,,0.14111133,0.010982946,0.03512408,-0.11440699,-0.9293543,-0.3510149,-0.3537744,-0.29205757,0.888564,-0.9283074,0.22583808,-0.2953683,,0.028600417,-0.04261526,0.026934564,-0.5182692,-0.60945237,0.5999705,-0.3425591,0.7907417,0.5073274,-0.78361356,0.057406753,-0.6185906,,0.10327347,1.339366,0.44166124,0.99167573,0.021410806,-0.12696755,-0.06944511,-0.7414296,-0.66742754,-0.10842766,0.670689,-0.7337709,,-0.1134065,0.27089363,-0.08530351,0.17450385,0.88872993,0.4239193,-0.8856109,-0.04652384,0.46209186,0.4303972,-0.45606434,0.7789503,,0.0013558151,0.40175843,-0.3728455,0.6174244,0.5737041,-0.53819203,-0.77026325,0.5797685,-0.26563713,0.15962967,0.5785604,0.7998664,,1.1853236552003488,0.6148067641170132,0.20193735249000003,-0.30090506890029245,0.4547262712193858,0.5736524887436307,-0.43008492613155724,,-0.700521376288031,-0.3317222678794396,0.1778769138,1.3382412193182343,0.5778357575080477,0.3139914142390587,-0.16775435591990473,,-0.0835990895089634,-0.040362920613933866,0.08425707732,-0.07457553900674968,,-0.00026239082,-1.513958e-05,2.9683113e-05,0.9999999,0.00022187829,0.0002028048,-0.00022188574,1.0,3.2752752e-05,-0.0002027899,-3.2812357e-05,1.0,98,0.296,0,0,0.0,False,-0.260652545964438,0.006469529719305367
0.31794619996799156,14:47:15.908133,14:47:07.688106,0,,0.14102852,0.011004522,0.035160795,-0.10911574,-0.92958254,-0.35209346,-0.35355744,-0.29475167,0.8877604,-0.92902684,0.22135396,-0.2964989,,0.028606005,-0.042622443,0.026931047,-0.5182577,-0.60938877,0.6000449,-0.34257847,0.7907975,0.5072273,-0.7836127,0.057311982,-0.6186005,,0.10327347,1.339366,0.44166124,0.99167573,0.021410806,-0.12696755,-0.06944511,-0.7414296,-0.66742754,-0.10842766,0.670689,-0.7337709,,-0.11332611,0.2709358,-0.08532425,0.16931482,0.8891956,0.42504543,-0.88602996,-0.051534012,0.46075502,0.43160564,-0.45461565,0.7791285,,0.0013509059,0.40175077,-0.372849,0.6174135,0.57365054,-0.5382616,-0.7702752,0.5797181,-0.2657123,0.15961398,0.57866395,0.7997946,,1.1857252373098086,0.6147681504526421,0.20191920443000003,-0.3069860772613437,0.45622927271680563,0.5717734618818455,-0.43073830239609445,,-0.7005368217537795,-0.33177632700955917,0.17788209896,1.3382412193182343,0.5778357575080477,0.3139097354989181,-0.16791769998603912,,-0.0835990895089634,-0.040362920613933866,0.08425707732,-0.07457553900674968,,-0.00026239082,-1.513958e-05,2.9683113e-05,0.9999999,0.00022187829,0.0002028048,-0.00022188574,1.0,3.2752752e-05,-0.0002027899,-3.2812357e-05,1.0,106,0.319,0,0,0.0,False,-0.26005676877922745,0.006324689116967264
0.3367296949727461,14:47:15.936145,14:47:07.753613,0,,0.14096718,0.011023983,0.035187885,-0.109776214,-0.9296938,-0.35159403,-0.35304847,-0.2941948,0.8881475,-0.9291425,0.2216273,-0.29593152,,0.028608687,-0.04263052,0.026925623,-0.5183598,-0.6094216,0.59992343,-0.34263593,0.79076767,0.507235,-0.78352004,0.057374895,-0.61871195,,0.10327347,1.339366,0.44166124,0.99167573,0.021410806,-0.12696755,-0.06944511,-0.7414296,-0.66742754,-0.10842766,0.670689,-0.7337709,,-0.11326635,0.2709695,-0.08533724,0.17000999,0.8893135,0.424521,-0.8857211,-0.050936837,0.46141475,0.43196613,-0.45445234,0.77902395,,0.0013491311,0.4017414,-0.37285224,0.6175057,0.5736766,-0.53812814,-0.77022314,0.5797547,-0.26578337,0.1595086,0.5786015,0.7998608,,1.1861654330836393,0.6147527049868936,0.20190494524000002,-0.3065666973743746,0.4565025457163365,0.5713055898540311,-0.43024827019769174,,-0.7005368217537795,-0.3318149406739303,0.17788728412000002,1.3382412193182343,0.5776991210082822,0.31402115340261455,-0.16791769998603912,,-0.0835990895089634,-0.040362920613933866,0.08425707732,-0.07457553900674968,,-0.00026239082,-1.513958e-05,2.9683113e-05,0.9999999,0.00022187829,0.0002028048,-0.00022188574,1.0,3.2752752e-05,-0.0002027899,-3.2812357e-05,1.0,114,0.344,0,0,0.0,False,-0.26005676877922745,0.006469529719305367
0.36474156798794866,14:47:15.969631,14:47:07.753613,0,,0.14084175,0.011061564,0.035224006,-0.11095877,-0.92936075,-0.35210317,-0.35313135,-0.29430175,0.88807917,-0.9289705,0.22287887,-0.29553112,,0.028613992,-0.04263496,0.026924849,-0.518344,-0.60931206,0.60004836,-0.3426442,0.79086185,0.50708246,-0.7835269,0.05724004,-0.61871576,,0.10327347,1.339366,0.44166124,0.99167573,0.021410806,-0.12696755,-0.06944511,-0.7414296,-0.66742754,-0.10842766,0.670689,-0.7337709,,-0.11314263,0.27102384,-0.08535109,0.17116682,0.888868,0.424989,-0.8856452,-0.05017661,0.46164364,0.43166474,-0.45540756,0.7786331,,0.0013440932,0.40173757,-0.37285513,0.61749107,0.57358086,-0.538247,-0.7702353,0.57968956,-0.26589018,0.15950662,0.57876164,0.7997453,,1.1870381018984266,0.614698645856774,0.20188420460000003,-0.30614731748740553,0.4559559997172748,0.5716695827286762,-0.430411614263826,,-0.7005599899524022,-0.3318458316054272,0.1778898767,1.3382412193182343,0.5776991210082822,0.31385779592233337,-0.16791769998603912,,-0.0835990895089634,-0.040362920613933866,0.08425707732,-0.07457553900674968,,-0.00026239082,-1.513958e-05,2.9683113e-05,0.9999999,0.00022187829,0.0002028048,-0.00022188574,1.0,3.2752752e-05,-0.0002027899,-3.2812357e-05,1.0,126,0.381,0,0,0.0,False,-0.2604738128088746,0.0065660901208643985
0.39820305799366906,14:47:16.001135,14:47:07.820161,0,,0.14075923,0.011081025,0.03523566,-0.11077109,-0.9290694,-0.35293007,-0.3536469,-0.29502514,0.88763386,-0.92879677,0.22313684,-0.29588234,,0.028618485,-0.042640816,0.026915312,-0.51880133,-0.6085536,0.6004227,-0.3431657,0.79151154,0.5057144,-0.78299576,0.056320816,-0.619472,,0.10327347,1.339366,0.44166124,0.99167573,0.021410806,-0.12696755,-0.06944511,-0.7414296,-0.66742754,-0.10842766,0.670689,-0.7337709,,-0.11306048,0.2710475,-0.085354894,0.17093655,0.88851583,0.42581725,-0.88591146,-0.0505411,0.46109268,0.43120942,-0.45605397,0.77850705,,0.0013409372,0.40172598,-0.37285408,0.61789846,0.57291645,-0.538487,-0.77006423,0.5792487,-0.2673424,0.15875305,0.57986003,0.7990994,,1.1875555250009997,0.6146214185280319,0.20187513057000003,-0.3069860772613437,0.455409453718213,0.5718702181230402,-0.43090164646222884,,-0.7005986036167733,-0.3318844452697983,0.17789635815000002,1.3378218394312653,0.5768793020096895,0.31232097736071673,-0.16742766778763607,,-0.0835990895089634,-0.040362920613933866,0.08425707732,-0.07457553900674968,,-0.00026239082,-1.513958e-05,2.9683113e-05,0.9999999,0.00022187829,0.0002028048,-0.00022188574,1.0,3.2752752e-05,-0.0002027899,-3.2812357e-05,1.0,141,0.427,0,0,0.0,False,-0.2602355019347904,0.006469529719305367
0.42973380495095626,14:47:16.037247,14:47:07.820161,0,,0.14069891,0.011082798,0.035245284,-0.10803555,-0.9285864,-0.35504282,-0.35493928,-0.29756755,0.8862684,-0.928626,0.22176719,-0.29744405,,0.02862335,-0.042644348,0.026912272,-0.5188894,-0.608344,0.600559,-0.3432023,0.79168534,0.5054174,-0.7829214,0.05614248,-0.6195823,,0.10327347,1.339366,0.44166124,0.99167573,0.021410806,-0.12696755,-0.06944511,-0.7414296,-0.66742754,-0.10842766,0.670689,-0.7337709,,-0.11300121,0.27105638,-0.08536684,0.16812913,0.88801306,0.42797828,-0.88679755,-0.053349283,0.45906854,0.4304912,-0.4567129,0.77851826,,0.0013365725,0.40172094,-0.37285495,0.6179782,0.57272404,-0.5386001,-0.77001613,0.5791842,-0.26762068,0.15867583,0.58011454,0.79893,,1.1878335433844718,0.614559636665038,0.2018582788,-0.3105508063005806,0.4547262712193858,0.5721822714211007,-0.43008492613155713,,-0.700621771815396,-0.33190761346842096,0.17790024702,1.3378218394312653,0.576742665509924,0.3120240015637104,-0.16824438811830744,,-0.0835990895089634,-0.040362920613933866,0.08425707732,-0.07457553900674968,,-0.00026239082,-1.513958e-05,2.9683113e-05,0.9999999,0.00022187829,0.0002028048,-0.00022188574,1.0,3.2752752e-05,-0.0002027899,-3.2812357e-05,1.0,149,0.45,0,0,0.0,False,-0.2596993024681016,0.0059384475107315815
0.46584248897852376,14:47:16.067079,14:47:07.886372,0,,0.14069214,0.011070371,0.035231337,-0.108256295,-0.92792714,-0.35669553,-0.3567315,-0.29864746,0.8851849,-0.9279133,0.22307138,-0.29869047,,0.028628692,-0.04265025,0.026908696,-0.5188782,-0.6082825,0.600631,-0.3432175,0.79173887,0.5053232,-0.78292215,0.056054115,-0.6195893,,0.10327347,1.339366,0.44166124,0.99167573,0.021410806,-0.12696755,-0.06944511,-0.7414296,-0.66742754,-0.10842766,0.670689,-0.7337709,,-0.11299397,0.2710379,-0.08536567,0.1681878,0.8871846,0.42967007,-0.8876342,-0.053276855,0.45745718,0.42874044,-0.45832855,0.7785349,,0.001331879,0.401714,-0.3728574,0.6179677,0.5726718,-0.5386678,-0.7700269,0.57913786,-0.26768985,0.15866448,0.5802124,0.79886115,,1.187841266117346,0.6145364684664154,0.20185179735000003,-0.3107604962440651,0.45281336022266966,0.5736604433327099,-0.42992158206542297,,-0.7006372172811444,-0.3319462271327921,0.17790543218000002,1.3378218394312653,0.576742665509924,0.3119423228235699,-0.16808104405217328,,-0.0835990895089634,-0.040362920613933866,0.08425707732,-0.07457553900674968,,-0.00026239082,-1.513958e-05,2.9683113e-05,0.9999999,0.00022187829,0.0002028048,-0.00022188574,1.0,3.2752752e-05,-0.0002027899,-3.2812357e-05,1.0,157,0.475,0,0,0.0,False,-0.25826943722359585,0.0061315683138492005
0.4956674569984898,14:47:16.090576,14:47:07.886372,0,,0.14069268,0.0110542625,0.035216138,-0.108733475,-0.9268369,-0.35937476,-0.35897067,-0.30051464,0.88364637,-0.9269935,0.22508697,-0.30003136,,0.028621979,-0.042635884,0.026898682,-0.5169498,-0.611143,0.5993888,-0.3479142,0.78976893,0.50519395,-0.7821244,0.052623987,-0.6208962,,0.10327347,1.339366,0.44166124,0.99167573,0.021410806,-0.12696755,-0.06944511,-0.7414296,-0.66742754,-0.10842766,0.670689,-0.7337709,,-0.11299408,0.27101576,-0.08536532,0.1684589,0.8858224,0.4323659,-0.8886562,-0.05331237,0.45546454,0.42651114,-0.46095166,0.77821064,,0.0013392814,0.40171516,-0.37284017,0.6161046,0.57597643,-0.5372767,-0.7723662,0.57555693,-0.26867187,0.15448467,0.58050436,0.79946804,,1.187810375185849,0.6145364684664154,0.20184272332000003,-0.3107604962440651,0.4503539032268917,0.5763193955203699,-0.4295948939331544,,-0.7006449400140187,-0.33202345446153436,0.17791191363000003,1.3313214511832452,0.5766060290101588,0.30911330608220594,-0.16840773218444183,,-0.0835990895089634,-0.040362920613933866,0.08425707732,-0.07457553900674968,,-0.00026239082,-1.513958e-05,2.9683113e-05,0.9999999,0.00022187829,0.0002028048,-0.00022188574,1.0,3.2752752e-05,-0.0002027899,-3.2812357e-05,1.0,165,0.5,0,0,0.0,False,-0.25695872741613357,0.005986727711510653
0.5191731119994074,14:47:16.117297,14:47:07.886372,0,,0.14069186,0.011035919,0.035183415,-0.11021573,-0.9239864,-0.36619866,-0.3621576,-0.3057785,0.88053465,-0.92557776,0.22967046,-0.3009272,,0.028617606,-0.042638775,0.026884258,-0.51704985,-0.61246365,0.59795284,-0.35034296,0.7888111,0.5050119,-0.7809732,0.051627755,-0.62242705,,0.10327347,1.339366,0.44166124,0.99167573,0.021410806,-0.12696755,-0.06944511,-0.7414296,-0.66742754,-0.10842766,0.670689,-0.7337709,,-0.11299144,0.27098015,-0.08535375,0.16963434,0.882299,0.43905887,-0.8900246,-0.0541503,0.45268527,0.4231789,-0.46756417,0.77608204,,0.0013454183,0.40170237,-0.37283424,0.61614317,0.5774343,-0.5356653,-0.7728596,0.5743459,-0.2698423,0.15184094,0.5802555,0.8001549,,1.1877949297201007,0.6145133002677927,0.20184013074,-0.309921736470127,0.4466647177332248,0.5837383308877637,-0.4282881414040801,,-0.7006681082126414,-0.3320929590574024,0.17791709879,1.3290148618049153,0.5752396640125043,0.3085122315762183,-0.16791769998603912,,-0.0835990895089634,-0.040362920613933866,0.08425707732,-0.07457553900674968,,-0.00026239082,-1.513958e-05,2.9683113e-05,0.9999999,0.00022187829,0.0002028048,-0.00022188574,1.0,3.2752752e-05,-0.0002027899,-3.2812357e-05,1.0,173,0.524,0,0,0.0,False,-0.25439688551972894,0.0061315683138492005
0.5458727339864708,14:47:16.140436,14:47:07.953384,0,,0.14068645,0.011024788,0.035159722,-0.11078293,-0.92166626,-0.37183088,-0.36463416,-0.31034943,0.8779095,-0.9245372,0.23283967,-0.30168968,,0.028627448,-0.042660367,0.026864588,-0.51763904,-0.6113175,0.59861535,-0.34985864,0.7897128,0.5039375,-0.78080004,0.051426947,-0.622661,,0.10327347,1.339366,0.44166124,0.99167573,0.021410806,-0.12696755,-0.06944511,-0.7414296,-0.66742754,-0.10842766,0.670689,-0.7337709,,-0.112984635,0.27095604,-0.08534445,0.16997138,0.87946385,0.44458184,-0.8911385,-0.055422645,0.45033383,0.42069224,-0.47272784,0.77430385,,0.0013386286,0.40167284,-0.37283972,0.6166926,0.5762926,-0.5362621,-0.7723693,0.57458466,-0.27073625,0.15210469,0.58115345,0.79945284,,1.187802652452975,0.6144978548020442,0.20183883445000003,-0.309921736470127,0.44379535123815056,0.5899170076519951,-0.42796145327181156,,-0.7006681082126414,-0.3321933545847673,0.17793654314000001,1.3298536215788535,0.5748297545132081,0.30778466166548024,-0.16840773218444183,,-0.0835990895089634,-0.040362920613933866,0.08425707732,-0.07457553900674968,,-0.00026239082,-1.513958e-05,2.9683113e-05,0.9999999,0.00022187829,0.0002028048,-0.00022188574,1.0,3.2752752e-05,-0.0002027899,-3.2812357e-05,1.0,184,0.558,0,0,0.0,False,-0.2519541990603664,0.006855771325541049
0.5690322509617545,14:47:16.171378,14:47:07.953384,0,,0.14067526,0.010999039,0.03508766,-0.112679586,-0.914911,-0.38760936,-0.3720945,-0.32285547,0.87023556,-0.92133,0.24228515,-0.30405423,,0.028637826,-0.042670738,0.026854575,-0.5176931,-0.61104476,0.59884715,-0.34972408,0.78993034,0.50368965,-0.7808245,0.05132532,-0.6226387,,0.10327347,1.339366,0.44166124,0.99167573,0.021410806,-0.12696755,-0.06944511,-0.7414296,-0.66742754,-0.10842766,0.670689,-0.7337709,,-0.1129687,0.2708886,-0.08531012,0.1711674,0.87123466,0.4600564,-0.89444166,-0.058388054,0.44335645,0.4131293,-0.4873818,0.7692745,,0.0013298319,0.40165752,-0.37284175,0.61674494,0.57602715,-0.5364871,-0.77230376,0.57460016,-0.27089027,0.15222545,0.58140117,0.7992497,,1.1878258206515977,0.61449013206917,0.20184142703000002,-0.30971204652664247,0.43559716125222414,0.605995136989945,-0.4256746363459316,,-0.7006912764112639,-0.33225513644776106,0.17794950604,1.330063311522338,0.5748297545132081,0.3076213041851992,-0.1680810440521734,,-0.0835990895089634,-0.040362920613933866,0.08425707732,-0.07457553900674968,,-0.00026239082,-1.513958e-05,2.9683113e-05,0.9999999,0.00022187829,0.0002028048,-0.00022188574,1.0,3.2752752e-05,-0.0002027899,-3.2812357e-05,1.0,192,0.583,0,0,0.0,False,0.1905295163953471,0.008304177348924746
0.5999550419510342,14:47:16.201451,14:47:08.023072,0,,0.1406646,0.010991156,0.03506331,-0.11216191,-0.9100293,-0.39908186,-0.37406757,-0.33340538,0.86539835,-0.9205938,0.24634838,-0.30301717,,0.02863878,-0.042648863,0.026827514,-0.51534927,-0.61441404,0.59741974,-0.35445243,0.7875185,0.5041609,-0.7802427,0.048062056,-0.6236277,,0.10327347,1.339366,0.44166124,0.99167573,0.021410806,-0.12696755,-0.06944511,-0.7414296,-0.66742754,-0.10842766,0.670689,-0.7337709,,-0.112956434,0.27086654,-0.08529867,0.1704795,0.865443,0.4711106,-0.895409,-0.06351147,0.44069153,0.4113143,-0.49696556,0.76409805,,0.0013314001,0.4016486,-0.3728082,0.61449605,0.5798307,-0.5349682,-0.7748817,0.57095104,-0.27124378,0.14816517,0.58121526,0.8001474,,1.1878335433844718,0.6144437956719246,0.20184531590000002,-0.3107604962440651,0.433684250255508,0.6178465088994056,-0.4155473042456065,,-0.7006989991441382,-0.33230147284500644,0.17797672813,1.3237726132178023,0.5751030275127388,0.3054381786144328,-0.1667742915230992,,-0.0835990895089634,-0.040362920613933866,0.08425707732,-0.07457553900674968,,-0.00026239082,-1.513958e-05,2.9683113e-05,0.9999999,0.00022187829,0.0002028048,-0.00022188574,1.0,3.2752752e-05,-0.0002027899,-3.2812357e-05,1.0,200,0.606,0,0,0.0,False,0.5445403198473264,0.00859385855360184
0.6300477049662732,14:47:16.223198,14:47:08.023072,0,,0.14066279,0.010987863,0.035053894,-0.11200458,-0.90735936,-0.40515894,-0.3742724,-0.33917925,0.86306286,-0.9205297,0.24830692,-0.30161005,,0.028648652,-0.042639386,0.026780725,-0.51548344,-0.61431277,0.59740806,-0.35593596,0.78768706,0.50285083,-0.7794783,0.046572268,-0.62469566,,0.10327347,1.339366,0.44166124,0.99167573,0.021410806,-0.12696755,-0.06944511,-0.7414296,-0.66742754,-0.10842766,0.670689,-0.7337709,,-0.112953976,0.27085778,-0.085294165,0.17030613,0.862298,0.4769045,-0.89551955,-0.06649452,0.44002637,0.41114542,-0.50201654,0.7608803,,0.0013268288,0.40161556,-0.37277263,0.61458486,0.5799008,-0.53479016,-0.77512574,0.56984496,-0.2728678,0.14651121,0.58223003,0.7997141,,1.1878180979187234,0.6144051820075536,0.20184920477,-0.3109701861875496,0.4335476137557425,0.6244105472742065,-0.40394987555007256,,-0.7007221673427609,-0.33227830464638375,0.17801950570000002,1.322095093669926,0.5741465720143808,0.3034410267755287,-0.16579422712629344,,-0.0835990895089634,-0.040362920613933866,0.08425707732,-0.07457553900674968,,-0.00026239082,-1.513958e-05,2.9683113e-05,0.9999999,0.00022187829,0.0002028048,-0.00022188574,1.0,3.2752752e-05,-0.0002027899,-3.2812357e-05,1.0,208,0.631,0,0,0.0,False,0.7061150924763684,0.047266299377947796
0.6517868939554319,14:47:16.250333,14:47:08.023072,0,,0.14065738,0.010960251,0.034984127,-0.115505695,-0.90005815,-0.42018285,-0.3793357,-0.35098296,0.85610473,-0.9180211,0.25827536,-0.30088377,,0.028643519,-0.042600077,0.026748896,-0.5128749,-0.6188039,0.59501326,-0.3616233,0.78435,0.5040078,-0.7785807,0.043322295,-0.6260474,,0.10327347,1.339366,0.44166124,0.99167573,0.021410806,-0.12696755,-0.06944511,-0.7414296,-0.66742754,-0.10842766,0.670689,-0.7337709,,-0.1129441,0.27079043,-0.085262194,0.17329131,0.85351944,0.49140075,-0.89749825,-0.06859853,0.4356502,0.4055453,-0.5165257,0.75414467,,0.0013344694,0.40161374,-0.3727224,0.6120656,0.5848449,-0.53228956,-0.7780443,0.56579024,-0.27299914,0.1415021,0.5812382,0.80133593,,1.1878258206515977,0.6143125092130628,0.2018582788,-0.3084539068657353,0.4273989712662977,0.6415944852214892,-0.37405791144749945,,-0.7007298900756351,-0.33224741371488686,0.17804802408,1.3145462557044831,0.5741465720143808,0.3016440944924363,-0.16546753899402478,,-0.0835990895089634,-0.040362920613933866,0.08425707732,-0.07457553900674968,,-0.00026239082,-1.513958e-05,2.9683113e-05,0.9999999,0.00022187829,0.0002028048,-0.00022188574,1.0,3.2752752e-05,-0.0002027899,-3.2812357e-05,1.0,216,0.655,0,0,0.0,False,0.8405224254598194,0.20287338649014286
0.6788438399671577,14:47:16.273192,14:47:08.086444,0,,0.14065595,0.010938153,0.03492467,-0.11845401,-0.89488745,-0.43028465,-0.38371494,-0.3584187,0.85105747,-0.91582274,0.26591787,-0.30092567,,0.028645135,-0.042578947,0.02672422,-0.51167613,-0.61830527,0.5965618,-0.36394003,0.7849477,0.501403,-0.7782899,0.039443165,-0.6266651,,0.10327347,1.339366,0.44166124,0.99167573,0.021410806,-0.12696755,-0.06944511,-0.7414296,-0.66742754,-0.10842766,0.670689,-0.7337709,,-0.11293876,0.270734,-0.08523366,0.17579134,0.8473033,0.5011732,-0.89919174,-0.069013916,0.43207783,0.4006889,-0.5266064,0.74975604,,0.0013351205,0.4016062,-0.37269077,0.61091304,0.58478904,-0.53367317,-0.77930856,0.5629769,-0.2752003,0.13951154,0.5840195,0.79966104,,1.1878180979187234,0.614250727350069,0.20186735283,-0.30635700743089006,0.4220701477754455,0.6532908700783002,-0.34988298965962605,,-0.7007298900756351,-0.33220880005051573,0.17807265359000002,1.3114009065522154,0.5742832085141462,0.29687698840072785,-0.15550355095983392,,-0.0835990895089634,-0.040362920613933866,0.08425707732,-0.07457553900674968,,-0.00026239082,-1.513958e-05,2.9683113e-05,0.9999999,0.00022187829,0.0002028048,-0.00022188574,1.0,3.2752752e-05,-0.0002027899,-3.2812357e-05,1.0,231,0.701,0,0,0.0,False,0.9718317170801769,0.2060115995408074
0.701745284954086,14:47:16.320076,14:47:08.086444,0,,0.14065741,0.010895416,0.034778133,-0.1288948,-0.88085884,-0.45549276,-0.39385012,-0.3760715,0.8387206,-0.91009235,0.28750268,-0.2984528,,0.028641492,-0.042528566,0.02669543,-0.507863,-0.62106156,0.59695685,-0.37121597,0.78311706,0.4989255,-0.77735054,0.031785846,-0.6282642,,0.10327347,1.339366,0.44166124,0.99167573,0.021410806,-0.12696755,-0.06944511,-0.7414296,-0.66742754,-0.10842766,0.670689,-0.7337709,,-0.112929896,0.27060354,-0.08515492,0.18511993,0.8305041,0.52535087,-0.9026134,-0.06770782,0.42509374,0.38861245,-0.5528821,0.7370901,,0.0013405775,0.40161312,-0.37263328,0.60724235,0.58848464,-0.5338001,-0.7832637,0.55607915,-0.27798194,0.133247,0.58690864,0.7986135,,1.1878798797817172,0.6141426090898299,0.20189846379,-0.29775971974802456,0.4086797707984324,0.6843027947151279,-0.276704848031469,,-0.7007685037400062,-0.33218563185189304,0.17810117197000003,1.3015454792084427,0.5746931180134426,0.2892733268171286,-0.12365145806364941,,-0.0835990895089634,-0.040362920613933866,0.08425707732,-0.07457553900674968,,-0.00026239082,-1.513958e-05,2.9683113e-05,0.9999999,0.00022187829,0.0002028048,-0.00022188574,1.0,3.2752752e-05,-0.0002027899,-3.2812357e-05,1.0,239,0.725,0,0,0.0,False,1.0472571087278046,0.36832963456134715
0.7486735329730436,14:47:16.342729,14:47:08.155004,0,,0.14064443,0.010872722,0.034631416,-0.13973674,-0.8704534,-0.4720004,-0.4023547,-0.38563535,0.8302988,-0.9047564,0.30593485,-0.29634362,,0.028638601,-0.04250246,0.026683033,-0.505635,-0.62306476,0.5967606,-0.3755678,0.78168166,0.49791846,-0.7767124,0.02764085,-0.62924874,,0.10327347,1.339366,0.44166124,0.99167573,0.021410806,-0.12696755,-0.06944511,-0.7414296,-0.66742754,-0.10842766,0.670689,-0.7337709,,-0.11290556,0.27048796,-0.085064024,0.194972,0.8180297,0.5411223,-0.90509176,-0.06250064,0.42059794,0.3778821,-0.57177013,0.72820604,,0.001344097,0.4016189,-0.37260503,0.6050901,0.5910063,-0.53345805,-0.78556216,0.5521423,-0.27934018,0.12945299,0.5880905,0.79836804,,1.1880575026378244,0.6140035998980938,0.20194772281,-0.2885333622347055,0.39679239531883903,0.7060846058775199,-0.20842702838734029,,-0.7007993946715031,-0.3321933545847673,0.17811283858000002,1.295674160790876,0.5748297545132081,0.2854046868669662,-0.08330547372848252,,-0.0835990895089634,-0.040362920613933866,0.08425707732,-0.07457553900674968,,-0.00026239082,-1.513958e-05,2.9683113e-05,0.9999999,0.00022187829,0.0002028048,-0.00022188574,1.0,3.2752752e-05,-0.0002027899,-3.2812357e-05,1.0,247,0.749,0,0,0.0,False,1.047912463631536,0.41965148798991114
0.7712428499944508,14:47:16.369604,14:47:08.155004,0,,0.1405926,0.010865137,0.034432217,-0.15298074,-0.858363,-0.48970377,-0.4113571,-0.3952543,0.82131565,-0.89854443,0.32708865,-0.29262745,,0.028651543,-0.04246175,0.026674688,-0.50244814,-0.6249802,0.597449,-0.3797273,0.78030735,0.49691838,-0.776758,0.022807986,-0.62938607,,0.10327347,1.339366,0.44166124,0.99167573,0.021410806,-0.12696755,-0.06944511,-0.7414296,-0.66742754,-0.10842766,0.670689,-0.7337709,,-0.1128372,0.2703488,-0.08492843,0.20711005,0.8036407,0.5579131,-0.9073034,-0.055526398,0.41679415,0.36593166,-0.59251875,0.7176459,,0.0013309761,0.40163466,-0.37256667,0.6020609,0.59352,-0.5340943,-0.7884044,0.5476802,-0.28011596,0.12625842,0.58972913,0.7976706,,1.1884668074801583,0.6136946905831249,0.20203716682000003,-0.2772101052865412,0.3836752913413568,0.7300943592752878,-0.1269183393863349,,-0.7008997901988681,-0.33215474092039615,0.17813228293000002,1.2895931524298248,0.576059483011097,0.28088973990765426,-0.049329907972552434,,-0.0835990895089634,-0.040362920613933866,0.08425707732,-0.07457553900674968,,-0.00026239082,-1.513958e-05,2.9683113e-05,0.9999999,0.00022187829,0.0002028048,-0.00022188574,1.0,3.2752752e-05,-0.0002027899,-3.2812357e-05,1.0,255,0.774,0,0,0.0,False,1.047793308194494,0.4748840376816119
0.7981994609581307,14:47:16.399477,14:47:08.218261,0,,0.14054486,0.010865971,0.034282222,-0.16481346,-0.84693617,-0.5055052,-0.41504705,-0.40537584,0.8144976,-0.89474714,0.34404862,-0.284707,,0.028665595,-0.042409074,0.026674926,-0.49880195,-0.6271373,0.59824336,-0.3834926,0.7786946,0.49655646,-0.77725804,0.018261403,-0.628917,,0.10327347,1.339366,0.44166124,0.99167573,0.021410806,-0.12696755,-0.06944511,-0.7414296,-0.66742754,-0.10842766,0.670689,-0.7337709,,-0.11277669,0.270249,-0.08482281,0.21834736,0.79024684,0.57256824,-0.90725225,-0.051742446,0.41739202,0.35946882,-0.6106003,0.70565534,,0.0013153857,0.40166417,-0.37252355,0.59861726,0.59624714,-0.53492683,-0.7914311,0.54333484,-0.2800429,0.12366964,0.59099627,0.79713815,,1.1888452213909952,0.6133394448709105,0.20211753680000002,-0.2660965382818614,0.37657019335355385,0.7527955894765982,-0.031525404763915965,,-0.7010079084591072,-0.33205434539303125,0.17814783841,1.283721834012258,0.5779723940078131,0.27687952705168756,0.012087460893936641,,-0.0835990895089634,-0.040362920613933866,0.08425707732,-0.07457553900674968,,-0.00026239082,-1.513958e-05,2.9683113e-05,0.9999999,0.00022187829,0.0002028048,-0.00022188574,1.0,3.2752752e-05,-0.0002027899,-3.2812357e-05,1.0,274,0.832,0,0,0.0,False,1.0481507745056202,0.5145703627223268
0.8280718829482794,14:47:16.450658,14:47:08.218261,0,,0.14030297,0.010782957,0.033674076,-0.21772191,-0.8022301,-0.5558991,-0.43212694,-0.4314634,0.7919,-0.87513614,0.412633,-0.25272632,,0.028672792,-0.042312037,0.0266729,-0.49435705,-0.6292371,0.5997261,-0.38884762,0.7771294,0.49484104,-0.77743715,0.011426061,-0.62885684,,0.10327347,1.339366,0.44166124,0.99167573,0.021410806,-0.12696755,-0.06944511,-0.7414296,-0.66742754,-0.10842766,0.670689,-0.7337709,,-0.11248807,0.26978147,-0.08445761,0.26833376,0.7384001,0.61867785,-0.90567523,-0.025467588,0.42320654,0.328252,-0.6738818,0.66191685,,0.0013054743,0.40171877,-0.3724436,0.5943921,0.599186,-0.5363526,-0.7952255,0.53717715,-0.28117093,0.11964268,0.59364706,0.79578185,,1.1904592725617082,0.6117640073645687,0.20236901706000002,-0.2170290915064827,0.34268434141172466,0.8320481933621461,0.14766303578538853,,-0.7011546403837174,-0.3317531588109365,0.17816339389000002,1.2755439262163615,0.5797486685047639,0.26995861871421634,0.13965917654480864,,-0.0835990895089634,-0.040362920613933866,0.08425707732,-0.07457553900674968,,-0.00026239082,-1.513958e-05,2.9683113e-05,0.9999999,0.00022187829,0.0002028048,-0.00022188574,1.0,3.2752752e-05,-0.0002027899,-3.2812357e-05,1.0,282,0.857,0,0,0.0,False,1.0484486630982253,0.6003159993066451
0.8792446289444342,14:47:16.471685,14:47:08.284858,0,,0.14016831,0.0107228905,0.033404484,-0.23770449,-0.7871632,-0.5690962,-0.44174236,-0.43419054,0.7850746,-0.8650781,0.4380098,-0.24451447,,0.028675921,-0.042269852,0.026673973,-0.49296722,-0.6301663,0.5998947,-0.3904407,0.77640015,0.4947313,-0.7775213,0.009662986,-0.6287824,,0.10327347,1.339366,0.44166124,0.99167573,0.021410806,-0.12696755,-0.06944511,-0.7414296,-0.66742754,-0.10842766,0.670689,-0.7337709,,-0.112334125,0.26955754,-0.08431416,0.28680813,0.7210668,0.63071686,-0.9056235,-0.010612188,0.42394978,0.3123894,-0.6927843,0.64997137,,0.0013009349,0.40174407,-0.37241,0.59307176,0.6003387,-0.5365253,-0.7963867,0.5354416,-0.28119487,0.11846581,0.59405035,0.795657,,1.1911465957875143,0.6110457932072659,0.20245975736000002,-0.1996248261972672,0.32587805194057545,0.8541655057512837,0.22851834852185693,,-0.7012241449795855,-0.33159098142057775,0.17816728276000002,1.2730276468945474,0.5802952145038256,0.26828776599732224,0.18327204220266136,,-0.0835990895089634,-0.040362920613933866,0.08425707732,-0.07457553900674968,,-0.00026239082,-1.513958e-05,2.9683113e-05,0.9999999,0.00022187829,0.0002028048,-0.00022188574,1.0,3.2752752e-05,-0.0002027899,-3.2812357e-05,1.0,290,0.881,0,0,0.0,False,1.048508240816746,0.6312153278054988
0.90027719194768,14:47:16.501844,14:47:08.284858,0,,0.1399417,0.010619238,0.032986477,-0.27405328,-0.75692844,-0.59325707,-0.45469862,-0.44158968,0.7734647,-0.8474337,0.4817238,-0.22315529,,0.028681077,-0.042198565,0.026679575,-0.49094287,-0.63133883,0.6003216,-0.39263478,0.77547514,0.49444556,-0.7776972,0.007037282,-0.62859976,,0.10327347,1.339366,0.44166124,0.99167573,0.021410806,-0.12696755,-0.06944511,-0.7414296,-0.66742754,-0.10842766,0.670689,-0.7337709,,-0.11207831,0.2692029,-0.084100604,0.32072094,0.68680096,0.6522595,-0.9026251,0.012909975,0.43023396,0.28706446,-0.7267309,0.6240643,,0.0012929636,0.40178984,-0.3723554,0.59115106,0.60184085,-0.5369618,-0.7980465,0.5329275,-0.2812649,0.11688502,0.5947906,0.79533774,,1.1923204511843963,0.6099028287418806,0.20259457152000002,-0.1669131950136814,0.29909729798654916,0.8969131723517663,0.339265625360898,,-0.7013477087055731,-0.3312975175713572,0.17816987534,1.2694629178553105,0.5811150335024182,0.2656589688117702,0.2538366787726699,,-0.0835990895089634,-0.040362920613933866,0.08425707732,-0.07457553900674968,,-0.00026239082,-1.513958e-05,2.9683113e-05,0.9999999,0.00022187829,0.0002028048,-0.00022188574,1.0,3.2752752e-05,-0.0002027899,-3.2812357e-05,1.0,298,0.905,0,0,0.0,False,1.047793308194494,0.6613421730918807
0.9304389039753005,14:47:16.524792,14:47:08.351722,0,,0.13976613,0.010569438,0.032736585,-0.29713985,-0.7348185,-0.60971266,-0.45900583,-0.45000508,0.7660346,-0.83727014,0.50748116,-0.20357159,,0.028680049,-0.042118948,0.026680827,-0.4892263,-0.63267356,0.6003179,-0.39490545,0.77440405,0.4943161,-0.7776293,0.004763633,-0.628705,,0.10327347,1.339366,0.44166124,0.99167573,0.021410806,-0.12696755,-0.06944511,-0.7414296,-0.66742754,-0.10842766,0.670689,-0.7337709,,-0.1118848,0.26900056,-0.08396883,0.34256777,0.662114,0.6665226,-0.8985327,0.023703,0.4382661,0.27438352,-0.7490282,0.60305095,,0.0012913817,0.40183774,-0.37229177,0.5895094,0.6034669,-0.53694165,-0.7995211,0.530628,-0.28142488,0.11508568,0.5951988,0.7952947,,1.193239456396429,0.609053328125716,0.2026879044,-0.14531513083477537,0.28584355750930146,0.9277320003447569,0.42012093809736617,,-0.7014558269658122,-0.33094227185914293,0.17817246792000002,1.2658981888160736,0.5815249430017145,0.2633644253373075,0.3247280034749471,,-0.0835990895089634,-0.040362920613933866,0.08425707732,-0.07457553900674968,,-0.00026239082,-1.513958e-05,2.9683113e-05,0.9999999,0.00022187829,0.0002028048,-0.00022188574,1.0,3.2752752e-05,-0.0002027899,-3.2812357e-05,1.0,306,0.93,0,0,0.0,False,1.0487465516908308,0.668342802204902
0.9533908469602466,14:47:16.554255,14:47:08.351722,0,,0.1394705,0.010463446,0.032307878,-0.33973193,-0.696718,-0.631796,-0.46956977,-0.4563895,0.7557862,-0.8149148,0.5534371,-0.17210774,,0.028677605,-0.04206894,0.02668488,-0.48813915,-0.6328591,0.60100675,-0.3956476,0.7742598,0.49394834,-0.77793515,0.0033285916,-0.62833583,,0.10327347,1.339366,0.44166124,0.99167573,0.021410806,-0.12696755,-0.06944511,-0.7414296,-0.66742754,-0.10842766,0.670689,-0.7337709,,-0.11155953,0.26863816,-0.08375599,0.3824159,0.6198863,0.68520004,-0.8904794,0.04934831,0.45233965,0.2465857,-0.7831384,0.5708676,,0.0012917795,0.40187064,-0.37225384,0.5884894,0.60382485,-0.5376576,-0.8003256,0.52941465,-0.28142336,0.1147134,0.59591585,0.7948114,,1.1947222211082802,0.6078563045302111,0.20282531114000002,-0.10610311140316933,0.2567399830592626,0.974334061071452,0.5040797880903858,,-0.7014944406301833,-0.33070286714004193,0.17817246792000002,1.264430359211682,0.5822081255005418,0.26166383345685745,0.3554366879081917,,-0.0835990895089634,-0.040362920613933866,0.08425707732,-0.07457553900674968,,-0.00026239082,-1.513958e-05,2.9683113e-05,0.9999999,0.00022187829,0.0002028048,-0.00022188574,1.0,3.2752752e-05,-0.0002027899,-3.2812357e-05,1.0,321,0.976,0,0,0.0,False,1.0481507745056202,0.6795438087857364
0.9828464749734849,14:47:16.584854,14:47:08.419832,0,,0.138899,0.010174796,0.031552926,-0.41208556,-0.6339754,-0.65441614,-0.5032717,-0.44035393,0.74350923,-0.75954133,0.6357386,-0.1375984,,0.028676592,-0.041925427,0.026697338,-0.4847533,-0.633582,0.6029824,-0.39783925,0.7736751,0.4931035,-0.77893394,-0.00085651875,-0.6271054,,0.10327347,1.339366,0.44166124,0.99167573,0.021410806,-0.12696755,-0.06944511,-0.7414296,-0.66742754,-0.10842766,0.670689,-0.7337709,,-0.11094172,0.26792568,-0.08345505,0.4477307,0.55124485,0.70403576,-0.8766736,0.11563124,0.46698272,0.17601329,-0.82629204,0.5350334,,0.0012868829,0.40196505,-0.37214515,0.58531433,0.60505414,-0.5397375,-0.80279785,0.52580005,-0.2811582,0.11367806,0.59786606,0.79349446,,1.1969927045733022,0.6063889852841085,0.20297697707,-0.04361550824478107,0.1837760921845174,1.0275419586545178,0.6205441072441268,,-0.7016334498219193,-0.33003098937998443,0.1781750605,1.260026870398507,0.5843943094967888,0.256859033612514,0.44184569889322545,,-0.0835990895089634,-0.040362920613933866,0.08425707732,-0.07457553900674968,,-0.00026239082,-1.513958e-05,2.9683113e-05,0.9999999,0.00022187829,0.0002028048,-0.00022188574,1.0,3.2752752e-05,-0.0002027899,-3.2812357e-05,1.0,354,1.077,0,0,0.0,False,1.0488061294093516,0.7157539593703302
1.0134006499429233,14:47:16.691174,14:47:08.489443,0,,0.13689935,0.009547964,0.029880136,-0.6009858,-0.43749478,-0.6688903,-0.55401266,-0.3751927,0.74316907,-0.5760954,0.8172078,-0.016892225,,0.028687946,-0.041650515,0.02668184,-0.47695047,-0.63518554,0.6075009,-0.401465,0.7723062,0.49231005,-0.78188497,-0.009082824,-0.6233567,,0.10327347,1.339366,0.44166124,0.99167573,0.021410806,-0.12696755,-0.06944511,-0.7414296,-0.66742754,-0.10842766,0.670689,-0.7337709,,-0.108842686,0.26636934,-0.082853764,0.61695427,0.34371576,0.70797384,-0.7869128,0.28273484,0.548479,-0.01164798,-0.8955001,0.4449088,,0.0012689467,0.40211287,-0.37191325,0.5780299,0.6076584,-0.54464,-0.8081782,0.51858693,-0.2791338,0.112825185,0.6015138,0.790855,,1.2039431641601042,0.602967814620827,0.20340993793,0.1392341224737242,-0.006558551988741141,1.1361085378833717,0.8052862460419967,,-0.7018110726780266,-0.3287721839214858,0.17823080097000002,1.251639272659126,0.5904063154864682,0.24779103010270287,0.5563498892533552,,-0.0835990895089634,-0.040362920613933866,0.08425707732,-0.07457553900674968,,-0.00026239082,-1.513958e-05,2.9683113e-05,0.9999999,0.00022187829,0.0002028048,-0.00022188574,1.0,3.2752752e-05,-0.0002027899,-3.2812357e-05,1.0,362,1.102,0,0,0.0,False,1.0496997951871672,0.7685724990230578
1.1197733269655146,14:47:16.720403,14:47:08.489443,0,,0.13617516,0.009461209,0.029489458,-0.63928735,-0.3761285,-0.6707002,-0.55669624,-0.37531477,0.74109924,-0.5304722,0.84715176,0.030544609,,0.028701,-0.041561347,0.026647687,-0.4744475,-0.6346782,0.609986,-0.40153283,0.7726885,0.4916544,-0.7833715,-0.011665225,-0.62144434,,0.10327347,1.339366,0.44166124,0.99167573,0.021410806,-0.12696755,-0.06944511,-0.7414296,-0.66742754,-0.10842766,0.670689,-0.7337709,,-0.10809333,0.2660544,-0.08269921,0.6509584,0.2800772,0.7055564,-0.75741476,0.30177802,0.57901025,-0.050753847,-0.9113105,0.40857956,,0.0012572656,0.40213642,-0.37182054,0.57572305,0.6074476,-0.54731196,-0.80969316,0.516685,-0.278269,0.113754034,0.6033606,0.7893136,,1.2065766160702147,0.6014232680459821,0.20356808531,0.1818011810010826,-0.0449534084228299,1.1741146255135924,0.8379550592688527,,-0.7018187954109008,-0.32833971088052927,0.17828265257,1.2501714430547342,0.5930024089820115,0.24453058757050283,0.5808514991734971,,-0.0835990895089634,-0.040362920613933866,0.08425707732,-0.07457553900674968,,-0.00026239082,-1.513958e-05,2.9683113e-05,0.9999999,0.00022187829,0.0002028048,-0.00022188574,1.0,3.2752752e-05,-0.0002027899,-3.2812357e-05,1.0,370,1.126,0,0,0.0,False,1.0501168392168143,0.77644217175011
1.1490002399659716,14:47:16.741953,14:47:08.554487,0,,0.13566796,0.009427115,0.029249698,-0.66003925,-0.33294064,-0.67342305,-0.55546784,-0.38722765,0.73587376,-0.50577027,0.8597705,0.0706476,,0.028704733,-0.04149985,0.026616395,-0.47315267,-0.6349547,0.6107035,-0.40195286,0.77244294,0.4916972,-0.78393906,-0.012826264,-0.62070537,,0.10327347,1.339366,0.44166124,0.99167573,0.021410806,-0.12696755,-0.06944511,-0.7414296,-0.66742754,-0.10842766,0.670689,-0.7337709,,-0.10756997,0.26587632,-0.08259782,0.66953194,0.23536648,0.70450664,-0.7394658,0.30074954,0.60227907,-0.07012375,-0.92420363,0.37540686,,0.0012553495,0.40214708,-0.3717523,0.5745178,0.60786664,-0.54811263,-0.8105416,0.51564187,-0.2777332,0.113805056,0.60383075,0.7889467,,1.208545912953142,0.6001335716559867,0.20367567738000003,0.20612521444528742,-0.06339933589116437,1.208595582666063,0.8562495946758919,,-0.7018110726780266,-0.32803080156556025,0.17832024498000001,1.248913303393827,0.594095500980135,0.2431491719000881,0.5922855838028964,,-0.0835990895089634,-0.040362920613933866,0.08425707732,-0.07457553900674968,,-0.00026239082,-1.513958e-05,2.9683113e-05,0.9999999,0.00022187829,0.0002028048,-0.00022188574,1.0,3.2752752e-05,-0.0002027899,-3.2812357e-05,1.0,378,1.151,0,0,0.0,False,1.0499381060612514,0.785953371303663
1.1705489809974097,14:47:16.769231,14:47:08.554487,0,,0.13500683,0.009417728,0.028946087,-0.6813383,-0.29057807,-0.67182016,-0.54863524,-0.4048369,0.7315097,-0.4845382,0.8669899,0.116409436,,0.028717645,-0.04141028,0.02658385,-0.47066516,-0.63367224,0.6139491,-0.40109137,0.77345145,0.49081427,-0.7858753,-0.01524055,-0.6181972,,0.10327347,1.339366,0.44166124,0.99167573,0.021410806,-0.12696755,-0.06944511,-0.7414296,-0.66742754,-0.10842766,0.670689,-0.7337709,,-0.106886595,0.26567608,-0.08244861,0.6892603,0.19162823,0.6987123,-0.7197167,0.29188946,0.6299273,-0.08323489,-0.9370588,0.33910584,,0.0012436059,0.40217218,-0.3716602,0.57225066,0.6068474,-0.5516026,-0.81186914,0.51415455,-0.2766109,0.1157484,0.6061199,0.78690594,,1.2113260967878627,0.5980020973827007,0.20382993589,0.23233645738085298,-0.07460352887193049,1.2456659798972418,0.8719306250247827,,-0.7017879044794039,-0.32757516032598105,0.17837339287,1.248493923506858,0.5972381404747401,0.23976977271366484,0.605353109093639,,-0.0835990895089634,-0.040362920613933866,0.08425707732,-0.07457553900674968,,-0.00026239082,-1.513958e-05,2.9683113e-05,0.9999999,0.00022187829,0.0002028048,-0.00022188574,1.0,3.2752752e-05,-0.0002027899,-3.2812357e-05,1.0,386,1.175,0,0,0.0,False,1.0498189506242088,0.7924229182081106
1.1978236149880104,14:47:16.790776,14:47:08.620623,0,,0.13438988,0.009342998,0.02868691,-0.69338924,-0.26379398,-0.6705401,-0.54736066,-0.41237897,0.7282443,-0.4686231,0.8719841,0.14154862,,0.02871067,-0.04133105,0.026569426,-0.4669351,-0.6363373,0.61404085,-0.40438825,0.7711835,0.49167705,-0.7864106,-0.018729687,-0.6174201,,0.10327347,1.339366,0.44166124,0.99167573,0.021410806,-0.12696755,-0.06944511,-0.7414296,-0.66742754,-0.10842766,0.670689,-0.7337709,,-0.10625462,0.2654569,-0.082371466,0.69994146,0.16413608,0.6950837,-0.7078194,0.28922635,0.6444686,-0.09525598,-0.943084,0.3186202,,0.0012497914,0.40220794,-0.37158796,0.5687134,0.60997427,-0.55181193,-0.8146585,0.51032907,-0.27549174,0.11356281,0.60621417,0.78715175,,1.2137973713076147,0.5958551776436662,0.20391549103,0.24680506348128517,-0.0844413568550422,1.2657765225041873,0.8738907538183939,,-0.7017801817465297,-0.3272971419425089,0.17839672609,1.242832295032776,0.5992876879712218,0.23695500179625062,0.6115601836067415,,-0.0835990895089634,-0.040362920613933866,0.08425707732,-0.07457553900674968,,-0.00026239082,-1.513958e-05,2.9683113e-05,0.9999999,0.00022187829,0.0002028048,-0.00022188574,1.0,3.2752752e-05,-0.0002027899,-3.2812357e-05,1.0,394,1.2,0,0,0.0,False,1.0487465516908308,0.7989407453133377
1.2193459869595245,14:47:16.820270,14:47:08.620623,0,,0.13406365,0.0092834085,0.028555617,-0.69892335,-0.25298697,-0.6689571,-0.5467952,-0.4138872,0.72781336,-0.46100006,0.8744684,0.15094331,,0.028704226,-0.04123227,0.026557505,-0.4624942,-0.6374309,0.6162635,-0.4075083,0.7701286,0.4907536,-0.78742373,-0.024161845,-0.6159384,,0.10327347,1.339366,0.44166124,0.99167573,0.021410806,-0.12696755,-0.06944511,-0.7414296,-0.66742754,-0.10842766,0.670689,-0.7337709,,-0.10592207,0.26533005,-0.0823484,0.7048183,0.15308781,0.6926726,-0.7021582,0.28960055,0.6504655,-0.10102004,-0.9448257,0.31160763,,0.0012545291,0.40225717,-0.3715014,0.56452155,0.6117331,-0.5541643,-0.81780744,0.50548124,-0.27509952,0.111832164,0.6084993,0.7856349,,1.2150638994989875,0.594642708582413,0.20394400941000002,0.25351514167278993,-0.08895036134730173,1.2723937479712295,0.8751975063474682,,-0.7017724590136554,-0.3269264507645462,0.17842265189,1.2369609766152092,0.602157054466296,0.23118471873272217,0.6210341394425296,,-0.0835990895089634,-0.040362920613933866,0.08425707732,-0.07457553900674968,,-0.00026239082,-1.513958e-05,2.9683113e-05,0.9999999,0.00022187829,0.0002028048,-0.00022188574,1.0,3.2752752e-05,-0.0002027899,-3.2812357e-05,1.0,402,1.225,0,0,0.0,False,1.0488061294093516,0.8020789583640022
1.2488387559424154,14:47:16.840736,14:47:08.620623,0,,0.13378957,0.009217754,0.028446585,-0.7005379,-0.24434163,-0.67048013,-0.548336,-0.4169861,0.7248794,-0.4566991,0.87545407,0.15813316,,0.028700829,-0.041196566,0.026550472,-0.46187317,-0.63711697,0.6170534,-0.40806827,0.77034503,0.48994803,-0.78749824,-0.02550608,-0.615789,,0.10327347,1.339366,0.44166124,0.99167573,0.021410806,-0.12696755,-0.06944511,-0.7414296,-0.66742754,-0.10842766,0.670689,-0.7337709,,-0.10564363,0.26521286,-0.08234042,0.70596695,0.1442313,0.6934032,-0.70036244,0.28782806,0.65318257,-0.105371535,-0.94675887,0.3042113,,0.0012576384,0.40227285,-0.3714685,0.5639313,0.6115734,-0.554941,-0.8182666,0.50449574,-0.27554277,0.111450724,0.60947686,0.784931,,1.216114191169882,0.5935538032471473,0.20395697231,0.2549829712771816,-0.09209300084190686,1.2795303692041187,0.8742174419506628,,-0.7017801817465297,-0.326748827908439,0.17843042963000003,1.2359125268977864,0.6024303274658269,0.22932830812251814,0.6272412139556325,,-0.0835990895089634,-0.040362920613933866,0.08425707732,-0.07457553900674968,,-0.00026239082,-1.513958e-05,2.9683113e-05,0.9999999,0.00022187829,0.0002028048,-0.00022188574,1.0,3.2752752e-05,-0.0002027899,-3.2812357e-05,1.0,439,1.339,0,0,0.0,False,1.0488061294093516,0.8050240506115491
1.2693330839974806,14:47:16.952360,14:47:08.761305,0,,0.13283958,0.008644506,0.02808772,-0.72959423,-0.20685576,-0.6518458,-0.5823664,-0.31177127,0.75076497,-0.3585269,0.9273669,0.10700071,,0.028732464,-0.041171886,0.02654457,-0.4599007,-0.6385706,0.61702424,-0.40840977,0.76912653,0.49157494,-0.78847504,-0.025923073,-0.6145203,,0.10329611,1.3393651,0.44166237,0.99167526,0.021405578,-0.12697224,-0.0694521,-0.74142975,-0.66742665,-0.10842766,0.670689,-0.7337709,,-0.10472076,0.26456317,-0.08255595,0.7244889,0.1082784,0.68072873,-0.6586722,0.3998082,0.63742006,-0.20314209,-0.91018087,0.36097658,,0.0012041237,0.4022769,-0.3714408,0.5620955,0.6131084,-0.5551096,-0.8194766,0.50360805,-0.27356362,0.111833505,0.6086682,0.7855038,,1.21673200979982,0.5927043026309826,0.20385456540000002,0.29608220020014836,-0.19101782667208575,1.2135019141878782,0.879117763934691,,-0.7016720634862905,-0.3267719961070617,0.17844468882000003,1.2346543872368794,0.6044798749623086,0.2297806868107264,0.6158071293262329,,-0.0835990895089634,-0.040362920613933866,0.08425707732,-0.07457553900674968,,-0.000240013,-1.3291836e-05,2.6464462e-05,0.99999994,0.00021670759,0.00019809604,-0.00021671504,1.0,3.2007694e-05,-0.00019806623,-3.20971e-05,1.0,447,1.364,0,0,0.0,False,1.0473762641648467,0.783732482067808
1.3808837739634328,14:47:16.981690,14:47:08.761305,0,,0.13257876,0.00838846,0.027996585,-0.7338897,-0.18743034,-0.652898,-0.601803,-0.2663543,0.75292,-0.31502226,0.94547623,0.08267856,,0.028729968,-0.041162394,0.026545763,-0.45804572,-0.6392808,0.6176683,-0.4091253,0.76848674,0.4919805,-0.7891835,-0.02735418,-0.61354804,,0.10329611,1.3393651,0.44166237,0.99167526,0.021405578,-0.12697224,-0.0694521,-0.74142975,-0.66742665,-0.10842766,0.670689,-0.7337709,,-0.104467645,0.26431742,-0.08268792,0.723922,0.089905016,0.6839986,-0.64355975,0.44518623,0.62260747,-0.24853119,-0.8909132,0.38013935,,0.0012061743,0.40228364,-0.37143388,0.5603601,0.6140019,-0.5558761,-0.8206752,0.50216615,-0.27261952,0.11175324,0.6089588,0.78529,,1.2164153777519768,0.5929668755487063,0.20381826928000002,0.30635700743089006,-0.2381574190911627,1.1883133523936453,0.8753608504136023,,-0.7016180043561709,-0.32678744157281014,0.17845117027000001,1.2329768676890032,0.6061195129594938,0.228688708186791,0.6113968395406072,,-0.0835990895089634,-0.040362920613933866,0.08425707732,-0.07457553900674968,,-0.000240013,-1.3291836e-05,2.6464462e-05,0.99999994,0.00021670759,0.00019809604,-0.00021671504,1.0,3.2007694e-05,-0.00019806623,-3.20971e-05,1.0,455,1.388,0,0,0.0,False,1.0473762641648467,0.7841670038748232
1.4102491699741222,14:47:17.010572,14:47:08.832526,0,,0.13220695,0.008000374,0.027892992,-0.7374661,-0.14427988,-0.6597932,-0.62697446,-0.21694288,0.7482238,-0.25109106,0.9654632,0.06952822,,0.028725289,-0.04113128,0.026525617,-0.45479068,-0.6424505,0.61678416,-0.41270575,0.7657316,0.49328434,-0.78920186,-0.030209363,-0.61339056,,0.10329611,1.3393651,0.44166237,0.99167526,0.021405578,-0.12697224,-0.0694521,-0.74142975,-0.66742665,-0.10842766,0.670689,-0.7337709,,-0.10411031,0.2639678,-0.082910866,0.7205554,0.047990937,0.6917346,-0.61889887,0.4943594,0.61038756,-0.31267244,-0.86793184,0.3859149,,0.0012122272,0.40228638,-0.37139717,0.55724204,0.6175699,-0.5550574,-0.823163,0.49861962,-0.27162692,0.10901391,0.6082647,0.7862125,,1.2158516182521584,0.593298953062298,0.20376641768000003,0.3220837531922294,-0.3057924864750557,1.1742016430841773,0.8769942910749453,,-0.7015871134246741,-0.3267797188399359,0.17847579978000003,1.227315239214921,0.6074858779571483,0.22700277796884283,0.6115601836067417,,-0.0835990895089634,-0.040362920613933866,0.08425707732,-0.07457553900674968,,-0.000240013,-1.3291836e-05,2.6464462e-05,0.99999994,0.00021670759,0.00019809604,-0.00021671504,1.0,3.2007694e-05,-0.00019806623,-3.20971e-05,1.0,463,1.413,0,0,0.0,False,1.0476741527574522,0.7834910810639109
1.4391703979927115,14:47:17.033417,14:47:08.832526,0,,0.13199252,0.007761672,0.02785191,-0.7386625,-0.11439246,-0.6642982,-0.6394299,-0.19296789,0.7442396,-0.2133236,0.9745141,0.069392174,,0.028735101,-0.041136734,0.02650559,-0.4552982,-0.64150065,0.6173981,-0.41182262,0.7665396,0.49276716,-0.7893704,-0.029902577,-0.61318856,,0.10329611,1.3393651,0.44166237,0.99167526,0.021405578,-0.12697224,-0.0694521,-0.74142975,-0.66742665,-0.10842766,0.670689,-0.7337709,,-0.10390669,0.26376784,-0.083063126,0.7177888,0.01880671,0.69600683,-0.6025659,0.51762414,0.6074369,-0.34884605,-0.8554014,0.38287708,,0.0012050131,0.40226603,-0.3713894,0.5577384,0.61656594,-0.5556746,-0.8227216,0.4992323,-0.2718386,0.10980429,0.6087804,0.7857032,,1.2154423134098244,0.5934534077197825,0.20372882527000002,0.33298763025342465,-0.3466467999049224,1.172475416769106,0.8758508826120053,,-0.7015793906917998,-0.3267797188399359,0.17849783671000002,1.2285733788758282,0.6074858779571483,0.2269210992287023,0.6117235276728759,,-0.0835990895089634,-0.040362920613933866,0.08425707732,-0.07457553900674968,,-0.000240013,-1.3291836e-05,2.6464462e-05,0.99999994,0.00021670759,0.00019809604,-0.00021671504,1.0,3.2007694e-05,-0.00019806623,-3.20971e-05,1.0,471,1.438,0,0,0.0,False,1.0477337304759726,0.7919883964010954
1.4620092369732447,14:47:17.061150,14:47:08.832526,0,,0.13154802,0.0073115677,0.02777262,-0.7378964,-0.0496373,-0.6730862,-0.6607306,-0.15025112,0.73543155,-0.13763687,0.987401,0.078072906,,0.028739847,-0.04113608,0.026480973,-0.45522898,-0.6418577,0.61707807,-0.41197833,0.76624644,0.49309272,-0.7893292,-0.029752672,-0.613249,,0.10329611,1.3393651,0.44166237,0.99167526,0.021405578,-0.12697224,-0.0694521,-0.74142975,-0.66742665,-0.10842766,0.670689,-0.7337709,,-0.10348262,0.26339018,-0.08335298,0.7093002,-0.044354506,0.7035097,-0.56719047,0.55668545,0.6069566,-0.41855484,-0.8295384,0.36969966,,0.0012031877,0.40224615,-0.3713742,0.55766964,0.61691165,-0.5553599,-0.8227879,0.4992207,-0.27165943,0.10965727,0.60843956,0.7859876,,1.21473954471827,0.5936310305758896,0.20370549205000002,0.3545856944323307,-0.42097705577732203,1.1755849233210034,0.8758508826120055,,-0.7015562224931772,-0.3267797188399359,0.17852246622,1.2283636889323437,0.6074858779571483,0.22724781418926449,0.6140103445987557,,-0.0835990895089634,-0.040362920613933866,0.08425707732,-0.07457553900674968,,-0.000240013,-1.3291836e-05,2.6464462e-05,0.99999994,0.00021670759,0.00019809604,-0.00021671504,1.0,3.2007694e-05,-0.00019806623,-3.20971e-05,1.0,479,1.462,0,0,0.0,False,1.0482699299426623,0.7965750154751441
1.489743512996938,14:47:17.087494,14:47:08.902424,0,,0.13099785,0.006723985,0.027714923,-0.72464037,0.022308722,-0.68876606,-0.6878125,-0.08512175,0.72088015,-0.042547077,0.9961208,0.07702693,,0.02874858,-0.04113745,0.026448071,-0.45524335,-0.64165896,0.617274,-0.41199064,0.7664051,0.49283576,-0.78931445,-0.029950917,-0.61325836,,0.10329611,1.3393651,0.44166237,0.99167526,0.021405578,-0.12697224,-0.0694521,-0.74142975,-0.66742665,-0.10842766,0.670689,-0.7337709,,-0.10296292,0.2629276,-0.08376186,0.68638927,-0.11306666,0.718391,-0.5231995,0.6093358,0.59579545,-0.505106,-0.7848094,0.35908514,,0.0011984474,0.40221798,-0.37135562,0.5576826,0.61673295,-0.55554533,-0.8227817,0.49913254,-0.27184013,0.10963799,0.608693,0.7857941,,1.2137819258418663,0.5938781580278648,0.20370938092000002,0.3751353088938141,-0.5196286086079701,1.1679789679182937,0.8761775707442738,,-0.7015330542945545,-0.32678744157281014,0.17855616976000002,1.2283636889323437,0.6074858779571483,0.2269210992287023,0.6218508597732011,,-0.0835990895089634,-0.040362920613933866,0.08425707732,-0.07457553900674968,,-0.000240013,-1.3291836e-05,2.6464462e-05,0.99999994,0.00021670759,0.00019809604,-0.00021671504,1.0,3.2007694e-05,-0.00019806623,-3.20971e-05,1.0,512,1.565,0,0,0.0,False,1.048091196787099,0.8007271127421771
1.5160904899821617,14:47:17.180237,14:47:09.005886,0,,0.12972817,0.0051391274,0.027806312,-0.65596414,0.23921433,-0.71588236,-0.7190371,0.090409786,0.6890657,0.22955713,0.9667485,0.11269842,,0.028799862,-0.041119523,0.026369572,-0.45316207,-0.64066225,0.6198353,-0.4107443,0.7671832,0.49266553,-0.79115945,-0.031336546,-0.6108067,,0.10329611,1.3393651,0.44166237,0.99167526,0.021405578,-0.12697224,-0.0694521,-0.74142975,-0.66742665,-0.10842766,0.670689,-0.7337709,,-0.10179563,0.26184288,-0.08502403,0.5928107,-0.31656158,0.7405162,-0.36373445,0.7151331,0.59689355,-0.7185212,-0.6231961,0.3087942,,0.0011562577,0.4021598,-0.37129277,0.55579597,0.6158831,-0.55837154,-0.82376385,0.4983664,-0.27026662,0.111820966,0.6101794,0.7843323,,1.2087930404051173,0.5942334037400792,0.20398808327,0.464253534874737,-0.7961808841332215,1.1495960869401318,0.8758508826120053,,-0.7015407770274287,-0.326748827908439,0.17866376183000002,1.2287830688193129,0.6104918809519879,0.22528669274878665,0.6267511817572294,,-0.0835990895089634,-0.040362920613933866,0.08425707732,-0.07457553900674968,,-0.000240013,-1.3291836e-05,2.6464462e-05,0.99999994,0.00021670759,0.00019809604,-0.00021671504,1.0,3.2007694e-05,-0.00019806623,-3.20971e-05,1.0,520,1.589,0,0,0.0,False,1.0474954196018889,0.7969612570813798
1.6088170009898022,14:47:17.204943,14:47:09.005886,0,,0.12956583,0.004855931,0.027786925,-0.6365499,0.2706853,-0.722173,-0.7207276,0.12451011,0.68194485,0.27451026,0.95458204,0.115833476,,0.028804295,-0.041118182,0.026370943,-0.45265135,-0.64094096,0.6199205,-0.41053763,0.76695365,0.49319488,-0.791559,-0.031255335,-0.610293,,0.10329611,1.3393651,0.44166237,0.99167526,0.021405578,-0.12697224,-0.0694521,-0.74142975,-0.66742665,-0.10842766,0.670689,-0.7337709,,-0.10164817,0.2616238,-0.085216865,0.56951714,-0.34492487,0.74610794,-0.33497465,0.73151284,0.5938695,-0.7506279,-0.5881461,0.301068,,0.0011516508,0.40216118,-0.3712923,0.5553298,0.61615723,-0.55853295,-0.8240205,0.49832824,-0.2695537,0.11224528,0.6099338,0.7844627,,1.2074956212822474,0.5940017217538524,0.20411771227000003,0.47956090074910723,-0.8442769320506565,1.1402980173977781,0.8755241944797367,,-0.7015407770274287,-0.3267565506413132,0.1786676507,1.2287830688193129,0.6111750634508152,0.22562806937185065,0.6239743326329468,,-0.0835990895089634,-0.040362920613933866,0.08425707732,-0.07457553900674968,,-0.000240013,-1.3291836e-05,2.6464462e-05,0.99999994,0.00021670759,0.00019809604,-0.00021671504,1.0,3.2007694e-05,-0.00019806623,-3.20971e-05,1.0,528,1.614,0,0,0.0,False,1.0482699299426623,0.7918918359995364
1.6335386569844559,14:47:17.232684,14:47:09.005886,0,,0.1293205,0.004379496,0.027762443,-0.6046273,0.31530604,-0.73144233,-0.7218082,0.17137605,0.6705394,0.33677685,0.9333876,0.123971805,,0.028797112,-0.04110477,0.026356697,-0.45111418,-0.64288276,0.6190296,-0.41263562,0.7652724,0.49405488,-0.79134566,-0.03255856,-0.6105015,,0.10329611,1.3393651,0.44166237,0.99167526,0.021405578,-0.12697224,-0.0694521,-0.74142975,-0.66742665,-0.10842766,0.670689,-0.7337709,,-0.10142842,0.2612602,-0.08554444,0.53231776,-0.38488042,0.7539926,-0.2942969,0.7509802,0.59111595,-0.7937425,-0.5365592,0.286491,,0.0011600407,0.40215847,-0.37127343,0.55384374,0.6182902,-0.55765074,-0.8252567,0.4965167,-0.26911438,0.110492125,0.60925233,0.78524077,,1.2055803835294399,0.5932680621308011,0.20427845223000002,0.5001105152105906,-0.913005091432673,1.1296913710023793,0.8755241944797367,,-0.7015021633630576,-0.32676427337418745,0.1786806136,1.225637719667045,0.6115849729501114,0.22504877944033974,0.6205441072441268,,-0.0835990895089634,-0.040362920613933866,0.08425707732,-0.07457553900674968,,-0.000240013,-1.3291836e-05,2.6464462e-05,0.99999994,0.00021670759,0.00019809604,-0.00021671504,1.0,3.2007694e-05,-0.00019806623,-3.20971e-05,1.0,536,1.638,0,0,0.0,False,1.0480316190685781,0.789188144755887
1.6612680879770778,14:47:17.257170,14:47:09.071764,0,,0.12911475,0.004116446,0.027664676,-0.5872298,0.35201865,-0.7288648,-0.7149371,0.19662479,0.6709721,0.3795077,0.9151074,0.13620725,,0.028793216,-0.041083418,0.026354909,-0.44850558,-0.64472324,0.619011,-0.4150072,0.76361233,0.4946367,-0.7915882,-0.035046637,-0.6100492,,0.10329611,1.3393651,0.44166237,0.99167526,0.021405578,-0.12697224,-0.0694521,-0.74142975,-0.66742665,-0.10842766,0.670689,-0.7337709,,-0.10122987,0.26100385,-0.08567069,0.51169676,-0.41841918,0.7503944,-0.26068777,0.756612,0.59965,-0.8186625,-0.5024577,0.27807915,,0.0011634658,0.40216997,-0.37125528,0.5513565,0.6204617,-0.55770355,-0.8271405,0.4937568,-0.268408,0.10883303,0.6092877,0.78544503,,1.2040281142217206,0.5921250976654159,0.20447289573000002,0.5286283475244858,-0.9557723158592559,1.1207036914038773,0.8760142266781397,,-0.7014867178973091,-0.3267719961070617,0.17868839134000003,1.221653610740839,0.6129513379477659,0.2231994917421104,0.6161338174585013,,-0.0835990895089634,-0.040362920613933866,0.08425707732,-0.07457553900674968,,-0.000240013,-1.3291836e-05,2.6464462e-05,0.99999994,0.00021670759,0.00019809604,-0.00021671504,1.0,3.2007694e-05,-0.00019806623,-3.20971e-05,1.0,544,1.663,0,0,0.0,False,1.0476741527574522,0.7869672555200316
1.6856715609901585,14:47:17.283847,14:47:09.071764,0,,0.12896267,0.0039887726,0.027518079,-0.57985085,0.37374583,-0.7239385,-0.7082478,0.20795125,0.67464155,0.4026884,0.90391946,0.14412393,,0.028794765,-0.041085638,0.026347041,-0.44868398,-0.64442724,0.6191899,-0.4147194,0.7638678,0.4944836,-0.7916379,-0.034923345,-0.60999167,,0.10329611,1.3393651,0.44166237,0.99167526,0.021405578,-0.12697224,-0.0694521,-0.74142975,-0.66742665,-0.10842766,0.670689,-0.7337709,,-0.101072975,0.26081342,-0.08566462,0.5027223,-0.43843633,0.74501264,-0.24023466,0.75702864,0.6076141,-0.830396,-0.48443905,0.27524763,,0.0011629241,0.40216222,-0.3712524,0.5515305,0.6201455,-0.55788326,-0.826991,0.49397212,-0.26847222,0.10908693,0.6094351,0.7852954,,1.2030859408110652,0.590928074069911,0.20464400601000002,0.5504361016468764,-0.9766777003233683,1.113655402327964,0.8755241944797367,,-0.7014712724315607,-0.3267719961070617,0.17869616908000002,1.222072990627808,0.6129513379477659,0.2231994917421105,0.6161338174585014,,-0.0835990895089634,-0.040362920613933866,0.08425707732,-0.07457553900674968,,-0.000240013,-1.3291836e-05,2.6464462e-05,0.99999994,0.00021670759,0.00019809604,-0.00021671504,1.0,3.2007694e-05,-0.00019806623,-3.20971e-05,1.0,556,1.7,0,0,0.0,False,1.0484486630982253,0.7783250995805084
1.7124173629563302,14:47:17.321082,14:47:09.071764,0,,0.1284922,0.0038656592,0.027081385,-0.57132995,0.42287007,-0.70339394,-0.68588364,0.22465435,0.6921662,0.4507169,0.87790173,0.16168793,,0.028798193,-0.041085295,0.026341438,-0.4486791,-0.6442232,0.61940575,-0.41471678,0.76403064,0.49423414,-0.79164207,-0.035125434,-0.60997474,,0.10329611,1.3393651,0.44166237,0.99167526,0.021405578,-0.12697224,-0.0694521,-0.74142975,-0.66742665,-0.10842766,0.670689,-0.7337709,,-0.100574054,0.2604361,-0.085475154,0.49133098,-0.4841251,0.72402817,-0.19146638,0.75091535,0.6320339,-0.8496673,-0.44916487,0.2762543,,0.0011601774,0.40215755,-0.37124866,0.55152607,0.6199618,-0.55809176,-0.82699335,0.4938827,-0.26862967,0.10909172,0.6096944,0.7850934,,1.2014641669074781,0.5873447260162709,0.20513011476,0.6160690539575325,-1.0124764632619139,1.0886938883832336,0.875687538545871,,-0.7014789951644349,-0.3267719961070617,0.17870265053,1.222072990627808,0.6129513379477659,0.2228727767815482,0.6060064853581759,,-0.0835990895089634,-0.040362920613933866,0.08425707732,-0.07457553900674968,,-0.000240013,-1.3291836e-05,2.6464462e-05,0.99999994,0.00021670759,0.00019809604,-0.00021671504,1.0,3.2007694e-05,-0.00019806623,-3.20971e-05,1.0,564,1.724,0,0,0.0,False,1.047435841883368,0.7747523647228287
1.7496783209498972,14:47:17.340202,14:47:09.171942,0,,0.12823913,0.0037759393,0.026708499,-0.5682093,0.43903768,-0.6959771,-0.67504364,0.23498803,0.69935447,0.47058922,0.86719465,0.16284728,,0.02879864,-0.04108528,0.026340246,-0.4486791,-0.6440714,0.6195636,-0.41471678,0.7641517,0.49404693,-0.79164207,-0.035274953,-0.6099661,,0.10329611,1.3393651,0.44166237,0.99167526,0.021405578,-0.12697224,-0.0694521,-0.74142975,-0.66742665,-0.10842766,0.670689,-0.7337709,,-0.10029503,0.26012263,-0.08528796,0.48710838,-0.4987087,0.71694845,-0.1701107,0.7510226,0.6379871,-0.8566141,-0.43272945,0.2809937,,0.0011598663,0.40215653,-0.37124792,0.55152607,0.619825,-0.55824363,-0.82699335,0.49381682,-0.2687507,0.10909172,0.60988677,0.784944,,1.200630111757062,0.584803946900651,0.20543863178000002,0.6466837857062732,-1.0254569307396304,1.0699559215239316,0.8755241944797368,,-0.7014789951644349,-0.3267719961070617,0.17870394682000001,1.222072990627808,0.6129513379477659,0.22262774056112655,0.6029029481016248,,-0.0835990895089634,-0.040362920613933866,0.08425707732,-0.07457553900674968,,-0.000240013,-1.3291836e-05,2.6464462e-05,0.99999994,0.00021670759,0.00019809604,-0.00021671504,1.0,3.2007694e-05,-0.00019806623,-3.20971e-05,1.0,593,1.814,0,0,0.0,False,1.0482103522241415,0.7709382288612514
1.7687606259714812,14:47:17.425534,14:47:09.171942,0,,0.12732387,0.0030046552,0.023996755,-0.5760455,0.46282357,-0.67376983,-0.6370529,0.26228726,0.7248234,0.51218665,0.84675837,0.14375374,,0.02877888,-0.041020803,0.026341021,-0.4409108,-0.6494997,0.6194738,-0.42326796,0.7590806,0.49461204,-0.79148084,-0.04412368,-0.60959923,,0.10329611,1.3393651,0.44166237,0.99167526,0.021405578,-0.12697224,-0.0694521,-0.74142975,-0.66742665,-0.10842766,0.670689,-0.7337709,,-0.09919276,0.25773922,-0.083913036,0.49340945,-0.519089,0.697921,-0.11387113,0.756939,0.643488,-0.8623111,-0.3969761,0.31437162,,0.0011774001,0.4021973,-0.37119713,0.5440608,0.6264133,-0.55821526,-0.83277017,0.48436394,-0.26811454,0.102428846,0.6107356,0.7851817,,1.1962127085530054,0.5696287768027999,0.20703436477,0.7341244921393199,-1.032152119228137,1.0035381074813614,0.8751975063474682,,-0.7014712724315607,-0.32681833250430703,0.17871302085000002,1.208443144301314,0.6159573409426056,0.2152758222713715,0.5885286702818081,,-0.0835990895089634,-0.040362920613933866,0.08425707732,-0.07457553900674968,,-0.000240013,-1.3291836e-05,2.6464462e-05,0.99999994,0.00021670759,0.00019809604,-0.00021671504,1.0,3.2007694e-05,-0.00019806623,-3.20971e-05,1.0,601,1.839,0,0,0.0,False,1.047793308194494,0.75857849746171
1.8541323649697006,14:47:17.459628,14:47:09.269767,0,,0.1267903,0.0021338016,0.022351265,-0.57886523,0.45486102,-0.6767692,-0.62307036,0.28866622,0.72694916,0.52602124,0.84248054,0.11631158,,0.028781153,-0.041020297,0.026341975,-0.44090116,-0.64954674,0.6194314,-0.42326266,0.7590429,0.49467438,-0.7914891,-0.04407972,-0.6095918,,0.10329611,1.3393651,0.44166237,0.99167526,0.021405578,-0.12697224,-0.0694521,-0.74142975,-0.66742665,-0.10842766,0.670689,-0.7337709,,-0.09856794,0.25599545,-0.08334769,0.49579212,-0.50933737,0.7033958,-0.0941693,0.7736456,0.6265817,-0.8633205,-0.3768926,0.33560345,,0.0011750177,0.40219808,-0.3711972,0.54405206,0.6264559,-0.5581759,-0.83277476,0.48438236,-0.2680671,0.10243835,0.61067724,0.78522587,,1.1935715339100206,0.5598209060525348,0.20772787992000002,0.7594969753009472,-1.0306491177307173,0.9632700727535123,0.8755241944797367,,-0.7014867178973091,-0.32681833250430703,0.17871302085000002,1.208443144301314,0.6159573409426056,0.21535750101151208,0.5864051974220625,,-0.0835990895089634,-0.040362920613933866,0.08425707732,-0.07457553900674968,,-0.000240013,-1.3291836e-05,2.6464462e-05,0.99999994,0.00021670759,0.00019809604,-0.00021671504,1.0,3.2007694e-05,-0.00019806623,-3.20971e-05,1.0,609,1.864,0,0,0.0,False,1.048091196787099,0.7562610478242959
1.8882190479780547,14:47:17.484956,14:47:09.269767,0,,0.1265091,0.0017350465,0.021665722,-0.581617,0.45918226,-0.671471,-0.61316335,0.29496354,0.73282135,0.53455806,0.83794284,0.1099979,,0.028783426,-0.04101988,0.026342869,-0.44089144,-0.6496444,0.61933583,-0.4232574,0.7589648,0.49479878,-0.7914973,-0.043985963,-0.6095879,,0.10329611,1.3393651,0.44166237,0.99167526,0.021405578,-0.12697224,-0.0694521,-0.74142975,-0.66742665,-0.10842766,0.670689,-0.7337709,,-0.09825102,0.2552435,-0.08314229,0.49833974,-0.51289445,0.698997,-0.081050985,0.7751501,0.62655646,-0.8631849,-0.36889237,0.3447175,,0.0011726354,0.40219882,-0.37119728,0.54404324,0.6265442,-0.55808544,-0.8327793,0.48442265,-0.26798007,0.10244787,0.61055475,0.7853199,,1.1924054012460128,0.5552181572594969,0.20799102679000003,0.779417519931977,-1.0294193892328285,0.9475651383949433,0.8745441300829311,,-0.7015021633630576,-0.32681833250430703,0.17871302085000002,1.208443144301314,0.6159573409426056,0.21552085849179325,0.5834650042316455,,-0.0835990895089634,-0.040362920613933866,0.08425707732,-0.07457553900674968,,-0.000240013,-1.3291836e-05,2.6464462e-05,0.99999994,0.00021670759,0.00019809604,-0.00021671504,1.0,3.2007694e-05,-0.00019806623,-3.20971e-05,1.0,621,1.9,0,0,0.0,False,1.0480316190685781,0.7579508548515772
1.9135538389673457,14:47:17.514987,14:47:09.269767,0,,0.12613046,0.001087293,0.020644054,-0.58669865,0.45318767,-0.6711227,-0.6026115,0.30929258,0.7356612,0.5409659,0.8360377,0.0916346,,0.028783374,-0.041017257,0.026341558,-0.4408916,-0.649598,0.61938435,-0.42324856,0.7590024,0.49474868,-0.7915019,-0.044023067,-0.60957915,,0.10329611,1.3393651,0.44166237,0.99167526,0.021405578,-0.12697224,-0.0694521,-0.74142975,-0.66742665,-0.10842766,0.670689,-0.7337709,,-0.0978219,0.2540827,-0.0828681,0.50342464,-0.5059731,0.70039624,-0.06885333,0.7845372,0.6162472,-0.8612914,-0.3584586,0.36011744,,0.0011727636,0.4021993,-0.3711944,0.54404366,0.6265014,-0.55813307,-0.8327778,0.48440975,-0.268008,0.10245773,0.61060894,0.7852765,,1.1908454092054195,0.5485766069876639,0.20832935848000003,0.7964024053542236,-1.0236806562426797,0.9223025439242719,0.8751975063474682,,-0.7015021633630576,-0.3268028870385586,0.17871431714000002,1.208443144301314,0.6159573409426056,0.21543917975165267,0.5862418533559282,,-0.0835990895089634,-0.040362920613933866,0.08425707732,-0.07457553900674968,,-0.000240013,-1.3291836e-05,2.6464462e-05,0.99999994,0.00021670759,0.00019809604,-0.00021671504,1.0,3.2007694e-05,-0.00019806623,-3.20971e-05,1.0,629,1.925,0,0,0.0,False,1.048091196787099,0.7620063917170516
1.9435808319831267,14:47:17.540205,14:47:09.371886,0,,0.12585528,0.00069093704,0.01981622,-0.595353,0.44521174,-0.66883576,-0.59195304,0.31981626,0.73980343,0.54327375,0.8363637,0.07314092,,0.028783932,-0.041018195,0.026341796,-0.4409775,-0.64939857,0.6195322,-0.42310354,0.7591734,0.49461022,-0.79153156,-0.044014335,-0.6095413,,0.10329611,1.3393651,0.44166237,0.99167526,0.021405578,-0.12697224,-0.0694521,-0.74142975,-0.66742665,-0.10842766,0.670689,-0.7337709,,-0.097498514,0.25323638,-0.08255624,0.51242405,-0.4974846,0.69995046,-0.059282072,0.79265904,0.6067761,-0.85668385,-0.3524212,0.37668565,,0.0011722206,0.40219885,-0.37119523,0.544128,0.6262972,-0.55828005,-0.83270663,0.48449463,-0.2680758,0.10258856,0.61075103,0.78514886,,1.1898105630002733,0.5435491078865436,0.20864694953000001,0.8125485310025319,-1.0134329187602718,0.8981005255597712,0.8751975063474682,,-0.7015021633630576,-0.3268028870385586,0.17871431714000002,1.2086528342447984,0.6159573409426056,0.21535750101151208,0.589672078744748,,-0.0835990895089634,-0.040362920613933866,0.08425707732,-0.07457553900674968,,-0.000240013,-1.3291836e-05,2.6464462e-05,0.99999994,0.00021670759,0.00019809604,-0.00021671504,1.0,3.2007694e-05,-0.00019806623,-3.20971e-05,1.0,637,1.95,0,0,0.0,False,1.048091196787099,0.7620546719178312
1.9687928179628216,14:47:17.566083,14:47:09.371886,0,,0.12572649,0.00053463876,0.019405589,-0.60186136,0.44009295,-0.6663941,-0.58624905,0.32315135,0.74288976,0.54228663,0.83778965,0.06351182,,0.02878321,-0.04101693,0.026342928,-0.44097757,-0.64940065,0.61952996,-0.42309913,0.75917196,0.49461627,-0.79153395,-0.044007957,-0.6095388,,0.10329611,1.3393651,0.44166237,0.99167526,0.021405578,-0.12697224,-0.0694521,-0.74142975,-0.66742665,-0.10842766,0.670689,-0.7337709,,-0.09734355,0.25284615,-0.082373634,0.5192993,-0.49233148,0.69852555,-0.055627074,0.79617167,0.60250837,-0.85278004,-0.3517391,0.38606447,,0.0011727514,0.4022006,-0.37119493,0.5441282,0.62629855,-0.55827826,-0.8327059,0.4844991,-0.26806998,0.10259349,0.610746,0.78515214,,1.189455317288059,0.5411782288941568,0.20880768949000003,0.8198876790244902,-1.0052347287743453,0.8870864781105361,0.8747074741490654,,-0.7015021633630576,-0.32679516430568434,0.17871302085000002,1.2086528342447984,0.6159573409426056,0.21535750101151213,0.5903254550092853,,-0.0835990895089634,-0.040362920613933866,0.08425707732,-0.07457553900674968,,-0.000240013,-1.3291836e-05,2.6464462e-05,0.99999994,0.00021670759,0.00019809604,-0.00021671504,1.0,3.2007694e-05,-0.00019806623,-3.20971e-05,1.0,662,2.027,0,0,0.0,False,1.047435841883368,0.7598337826819761
1.9946801509940997,14:47:17.640675,14:47:09.371886,0,,0.12533492,0.00070406497,0.01840444,-0.6250375,0.42268902,-0.6562485,-0.5600611,0.3427813,0.7542099,0.54374605,0.8389488,0.022480518,,0.028767787,-0.040985085,0.026349306,-0.43760026,-0.65163684,0.6195767,-0.42746595,0.75697434,0.49422958,-0.7910619,-0.048573017,-0.60980475,,0.10329611,1.3393651,0.44166237,0.99167526,0.021405578,-0.12697224,-0.0694521,-0.74142975,-0.66742665,-0.10842766,0.670689,-0.7337709,,-0.09685807,0.2523021,-0.08156577,0.5436772,-0.47403252,0.6926097,-0.034919586,0.8117382,0.58297664,-0.8385677,-0.34113675,0.42477053,,0.0011863332,0.40222615,-0.3711736,0.5408552,0.6291244,-0.55828136,-0.8352767,0.47980425,-0.26851562,0.098936066,0.6115475,0.78499764,,1.1898260084660217,0.5362202343889046,0.20948435287000003,0.8626644274953332,-0.9787272478198499,0.8267556819668039,0.8740540978845283,,-0.7015098860959318,-0.3268028870385586,0.17870653940000003,1.2019427560532936,0.6167771599411982,0.2111768077632894,0.579708090710557,,-0.0835990895089634,-0.040362920613933866,0.08425707732,-0.07457553900674968,,-0.000240013,-1.3291836e-05,2.6464462e-05,0.99999994,0.00021670759,0.00019809604,-0.00021671504,1.0,3.2007694e-05,-0.00019806623,-3.20971e-05,1.0,674,2.064,0,0,0.0,False,1.048091196787099,0.7494052593136131
2.069272345979698,14:47:17.681824,14:47:09.490110,0,,0.12515876,0.0008981973,0.017871737,-0.6356696,0.41388154,-0.65163356,-0.5503104,0.3490265,0.758511,0.54137105,0.84076315,0.00589779,,0.028766379,-0.040988274,0.026352048,-0.43770164,-0.651942,0.619184,-0.42751914,0.75673246,0.4945539,-0.7909771,-0.048245996,-0.60994077,,0.10329611,1.3393651,0.44166237,0.99167526,0.021405578,-0.12697224,-0.0694521,-0.74142975,-0.66742665,-0.10842766,0.670689,-0.7337709,,-0.096626006,0.25208876,-0.081062645,0.55499864,-0.46508265,0.6896917,-0.029144352,0.8177242,0.5748719,-0.83134055,-0.33915374,0.44028127,,0.0011874998,0.40222666,-0.37117785,0.5409475,0.6293962,-0.5578855,-0.83522856,0.47995877,-0.2683894,0.09883879,0.6111465,0.7853221,,1.1904361043630856,0.5343049966360969,0.20991472115,0.8754555140478892,-0.9650635978433059,0.806057479000716,0.8748708182151996,,-0.7015098860959318,-0.32681833250430703,0.17870265053,1.2019427560532936,0.6166405234414327,0.21169661936768858,0.5766045534540059,,-0.0835990895089634,-0.040362920613933866,0.08425707732,-0.07457553900674968,,-0.000240013,-1.3291836e-05,2.6464462e-05,0.99999994,0.00021670759,0.00019809604,-0.00021671504,1.0,3.2007694e-05,-0.00019806623,-3.20971e-05,1.0,682,2.089,0,0,0.0,False,1.0477337304759726,0.7494535395143922
2.1103482449543662,14:47:17.703336,14:47:09.490110,0,,0.12504393,0.0009865165,0.017524853,-0.64286846,0.41261473,-0.64534426,-0.54374635,0.34757724,0.76389134,0.5394999,0.8419852,0.000911355,,0.028766379,-0.040988274,0.026352048,-0.43770164,-0.651942,0.619184,-0.42751914,0.75673246,0.4945539,-0.7909771,-0.048245996,-0.60994077,,0.10329611,1.3393651,0.44166237,0.99167526,0.021405578,-0.12697224,-0.0694521,-0.74142975,-0.66742665,-0.10842766,0.670689,-0.7337709,,-0.096476875,0.2519217,-0.0807607,0.56268483,-0.46400854,0.68416506,-0.02543977,0.81750286,0.57536244,-0.82628,-0.34115273,0.44819218,,0.0011874998,0.40222666,-0.37117785,0.5409475,0.6293962,-0.5578855,-0.83522856,0.47995877,-0.2683894,0.09883879,0.6111465,0.7853221,,1.190768181876677,0.5329380729173592,0.21016879399000002,0.8834237319003011,-0.9556356793594905,0.8001665759287552,0.8748708182151996,,-0.7015098860959318,-0.32681833250430703,0.17870265053,1.2019427560532936,0.6166405234414327,0.21169661936768858,0.5766045534540059,,-0.0835990895089634,-0.040362920613933866,0.08425707732,-0.07457553900674968,,-0.000240013,-1.3291836e-05,2.6464462e-05,0.99999994,0.00021670759,0.00019809604,-0.00021671504,1.0,3.2007694e-05,-0.00019806623,-3.20971e-05,1.0,690,2.113,0,0,0.0,False,1.0475549973204097,0.7504674237307611
2.1319266019854695,14:47:17.732984,14:47:09.553990,0,,0.12483647,0.0010941625,0.01698403,-0.6562212,0.4089722,-0.63412577,-0.5306806,0.3472919,0.77315354,0.53642505,0.84387803,-0.010866642,,0.028768316,-0.040988795,0.026353598,-0.43759537,-0.65157807,0.6196421,-0.42747658,0.75702035,0.49415,-0.79105884,-0.04864481,-0.60980296,,0.10329611,1.3393651,0.44166237,0.99167526,0.021405578,-0.12697224,-0.0694521,-0.74142975,-0.66742665,-0.10842766,0.670689,-0.7337709,,-0.09621778,0.25163963,-0.08031301,0.5769566,-0.4605648,0.6745377,-0.017644228,0.8186345,0.57404375,-0.81658417,-0.34310004,0.46419027,,0.0011854162,0.40222734,-0.37117907,0.54085034,0.6290731,-0.55834395,-0.83528113,0.47976708,-0.2685683,0.09892594,0.6116294,0.7849351,,1.1913396641093699,0.5304976893291042,0.21052657003000003,0.8993601676051249,-0.9381462073895142,0.7858234055154728,0.8747074741490654,,-0.701517608828806,-0.3268260552371812,0.17870265053,1.2019427560532936,0.6167771599411982,0.21109512902314886,0.5772579297185428,,-0.0835990895089634,-0.040362920613933866,0.08425707732,-0.07457553900674968,,-0.000240013,-1.3291836e-05,2.6464462e-05,0.99999994,0.00021670759,0.00019809604,-0.00021671504,1.0,3.2007694e-05,-0.00019806623,-3.20971e-05,1.0,702,2.15,0,0,0.0,False,1.0488061294093516,0.7513364673447915
2.161552072968334,14:47:17.766088,14:47:09.553990,0,,0.124609485,0.001203239,0.016359717,-0.6711282,0.40685585,-0.61972183,-0.514362,0.34644914,0.78447735,0.53387135,0.8452463,-0.023240656,,0.028771617,-0.040984266,0.026363134,-0.43668687,-0.65071523,0.62118775,-0.42707974,0.75768685,0.49347118,-0.791775,-0.04980439,-0.6087792,,0.10329611,1.3393651,0.44166237,0.99167526,0.021405578,-0.12697224,-0.0694521,-0.74142975,-0.66742665,-0.10842766,0.670689,-0.7337709,,-0.095931955,0.2513026,-0.07980519,0.59290963,-0.45862466,0.6619075,-0.007070467,0.8189741,0.5737869,-0.80523795,-0.3448838,0.48233497,,0.0011808708,0.40223733,-0.3711809,0.5400208,0.6283329,-0.5599779,-0.83572483,0.47913167,-0.26832235,0.099707365,0.6128871,0.7838545,,1.1918802554105654,0.5276402781656412,0.21093749396000003,0.9192807122361547,-0.9184705514232906,0.7701876210838908,0.8748708182151996,,-0.7015098860959318,-0.3268260552371812,0.17870135424000003,1.2019427560532936,0.6180068884390871,0.2095206167088971,0.5784013381814828,,-0.0835990895089634,-0.040362920613933866,0.08425707732,-0.07457553900674968,,-0.000240013,-1.3291836e-05,2.6464462e-05,0.99999994,0.00021670759,0.00019809604,-0.00021671504,1.0,3.2007694e-05,-0.00019806623,-3.20971e-05,1.0,731,2.24,0,0,0.0,False,1.0474954196018889,0.7499846217229664
2.1946824219776317,14:47:17.852837,14:47:09.622707,0,,0.123991996,0.0016222596,0.014556885,-0.7208279,0.390554,-0.5726034,-0.47088104,0.33027172,0.81804127,0.50860405,0.8592951,-0.05416462,,0.028765842,-0.04095889,0.026375234,-0.43170103,-0.6538772,0.62135226,-0.43113235,0.7546452,0.49460664,-0.7923125,-0.054362953,-0.6076888,,0.10329611,1.3393651,0.44166237,0.99167526,0.021405578,-0.12697224,-0.0694521,-0.74142975,-0.66742665,-0.10842766,0.670689,-0.7337709,,-0.09513858,0.25040537,-0.07826486,0.64694047,-0.44452026,0.6195722,0.008814417,0.8168157,0.5768314,-0.76248956,-0.36771443,0.5323493,,0.001184396,0.40226257,-0.37116772,0.5352608,0.63210297,-0.56030494,-0.8391025,0.4740512,-0.26680028,0.096968,0.61296105,0.7841403,,1.1946604392452862,0.5203036819351279,0.21210285867000003,0.9530407931371632,-0.8463264795471381,0.7496662970581041,0.8747074741490654,,-0.7015021633630576,-0.3269264507645462,0.17870265053,1.1948132979748196,0.620739618434396,0.20614875627300083,0.5637003722293976,,-0.0835990895089634,-0.040362920613933866,0.08425707732,-0.07457553900674968,,-0.000240013,-1.3291836e-05,2.6464462e-05,0.99999994,0.00021670759,0.00019809604,-0.00021671504,1.0,3.2007694e-05,-0.00019806623,-3.20971e-05,1.0,739,2.265,0,0,0.0,False,1.047793308194494,0.7257479609316784
2.281430440954864,14:47:17.887717,14:47:09.690126,0,,0.124009326,0.0018821806,0.014030606,-0.7499597,0.3631038,-0.5529159,-0.46037593,0.31369936,0.8304497,0.47498882,0.877353,-0.06809762,,0.028764926,-0.04096351,0.026373982,-0.43180713,-0.6539299,0.6212232,-0.43119335,0.7546049,0.494615,-0.79222155,-0.054289103,-0.6078141,,0.10329611,1.3393651,0.44166237,0.99167526,0.021405578,-0.12697224,-0.0694521,-0.74142975,-0.66742665,-0.10842766,0.670689,-0.7337709,,-0.0950959,0.25024146,-0.0777026,0.67940766,-0.4196952,0.6018813,-0.0056187194,0.81726915,0.57622874,-0.7337395,-0.39487603,0.5529008,,0.0011855932,0.40225893,-0.37117076,0.53535724,0.6321478,-0.5601623,-0.8390534,0.47409266,-0.26688108,0.096860565,0.6128828,0.78421474,,1.1961123130256406,0.5192533902642333,0.21237896844,0.9400400166411228,-0.7997334331271229,0.7580663162974637,0.8740540978845281,,-0.7014944406301833,-0.3269496189631688,0.17870265053,1.1948132979748196,0.6206029819346306,0.20626017417669723,0.5542264163936095,,-0.0835990895089634,-0.040362920613933866,0.08425707732,-0.07457553900674968,,-0.000240013,-1.3291836e-05,2.6464462e-05,0.99999994,0.00021670759,0.00019809604,-0.00021671504,1.0,3.2007694e-05,-0.00019806623,-3.20971e-05,1.0,751,2.302,0,0,0.0,False,1.0484486630982253,0.7173954861968319
2.316290919960011,14:47:17.918845,14:47:09.690126,0,,0.12410783,0.0022598654,0.013591468,-0.7800824,0.33313692,-0.5296142,-0.4495307,0.29034895,0.84476006,0.43519375,0.8970604,-0.07674083,,0.02876766,-0.040963046,0.026373684,-0.43179753,-0.6538754,0.62128717,-0.4311881,0.7546481,0.49455366,-0.79222965,-0.054344624,-0.60779846,,0.10329611,1.3393651,0.44166237,0.99167526,0.021405578,-0.12697224,-0.0694521,-0.74142975,-0.66742665,-0.10842766,0.670689,-0.7337709,,-0.09513498,0.2502218,-0.0771167,0.7134139,-0.39288482,0.5802432,-0.023955787,0.8138819,0.5805363,-0.7003333,-0.42806286,0.5712228,,0.0011828999,0.40225866,-0.37117007,0.53534853,0.632099,-0.5602257,-0.8390579,0.47406736,-0.2669119,0.09687,0.6129527,0.7841589,,1.1978035915250957,0.5189290354835159,0.21264600418000001,0.9243132708797833,-0.7484947457150828,0.7728062905885746,0.8747074741490654,,-0.7015098860959318,-0.3269496189631688,0.17870394682000001,1.1948132979748196,0.6206029819346306,0.20617849543655675,0.5449158046239556,,-0.0835990895089634,-0.040362920613933866,0.08425707732,-0.07457553900674968,,-0.000240013,-1.3291836e-05,2.6464462e-05,0.99999994,0.00021670759,0.00019809604,-0.00021671504,1.0,3.2007694e-05,-0.00019806623,-3.20971e-05,1.0,759,2.326,0,0,0.0,False,1.0491040180019566,0.7164298821812429
2.3474376119556837,14:47:17.944486,14:47:09.756638,0,,0.12412462,0.0026089698,0.013349429,-0.7966597,0.31990373,-0.51283026,-0.44002092,0.2747296,0.8549299,0.41438496,0.90674436,-0.078101695,,0.028772667,-0.040962063,0.02637434,-0.43177828,-0.6538681,0.6213084,-0.4311776,0.7546536,0.49455434,-0.79224586,-0.054356456,-0.6077763,,0.10329611,1.3393651,0.44166237,0.99167526,0.021405578,-0.12697224,-0.0694521,-0.74142975,-0.66742665,-0.10842766,0.670689,-0.7337709,,-0.0951114,0.25031555,-0.07670271,0.7322302,-0.38142443,0.564229,-0.030698497,0.809134,0.58682173,-0.680365,-0.44700956,0.5807632,,0.0011778243,0.4022592,-0.37116948,0.535331,0.6320929,-0.5602494,-0.8390669,0.4740603,-0.26689613,0.096888855,0.61296445,0.7841474,,1.1998887294011362,0.5189599264150129,0.21299470619000002,0.9205388518970619,-0.7079137052847471,0.7836583353863602,0.875034162281334,,-0.7015407770274287,-0.3269496189631688,0.17870524311000002,1.1948132979748196,0.6206029819346306,0.20617849543655675,0.5432823639626128,,-0.0835990895089634,-0.040362920613933866,0.08425707732,-0.07457553900674968,,-0.000240013,-1.3291836e-05,2.6464462e-05,0.99999994,0.00021670759,0.00019809604,-0.00021671504,1.0,3.2007694e-05,-0.00019806623,-3.20971e-05,1.0,771,2.363,0,0,0.0,False,1.0485678185352674,0.7203405784443793
2.373075991985388,14:47:17.982592,14:47:09.756638,0,,0.12394628,0.0035152137,0.012924567,-0.822878,0.31226936,-0.47472066,-0.41336006,0.24426582,0.87719303,0.3898785,0.91805345,-0.07192123,,0.02877494,-0.0409616,0.026375294,-0.43176866,-0.6537629,0.62142575,-0.43117234,0.75473714,0.4944314,-0.7922539,-0.054461688,-0.60775626,,0.10329611,1.3393651,0.44166237,0.99167526,0.021405578,-0.12697224,-0.0694521,-0.74142975,-0.66742665,-0.10842766,0.670689,-0.7337709,,-0.09484707,0.2507002,-0.07579951,0.76190627,-0.37649602,0.5270195,-0.02711879,0.79443693,0.60674095,-0.6471193,-0.47657186,0.5950763,,0.0011754421,0.40225998,-0.37116954,0.53532225,0.6319983,-0.5603644,-0.8390714,0.47401318,-0.26696566,0.09689828,0.61309844,0.78404146,,1.2028619815577126,0.519037153743755,0.21349248155000003,0.9339590082800715,-0.6733446708440904,0.793613577396808,0.8748708182151997,,-0.7015562224931772,-0.3269496189631688,0.17870524311000002,1.1948132979748196,0.6206029819346306,0.20601513795627557,0.5491627503434469,,-0.0835990895089634,-0.040362920613933866,0.08425707732,-0.07457553900674968,,-0.000240013,-1.3291836e-05,2.6464462e-05,0.99999994,0.00021670759,0.00019809604,-0.00021671504,1.0,3.2007694e-05,-0.00019806623,-3.20971e-05,1.0,792,2.429,0,0,0.0,False,1.0483890853797044,0.7378180111265431
2.4111440779524855,14:47:18.042200,14:47:09.824500,0,,0.12377824,0.0044165105,0.012456551,-0.84896624,0.31154087,-0.42684722,-0.37965113,0.2022911,0.90274215,0.3675885,0.9284507,-0.053461462,,0.028766282,-0.040940903,0.026372552,-0.42964178,-0.6551647,0.6214234,-0.43460387,0.753259,0.49368057,-0.79153484,-0.057967275,-0.60836864,,0.10329611,1.3393651,0.44166237,0.99167526,0.021405578,-0.12697224,-0.0694521,-0.74142975,-0.66742665,-0.10842766,0.670689,-0.7337709,,-0.09458952,0.2510519,-0.074867,0.7916518,-0.37899575,0.47921777,-0.016847087,0.7705132,0.6372014,-0.61074024,-0.51251507,0.6035932,,0.001183716,0.4022709,-0.3711516,0.5332324,0.6338489,-0.56026673,-0.8407529,0.47049513,-0.26789716,0.09379646,0.6138973,0.7837935,,1.2064067159469818,0.5188363626890252,0.21414581171000002,0.9540892428545859,-0.6255218959261865,0.8167748323500285,0.8747074741490655,,-0.7015871134246741,-0.3269650644289173,0.17870524311000002,1.1897807393311912,0.6206029819346306,0.20258463087037193,0.5690907264118288,,-0.0835990895089634,-0.040362920613933866,0.08425707732,-0.07457553900674968,,-0.000240013,-1.3291836e-05,2.6464462e-05,0.99999994,0.00021670759,0.00019809604,-0.00021671504,1.0,3.2007694e-05,-0.00019806623,-3.20971e-05,1.0,800,2.453,0,0,0.0,False,1.0481507745056202,0.74699124927464
2.470798793947324,14:47:18.076199,14:47:09.893136,0,,0.12378885,0.0050427616,0.011952311,-0.87058836,0.29711995,-0.3921677,-0.3576688,0.16515288,0.91912854,0.3378591,0.9404489,-0.0375095,,0.028574638,-0.0410108,0.026371837,-0.4289157,-0.65607566,0.6209637,-0.43584543,0.75240064,0.49389485,-0.79124594,-0.05880496,-0.60866404,,0.1033126,1.3393632,0.44165778,0.9916724,0.021374753,-0.127,-0.06949333,-0.74143064,-0.66742134,-0.10842766,0.670689,-0.7337709,,-0.09453315,0.251177,-0.074076,0.81693196,-0.36773843,0.44428658,-0.02035251,0.75148743,0.6594334,-0.57637477,-0.5477546,0.6064297,,0.0013610935,0.40225068,-0.37122062,0.53249294,0.6349098,-0.55976856,-0.8413491,0.46940646,-0.26793516,0.09264431,0.61363435,0.7841364,,1.2087698722064946,0.5184733942439367,0.21470840157,0.9557667624024621,-0.5808417605028874,0.8429070927889692,0.8750341622813339,,-0.7016102816232967,-0.3270268462919111,0.17869487279000001,1.1878935298398305,0.6206029819346306,0.2021762371696691,0.5751344568587973,,-0.0835990895089634,-0.040362920613933866,0.08425707732,-0.07457553900674968,,-0.00022302568,-1.4603138e-05,2.8967857e-05,0.99999994,0.00018619746,0.00017020106,-0.00018619746,1.0,2.7477741e-05,-0.00017019361,-2.7567148e-05,0.99999994,812,2.49,0,0,0.0,False,1.0492231734389987,0.7437564758224164
2.504788259975612,14:47:18.106570,14:47:09.893136,0,,0.12376923,0.005437821,0.011618167,-0.88222426,0.28426638,-0.3753302,-0.3450474,0.15203306,0.9261901,0.3203473,0.94661427,-0.036041826,,0.028580993,-0.04101776,0.026393771,-0.42850906,-0.6561668,0.6211481,-0.43643156,0.7522601,0.4935912,-0.7911432,-0.059580356,-0.60872215,,0.1033126,1.3393632,0.44165778,0.9916724,0.021374753,-0.127,-0.06949333,-0.74143064,-0.66742134,-0.10842766,0.670689,-0.7337709,,-0.094462834,0.2512431,-0.0735673,0.83072066,-0.3562134,0.4278027,-0.022662057,0.7462003,0.6653356,-0.556228,-0.56240296,0.6118115,,0.0013524195,0.40226343,-0.37123883,0.53209525,0.6350961,-0.55993533,-0.84165734,0.468713,-0.2681811,0.09212822,0.61397153,0.7839332,,1.2102294687197228,0.5182339895248357,0.21509080712000003,0.9561861422894311,-0.5551540985469845,0.8492412261009898,0.8740540978845283,,-0.7016952316849132,-0.32710407362065336,0.17867672473,1.1870547700658924,0.6206029819346306,0.20144112850840407,0.5694174145440973,,-0.0835990895089634,-0.040362920613933866,0.08425707732,-0.07457553900674968,,-0.00022302568,-1.4603138e-05,2.8967857e-05,0.99999994,0.00018619746,0.00017020106,-0.00018619746,1.0,2.7477741e-05,-0.00017019361,-2.7567148e-05,0.99999994,820,2.515,0,0,0.0,False,1.0492231734389987,0.7433702342161808
2.5351639289874583,14:47:18.139255,14:47:09.961962,0,,0.123776056,0.005776942,0.011283129,-0.893176,0.27256605,-0.3576929,-0.32859433,0.14746743,0.93288743,0.30702147,0.9507687,-0.042150646,,0.028603613,-0.041029293,0.026425362,-0.42870286,-0.6564658,0.6206982,-0.4369288,0.75199664,0.49355286,-0.7907636,-0.059613407,-0.6092119,,0.1033126,1.3393632,0.44165778,0.9916724,0.021374753,-0.127,-0.06949333,-0.74143064,-0.66742134,-0.10842766,0.670689,-0.7337709,,-0.09442185,0.2512669,-0.073092885,0.84367913,-0.34518737,0.41115835,-0.019331759,0.745844,0.6658401,-0.53649956,-0.5697038,0.62257993,,0.0013265846,0.40227944,-0.3712657,0.5322582,0.6354049,-0.5594299,-0.84162337,0.4685656,-0.26854497,0.09149484,0.6137645,0.7841695,,1.2112874831234917,0.5177937937510049,0.21545376832000002,0.9628962204809359,-0.531106074588267,0.8454773506376887,0.875034162281334,,-0.7019114682053914,-0.32720446914801826,0.17865209522000003,1.1866353901789233,0.6199197994358033,0.20167150306632387,0.5700707908086345,,-0.0835990895089634,-0.040362920613933866,0.08425707732,-0.07457553900674968,,-0.00022302568,-1.4603138e-05,2.8967857e-05,0.99999994,0.00018619746,0.00017020106,-0.00018619746,1.0,2.7477741e-05,-0.00017019361,-2.7567148e-05,0.99999994,828,2.539,0,0,0.0,False,1.0486869739723095,0.742839152007607
2.567848984966986,14:47:18.160668,14:47:09.961962,0,,0.12381124,0.005940765,0.011039868,-0.90141296,0.26402336,-0.34314167,-0.31547096,0.14229092,0.93820643,0.2965344,0.95396274,-0.04497114,,0.028629705,-0.041039992,0.02646923,-0.4284703,-0.65622276,0.6211157,-0.43705514,0.75216615,0.49318248,-0.7908199,-0.060147732,-0.6090864,,0.1033126,1.3393632,0.44165778,0.9916724,0.021374753,-0.127,-0.06949333,-0.74143064,-0.66742134,-0.10842766,0.670689,-0.7337709,,-0.09442672,0.25122288,-0.07280084,0.85350704,-0.33725312,0.39722294,-0.01658839,0.74433315,0.6676024,-0.5208172,-0.57639265,0.6296991,,0.0012958491,0.4023053,-0.3712989,0.5320379,0.6352214,-0.5598476,-0.84176904,0.46820956,-0.26870936,0.09143606,0.6142259,0.78381497,,1.2117662925616937,0.5172532024498092,0.21566635988000002,0.9681384690680489,-0.5123868741204016,0.8449152710565802,0.875034162281334,,-0.7021431501916182,-0.3273125874082574,0.17862098426,1.1864257002354388,0.6199197994358033,0.20118143062548055,0.5690907264118289,,-0.0835990895089634,-0.040362920613933866,0.08425707732,-0.07457553900674968,,-0.00022302568,-1.4603138e-05,2.8967857e-05,0.99999994,0.00018619746,0.00017020106,-0.00018619746,1.0,2.7477741e-05,-0.00017019361,-2.7567148e-05,0.99999994,857,2.63,0,0,0.0,False,1.0488657071278724,0.7412459053818843
2.5892643249826506,14:47:18.242015,14:47:10.028999,0,,0.124131136,0.0063586086,0.009282172,-0.9405009,0.20454308,-0.27133003,-0.25132042,0.11866939,0.96060157,0.22868301,0.9716376,-0.060202718,,0.028733574,-0.04109912,0.026640773,-0.42805332,-0.6560205,0.6216168,-0.43802202,0.7522267,0.49223152,-0.79051065,-0.06158057,-0.6093445,,0.1033126,1.3393632,0.44165778,0.9916724,0.021374753,-0.127,-0.06949333,-0.74143064,-0.66742134,-0.10842766,0.670689,-0.7337709,,-0.09456973,0.25033873,-0.07119952,0.9018131,-0.28092578,0.32835016,-0.014397631,0.7398924,0.6725711,-0.43188637,-0.6112609,0.6632,,0.0011743468,0.40239623,-0.3714427,0.53161734,0.6351878,-0.56028515,-0.84213674,0.46707422,-0.26953176,0.09049146,0.6151245,0.78321975,,1.2124767839861224,0.5122257033486891,0.21693153892000003,0.980929555620605,-0.4086797707984324,0.8475819766211168,0.8747074741490654,,-0.7030776008693994,-0.32783001051083044,0.17849524413,1.185377250518016,0.6190999804372107,0.20037972072512888,0.5615768993696522,,-0.0835990895089634,-0.040362920613933866,0.08425707732,-0.07457553900674968,,-0.00022302568,-1.4603138e-05,2.8967857e-05,0.99999994,0.00018619746,0.00017020106,-0.00018619746,1.0,2.7477741e-05,-0.00017019361,-2.7567148e-05,0.99999994,865,2.654,0,0,0.0,False,1.048984862564915,0.7379145715281021
2.6706129079684615,14:47:18.268861,14:47:10.028999,0,,0.12395002,0.0063581616,0.008414641,-0.94342536,0.20010905,-0.26439512,-0.24272996,0.12644315,0.9618182,0.22589947,0.9715804,-0.070717186,,0.02874744,-0.041133437,0.026676059,-0.4276217,-0.656308,0.6216104,-0.43869242,0.75191975,0.4921033,-0.7903725,-0.06226179,-0.6094545,,0.1033126,1.3393632,0.44165778,0.9916724,0.021374753,-0.127,-0.06949333,-0.74143064,-0.66742134,-0.10842766,0.670689,-0.7337709,,-0.09431456,0.2497559,-0.07058257,0.905439,-0.27607933,0.32242882,-0.009889931,0.745665,0.6662476,-0.42436108,-0.6064354,0.67242384,,0.0011574904,0.40240273,-0.3714905,0.5311933,0.63556296,-0.5602619,-0.8424689,0.46638072,-0.26969448,0.08988755,0.61526316,0.78318036,,1.212438170321751,0.5092524511921126,0.21758227650000003,0.9857524243207489,-0.39925185231461696,0.8393223900850798,0.8747074741490655,,-0.703201164595387,-0.32807713796280563,0.17846672575000003,1.1845384907440781,0.6190999804372107,0.20005300576456675,0.5641904044278006,,-0.0835990895089634,-0.040362920613933866,0.08425707732,-0.07457553900674968,,-0.00022302568,-1.4603138e-05,2.8967857e-05,0.99999994,0.00018619746,0.00017020106,-0.00018619746,1.0,2.7477741e-05,-0.00017019361,-2.7567148e-05,0.99999994,873,2.679,0,0,0.0,False,1.048984862564915,0.7389767359452502
2.697437718976289,14:47:18.299150,14:47:10.103396,0,,0.1238444,0.00637874,0.0076037943,-0.9482799,0.19358182,-0.25157714,-0.228203,0.13517031,0.96418476,0.22065443,0.97172785,-0.08400324,,0.028746001,-0.041172106,0.02668947,-0.427547,-0.656397,0.6215678,-0.43897575,0.7518223,0.4919996,-0.7902555,-0.06250024,-0.6095818,,0.1033126,1.3393632,0.44165778,0.9916724,0.021374753,-0.127,-0.06949333,-0.74143064,-0.66742134,-0.10842766,0.670689,-0.7337709,,-0.09413823,0.24922553,-0.06998538,0.91152686,-0.26911563,0.31095907,-0.0026319954,0.7523157,0.6587975,-0.41123208,-0.60133004,0.6850477,,0.0011585206,0.40239093,-0.37152973,0.5311142,0.63568246,-0.56020135,-0.84255016,0.4661425,-0.26985258,0.0895931,0.61532027,0.78316927,,1.2123532202601346,0.5065186037546371,0.21818764393,0.9943497120036144,-0.38422183734041854,0.8281282443003009,0.8750341622813338,,-0.7031779963967643,-0.3283088199490324,0.17845246656000002,1.1843288008005934,0.6190999804372107,0.2000530057645667,0.5648437806923376,,-0.0835990895089634,-0.040362920613933866,0.08425707732,-0.07457553900674968,,-0.00022302568,-1.4603138e-05,2.8967857e-05,0.99999994,0.00018619746,0.00017020106,-0.00018619746,1.0,2.7477741e-05,-0.00017019361,-2.7567148e-05,0.99999994,885,2.716,0,0,0.0,False,1.0494019065945617,0.7327003098439206
