AlexandreBanks6/ExpertPlaybackApp/resources/Motions/Pilot_01/PC1/Data_PC1_4.csv
Task Time,PC1 Time,PC2 Time,Gaze Calib,s_T_psm1,Tx,Ty,Tz,R00,R01,R02,R10,R11,R12,R20,R21,R22,s_T_psm3,Tx,Ty,Tz,R00,R01,R02,R10,R11,R12,R20,R21,R22,cart_T_ecm,Tx,Ty,Tz,R00,R01,R02,R10,R11,R12,R20,R21,R22,ecm_T_psm1,Tx,Ty,Tz,R00,R01,R02,R10,R11,R12,R20,R21,R22,ecm_T_psm3,Tx,Ty,Tz,R00,R01,R02,R10,R11,R12,R20,R21,R22,psm1_joints,q1,q2,q3,q4,q5,q6,jaw,psm3_joints,q1,q2,q3,q4,q5,q6,jaw,ecm_joints,q1,q2,q3,q4,ecmi_T_ecm,Tx,Ty,Tz,R00,R01,R02,R10,R11,R12,R20,R21,R22,Sample #,Task Duration (s),Collisions (binary),Collisions (increments),Cumulative Collision Time (s),Clutch Press,MTMR Angle,MTML Angle
""
lci_T_si,,,,,-0.06275115,0.020269286,0.23277931,0.9922883,-0.04035988,0.11719676,0.048105527,-0.7459988,-0.6642075,0.11423598,0.66472316,-0.7383043
rci_T_si,,,,,-0.0725517,0.024538085,0.24269353,0.9888494,-0.06173267,0.13552107,0.047746018,-0.730564,-0.6811729,0.14105745,0.680048,-0.71947026
ecm_T_lc,,,,,-4.4061628e-05,-0.00034663224,-0.01840835,-0.99912,0.030754527,0.028518902,-0.031987965,-0.99852574,-0.043852776,0.027128186,-0.04472645,0.9986309
ecm_T_rc,,,,,-0.0043358393,0.01870579,-0.007592615,-0.99555075,-0.052743673,-0.078081585,0.04863213,-0.9973746,0.053654674,-0.08070653,0.04961868,0.9955021
cart_T_ecmi,,,,,0.1069438,1.3440125,0.4434251,0.99563074,0.020226603,-0.091160834,-0.043968037,-0.75971377,-0.64876944,-0.082378544,0.64994293,-0.7555051
ecmac_T_ecmrep_psm1,,,,,0.01038242,-0.2501324,-0.30762842,0.998145,0.0496832,0.035188068,-0.04731537,0.99675006,-0.06519635,-0.03831287,0.06341047,0.99725187
ecmac_T_ecmrep_psm3,,,,,-0.018947443,-0.4527795,-0.5580277,0.99342906,-0.031421527,0.110051684,0.0051236153,0.97282016,0.23150527,-0.11433475,-0.2294202,0.9665888
""
0,14:53:23.821605,14:53:09.879928,0,,0.12841253,0.0057514906,0.0107636005,-0.8477219,-0.1526657,-0.50799686,-0.49462324,-0.11844137,0.86099917,-0.19161288,0.9811548,0.024893314,,0.034318585,-0.028966844,0.033628106,0.71283,-0.58400834,0.38833937,-0.70108116,-0.6083094,0.37208167,0.018931776,-0.5374884,-0.8430586,,0.10691625,1.3440152,0.44341654,0.99563074,0.020226132,-0.091161236,-0.043968655,-0.7597138,-0.6487694,-0.082378544,0.64994293,-0.7555051,,-0.094924524,0.25362414,-0.071181975,0.83817583,0.048672885,0.54322386,-0.47541237,0.55332863,0.68396676,-0.26729068,-0.83153975,0.48692638,,-0.0007784807,0.40388146,-0.37516782,-0.67480963,0.6637185,-0.32266036,-0.436197,-0.7113801,-0.55106306,-0.59528494,-0.2311192,0.7695582,,1.1058181202602075,0.3773250055017353,0.21889412198000002,0.49088415769727156,-0.12105993879218024,1.235275931730953,-0.39545598411108995,,-0.7968547461611076,-0.29039792426946426,0.17395434026,-0.598245408761348,0.17776408619483802,-0.13989061082032936,0.5815048754380341,,-0.048616146314302056,-0.07213882130805563,0.0795457676,-0.07359428191455561,,-2.6848167e-05,-8.165836e-06,7.2717667e-06,1.0,-4.656613e-07,-4.0605664e-07,4.7311187e-07,1.0,-2.9802322e-08,4.0233135e-07,8.940697e-08,1.0,39,0.117,0,0,0.0,False,-0.2551118181419816,0.7558265260172807
0.12645267698098905,14:53:23.861030,14:53:09.879928,0,,0.12852211,0.005712256,0.010824904,-0.8477502,-0.15276212,-0.50792044,-0.49456424,-0.11833349,0.8610479,-0.19163948,0.98115283,0.024766535,,0.034320027,-0.028967768,0.033629894,0.71278673,-0.58400416,0.38842523,-0.7011218,-0.6083311,0.37196964,0.01905939,-0.53746843,-0.8430685,,0.10691625,1.3440152,0.44341654,0.99563074,0.020226132,-0.091161236,-0.043968655,-0.7597138,-0.6487694,-0.082378544,0.64994293,-0.7555051,,-0.09504139,0.25363111,-0.07124198,0.8382095,0.048774026,0.5431628,-0.47538412,0.55341196,0.68391895,-0.26723534,-0.83147836,0.4870616,,-0.00078003376,0.40388227,-0.37516952,-0.6747769,0.6637135,-0.32273903,-0.4361069,-0.71137536,-0.55114055,-0.59538805,-0.23114818,0.7694697,,1.105285251691886,0.37757985568658475,0.21883060377000002,0.49109384764075603,-0.12146984829147656,1.235446827961761,-0.39545598411108995,,-0.7968624688939818,-0.29039792426946426,0.17395304397000003,-0.598245408761348,0.17762744969507258,-0.13986087165677352,0.581994907636437,,-0.048616146314302056,-0.07213882130805563,0.0795457676,-0.07359428191455561,,-2.6848167e-05,-8.165836e-06,7.2717667e-06,1.0,-4.656613e-07,-4.0605664e-07,4.7311187e-07,1.0,-2.9802322e-08,4.0233135e-07,8.940697e-08,1.0,51,0.153,0,0,0.0,False,-0.2545756186752919,0.7533642357775285
0.16590670400182717,14:53:23.900105,14:53:09.879928,0,,0.1286756,0.005681962,0.010911882,-0.8485307,-0.15278783,-0.5066078,-0.49327385,-0.11811057,0.8618183,-0.19151108,0.9811757,0.024854183,,0.034320027,-0.028967768,0.033629894,0.71278673,-0.5840994,0.38828212,-0.7011218,-0.6084222,0.37182054,0.01905939,-0.5372618,-0.8432001,,0.10691625,1.3440152,0.44341654,0.99563074,0.020226132,-0.091161236,-0.043968655,-0.7597138,-0.6487694,-0.082378544,0.64994293,-0.7555051,,-0.09520402,0.25366032,-0.071310826,0.8390336,0.048807874,0.5418859,-0.4742992,0.5535967,0.68452245,-0.26657617,-0.8313534,0.48763576,,-0.00078003376,0.40388227,-0.37516952,-0.6747769,0.6637926,-0.3225764,-0.4361069,-0.7112403,-0.55131483,-0.59538805,-0.23133673,0.769413,,1.10459792846608,0.3780123287275413,0.21875153008000003,0.49277136718863224,-0.12174312129100744,1.2354246275487322,-0.39496595191268724,,-0.7968624688939818,-0.29039792426946426,0.17395304397000003,-0.598245408761348,0.17762744969507258,-0.13961583543635186,0.5788913703798857,,-0.048616146314302056,-0.07213882130805563,0.0795457676,-0.07359428191455561,,-2.6848167e-05,-8.165836e-06,7.2717667e-06,1.0,-4.656613e-07,-4.0605664e-07,4.7311187e-07,1.0,-2.9802322e-08,4.0233135e-07,8.940697e-08,1.0,59,0.177,0,0,0.0,False,-0.2537415306159976,0.7531228347736314
0.20494379597948864,14:53:23.923824,14:53:09.986212,0,,0.12880309,0.005705625,0.010994881,-0.849339,-0.15274909,-0.5052631,-0.49193704,-0.117967784,0.86260176,-0.19136636,0.9811989,0.025051713,,0.03432113,-0.028967634,0.03363037,0.71278477,-0.58409727,0.38828892,-0.70112365,-0.6084195,0.37182143,0.019062757,-0.53726715,-0.84319663,,0.10691625,1.3440152,0.44341654,0.99563074,0.020226132,-0.091161236,-0.043968655,-0.7597138,-0.6487694,-0.082378544,0.64994293,-0.7555051,,-0.09533787,0.25372863,-0.07134437,0.839886,0.048773803,0.5405669,-0.47316763,0.553719,0.68520635,-0.26590204,-0.831274,0.488139,,-0.00078119204,0.40388268,-0.37516966,-0.6747752,0.6637909,-0.32258356,-0.4361049,-0.71124357,-0.55131215,-0.59539145,-0.2313315,0.769412,,1.104150009959375,0.37856836549448547,0.21869838219,0.49444888673650844,-0.12201639429053832,1.2352390696554223,-0.3948026078465531,,-0.796870191626856,-0.29039792426946426,0.17395304397000003,-0.598245408761348,0.17762744969507258,-0.13961583543635186,0.5788913703798857,,-0.048616146314302056,-0.07213882130805563,0.0795457676,-0.07359428191455561,,-2.6848167e-05,-8.165836e-06,7.2717667e-06,1.0,-4.656613e-07,-4.0605664e-07,4.7311187e-07,1.0,-2.9802322e-08,4.0233135e-07,8.940697e-08,1.0,70,0.21,0,0,0.0,False,-0.25451604095677105,0.7524951921634981
0.22868998200283386,14:53:23.954159,14:53:09.986212,0,,0.1288891,0.005711913,0.0110587925,-0.8492772,-0.15250605,-0.5054405,-0.4921031,-0.11807236,0.8624927,-0.19121386,0.9812242,0.025227368,,0.034319393,-0.02897048,0.03362906,0.7127838,-0.5841046,0.3882795,-0.70112455,-0.6084283,0.37180543,0.019067049,-0.53724915,-0.8432081,,0.10691625,1.3440152,0.44341654,0.99563074,0.020226132,-0.091161236,-0.043968655,-0.7597138,-0.6487694,-0.082378544,0.64994293,-0.7555051,,-0.095429406,0.25377253,-0.071379244,0.8398015,0.048524782,0.5407206,-0.4731961,0.55364907,0.6852431,-0.26611817,-0.8313351,0.48791707,,-0.0007791931,0.40388024,-0.37517136,-0.67477465,0.6637969,-0.32257226,-0.43610162,-0.71123236,-0.55132926,-0.59539443,-0.2313487,0.7694045,,1.1038256551786576,0.37894677940532245,0.21865171575000003,0.49444888673650844,-0.12269957678936552,1.2355511229534826,-0.39496595191268724,,-0.7968547461611076,-0.2904133697352127,0.17395304397000003,-0.598245408761348,0.17762744969507258,-0.1396158354363518,0.5782379941153486,,-0.048616146314302056,-0.07213882130805563,0.0795457676,-0.07359428191455561,,-2.6848167e-05,-8.165836e-06,7.2717667e-06,1.0,-4.656613e-07,-4.0605664e-07,4.7311187e-07,1.0,-2.9802322e-08,4.0233135e-07,8.940697e-08,1.0,78,0.235,0,0,0.0,False,-0.25493308498641865,0.7513847475455706
0.25904115597950295,14:53:23.979425,14:53:09.986212,0,,0.12901126,0.005738735,0.011144951,-0.8500487,-0.15058874,-0.50471795,-0.49134094,-0.118484855,0.86287045,-0.18973997,0.98147047,0.026727408,,0.034318604,-0.028969407,0.03363031,0.71278626,-0.584103,0.38827744,-0.70112216,-0.60842663,0.37181252,0.019061565,-0.53725266,-0.84320587,,0.10691625,1.3440152,0.44341654,0.99563074,0.020226132,-0.091161236,-0.043968655,-0.7597138,-0.6487694,-0.082378544,0.64994293,-0.7555051,,-0.09555811,0.25384542,-0.07141367,0.84045804,0.046575103,0.53987134,-0.47163615,0.5534411,0.6864854,-0.26681387,-0.83158505,0.48711056,,-0.0007785901,0.40388197,-0.37517115,-0.6747766,0.6637956,-0.32257077,-0.43610525,-0.7112346,-0.5513234,-0.59538954,-0.23134533,0.7694093,,1.1033777366719526,0.37956459803526044,0.21859856786,0.49612640628438465,-0.12447585128631626,1.2367545194811145,-0.3954559841110902,,-0.7968547461611076,-0.29040564700233845,0.17395174768000002,-0.598245408761348,0.17762744969507258,-0.13961583543635184,0.57791130598308,,-0.048616146314302056,-0.07213882130805563,0.0795457676,-0.07359428191455561,,-2.6848167e-05,-8.165836e-06,7.2717667e-06,1.0,-4.656613e-07,-4.0605664e-07,4.7311187e-07,1.0,-2.9802322e-08,4.0233135e-07,8.940697e-08,1.0,86,0.259,0,0,0.0,False,-0.25558843989015,0.7514330277463501
0.2842785959946923,14:53:24.003191,14:53:09.986212,0,,0.12909414,0.0057591796,0.011200488,-0.85011894,-0.15105736,-0.50445956,-0.49107406,-0.11844194,0.8630283,-0.19011591,0.98140365,0.026509345,,0.034318373,-0.02896814,0.03363049,0.7127887,-0.58410156,0.3882753,-0.7011199,-0.60842496,0.37181965,0.019056082,-0.53725636,-0.84320366,,0.10691625,1.3440152,0.44341654,0.99563074,0.020226132,-0.091161236,-0.043968655,-0.7597138,-0.6487694,-0.082378544,0.64994293,-0.7555051,,-0.09564503,0.2538947,-0.07143339,0.8405778,0.047049556,0.53964365,-0.47167644,0.55344373,0.68645567,-0.26636496,-0.8315566,0.48740467,,-0.0007784313,0.40388277,-0.37517017,-0.67477864,0.66379434,-0.32256925,-0.4361089,-0.71123695,-0.5513175,-0.59538466,-0.23134196,0.76941407,,1.1031074410213548,0.3799430119460974,0.21856486432000002,0.4963360962278691,-0.12447585128631626,1.2365094832606929,-0.3959460163094929,,-0.7968547461611076,-0.29039792426946426,0.17395174768000002,-0.598245408761348,0.17762744969507258,-0.13961583543635184,0.57791130598308,,-0.048616146314302056,-0.07213882130805563,0.0795457676,-0.07359428191455561,,-2.6848167e-05,-8.165836e-06,7.2717667e-06,1.0,-4.656613e-07,-4.0605664e-07,4.7311187e-07,1.0,-2.9802322e-08,4.0233135e-07,8.940697e-08,1.0,97,0.292,0,0,0.0,False,-0.25558843989015,0.7506605445338792
0.3080516059999354,14:53:24.034296,14:53:09.986212,0,,0.12919185,0.0057625175,0.011274964,-0.85115933,-0.15089296,-0.50275165,-0.4893533,-0.11839822,0.86401117,-0.18989804,0.9814342,0.026935756,,0.034318484,-0.028969169,0.033631742,0.7125251,-0.58439726,0.3883139,-0.7013922,-0.60814285,0.3717676,0.01889038,-0.5372541,-0.8432088,,0.10691625,1.3440152,0.44341654,0.99563074,0.020226132,-0.091161236,-0.043968655,-0.7597138,-0.6487694,-0.082378544,0.64994293,-0.7555051,,-0.095749386,0.25394288,-0.071476884,0.8416717,0.046885196,0.53795034,-0.47019932,0.553492,0.6874294,-0.26552096,-0.83153373,0.48790395,,-0.00077861943,0.4038833,-0.37517172,-0.6744867,0.6640738,-0.32260448,-0.4363643,-0.7110522,-0.5513538,-0.59552824,-0.23110776,0.7693733,,1.102736749843392,0.38032914858980865,0.21850782756000003,0.49843299566271443,-0.12447585128631626,1.2364278045205523,-0.3961093603756273,,-0.7968547461611076,-0.29040564700233845,0.17395045139,-0.597826028874379,0.17762744969507258,-0.13953415669621128,0.57676789752014,,-0.048616146314302056,-0.07213882130805563,0.0795457676,-0.07359428191455561,,-2.6848167e-05,-8.165836e-06,7.2717667e-06,1.0,-4.656613e-07,-4.0605664e-07,4.7311187e-07,1.0,-2.9802322e-08,4.0233135e-07,8.940697e-08,1.0,105,0.317,0,0,0.0,False,-0.25481392954937654,0.7481982542941266
0.33916287499596365,14:53:24.064730,14:53:10.133454,0,,0.1292475,0.0057674646,0.011336535,-0.85112894,-0.15118566,-0.5027151,-0.48932952,-0.11828753,0.8640397,-0.19009529,0.9814025,0.026698261,,0.03431904,-0.028969213,0.03363347,0.7125231,-0.5843634,0.38836843,-0.7013941,-0.6081097,0.3718182,0.018893689,-0.53732836,-0.84316146,,0.10691625,1.3440152,0.44341654,0.99563074,0.020226132,-0.091161236,-0.043968655,-0.7597138,-0.6487694,-0.082378544,0.64994293,-0.7555051,,-0.095810585,0.2539851,-0.07151409,0.8416622,0.047184512,0.53793895,-0.4703106,0.55356383,0.68729544,-0.26535386,-0.831469,0.48810512,,-0.0007793334,0.40388465,-0.37517267,-0.67448497,0.66404575,-0.32266584,-0.4363623,-0.7111005,-0.5512931,-0.59553164,-0.23103969,0.7693911,,1.1025514042544107,0.38060716697328073,0.21845986483000002,0.49843299566271443,-0.1246124877860817,1.2362125074636863,-0.39610936037562716,,-0.7968624688939818,-0.29040564700233845,0.17394915510000003,-0.597826028874379,0.17762744969507258,-0.13961583543635184,0.5752978009249314,,-0.048616146314302056,-0.07213882130805563,0.0795457676,-0.07359428191455561,,-2.6848167e-05,-8.165836e-06,7.2717667e-06,1.0,-4.656613e-07,-4.0605664e-07,4.7311187e-07,1.0,-2.9802322e-08,4.0233135e-07,8.940697e-08,1.0,117,0.354,0,0,0.0,False,-0.2555288621716292,0.7466532878691838
0.3695851879892871,14:53:24.104022,14:53:10.133454,0,,0.12929517,0.005774662,0.011420533,-0.8500988,-0.15637067,-0.502872,-0.4895377,-0.117353916,0.8640492,-0.1941259,0.9807019,0.023213059,,0.034316592,-0.028968245,0.033632517,0.7125295,-0.58439785,0.38830504,-0.701388,-0.60814387,0.37177387,0.01888153,-0.5372523,-0.8432101,,0.10691625,1.3440152,0.44341654,0.99563074,0.020226132,-0.091161236,-0.043968655,-0.7597138,-0.6487694,-0.082378544,0.64994293,-0.7555051,,-0.09586597,0.25404388,-0.07156756,0.84102887,0.052451845,0.5384415,-0.47312227,0.55396575,0.68503815,-0.26234663,-0.8308855,0.4907173,,-0.0007768582,0.40388462,-0.37517136,-0.6744904,0.66407424,-0.32259583,-0.43636993,-0.71105117,-0.55135065,-0.5955199,-0.23110962,0.7693792,,1.1025127905900394,0.3807925125622621,0.21838856888000002,0.4963360962278691,-0.12119657529194568,1.233018666170573,-0.39561932817722434,,-0.7968470234282333,-0.29039792426946426,0.17394915510000003,-0.597826028874379,0.17762744969507258,-0.13953415669621128,0.5715408874038431,,-0.048616146314302056,-0.07213882130805563,0.0795457676,-0.07359428191455561,,-2.6848167e-05,-8.165836e-06,7.2717667e-06,1.0,-4.656613e-07,-4.0605664e-07,4.7311187e-07,1.0,-2.9802322e-08,4.0233135e-07,8.940697e-08,1.0,125,0.378,0,0,0.0,False,-0.25540970673458663,0.7457359640543744
0.4089106089959387,14:53:24.131372,14:53:10.133454,0,,0.12930058,0.005762756,0.011503115,-0.8495929,-0.15894383,-0.50292027,-0.4895617,-0.11717874,0.8640593,-0.19626844,0.9803091,0.02174136,,0.034313835,-0.028968751,0.033632576,0.71253335,-0.5844338,0.38824373,-0.7013842,-0.6081797,0.37172243,0.018874854,-0.5371726,-0.8432611,,0.10691625,1.3440152,0.44341654,0.99563074,0.020226132,-0.091161236,-0.043968655,-0.7597138,-0.6487694,-0.082378544,0.64994293,-0.7555051,,-0.095880106,0.25408846,-0.071636885,0.8407377,0.055056684,0.53863615,-0.47454995,0.5539173,0.6840892,-0.2606962,-0.8307493,0.4918263,,-0.00077409745,0.4038847,-0.37517187,-0.67449385,0.66410404,-0.32252732,-0.43637392,-0.7109995,-0.55141413,-0.5955131,-0.23118293,0.76936245,,1.1025745724530331,0.3808620171581301,0.21830819890000003,0.4952876465104465,-0.11928366429522952,1.2316221729991041,-0.39627270444176144,,-0.7968315779624849,-0.29039792426946426,0.17394785881000002,-0.597826028874379,0.17762744969507258,-0.1394524779560707,0.572030919602246,,-0.048616146314302056,-0.07213882130805563,0.0795457676,-0.07359428191455561,,-2.6848167e-05,-8.165836e-06,7.2717667e-06,1.0,-4.656613e-07,-4.0605664e-07,4.7311187e-07,1.0,-2.9802322e-08,4.0233135e-07,8.940697e-08,1.0,144,0.435,0,0,0.0,False,-0.2544564632382502,0.7443841184325493
0.43625055899610743,14:53:24.174451,14:53:10.133454,0,,0.12930572,0.00574854,0.011644915,-0.84822273,-0.16207212,-0.5042329,-0.49051863,-0.11870703,0.8633077,-0.1997741,0.9796128,0.021190554,,0.03431407,-0.028970033,0.033632457,0.712531,-0.584372,0.38834125,-0.7013866,-0.6081207,0.3718147,0.018880367,-0.5373067,-0.84317553,,0.10691625,1.3440152,0.44341654,0.99563074,0.020226132,-0.091161236,-0.043968655,-0.7597138,-0.6487694,-0.082378544,0.64994293,-0.7555051,,-0.09589997,0.25416982,-0.071752265,0.8396787,0.05816276,0.5399599,-0.47759765,0.55239516,0.6831984,-0.25853455,-0.8315508,0.49161285,,-0.00077425624,0.4038839,-0.37517288,-0.6744918,0.66405267,-0.3226373,-0.43637028,-0.7110872,-0.5513038,-0.59551805,-0.23106061,0.7693954,,1.102705858911895,0.38101647181561465,0.21817338474000003,0.4925616772451477,-0.11655093429992071,1.2315174621688305,-0.39561932817722434,,-0.7968315779624849,-0.29040564700233845,0.17394785881000002,-0.597826028874379,0.17762744969507258,-0.13961583543635184,0.5700707908086347,,-0.048616146314302056,-0.07213882130805563,0.0795457676,-0.07359428191455561,,-2.6848167e-05,-8.165836e-06,7.2717667e-06,1.0,-4.656613e-07,-4.0605664e-07,4.7311187e-07,1.0,-2.9802322e-08,4.0233135e-07,8.940697e-08,1.0,152,0.46,0,0,0.0,False,-0.25540970673458663,0.7443358382317702
0.47931793399038725,14:53:24.206388,14:53:10.254578,0,,0.12932098,0.0057546794,0.011868417,-0.84763366,-0.16490197,-0.50430596,-0.48988363,-0.1218375,0.8632322,-0.20379205,0.97875583,0.0224908,,0.034313284,-0.02896896,0.03363371,0.71253335,-0.5843703,0.3883392,-0.7013842,-0.608119,0.37182176,0.018874854,-0.53731036,-0.8431733,,0.10691625,1.3440152,0.44341654,0.99563074,0.020226132,-0.091161236,-0.043968655,-0.7597138,-0.6487694,-0.082378544,0.64994293,-0.7555051,,-0.09593706,0.25431955,-0.07191486,0.8395224,0.060912255,0.53989977,-0.47974882,0.5495446,0.6839897,-0.25503564,-0.8332409,0.49057755,,-0.0007736533,0.40388563,-0.37517267,-0.67449385,0.66405135,-0.3226358,-0.43637392,-0.71108955,-0.55129796,-0.5955131,-0.23105724,0.76940024,,1.1029220954323733,0.38139488572645164,0.21797505237000003,0.49130353758424056,-0.11286174880625381,1.232593115776055,-0.395292640044956,,-0.7968315779624849,-0.29039792426946426,0.17394656252000001,-0.597826028874379,0.17762744969507258,-0.13961583543635184,0.5700707908086347,,-0.048616146314302056,-0.07213882130805563,0.0795457676,-0.07359428191455561,,-2.6848167e-05,-8.165836e-06,7.2717667e-06,1.0,-4.656613e-07,-4.0605664e-07,4.7311187e-07,1.0,-2.9802322e-08,4.0233135e-07,8.940697e-08,1.0,160,0.485,0,0,0.0,False,-0.25546928445310746,0.7434667946177398
0.5112614629906602,14:53:24.234214,14:53:10.254578,0,,0.12932669,0.0057567656,0.012016565,-0.8475619,-0.16678818,-0.503806,-0.48913765,-0.12275767,0.86352473,-0.20587173,0.97832114,0.022462338,,0.034314387,-0.028968796,0.033634305,0.7125315,-0.58439994,0.3882982,-0.7013861,-0.6081466,0.37177294,0.018878222,-0.5372469,-0.8432137,,0.10691625,1.3440152,0.44341654,0.99563074,0.020226132,-0.091161236,-0.043968655,-0.7597138,-0.6487694,-0.082378544,0.64994293,-0.7555051,,-0.09595733,0.25441742,-0.07202439,0.839693,0.06278659,0.5394196,-0.480539,0.54861814,0.68417865,-0.25297815,-0.83371216,0.49084222,,-0.0007748115,0.40388605,-0.37517282,-0.6744921,0.664076,-0.32258868,-0.43637192,-0.7110478,-0.5513534,-0.5955165,-0.23111485,0.7693803,,1.1030688273569835,0.38164201317842683,0.21784283079000002,0.49109384764075603,-0.11081220130977221,1.2322287070628577,-0.39692608070629853,,-0.7968393006953591,-0.29039792426946426,0.17394656252000001,-0.597826028874379,0.17762744969507258,-0.13953415669621128,0.5702341348747688,,-0.048616146314302056,-0.07213882130805563,0.0795457676,-0.07359428191455561,,-2.6848167e-05,-8.165836e-06,7.2717667e-06,1.0,-4.656613e-07,-4.0605664e-07,4.7311187e-07,1.0,-2.9802322e-08,4.0233135e-07,8.940697e-08,1.0,168,0.509,0,0,0.0,False,-0.2557075953271921,0.7419701083935766
0.5390792249818332,14:53:24.260367,14:53:10.254578,0,,0.12935519,0.0058034956,0.0121989995,-0.84619486,-0.17406738,-0.5036416,-0.48883027,-0.12267974,0.8637098,-0.21213026,0.977062,0.01872152,,0.03431218,-0.028969124,0.033633232,0.7125354,-0.58453107,0.38809368,-0.7013823,-0.6082735,0.37157243,0.018871546,-0.5369606,-0.8433962,,0.10691625,1.3440152,0.44341654,0.99563074,0.020226132,-0.091161236,-0.043968655,-0.7597138,-0.6487694,-0.082378544,0.64994293,-0.7555051,,-0.09600158,0.2545708,-0.07212827,0.8389704,0.07015034,0.5396365,-0.4844198,0.54806805,0.6818789,-0.24792348,-0.83348686,0.4937951,,-0.00077249506,0.40388522,-0.37517253,-0.6744956,0.6641848,-0.32235742,-0.43637592,-0.710861,-0.55159104,-0.5955097,-0.23137668,0.76930684,,1.1033391230075815,0.3820435952878865,0.21769894260000003,0.48836787837545725,-0.10521010481938914,1.2283956816725696,-0.3970894247724328,,-0.7968238552296106,-0.29039792426946426,0.17394656252000001,-0.597826028874379,0.17762744969507258,-0.13920744173564897,0.5676206298166204,,-0.048616146314302056,-0.07213882130805563,0.0795457676,-0.07359428191455561,,-2.6848167e-05,-8.165836e-06,7.2717667e-06,1.0,-4.656613e-07,-4.0605664e-07,4.7311187e-07,1.0,-2.9802322e-08,4.0233135e-07,8.940697e-08,1.0,183,0.555,0,0,0.0,False,-0.25576717304571295,0.740859663775649
0.5652470399800222,14:53:24.304133,14:53:10.369773,0,,0.12938604,0.00583145,0.0124293715,-0.84457976,-0.18376666,-0.5029063,-0.48696133,-0.12686795,0.8641604,-0.22260652,0.9747484,0.017662823,,0.03431431,-0.028971568,0.0336352,0.71252656,-0.5844983,0.3881592,-0.70139074,-0.6082411,0.3716097,0.018889189,-0.537033,-0.8433497,,0.10691625,1.3440152,0.44341654,0.99563074,0.020226132,-0.091161236,-0.043968655,-0.7597138,-0.6487694,-0.082378544,0.64994293,-0.7555051,,-0.096053794,0.2547411,-0.07228017,0.8384943,0.07982212,0.5390322,-0.48986918,0.54366535,0.6815102,-0.23865357,-0.8354977,0.4949627,,-0.0007746848,0.40388536,-0.37517563,-0.6744881,0.66415757,-0.32242894,-0.43636465,-0.7109081,-0.5515393,-0.59552634,-0.23131011,0.769314,,1.1036943687197958,0.38230616820561014,0.21750061023000003,0.48522252922318937,-0.09496236733698112,1.2270637105474262,-0.39676273664016404,,-0.7968393006953591,-0.2904133697352127,0.17394526623,-0.597826028874379,0.17762744969507258,-0.13928912047578962,0.5668039094859489,,-0.048616146314302056,-0.07213882130805563,0.0795457676,-0.07359428191455561,,-2.6848167e-05,-8.165836e-06,7.2717667e-06,1.0,-4.656613e-07,-4.0605664e-07,4.7311187e-07,1.0,-2.9802322e-08,4.0233135e-07,8.940697e-08,1.0,191,0.579,0,0,0.0,False,-0.25588632848275505,0.736369605103159
0.6090142539760564,14:53:24.325667,14:53:10.369773,0,,0.129389,0.005838871,0.012560129,-0.84357685,-0.18889599,-0.5026892,-0.48622262,-0.12869972,0.8643055,-0.22795977,0.9735269,0.01672256,,0.034311634,-0.028969318,0.033634365,0.7125354,-0.58443594,0.3882369,-0.7013823,-0.60818243,0.3717215,0.018871546,-0.53716713,-0.8432646,,0.10691625,1.3440152,0.44341654,0.99563074,0.020226132,-0.091161236,-0.043968655,-0.7597138,-0.6487694,-0.082378544,0.64994293,-0.7555051,,-0.09606938,0.25483176,-0.07237345,0.8380642,0.08495485,0.53891665,-0.49282292,0.5416291,0.68100184,-0.2340385,-0.8363137,0.49578762,,-0.0007720508,0.40388614,-0.3751733,-0.6744956,0.6641058,-0.32252017,-0.43637592,-0.71099615,-0.5514168,-0.5955097,-0.23118816,0.7693635,,1.1039260507060225,0.3824142864658493,0.21738394413000003,0.4833353197318287,-0.08977018034589437,1.2260153010724442,-0.39757945697083563,,-0.7968238552296106,-0.29039792426946426,0.17394526623,-0.597826028874379,0.17762744969507258,-0.13945247795607074,0.5625569637664577,,-0.048616146314302056,-0.07213882130805563,0.0795457676,-0.07359428191455561,,-2.6848167e-05,-8.165836e-06,7.2717667e-06,1.0,-4.656613e-07,-4.0605664e-07,4.7311187e-07,1.0,-2.9802322e-08,4.0233135e-07,8.940697e-08,1.0,203,0.616,0,0,0.0,False,-0.2561246393568388,0.7347280782766576
0.630532063980354,14:53:24.356224,14:53:10.369773,0,,0.12935442,0.0058425814,0.012740895,-0.84338534,-0.19067931,-0.5023371,-0.4854914,-0.13013828,0.8645011,-0.2302157,0.9729879,0.017183483,,0.034314703,-0.028967619,0.033636093,0.7125319,-0.58452314,0.388112,-0.70138574,-0.6082636,0.37158224,0.018876076,-0.53698033,-0.84338343,,0.10691625,1.3440152,0.44341654,0.99563074,0.020226132,-0.091161236,-0.043968655,-0.7597138,-0.6487694,-0.082378544,0.64994293,-0.7555051,,-0.09605278,0.25495327,-0.07251075,0.83813256,0.08671274,0.5385302,-0.49374247,0.54023856,0.6814401,-0.23184521,-0.8370324,0.4956053,,-0.0007753667,0.4038882,-0.37517276,-0.6744924,0.6641783,-0.32237735,-0.43637356,-0.71087325,-0.5515771,-0.595515,-0.23135762,0.76930845,,1.104289019151111,0.38263052298632755,0.21722061159000003,0.48291593984485953,-0.08744735984988189,1.225999807732838,-0.39741611290470147,,-0.7968470234282333,-0.29039020153659,0.17394526623,-0.597826028874379,0.17762744969507258,-0.139207441735649,0.5610868671712492,,-0.048616146314302056,-0.07213882130805563,0.0795457676,-0.07359428191455561,,-2.6848167e-05,-8.165836e-06,7.2717667e-06,1.0,-4.656613e-07,-4.0605664e-07,4.7311187e-07,1.0,-2.9802322e-08,4.0233135e-07,8.940697e-08,1.0,211,0.64,0,0,0.0,False,-0.25588632848275505,0.7327968702454792
0.6611061499861535,14:53:24.385816,14:53:10.369773,0,,0.12932248,0.005815372,0.012892082,-0.84341437,-0.19057465,-0.5023281,-0.48543411,-0.13034937,0.8645015,-0.23023018,0.97298014,0.017427027,,0.03431384,-0.02896899,0.033635437,0.7125315,-0.5845268,0.38810727,-0.7013861,-0.608268,0.37157425,0.018878222,-0.5369714,-0.84338915,,0.10691625,1.3440152,0.44341654,0.99563074,0.020226132,-0.091161236,-0.043968655,-0.7597138,-0.6487694,-0.082378544,0.64994293,-0.7555051,,-0.09603734,0.25503197,-0.07264559,0.8381655,0.08659949,0.53849703,-0.49370763,0.54007035,0.68159866,-0.23180021,-0.8371526,0.4954232,,-0.00077436725,0.40388697,-0.3751736,-0.6744921,0.66418135,-0.32237172,-0.43637192,-0.71086764,-0.5515857,-0.5955165,-0.23136622,0.7693047,,1.104489810205841,0.3827695321780636,0.21707153824000003,0.48291593984485953,-0.08744735984988189,1.2259998077328382,-0.39774280103697,,-0.7968393006953591,-0.29039792426946426,0.17394526623,-0.597826028874379,0.17762744969507258,-0.13920744173564906,0.5588000502453693,,-0.048616146314302056,-0.07213882130805563,0.0795457676,-0.07359428191455561,,-2.6848167e-05,-8.165836e-06,7.2717667e-06,1.0,-4.656613e-07,-4.0605664e-07,4.7311187e-07,1.0,-2.9802322e-08,4.0233135e-07,8.940697e-08,1.0,230,0.699,0,0,0.0,False,-0.2556480176086704,0.7315415850252136
0.6906678179802839,14:53:24.436761,14:53:10.369773,0,,0.12934208,0.0058465153,0.013037071,-0.84262455,-0.19309647,-0.5026903,-0.48579141,-0.13022229,0.86432,-0.23235859,0.97249985,0.015923887,,0.034312733,-0.028969154,0.0336349,0.71253335,-0.5844972,0.38814825,-0.7013842,-0.6082404,0.37162304,0.018874854,-0.53703487,-0.84334886,,0.10691625,1.3440152,0.44341654,0.99563074,0.020226132,-0.091161236,-0.043968655,-0.7597138,-0.6487694,-0.082378544,0.64994293,-0.7555051,,-0.09606976,0.25514942,-0.07273238,0.837575,0.08915972,0.53899777,-0.4953871,0.53992695,0.6804929,-0.23034686,-0.8369764,0.49639788,,-0.00077320903,0.40388656,-0.37517345,-0.67449385,0.66415673,-0.3224188,-0.43637392,-0.71090937,-0.5515303,-0.5955131,-0.23130861,0.76932466,,1.1046365421304511,0.38317111428752326,0.21695746472000002,0.48144811024046796,-0.08594435835246203,1.224447495831615,-0.39806948916923857,,-0.7968315779624849,-0.29039792426946426,0.17394526623,-0.597826028874379,0.17762744969507258,-0.1392891204757896,0.5570032655178923,,-0.048616146314302056,-0.07213882130805563,0.0795457676,-0.07359428191455561,,-2.6848167e-05,-8.165836e-06,7.2717667e-06,1.0,-4.656613e-07,-4.0605664e-07,4.7311187e-07,1.0,-2.9802322e-08,4.0233135e-07,8.940697e-08,1.0,238,0.722,0,0,0.0,False,-0.2557075953271921,0.7286447729784458
0.7416304979997221,14:53:24.466556,14:53:10.521915,0,,0.12937728,0.005859807,0.01311864,-0.842256,-0.1953166,-0.50245017,-0.48545587,-0.13044256,0.86447525,-0.23438719,0.9720268,0.015048385,,0.03431218,-0.028969362,0.033636034,0.71253335,-0.5845289,0.3881005,-0.7013842,-0.60827076,0.37157336,0.018874854,-0.53696597,-0.8433927,,0.10691625,1.3440152,0.44341654,0.99563074,0.020226132,-0.091161236,-0.043968655,-0.7597138,-0.6487694,-0.082378544,0.64994293,-0.7555051,,-0.0961122,0.2552116,-0.0727814,0.8374261,0.09140291,0.5388534,-0.4964639,0.53951615,0.68003374,-0.22856306,-0.8369993,0.49718317,,-0.0007727648,0.40388748,-0.37517425,-0.67449385,0.6641831,-0.32236457,-0.43637392,-0.71086437,-0.55158836,-0.5955131,-0.23137145,0.76930577,,1.1046210966647028,0.38340279627375,0.21689265022,0.4808190404100144,-0.0841680838555113,1.223489135524405,-0.3970894247724328,,-0.7968315779624849,-0.29039792426946426,0.17394396994000003,-0.597826028874379,0.17762744969507258,-0.13920744173564897,0.5548797926581466,,-0.048616146314302056,-0.07213882130805563,0.0795457676,-0.07359428191455561,,-2.6848167e-05,-8.165836e-06,7.2717667e-06,1.0,-4.656613e-07,-4.0605664e-07,4.7311187e-07,1.0,-2.9802322e-08,4.0233135e-07,8.940697e-08,1.0,250,0.759,0,0,0.0,False,-0.25558843989015,0.7272446471558416
0.7714436939859297,14:53:24.504516,14:53:10.521915,0,,0.12939063,0.0058515966,0.013171509,-0.8413338,-0.1975379,-0.50312644,-0.48614874,-0.13030949,0.86410594,-0.23625575,0.97159576,0.0136009455,,0.03431305,-0.028967917,0.03363669,0.7125338,-0.5845252,0.3881052,-0.70138377,-0.60826635,0.37158135,0.018872738,-0.53697497,-0.843387,,0.10691625,1.3440152,0.44341654,0.99563074,0.020226132,-0.091161236,-0.043968655,-0.7597138,-0.6487694,-0.082378544,0.64994293,-0.7555051,,-0.096131116,0.2552394,-0.072825104,0.8366623,0.09365985,0.5396518,-0.4982326,0.53940064,0.6788308,-0.22750932,-0.83682424,0.49796054,,-0.0007737642,0.4038887,-0.3751734,-0.6744941,0.66418004,-0.32237023,-0.43637556,-0.71086997,-0.5515798,-0.5955116,-0.23136285,0.7693095,,1.1046210966647028,0.3834645781367438,0.21684209491000003,0.4791415208621381,-0.0828017188578569,1.2223749564874407,-0.39676273664016437,,-0.7968393006953591,-0.29039020153659,0.17394396994000003,-0.597826028874379,0.17762744969507258,-0.13928912047578956,0.5538997282613409,,-0.048616146314302056,-0.07213882130805563,0.0795457676,-0.07359428191455561,,-2.6848167e-05,-8.165836e-06,7.2717667e-06,1.0,-4.656613e-07,-4.0605664e-07,4.7311187e-07,1.0,-2.9802322e-08,4.0233135e-07,8.940697e-08,1.0,258,0.784,0,0,0.0,False,-0.2551118181419816,0.724878917317648
0.8093649169895798,14:53:24.527099,14:53:10.521915,0,,0.12940086,0.0058472306,0.01318644,-0.8411965,-0.19932428,-0.5026514,-0.48563236,-0.13032356,0.86439407,-0.23780198,0.9712289,0.012829393,,0.034313288,-0.028969198,0.03363657,0.7125315,-0.58449507,0.388155,-0.7013861,-0.6082377,0.3716239,0.018878222,-0.53704023,-0.8433453,,0.10691625,1.3440152,0.44341654,0.99563074,0.020226132,-0.091161236,-0.043968655,-0.7597138,-0.6487694,-0.082378544,0.64994293,-0.7555051,,-0.09614298,0.2552455,-0.072838075,0.8367038,0.09547114,0.53927,-0.49885154,0.5392028,0.6785334,-0.22599551,-0.83674705,0.4987789,,-0.000773923,0.4038879,-0.3751744,-0.6744921,0.664155,-0.32242596,-0.43637192,-0.7109127,-0.55152756,-0.5955165,-0.23130338,0.7693236,,1.1046133739318285,0.38344140993812115,0.21682653943000002,0.47893183091865366,-0.08116208086067163,1.221528014083927,-0.39676273664016426,,-0.7968393006953591,-0.29039792426946426,0.17394396994000003,-0.597826028874379,0.17762744969507258,-0.13928912047578956,0.5524296316661323,,-0.048616146314302056,-0.07213882130805563,0.0795457676,-0.07359428191455561,,-2.6848167e-05,-8.165836e-06,7.2717667e-06,1.0,-4.656613e-07,-4.0605664e-07,4.7311187e-07,1.0,-2.9802322e-08,4.0233135e-07,8.940697e-08,1.0,277,0.841,0,0,0.0,False,-0.25558843989015,0.7223683468771163
0.8319657550018746,14:53:24.578209,14:53:10.521915,0,,0.12941347,0.005840808,0.0132318735,-0.8410656,-0.19910955,-0.5029554,-0.48542678,-0.13244757,0.86418664,-0.238683,0.97098565,0.014743984,,0.034314312,-0.028971806,0.03363806,0.7125247,-0.5844962,0.38816598,-0.7013926,-0.6082383,0.3716106,0.018892497,-0.53703845,-0.8433461,,0.10691625,1.3440152,0.44341654,0.99563074,0.020226132,-0.091161236,-0.043968655,-0.7597138,-0.6487694,-0.082378544,0.64994293,-0.7555051,,-0.09616034,0.25526986,-0.0728751,0.83667094,0.095181264,0.5393721,-0.4992729,0.5374271,0.6796313,-0.225185,-0.8379216,0.49717107,,-0.0007749545,0.40388763,-0.37517735,-0.67448646,0.6641559,-0.3224361,-0.43636265,-0.7109114,-0.55153656,-0.59552974,-0.23130487,0.7693129,,1.10459792846608,0.38351091453398917,0.21678376186000003,0.4787221409751691,-0.08034226186207899,1.2234732263462467,-0.3970894247724328,,-0.7968470234282333,-0.2904133697352127,0.17394267365000002,-0.597826028874379,0.17762744969507258,-0.13928912047578962,0.5462225571530298,,-0.048616146314302056,-0.07213882130805563,0.0795457676,-0.07359428191455561,,-2.6848167e-05,-8.165836e-06,7.2717667e-06,1.0,-4.656613e-07,-4.0605664e-07,4.7311187e-07,1.0,-2.9802322e-08,4.0233135e-07,8.940697e-08,1.0,281,0.853,0,0,0.0,False,-0.25624379479388093,0.7155125583664335
0.8830980679776985,14:53:24.610043,14:53:10.675460,0,,0.12943731,0.0058331788,0.013300762,-0.83976483,-0.20344645,-0.50339305,-0.4858532,-0.13229248,0.8639707,-0.2423669,0.9701073,0.01224944,,0.034313098,-0.028970927,0.033636212,0.71279013,-0.5842658,0.38802522,-0.70111847,-0.6085839,0.37156224,0.01905489,-0.53689754,-0.8434322,,0.10691625,1.3440152,0.44341654,0.99563074,0.020226132,-0.091161236,-0.043968655,-0.7597138,-0.6487694,-0.082378544,0.64994293,-0.7555051,,-0.09619123,0.2553082,-0.07292938,0.8357238,0.09958641,0.54004467,-0.5020323,0.53709835,0.67785615,-0.22255185,-0.8376204,0.49886146,,-0.00077360816,0.40388668,-0.37517563,-0.6747801,0.6639307,-0.32228535,-0.43610927,-0.7110028,-0.5516192,-0.59538275,-0.23166999,0.76931685,,1.1046056511989544,0.38356497366410874,0.21671894736000002,0.47641555159683935,-0.07719962236747385,1.2213190082619316,-0.3959460163094929,,-0.7968393006953591,-0.29040564700233845,0.17394396994000003,-0.598245408761348,0.17762744969507258,-0.139207441735649,0.5418122673674043,,-0.048616146314302056,-0.07213882130805563,0.0795457676,-0.07359428191455561,,-2.6848167e-05,-8.165836e-06,7.2717667e-06,1.0,-4.656613e-07,-4.0605664e-07,4.7311187e-07,1.0,-2.9802322e-08,4.0233135e-07,8.940697e-08,1.0,293,0.89,0,0,0.0,False,-0.25624379479388093,0.7140641523430493
0.9149323199817445,14:53:24.637293,14:53:10.675460,0,,0.12943114,0.0057937354,0.013427302,-0.838928,-0.2051982,-0.5040771,-0.48609492,-0.13404024,0.8635652,-0.24476859,0.9694983,0.012704253,,0.034306627,-0.02896677,0.033638597,0.7127712,-0.5842563,0.38807428,-0.70113695,-0.6085617,0.37156355,0.01907885,-0.536933,-0.84340906,,0.10691309,1.3440152,0.44342133,0.9956314,0.02023754,-0.09115149,-0.043953706,-0.75971353,-0.64877075,-0.082378544,0.64994293,-0.7555051,,-0.09619818,0.25535682,-0.07304816,0.83512694,0.10130733,0.54064757,-0.50379366,0.535429,0.67787,-0.22080518,-0.8384823,0.49818918,,-0.0007650092,0.40388906,-0.3751697,-0.6747519,0.66393393,-0.3223377,-0.43610394,-0.711014,-0.551609,-0.5954185,-0.23162645,0.76930225,,1.1046133739318285,0.38364220099285096,0.21658283691000002,0.47494772199244767,-0.07515007487099225,1.2220164231705617,-0.3970894247724329,,-0.7968238552296106,-0.29040564700233845,0.17394396994000003,-0.598245408761348,0.17762744969507258,-0.139207441735649,0.5391987623092558,,-0.048616146314302056,-0.07213882130805563,0.0795457676,-0.07359428191455561,,-3.0387193e-05,-5.1259995e-06,3.9339066e-06,1.0,1.0881573e-05,9.354204e-06,-1.0874122e-05,1.0,1.1920929e-06,-9.354204e-06,-1.1622906e-06,1.0,301,0.915,0,0,0.0,False,-0.25576717304571295,0.7130985483274603
0.9421771159977652,14:53:24.660446,14:53:10.675460,0,,0.1294441,0.0057804286,0.013495609,-0.83890456,-0.20570412,-0.50390977,-0.48571816,-0.13482147,0.86365575,-0.2455953,0.96928275,0.013188064,,0.034309305,-0.028969005,0.03363949,0.7127624,-0.58425516,0.38809204,-0.70114547,-0.6085596,0.3715512,0.019096494,-0.53693664,-0.8434064,,0.10691309,1.3440152,0.44342133,0.9956314,0.02023754,-0.09115149,-0.043953706,-0.75971353,-0.64877075,-0.082378544,0.64994293,-0.7555051,,-0.096218474,0.25539082,-0.073106825,0.83520365,0.1017946,0.5404375,-0.50404674,0.53471076,0.6782487,-0.2199357,-0.83888155,0.49790162,,-0.000767643,0.4038883,-0.37517202,-0.6747445,0.6639331,-0.32235497,-0.43609267,-0.711016,-0.5516153,-0.5954352,-0.23162273,0.7692905,,1.10459792846608,0.38373487378734167,0.21651672612000003,0.47494772199244767,-0.07433025587239961,1.2224097393702105,-0.39659939257403,,-0.7968393006953591,-0.2904210924680869,0.17394396994000003,-0.598245408761348,0.17762744969507258,-0.139207441735649,0.5391987623092558,,-0.048616146314302056,-0.07213882130805563,0.0795457676,-0.07359428191455561,,-3.0387193e-05,-5.1259995e-06,3.9339066e-06,1.0,1.0881573e-05,9.354204e-06,-1.0874122e-05,1.0,1.1920929e-06,-9.354204e-06,-1.1622906e-06,1.0,309,0.939,0,0,0.0,False,-0.2561246393568388,0.7084636490526321
0.9653228139795829,14:53:24.689685,14:53:10.675460,0,,0.12946567,0.0057573766,0.0135746,-0.83887756,-0.20619382,-0.5037546,-0.4855095,-0.13498706,0.8637471,-0.24609955,0.96915555,0.013128459,,0.034310646,-0.028970093,0.033639908,0.71275806,-0.58419126,0.38819635,-0.70114964,-0.6084978,0.3716444,0.019105315,-0.5370762,-0.84331733,,0.10691309,1.3440152,0.44342133,0.9956314,0.02023754,-0.09115149,-0.043953706,-0.75971353,-0.64877075,-0.082378544,0.64994293,-0.7555051,,-0.09624884,0.25542414,-0.07317898,0.8352368,0.10228611,0.5402935,-0.50421757,0.5345166,0.67827475,-0.21941775,-0.8389455,0.49802238,,-0.0007689599,0.40388793,-0.37517315,-0.6747408,0.66388,-0.32247207,-0.43608704,-0.7111071,-0.5515023,-0.5954435,-0.23149519,0.76932245,,1.104520701137338,0.383850714780455,0.21643765243000002,0.47494772199244767,-0.07392034637310328,1.2223205218795428,-0.3970894247724329,,-0.7968470234282333,-0.29042881520096114,0.17394396994000003,-0.598245408761348,0.17762744969507258,-0.13937079921593015,0.5362585691188387,,-0.048616146314302056,-0.07213882130805563,0.0795457676,-0.07359428191455561,,-3.0387193e-05,-5.1259995e-06,3.9339066e-06,1.0,1.0881573e-05,9.354204e-06,-1.0874122e-05,1.0,1.1920929e-06,-9.354204e-06,-1.1622906e-06,1.0,324,0.984,0,0,0.0,False,-0.2556480176086704,0.7061461994152181
0.9945488550001755,14:53:24.726509,14:53:10.675460,0,,0.129512,0.005769089,0.013704658,-0.8375584,-0.20973557,-0.5044869,-0.4862282,-0.13494924,0.86334866,-0.24915497,0.9684006,0.011048406,,0.03431033,-0.028971538,0.03364098,0.7127556,-0.58419275,0.38819844,-0.70115197,-0.6084995,0.37163728,0.019110769,-0.5370726,-0.8433195,,0.10691309,1.3440152,0.44342133,0.9956314,0.02023754,-0.09115149,-0.043953706,-0.75971353,-0.64877075,-0.082378544,0.64994293,-0.7555051,,-0.09630725,0.25551635,-0.0732643,0.8341951,0.10588314,0.54120916,-0.50679,0.5341562,0.67663956,-0.21744551,-0.8387288,0.49925095,,-0.0007686743,0.40388805,-0.37517494,-0.67473876,0.6638813,-0.32247356,-0.4360834,-0.7111048,-0.5515081,-0.59544843,-0.23149855,0.7693176,,1.1045052556715893,0.3841905150269209,0.21633006036000002,0.4726411326141179,-0.07173416237685623,1.2205378354204002,-0.3970894247724329,,-0.7968470234282333,-0.29043653793383534,0.17394267365000002,-0.598245408761348,0.17762744969507258,-0.13937079921593018,0.5320116233993475,,-0.048616146314302056,-0.07213882130805563,0.0795457676,-0.07359428191455561,,-3.0387193e-05,-5.1259995e-06,3.9339066e-06,1.0,1.0881573e-05,9.354204e-06,-1.0874122e-05,1.0,1.1920929e-06,-9.354204e-06,-1.1622906e-06,1.0,349,1.062,0,0,0.0,False,-0.2556480176086704,0.7038770299785839
1.0313905009825248,14:53:24.802611,14:53:10.805988,0,,0.12964337,0.005761355,0.014088422,-0.8360456,-0.22047883,-0.502411,-0.48265532,-0.13989976,0.86456466,-0.2609053,0.9653068,0.010547221,,0.03431035,-0.028981999,0.033637643,0.71287066,-0.583888,0.3884456,-0.7010317,-0.6084933,0.3718744,0.019233614,-0.537411,-0.84310114,,0.10691309,1.3440152,0.44342133,0.9956314,0.02023754,-0.09115149,-0.043953706,-0.75971353,-0.64877075,-0.082378544,0.64994293,-0.7555051,,-0.09647631,0.25575653,-0.073544174,0.8340278,0.11663403,0.53925323,-0.5117734,0.5286977,0.6771755,-0.20612025,-0.84075874,0.5006388,,-0.0007678352,0.40387967,-0.375182,-0.6748712,0.66361105,-0.32275254,-0.43592882,-0.7114186,-0.55122554,-0.59541154,-0.23130915,0.76940316,,1.1044743647400925,0.38482377912260735,0.21599043238,0.47054423317927263,-0.060120059896793795,1.219316866360401,-0.3965993925740299,,-0.7968315779624849,-0.29049831979682916,0.17394396994000003,-0.5984550987048325,0.17762744969507258,-0.13986087165677355,0.5297248064734676,,-0.048616146314302056,-0.07213882130805563,0.0795457676,-0.07359428191455561,,-3.0387193e-05,-5.1259995e-06,3.9339066e-06,1.0,1.0881573e-05,9.354204e-06,-1.0874122e-05,1.0,1.1920929e-06,-9.354204e-06,-1.1622906e-06,1.0,357,1.087,0,0,0.0,False,-0.25540970673458663,0.7025734645575383
1.1074745609948877,14:53:24.831475,14:53:10.805988,0,,0.12966762,0.0057421923,0.014190495,-0.83602315,-0.22063424,-0.50238025,-0.48258743,-0.14002639,0.86458206,-0.2611028,0.9652529,0.010589927,,0.03431011,-0.028980762,0.033637702,0.7128731,-0.58388644,0.38844347,-0.7010293,-0.6084916,0.37188146,0.019228071,-0.53741455,-0.8430989,,0.10691309,1.3440152,0.44342133,0.9956314,0.02023754,-0.09115149,-0.043953706,-0.75971353,-0.64877075,-0.082378544,0.64994293,-0.7555051,,-0.09651147,0.25580776,-0.073630884,0.8340283,0.11678785,0.5392192,-0.51185113,0.52857107,0.67721564,-0.2059251,-0.840817,0.50062126,,-0.0007676765,0.40388045,-0.375181,-0.67487323,0.66360974,-0.32275105,-0.43593246,-0.71142095,-0.5512197,-0.5954066,-0.23130576,0.7694079,,1.1044048601442245,0.38502457017733716,0.21589321063000003,0.47054423317927263,-0.060120059896793795,1.219316866360401,-0.3965993925740299,,-0.7968315779624849,-0.2904905970639549,0.17394396994000003,-0.5984550987048325,0.17762744969507258,-0.13986087165677355,0.5284180539443935,,-0.048616146314302056,-0.07213882130805563,0.0795457676,-0.07359428191455561,,-3.0387193e-05,-5.1259995e-06,3.9339066e-06,1.0,1.0881573e-05,9.354204e-06,-1.0874122e-05,1.0,1.1920929e-06,-9.354204e-06,-1.1622906e-06,1.0,369,1.124,0,0,0.0,False,-0.25493308498641865,0.7002077347193447
1.1363337859802414,14:53:24.869881,14:53:10.805988,0,,0.12970902,0.005753115,0.014306784,-0.8362233,-0.2207352,-0.5020027,-0.48213512,-0.14025107,0.8647979,-0.26129767,0.9651972,0.010856926,,0.034311216,-0.028980598,0.03363824,0.71287113,-0.5838526,0.38849798,-0.70103127,-0.60845846,0.37193206,0.019231439,-0.5374888,-0.84305143,,0.10691309,1.3440152,0.44342133,0.9956314,0.02023754,-0.09115149,-0.043953706,-0.75971353,-0.64877075,-0.082378544,0.64994293,-0.7555051,,-0.09656364,0.25589052,-0.0737069,0.834268,0.1168831,0.5388277,-0.5116291,0.5283673,0.6775423,-0.20550568,-0.84093183,0.5006007,,-0.00076883467,0.40388086,-0.37518114,-0.6748715,0.66358167,-0.32281238,-0.43593046,-0.71146923,-0.5511589,-0.59541005,-0.2312377,0.76942575,,1.1043353555483564,0.3854107068210484,0.21579728517000002,0.47096361306624174,-0.060120059896793795,1.219316866360401,-0.3965993925740299,,-0.7968393006953591,-0.2904905970639549,0.17394396994000003,-0.5984550987048325,0.17762744969507258,-0.13994255039691406,0.5262945810846478,,-0.048616146314302056,-0.07213882130805563,0.0795457676,-0.07359428191455561,,-3.0387193e-05,-5.1259995e-06,3.9339066e-06,1.0,1.0881573e-05,9.354204e-06,-1.0874122e-05,1.0,1.1920929e-06,-9.354204e-06,-1.1622906e-06,1.0,377,1.148,0,0,0.0,False,-0.2543373078012081,0.6983248068889458
1.1747283820004668,14:53:24.893010,14:53:10.805988,0,,0.12978071,0.0057723373,0.014403045,-0.8360455,-0.22569174,-0.5000912,-0.48033303,-0.13941967,0.8659344,-0.26515675,0.9641709,0.008153945,,0.03431011,-0.028980762,0.033637702,0.7128731,-0.58385473,0.38849115,-0.7010293,-0.60846126,0.37193117,0.019228071,-0.53748345,-0.843055,,0.10691309,1.3440152,0.44342133,0.9956314,0.02023754,-0.09115149,-0.043953706,-0.75971353,-0.64877075,-0.082378544,0.64994293,-0.7555051,,-0.09664354,0.2559657,-0.07375924,0.83456,0.12195085,0.53725004,-0.5127797,0.5284731,0.67658937,-0.20141155,-0.84014535,0.5035764,,-0.0007676765,0.40388045,-0.375181,-0.67487323,0.6635834,-0.32280523,-0.43593246,-0.71146595,-0.5511616,-0.5954066,-0.23124292,0.7694268,,1.1042349600209915,0.38568872520452047,0.21572598922000003,0.47096361306624174,-0.056157601403596026,1.2160857471532047,-0.3965993925740299,,-0.7968315779624849,-0.2904905970639549,0.17394396994000003,-0.5984550987048325,0.17762744969507258,-0.13994255039691408,0.524661140423305,,-0.048616146314302056,-0.07213882130805563,0.0795457676,-0.07359428191455561,,-3.0387193e-05,-5.1259995e-06,3.9339066e-06,1.0,1.0881573e-05,9.354204e-06,-1.0874122e-05,1.0,1.1920929e-06,-9.354204e-06,-1.1622906e-06,1.0,385,1.173,0,0,0.0,False,-0.25546928445310746,0.6977937246803716
1.1978969640040305,14:53:24.923092,14:53:10.992003,0,,0.12987497,0.0057994872,0.01448743,-0.83474654,-0.23357728,-0.4986382,-0.47788358,-0.14255455,0.86677885,-0.27354294,0.96183157,0.0073741376,,0.034309246,-0.028982148,0.033637047,0.7128726,-0.58392185,0.38839108,-0.7010298,-0.6085264,0.3718238,0.019230276,-0.5373367,-0.84314847,,0.10691309,1.3440152,0.44342133,0.9956314,0.02023754,-0.09115149,-0.043953706,-0.75971353,-0.64877075,-0.082378544,0.64994293,-0.7555051,,-0.09674434,0.25603852,-0.07379508,0.8342178,0.12987241,0.53592336,-0.51641893,0.52480036,0.6766802,-0.1933707,-0.8412596,0.50486636,,-0.000766677,0.40387923,-0.37518182,-0.67487293,0.6636391,-0.32269117,-0.43593082,-0.7113703,-0.55128634,-0.59540814,-0.23137721,0.76938534,,1.1041345644936267,0.3858586253277534,0.21566765617000003,0.4692860935183655,-0.04768613841813872,1.2149770276740068,-0.3961093603756273,,-0.7968238552296106,-0.29049831979682916,0.17394396994000003,-0.5984550987048325,0.17762744969507258,-0.13977919291663293,0.5227010116296935,,-0.048616146314302056,-0.07213882130805563,0.0795457676,-0.07359428191455561,,-3.0387193e-05,-5.1259995e-06,3.9339066e-06,1.0,1.0881573e-05,9.354204e-06,-1.0874122e-05,1.0,1.1920929e-06,-9.354204e-06,-1.1622906e-06,1.0,397,1.21,0,0,0.0,False,-0.2561246393568388,0.6974074830741364
1.2279686239780858,14:53:24.957255,14:53:10.992003,0,,0.12996525,0.00581789,0.014604554,-0.83299977,-0.24318284,-0.49696437,-0.4743039,-0.14859542,0.8677299,-0.2848636,0.9585309,0.008437276,,0.03430901,-0.028980926,0.033637166,0.7128751,-0.58392024,0.38838902,-0.7010274,-0.60852474,0.37183088,0.019224763,-0.5373403,-0.8431463,,0.10691309,1.3440152,0.44342133,0.9956314,0.02023754,-0.09115149,-0.043953706,-0.75971353,-0.64877075,-0.082378544,0.64994293,-0.7555051,,-0.096844815,0.2561261,-0.07386167,0.83377564,0.13946141,0.5341991,-0.52112424,0.5183474,0.67804533,-0.18233956,-0.8437218,0.5048621,,-0.00076651835,0.40388003,-0.37518084,-0.67487496,0.6636378,-0.32268968,-0.43593445,-0.7113726,-0.5512805,-0.5954032,-0.23137385,0.7693901,,1.1041268417607524,0.3859281299236214,0.21557043442,0.4671891940835203,-0.0357987629385454,1.2156568700502695,-0.3964360485078957,,-0.7968238552296106,-0.2904905970639549,0.17394396994000003,-0.5984550987048325,0.17762744969507258,-0.13977919291663296,0.522374323497425,,-0.048616146314302056,-0.07213882130805563,0.0795457676,-0.07359428191455561,,-3.0387193e-05,-5.1259995e-06,3.9339066e-06,1.0,1.0881573e-05,9.354204e-06,-1.0874122e-05,1.0,1.1920929e-06,-9.354204e-06,-1.1622906e-06,1.0,405,1.234,0,0,0.0,False,-0.2552309735790237,0.6963453186569879
1.2621044149855152,14:53:24.980479,14:53:10.992003,0,,0.1299609,0.005767897,0.014714181,-0.8323782,-0.24321443,-0.4979894,-0.4747365,-0.15072682,0.8671256,-0.28595775,0.95819,0.009998828,,0.03430901,-0.028980926,0.033637166,0.7128751,-0.58392024,0.38838902,-0.7010274,-0.60852474,0.37183088,0.019224763,-0.5373403,-0.8431463,,0.10691309,1.3440152,0.44342133,0.9956314,0.02023754,-0.09115149,-0.043953706,-0.75971353,-0.64877075,-0.082378544,0.64994293,-0.7555051,,-0.09685375,0.2561597,-0.07397714,0.83324605,0.13942575,0.5350341,-0.5221827,0.5165097,0.67863315,-0.18173136,-0.84485394,0.5031854,,-0.00076651835,0.40388003,-0.37518084,-0.67487496,0.6636378,-0.32268968,-0.43593445,-0.7113726,-0.5512805,-0.5954032,-0.23137385,0.7693901,,1.1041345644936267,0.38593585265649566,0.21545506461000002,0.46614074436609765,-0.03511558043971819,1.217386785255723,-0.3972527688385671,,-0.7968238552296106,-0.2904905970639549,0.17394396994000003,-0.5984550987048325,0.17762744969507258,-0.13977919291663293,0.5227010116296935,,-0.048616146314302056,-0.07213882130805563,0.0795457676,-0.07359428191455561,,-3.0387193e-05,-5.1259995e-06,3.9339066e-06,1.0,1.0881573e-05,9.354204e-06,-1.0874122e-05,1.0,1.1920929e-06,-9.354204e-06,-1.1622906e-06,1.0,430,1.312,0,0,0.0,False,-0.2547543518308557,0.6945589512281485
1.2853664259891957,14:53:25.052646,14:53:10.992003,0,,0.13002858,0.005663857,0.01510562,-0.8279272,-0.25945026,-0.49721438,-0.4744332,-0.14877939,0.86762774,-0.29908144,0.95422757,8.663535e-05,,0.034309566,-0.028980985,0.033638835,0.7128731,-0.583823,0.38853884,-0.7010293,-0.60843086,0.37198088,0.019228071,-0.5375523,-0.8430111,,0.10691309,1.3440152,0.44342133,0.9956314,0.02023754,-0.09115149,-0.043953706,-0.75971353,-0.64877075,-0.082378544,0.64994293,-0.7555051,,-0.09696482,0.25633365,-0.07433214,0.83014,0.15604879,0.53527224,-0.53062516,0.5158767,0.6725386,-0.17118566,-0.8423301,0.51105326,,-0.0007672322,0.40388137,-0.3751818,-0.67487323,0.66355705,-0.32285944,-0.43593246,-0.71151096,-0.5511035,-0.5954066,-0.23118007,0.7694457,,1.1041654554251235,0.3860748618482317,0.21506358503000003,0.4594306661745929,-0.023091568460359434,1.2077453672107192,-0.39659939257403,,-0.7968315779624849,-0.2904905970639549,0.17394267365000002,-0.5984550987048325,0.17762744969507258,-0.14002422913705465,0.519434130307008,,-0.048616146314302056,-0.07213882130805563,0.0795457676,-0.07359428191455561,,-3.0387193e-05,-5.1259995e-06,3.9339066e-06,1.0,1.0881573e-05,9.354204e-06,-1.0874122e-05,1.0,1.1920929e-06,-9.354204e-06,-1.1622906e-06,1.0,438,1.337,0,0,0.0,False,-0.25535012901606535,0.6912276173743654
1.3575169800024014,14:53:25.079505,14:53:10.992003,0,,0.13009979,0.0056589246,0.015335068,-0.8253367,-0.2685637,-0.49668205,-0.47226647,-0.15380973,0.86793256,-0.3094896,0.9509028,0.00011113286,,0.034309566,-0.028980985,0.033638835,0.7128731,-0.58388644,0.38844347,-0.7010293,-0.6084916,0.37188146,0.019228071,-0.53741455,-0.8430989,,0.10691309,1.3440152,0.44342133,0.9956314,0.02023754,-0.09115149,-0.043953706,-0.75971353,-0.64877075,-0.082378544,0.64994293,-0.7555051,,-0.09705864,0.25647724,-0.07450046,0.82870156,0.16519888,0.5347551,-0.5358326,0.51016027,0.6727704,-0.16166988,-0.84406507,0.51128954,,-0.0007672322,0.40388137,-0.3751818,-0.67487323,0.66360974,-0.32275105,-0.43593246,-0.71142095,-0.5512197,-0.5954066,-0.23130576,0.7694079,,1.1042426827538658,0.38630654383445845,0.21486266008000002,0.4560756270788405,-0.012843830977951401,1.2074752197074032,-0.3970894247724329,,-0.7968315779624849,-0.2904905970639549,0.17394267365000002,-0.5984550987048325,0.17762744969507258,-0.13986087165677355,0.5169839693149938,,-0.048616146314302056,-0.07213882130805563,0.0795457676,-0.07359428191455561,,-3.0387193e-05,-5.1259995e-06,3.9339066e-06,1.0,1.0881573e-05,9.354204e-06,-1.0874122e-05,1.0,1.1920929e-06,-9.354204e-06,-1.1622906e-06,1.0,450,1.373,0,0,0.0,False,-0.2552905512975445,0.6901171727564379
1.3843711599765811,14:53:25.113935,14:53:11.194516,0,,0.13016275,0.005633652,0.015643686,-0.82194155,-0.27878177,-0.4966818,-0.47007018,-0.16039789,0.86793244,-0.32163045,0.94686496,0.0007906258,,0.034308717,-0.028983861,0.03363794,0.7130007,-0.5837287,0.38844636,-0.7008969,-0.60862434,0.37191367,0.019321293,-0.53743565,-0.8430833,,0.10691309,1.3440152,0.44342133,0.9956314,0.02023754,-0.09115149,-0.043953706,-0.75971353,-0.64877075,-0.082378544,0.64994293,-0.7555051,,-0.09715306,0.25665715,-0.07474243,0.826637,0.17544404,0.5346874,-0.5421688,0.50282985,0.6732126,-0.15074565,-0.8463932,0.51077807,,-0.0007661547,0.40387914,-0.37518376,-0.67501587,0.66346174,-0.32275707,-0.43579763,-0.7115267,-0.5511898,-0.5953436,-0.23140508,0.7694268,,1.1044048601442245,0.3865459485535594,0.21458266144000002,0.45167213826566543,-0.0009564554983580831,1.207910025863244,-0.39610936037562716,,-0.7968238552296106,-0.29050604252970336,0.17394267365000002,-0.5986647886483171,0.17762744969507258,-0.13994255039691406,0.5161672489843225,,-0.048616146314302056,-0.07213882130805563,0.0795457676,-0.07359428191455561,,-3.0387193e-05,-5.1259995e-06,3.9339066e-06,1.0,1.0881573e-05,9.354204e-06,-1.0874122e-05,1.0,1.1920929e-06,-9.354204e-06,-1.1622906e-06,1.0,458,1.398,0,0,0.0,False,-0.25535012901606535,0.6901171727564379
1.4187762799847405,14:53:25.142762,14:53:11.194516,0,,0.13015619,0.005599439,0.015777737,-0.8210778,-0.28121465,-0.49673903,-0.47004372,-0.16065073,0.8678999,-0.3238676,0.9461024,-0.00027647614,,0.034307614,-0.028984025,0.033637404,0.71300274,-0.5837308,0.38843963,-0.7008951,-0.6086271,0.37191278,0.019317955,-0.53743017,-0.84308684,,0.10691309,1.3440152,0.44342133,0.9956314,0.02023754,-0.09115149,-0.043953706,-0.75971353,-0.64877075,-0.082378544,0.64994293,-0.7555051,,-0.09716149,0.25671867,-0.074866235,0.826002,0.17792588,0.5348487,-0.5436301,0.502212,0.6724949,-0.14895318,-0.84624195,0.51155394,,-0.00076499657,0.40387872,-0.3751836,-0.6750176,0.6634635,-0.32274994,-0.43579966,-0.71152335,-0.55119246,-0.5953402,-0.23141031,0.7694279,,1.1045052556715893,0.38660773041655316,0.21444784728000002,0.45041399860475834,0.0010930919981235235,1.2068105084887817,-0.39725276883856697,,-0.7968161324967364,-0.29050604252970336,0.17394267365000002,-0.5986647886483171,0.17762744969507258,-0.13994255039691406,0.5161672489843225,,-0.048616146314302056,-0.07213882130805563,0.0795457676,-0.07359428191455561,,-3.0387193e-05,-5.1259995e-06,3.9339066e-06,1.0,1.0881573e-05,9.354204e-06,-1.0874122e-05,1.0,1.1920929e-06,-9.354204e-06,-1.1622906e-06,1.0,466,1.423,0,0,0.0,False,-0.2552309735790237,0.6905516945634531
1.4476488159853034,14:53:25.166039,14:53:11.194516,0,,0.13015747,0.005575776,0.01594749,-0.818645,-0.2882108,-0.4967443,-0.4702897,-0.16001004,0.867885,-0.32961792,0.9441035,-0.004551202,,0.03431031,-0.028988525,0.033637643,0.712952,-0.5837631,0.3884841,-0.7009426,-0.60868424,0.37172967,0.019462079,-0.5373305,-0.84314716,,0.10691309,1.3440152,0.44342133,0.9956314,0.02023754,-0.09115149,-0.043953706,-0.75971353,-0.64877075,-0.082378544,0.64994293,-0.7555051,,-0.097180724,0.2568112,-0.075009234,0.82414347,0.18510847,0.53527784,-0.54763067,0.50159895,0.6697008,-0.1445275,-0.8450641,0.51476055,,-0.0007674701,0.40387622,-0.3751875,-0.67497885,0.66348875,-0.32277897,-0.4356986,-0.71146667,-0.5513456,-0.59545803,-0.23151226,0.76930606,,1.1046906012605708,0.3866772350124212,0.21428710732000003,0.44684926956552135,0.00628527898921026,1.2025766281483177,-0.39725276883856697,,-0.7968238552296106,-0.29052921072832605,0.17394267365000002,-0.5986647886483171,0.17749081319530713,-0.13983113249321766,0.5161672489843225,,-0.048616146314302056,-0.07213882130805563,0.0795457676,-0.07359428191455561,,-3.0387193e-05,-5.1259995e-06,3.9339066e-06,1.0,1.0881573e-05,9.354204e-06,-1.0874122e-05,1.0,1.1920929e-06,-9.354204e-06,-1.1622906e-06,1.0,474,1.447,0,0,0.0,False,-0.25546928445310746,0.690310293559556
1.4708567859779578,14:53:25.201522,14:53:11.194516,0,,0.13016295,0.0055549294,0.016106337,-0.816679,-0.29471657,-0.49616298,-0.46923998,-0.16135067,0.868205,-0.3359305,0.9418642,-0.0065211654,,0.034311257,-0.028993607,0.033637106,0.71294236,-0.58370596,0.38858774,-0.7009519,-0.6086302,0.37180072,0.019484073,-0.5374538,-0.84306806,,0.10691309,1.3440152,0.44342133,0.9956314,0.02023754,-0.09115149,-0.043953706,-0.75971353,-0.64877075,-0.082378544,0.64994293,-0.7555051,,-0.097202964,0.25689864,-0.07514175,0.8228661,0.19173364,0.53491086,-0.55100095,0.49931243,0.6686442,-0.13888605,-0.844941,0.5165127,,-0.00076810474,0.403873,-0.3751915,-0.6749709,0.6634412,-0.32289332,-0.43568406,-0.7115475,-0.5512527,-0.5954777,-0.23140007,0.7693246,,1.1048759468495521,0.3867004032110439,0.21413803397000003,0.44433299024370715,0.01257055797842052,1.200310160483202,-0.39741611290470136,,-0.7968238552296106,-0.29056010165982293,0.17394267365000002,-0.5986647886483171,0.17749081319530713,-0.13999448997349878,0.5158405608520539,,-0.048616146314302056,-0.07213882130805563,0.0795457676,-0.07359428191455561,,-3.0387193e-05,-5.1259995e-06,3.9339066e-06,1.0,1.0881573e-05,9.354204e-06,-1.0874122e-05,1.0,1.1920929e-06,-9.354204e-06,-1.1622906e-06,1.0,507,1.55,0,0,0.0,False,-0.25540970673458663,0.6900206123548789
1.5063739499892108,14:53:25.291957,14:53:11.334209,0,,0.1302242,0.0055185705,0.016511187,-0.8115107,-0.31414977,-0.49270743,-0.46416646,-0.16564965,0.87012047,-0.3549649,0.9348102,-0.011391401,,0.03430749,-0.029010355,0.033632517,0.7132231,-0.5833812,0.38856035,-0.7006634,-0.60886425,0.37196118,0.01958543,-0.5375413,-0.8430099,,0.10691309,1.3440152,0.44342133,0.9956314,0.02023754,-0.09115149,-0.043953706,-0.75971353,-0.64877075,-0.082378544,0.64994293,-0.7555051,,-0.09730576,0.25713286,-0.07546353,0.81986,0.21154591,0.5320507,-0.55969393,0.49202135,0.66682655,-0.12071588,-0.84449,0.52178955,,-0.00076306413,0.40386063,-0.37520325,-0.67527443,0.6631388,-0.3228799,-0.4354759,-0.7117813,-0.55111533,-0.59528583,-0.23154767,0.7694287,,1.105246638027515,0.38678535327266034,0.21377248019000003,0.438671361769625,0.03224621394464395,1.1939040736875037,-0.39545598411109006,,-0.7967852415652396,-0.2906604971871879,0.17394267365000002,-0.5990841685352861,0.17762744969507258,-0.14026926535747636,0.5148604964552481,,-0.048616146314302056,-0.07213882130805563,0.0795457676,-0.07359428191455561,,-3.0387193e-05,-5.1259995e-06,3.9339066e-06,1.0,1.0881573e-05,9.354204e-06,-1.0874122e-05,1.0,1.1920929e-06,-9.354204e-06,-1.1622906e-06,1.0,519,1.586,0,0,0.0,False,-0.2561246393568388,0.6896343707486436
1.596804622997297,14:53:25.331758,14:53:11.334209,0,,0.1302758,0.0054763407,0.016780734,-0.80887073,-0.3209868,-0.4926416,-0.46162853,-0.17225847,0.87018746,-0.36418033,0.93128645,-0.008841962,,0.034306776,-0.02901581,0.033632696,0.7132153,-0.5833578,0.3886095,-0.7006707,-0.6088433,0.37198156,0.019604027,-0.53759027,-0.84297824,,0.10691309,1.3440152,0.44342133,0.9956314,0.02023754,-0.09115149,-0.043953706,-0.75971353,-0.64877075,-0.082378544,0.64994293,-0.7555051,,-0.097385824,0.2572748,-0.07568834,0.81827164,0.2183785,0.53173524,-0.5638447,0.48491222,0.6685352,-0.1118512,-0.84685946,0.5199215,,-0.00076209626,0.40385792,-0.37520793,-0.6752682,0.6631193,-0.3229329,-0.43546337,-0.7118138,-0.55108327,-0.59530205,-0.23150355,0.7694294,,1.1053238653562572,0.38694753066301907,0.21352229622000002,0.4359453925043261,0.04167413242845934,1.1960176871493182,-0.3970894247724326,,-0.7967775188323654,-0.2906913881186848,0.17394137736,-0.5990841685352861,0.17762744969507258,-0.1403509440976169,0.5150238405213825,,-0.048616146314302056,-0.07213882130805563,0.0795457676,-0.07359428191455561,,-3.0387193e-05,-5.1259995e-06,3.9339066e-06,1.0,1.0881573e-05,9.354204e-06,-1.0874122e-05,1.0,1.1920929e-06,-9.354204e-06,-1.1622906e-06,1.0,527,1.611,0,0,0.0,False,-0.25546928445310746,0.6896826509494232
1.6366316959902178,14:53:25.355145,14:53:11.334209,0,,0.13028146,0.00541158,0.017038465,-0.80667174,-0.3256012,-0.49321875,-0.46163777,-0.17394042,0.8698479,-0.3690141,0.92937005,-0.00999707,,0.03430591,-0.02901721,0.03363204,0.7132149,-0.58332974,0.38865247,-0.70067114,-0.60881734,0.3720233,0.019606143,-0.5376501,-0.84294,,0.10691309,1.3440152,0.44342133,0.9956314,0.02023754,-0.09115149,-0.043953706,-0.75971353,-0.64877075,-0.082378544,0.64994293,-0.7555051,,-0.09742011,0.2573933,-0.07592376,0.8165657,0.22307554,0.5324076,-0.5670622,0.48252225,0.66754234,-0.10798613,-0.84700036,0.5205088,,-0.0007610968,0.4038567,-0.37520877,-0.67526793,0.66309595,-0.32298142,-0.43546173,-0.7118532,-0.5510337,-0.59530354,-0.2314493,0.7694445,,1.1054397063493706,0.3870942625876293,0.21326692709000003,0.43300973329554276,0.04604650042095343,1.1949026764352497,-0.3964360485078957,,-0.7967697960994912,-0.290699110851559,0.17394137736,-0.5990841685352861,0.17762744969507258,-0.14043262283775743,0.5151871845875168,,-0.048616146314302056,-0.07213882130805563,0.0795457676,-0.07359428191455561,,-3.0387193e-05,-5.1259995e-06,3.9339066e-06,1.0,1.0881573e-05,9.354204e-06,-1.0874122e-05,1.0,1.1920929e-06,-9.354204e-06,-1.1622906e-06,1.0,535,1.636,0,0,0.0,False,-0.2548735072678969,0.6890067281385104
1.6600307659828104,14:53:25.383239,14:53:11.456761,0,,0.13031438,0.0053953677,0.017251208,-0.8041631,-0.33450174,-0.49135575,-0.45987794,-0.17362201,0.8708432,-0.3766086,0.92626345,-0.0142095685,,0.03430591,-0.02901721,0.03363204,0.7132149,-0.58336157,0.38860485,-0.70067114,-0.6088478,0.3719736,0.019606143,-0.53758126,-0.84298396,,0.10691309,1.3440152,0.44342133,0.9956314,0.02023754,-0.09115149,-0.043953706,-0.75971353,-0.64877075,-0.082378544,0.64994293,-0.7555051,,-0.097474724,0.25751856,-0.07609091,0.81491,0.23224568,0.53102136,-0.5707441,0.48099872,0.6655009,-0.1008609,-0.8454006,0.5245235,,-0.0007610968,0.4038567,-0.37520877,-0.67526793,0.66312236,-0.32292727,-0.43546173,-0.7118082,-0.5510918,-0.59530354,-0.23151216,0.76942563,,1.1055787155411065,0.38725643997798803,0.21307766875000003,0.43028376403024393,0.053698144407818095,1.1898884549303583,-0.39725276883856697,,-0.7967697960994912,-0.290699110851559,0.17394137736,-0.5990841685352861,0.17762744969507258,-0.14035094409761686,0.515350528653651,,-0.048616146314302056,-0.07213882130805563,0.0795457676,-0.07359428191455561,,-3.0387193e-05,-5.1259995e-06,3.9339066e-06,1.0,1.0881573e-05,9.354204e-06,-1.0874122e-05,1.0,1.1920929e-06,-9.354204e-06,-1.1622906e-06,1.0,543,1.66,0,0,0.0,False,-0.2551713958605024,0.6845649496668003
1.6880973969819024,14:53:25.412112,14:53:11.456761,0,,0.13035229,0.0053957403,0.017506331,-0.8008778,-0.34478077,-0.48961323,-0.4571088,-0.17619511,0.87178373,-0.38684174,0.9219986,-0.016491592,,0.03430473,-0.029020116,0.033632398,0.713212,-0.58317626,0.388888,-0.7006739,-0.6086714,0.3722568,0.019613773,-0.5379816,-0.84272826,,0.10691309,1.3440152,0.44342133,0.9956314,0.02023754,-0.09115149,-0.043953706,-0.75971353,-0.64877075,-0.082378544,0.64994293,-0.7555051,,-0.097537726,0.25768384,-0.07627863,0.8127921,0.24276407,0.52956074,-0.57540065,0.4765678,0.66467834,-0.09101158,-0.84495485,0.52703714,,-0.00075981166,0.4038556,-0.37521142,-0.67526567,0.66296834,-0.32324806,-0.43545648,-0.7120702,-0.5507573,-0.59531,-0.23114704,0.7695304,,1.1058258429930818,0.3874649537655921,0.21286118832000003,0.4269287249344916,0.064219154889757,1.18653671571473,-0.3965993925740301,,-0.7967620733666169,-0.2907145563173074,0.17394008107000003,-0.5990841685352861,0.17762744969507258,-0.14084101653846023,0.5104502066696226,,-0.048616146314302056,-0.07213882130805563,0.0795457676,-0.07359428191455561,,-3.0387193e-05,-5.1259995e-06,3.9339066e-06,1.0,1.0881573e-05,9.354204e-06,-1.0874122e-05,1.0,1.1920929e-06,-9.354204e-06,-1.1622906e-06,1.0,555,1.697,0,0,0.0,False,-0.25481392954937654,0.6793989681833983
1.7169967419758905,14:53:25.441866,14:53:11.456761,0,,0.13037607,0.0053800642,0.017834008,-0.7970776,-0.35437125,-0.48896667,-0.4544365,-0.18124694,0.8721452,-0.39768678,0.91737163,-0.016571492,,0.034305222,-0.02902411,0.03363192,0.7133351,-0.5830497,0.38885197,-0.7005456,-0.60883355,0.37223318,0.019715726,-0.53793555,-0.8427554,,0.10691309,1.3440152,0.44342133,0.9956314,0.02023754,-0.09115149,-0.043953706,-0.75971353,-0.64877075,-0.082378544,0.64994293,-0.7555051,,-0.09759467,0.2578846,-0.07653289,0.8102188,0.2525167,0.5289431,-0.580544,0.470001,0.6648817,-0.08071007,-0.8457744,0.52740073,,-0.00076005096,0.403853,-0.37521455,-0.6754045,0.6628462,-0.3232084,-0.43531603,-0.7121319,-0.55078864,-0.59525514,-0.23130733,0.7695247,,1.1061656432395477,0.3877120812175673,0.21257341194,0.42294461600828565,0.07528671137075768,1.1855163820490948,-0.39823283323537284,,-0.7967620733666169,-0.2907377245159301,0.17394008107000003,-0.5992938584787706,0.17762744969507258,-0.14084101653846026,0.5045698202887886,,-0.048616146314302056,-0.07213882130805563,0.0795457676,-0.07359428191455561,,-3.0387193e-05,-5.1259995e-06,3.9339066e-06,1.0,1.0881573e-05,9.354204e-06,-1.0874122e-05,1.0,1.1920929e-06,-9.354204e-06,-1.1622906e-06,1.0,584,1.787,1,1,0.006,False,-0.2550522404234603,0.6779988423607941
1.7467044169898145,14:53:25.535750,14:53:11.456761,0,,0.13084732,0.005374849,0.019343987,-0.77860266,-0.40089765,-0.482762,-0.4399458,-0.19984573,0.87550527,-0.44746584,0.89405966,-0.020772874,,0.034300502,-0.02904585,0.033627212,0.7134406,-0.58279955,0.38903353,-0.700434,-0.6088846,0.3723596,0.019865572,-0.5381487,-0.8426157,,0.10691309,1.3440152,0.44342133,0.9956314,0.02023754,-0.09115149,-0.043953706,-0.75971353,-0.64877075,-0.082378544,0.64994293,-0.7555051,,-0.09821328,0.25885004,-0.077622555,0.79748666,0.3001953,0.5233525,-0.6024943,0.44206274,0.66451573,-0.031870127,-0.8452593,0.53340507,,-0.0007538012,0.40383798,-0.37523043,-0.67552954,0.66262096,-0.32340884,-0.43514237,-0.7123653,-0.55062395,-0.59524024,-0.23123387,0.7695583,,1.1062042569039188,0.3899902874154635,0.21132508467000002,0.40616942052952365,0.1257055797842052,1.1760945267596534,-0.3969260807062984,,-0.7967080142364973,-0.2908612882419177,0.17393878478000002,-0.5995035484222552,0.17762744969507258,-0.14124941023916304,0.4988527779740889,,-0.048616146314302056,-0.07213882130805563,0.0795457676,-0.07359428191455561,,-3.0387193e-05,-5.1259995e-06,3.9339066e-06,1.0,1.0881573e-05,9.354204e-06,-1.0874122e-05,1.0,1.1920929e-06,-9.354204e-06,-1.1622906e-06,1.0,592,1.812,1,1,0.031,False,-0.25576717304571295,0.672350058869597
1.8406346629781183,14:53:25.557642,14:53:11.616379,0,,0.13094747,0.005434826,0.019642994,-0.77590585,-0.40904942,-0.48025903,-0.43774506,-0.19907978,0.87678194,-0.4542569,0.8905312,-0.02459231,,0.03430097,-0.029057607,0.033626795,0.7134207,-0.5828158,0.38904548,-0.7004529,-0.6089026,0.37229472,0.019911587,-0.53811073,-0.84263885,,0.10691309,1.3440152,0.44342133,0.9956314,0.02023754,-0.09115149,-0.043953706,-0.75971353,-0.64877075,-0.082378544,0.64994293,-0.7555051,,-0.09833967,0.2590873,-0.07779795,0.795585,0.30868435,0.5213046,-0.60532415,0.44058236,0.6629252,-0.02504298,-0.8429716,0.5373748,,-0.00075362594,0.40383127,-0.3752401,-0.6755134,0.6626344,-0.3234152,-0.43511167,-0.7123413,-0.5506793,-0.595281,-0.23126952,0.76951605,,1.1062660387669125,0.3908243425658798,0.21110601166,0.4038628311511939,0.13226413177294635,1.1707464673822252,-0.3969260807062984,,-0.7967002915036231,-0.2909307928377857,0.17393748849000001,-0.5995035484222552,0.17762744969507258,-0.14124941023916304,0.4981994017095517,,-0.048616146314302056,-0.07213882130805563,0.0795457676,-0.07359428191455561,,-3.0387193e-05,-5.1259995e-06,3.9339066e-06,1.0,1.0881573e-05,9.354204e-06,-1.0874122e-05,1.0,1.1920929e-06,-9.354204e-06,-1.1622906e-06,1.0,605,1.853,1,1,0.072,False,-0.2547543518308557,0.6709016528462133
1.862490858999081,14:53:25.594435,14:53:11.616379,0,,0.13098606,0.005437851,0.019886404,-0.76941925,-0.4221995,-0.47931385,-0.43607485,-0.20110539,0.87715185,-0.46672556,0.8839142,-0.029376298,,0.034298442,-0.029068336,0.033623636,0.71340925,-0.5828369,0.38903496,-0.7004638,-0.6089271,0.3722343,0.019942075,-0.53806025,-0.84267044,,0.10691309,1.3440152,0.44342133,0.9956314,0.02023754,-0.09115149,-0.043953706,-0.75971353,-0.64877075,-0.082378544,0.64994293,-0.7555051,,-0.098402075,0.25924695,-0.07797506,0.79045534,0.32231584,0.5208578,-0.61236227,0.43511838,0.660064,-0.013885749,-0.84070474,0.5413157,,-0.0007502622,0.4038232,-0.3752475,-0.6755044,0.66265166,-0.3233986,-0.43509063,-0.71230966,-0.55073684,-0.59530663,-0.23131748,0.76948184,,1.1064977207531392,0.39093246082611893,0.21091156816000003,0.3969430630162046,0.14469805325160143,1.1648547326331602,-0.3965993925740299,,-0.7966694005721262,-0.29099257470077955,0.17393748849000001,-0.5995035484222552,0.17762744969507258,-0.14124941023916304,0.4962392729159404,,-0.048616146314302056,-0.07213882130805563,0.0795457676,-0.07359428191455561,,-3.0387193e-05,-5.1259995e-06,3.9339066e-06,1.0,1.0881573e-05,9.354204e-06,-1.0874122e-05,1.0,1.1920929e-06,-9.354204e-06,-1.1622906e-06,1.0,613,1.877,1,1,0.096,False,-0.25576717304571295,0.668342802204902
1.899322230980033,14:53:25.625683,14:53:11.616379,0,,0.13147502,0.0053708255,0.020355478,-0.76203495,-0.43776962,-0.47713792,-0.42307425,-0.221235,0.87867135,-0.49021512,0.871443,-0.016620278,,0.034294598,-0.029079467,0.03361982,0.7135301,-0.58276063,0.38892773,-0.70033747,-0.6091415,0.37212098,0.020054698,-0.5379001,-0.8427699,,0.10691309,1.3440152,0.44342133,0.9956314,0.02023754,-0.09115149,-0.043953706,-0.75971353,-0.64877075,-0.082378544,0.64994293,-0.7555051,,-0.09893782,0.25948733,-0.07831971,0.7860647,0.33807695,0.51750004,-0.618007,0.41218117,0.66945803,0.013024565,-0.8460559,0.53293496,,-0.00074550376,0.4038145,-0.3752549,-0.6756419,0.662571,-0.32327655,-0.43494204,-0.71229815,-0.55086905,-0.5952592,-0.23158365,0.76943845,,1.1049608969111686,0.3918051296409063,0.21054860696000002,0.39505585352484385,0.17106889770633144,1.1753691433548514,-0.39627270444176155,,-0.796630786907755,-0.2910543565637733,0.17393748849000001,-0.5997132383657396,0.17762744969507258,-0.14116773149902248,0.49378911192392616,,-0.048616146314302056,-0.07213882130805563,0.0795457676,-0.07359428191455561,,-3.0387193e-05,-5.1259995e-06,3.9339066e-06,1.0,1.0881573e-05,9.354204e-06,-1.0874122e-05,1.0,1.1920929e-06,-9.354204e-06,-1.1622906e-06,1.0,622,1.906,1,1,0.125,False,-0.2555288621716292,0.6667495555791803
1.9305705329752527,14:53:25.648803,14:53:11.616379,0,,0.13176003,0.005379677,0.020710185,-0.7530334,-0.44841355,-0.48152477,-0.42584553,-0.2257455,0.8761819,-0.50159377,0.8648493,-0.020961106,,0.03429347,-0.029086575,0.0336197,0.7135589,-0.58271074,0.3889494,-0.70031077,-0.6090691,0.37228975,0.019959867,-0.5380361,-0.84268534,,0.10691309,1.3440152,0.44342133,0.9956314,0.02023754,-0.09115149,-0.043953706,-0.75971353,-0.64877075,-0.082378544,0.64994293,-0.7555051,,-0.09925591,0.25971672,-0.07855063,0.77811676,0.34909758,0.5221735,-0.6277771,0.40477517,0.6648707,0.020741869,-0.8451556,0.5341178,,-0.00074401253,0.40381074,-0.37526083,-0.67566264,0.6625311,-0.3233149,-0.43501046,-0.71237904,-0.55071044,-0.5951856,-0.23144913,0.76953584,,1.104041891699136,0.3929249259076688,0.21028027493,0.3841519764636486,0.1794037241920233,1.1724932307561167,-0.39725276883856697,,-0.7966230641748808,-0.29110069296101865,0.1739361922,-0.5997132383657396,0.17776408619483802,-0.1413608281428595,0.4919923271964491,,-0.048616146314302056,-0.07213882130805563,0.0795457676,-0.07359428191455561,,-3.0387193e-05,-5.1259995e-06,3.9339066e-06,1.0,1.0881573e-05,9.354204e-06,-1.0874122e-05,1.0,1.1920929e-06,-9.354204e-06,-1.1622906e-06,1.0,631,1.935,1,1,0.154,False,-0.25558843989015,0.6653011495557966
1.953688383975532,14:53:25.684978,14:53:11.616379,0,,0.13202268,0.0053192377,0.020930484,-0.750122,-0.45856023,-0.47648674,-0.4232147,-0.22076952,0.8787208,-0.50814,0.86080396,-0.02846542,,0.03429278,-0.029112369,0.033624828,0.7136453,-0.58257955,0.38898736,-0.70021737,-0.60923046,0.3722013,0.020146132,-0.53799546,-0.8427069,,0.10691309,1.3440152,0.44342133,0.9956314,0.02023754,-0.09115149,-0.043953706,-0.75971353,-0.64877075,-0.082378544,0.64994293,-0.7555051,,-0.09954171,0.2598067,-0.07872781,0.7759979,0.35982007,0.5180317,-0.63012755,0.40620932,0.6617653,0.0276871,-0.8399545,0.5419501,,-0.0007425194,0.40380135,-0.3752854,-0.6757714,0.66240495,-0.32334608,-0.43481392,-0.7124454,-0.5507799,-0.5952057,-0.2316059,0.7694731,,1.1029684318296187,0.39355046727048104,0.21009360917000003,0.38268414685925695,0.185825639680999,1.1634993672359188,-0.395946016309493,,-0.7966153414420066,-0.29124742488562894,0.17392711817,-0.5999229283092242,0.17776408619483802,-0.14144250688300003,0.4911756068657777,,-0.048616146314302056,-0.07213882130805563,0.0795457676,-0.07359428191455561,,-3.0387193e-05,-5.1259995e-06,3.9339066e-06,1.0,1.0881573e-05,9.354204e-06,-1.0874122e-05,1.0,1.1920929e-06,-9.354204e-06,-1.1622906e-06,1.0,640,1.962,1,1,0.181,False,-0.25558843989015,0.665252869355017
1.9898096859978978,14:53:25.708983,14:53:11.785652,0,,0.13209276,0.0052639693,0.021186441,-0.7477692,-0.464921,-0.4740147,-0.4209521,-0.22012874,0.87996745,-0.5134595,0.8575499,-0.031104088,,0.034299236,-0.029116407,0.03362423,0.7136278,-0.5825455,0.38907045,-0.70023423,-0.6091959,0.37222624,0.020181447,-0.5380714,-0.84265757,,0.10691309,1.3440152,0.44342133,0.9956314,0.02023754,-0.09115149,-0.043953706,-0.75971353,-0.64877075,-0.082378544,0.64994293,-0.7555051,,-0.09963941,0.2599294,-0.07894889,0.7742948,0.3664958,0.5158958,-0.6319425,0.4047609,0.6609215,0.033410523,-0.83776456,0.5450085,,-0.0007486729,0.40379798,-0.3752884,-0.6757566,0.66237676,-0.3234347,-0.4347914,-0.7124944,-0.5507343,-0.59523904,-0.23153569,0.7694685,,1.1028139771721341,0.3938362083868273,0.20985898068000003,0.38121631725486527,0.1915643726711475,1.159554923941934,-0.39741611290470136,,-0.7966462323735035,-0.2912783158171258,0.17392971075000002,-0.5999229283092242,0.17776408619483802,-0.14152418562314062,0.49101226279964344,,-0.048616146314302056,-0.07213882130805563,0.0795457676,-0.07359428191455561,,-3.0387193e-05,-5.1259995e-06,3.9339066e-06,1.0,1.0881573e-05,9.354204e-06,-1.0874122e-05,1.0,1.1920929e-06,-9.354204e-06,-1.1622906e-06,1.0,653,2.004,1,1,0.223,False,-0.2552905512975445,0.6649149079495604
2.013869263988454,14:53:25.745703,14:53:11.785652,0,,0.13187966,0.005239308,0.02145268,-0.746552,-0.4669816,-0.47390765,-0.42075852,-0.22038999,0.87999463,-0.51538575,0.85636234,-0.03195399,,0.034289695,-0.029123053,0.03362,0.7136358,-0.5825393,0.38906527,-0.7002263,-0.60919684,0.3722395,0.020173252,-0.5380771,-0.8426541,,0.10691309,1.3440152,0.44342133,0.9956314,0.02023754,-0.09115149,-0.043953706,-0.75971353,-0.64877075,-0.082378544,0.64994293,-0.7555051,,-0.099455215,0.26009017,-0.079187915,0.7732855,0.36864945,0.5158751,-0.6330849,0.40384918,0.6603858,0.035115115,-0.8372595,0.5456771,,-0.00073844154,0.40379193,-0.37529185,-0.67576414,0.66237116,-0.32343057,-0.43479487,-0.71250033,-0.55072373,-0.5952279,-0.2315334,0.7694778,,1.1039955553018905,0.3937049219279655,0.20959713010000003,0.37932910776350454,0.1940238296669254,1.1575494016753987,-0.39741611290470136,,-0.7965767277776356,-0.2913092067486227,0.17392841446,-0.5999229283092242,0.17776408619483802,-0.1416058643632812,0.49052223060124056,,-0.048616146314302056,-0.07213882130805563,0.0795457676,-0.07359428191455561,,-3.0387193e-05,-5.1259995e-06,3.9339066e-06,1.0,1.0881573e-05,9.354204e-06,-1.0874122e-05,1.0,1.1920929e-06,-9.354204e-06,-1.1622906e-06,1.0,662,2.032,1,1,0.252,False,-0.25588632848275505,0.6646735069456633
2.0505914779787418,14:53:25.776106,14:53:11.785652,0,,0.13180248,0.0052045286,0.021588892,-0.7467646,-0.46693957,-0.47361374,-0.42037135,-0.22045475,0.88016343,-0.5153935,0.85636854,-0.03166029,,0.034191124,-0.029160991,0.03360665,0.71364725,-0.58265066,0.38887718,-0.70021665,-0.6092659,0.3721445,0.02009952,-0.53787816,-0.84278286,,0.106934205,1.3440124,0.44342563,0.99562997,0.020213325,-0.09117217,-0.04398544,-0.7597141,-0.6487678,-0.082378544,0.64994293,-0.7555051,,-0.09940986,0.26015154,-0.07931653,0.7735015,0.3685964,0.51558906,-0.6328087,0.4037918,0.66068554,0.035335667,-0.8373105,0.54558456,,-0.00065607484,0.40376496,-0.3753153,-0.6757917,0.66244406,-0.32322362,-0.43483815,-0.71237475,-0.55085206,-0.595165,-0.23171128,0.76947284,,1.1043353555483564,0.3937049219279655,0.20945583449000002,0.37953879770698906,0.19429710266645633,1.1574082446081462,-0.39725276883856697,,-0.7963450457914087,-0.2913555431458681,0.17392582188000003,-0.5999229283092242,0.17776408619483802,-0.1416058643632812,0.49052223060124056,,-0.048616146314302056,-0.07213882130805563,0.0795457676,-0.07359428191455561,,-9.600073e-06,2.3841858e-07,5.9604645e-07,0.99999994,-1.3206154e-05,-1.1365861e-05,1.3206154e-05,0.99999994,-1.4603138e-06,1.135841e-05,1.4305115e-06,1.0,675,2.074,1,1,0.293,False,-0.2551713958605024,0.6636596227292948
2.0809791369829327,14:53:25.814153,14:53:11.785652,0,,0.13177854,0.005163282,0.021779463,-0.745724,-0.46861845,-0.4735951,-0.42037663,-0.22053269,0.8801413,-0.5168936,0.85543096,-0.032539815,,0.034203827,-0.02916953,0.0336082,0.7137405,-0.5825445,0.38886502,-0.7001169,-0.6094421,0.37204373,0.020258844,-0.53779364,-0.842833,,0.106934205,1.3440124,0.44342563,0.99562997,0.020213325,-0.09117217,-0.04398544,-0.7597141,-0.6487678,-0.082378544,0.64994293,-0.7555051,,-0.09940694,0.260245,-0.07948926,0.772616,0.37035453,0.5156569,-0.6338194,0.40317073,0.6600957,0.036571674,-0.83683383,0.5462341,,-0.0006684145,0.40376028,-0.3753232,-0.67590505,0.66233915,-0.3232015,-0.4346615,-0.7124095,-0.55094653,-0.59516525,-0.23190431,0.7694145,,1.104520701137338,0.39385165385257576,0.20926916873,0.3782806580460819,0.19566346766411072,1.1562123868310414,-0.39741611290470136,,-0.7964145503872768,-0.29141732500886186,0.17392841446,-0.6001326182527087,0.17776408619483802,-0.14152418562314062,0.48807206960922644,,-0.048616146314302056,-0.07213882130805563,0.0795457676,-0.07359428191455561,,-9.600073e-06,2.3841858e-07,5.9604645e-07,0.99999994,-1.3206154e-05,-1.1365861e-05,1.3206154e-05,0.99999994,-1.4603138e-06,1.135841e-05,1.4305115e-06,1.0,684,2.103,1,1,0.322,False,-0.25576717304571295,0.6626457385129259
2.1189841039886232,14:53:25.848424,14:53:11.921953,0,,0.13169838,0.005160272,0.021896765,-0.74625933,-0.467774,-0.47358674,-0.42017782,-0.22078353,0.8801734,-0.5162823,0.8558283,-0.03178659,,0.034210846,-0.029164866,0.033615172,0.7137321,-0.58255446,0.38886553,-0.7001252,-0.6094455,0.37202245,0.020269156,-0.5377789,-0.8428421,,0.106934205,1.3440124,0.44342563,0.99562997,0.020213325,-0.09117217,-0.04398544,-0.7597141,-0.6487678,-0.082378544,0.64994293,-0.7555051,,-0.099339075,0.2603214,-0.07958802,0.77309674,0.36946386,0.5155753,-0.6332552,0.40321478,0.6606101,0.036183983,-0.83720624,0.5456889,,-0.00067631435,0.40376788,-0.37532297,-0.67589724,0.6623478,-0.32320005,-0.43465638,-0.7123979,-0.5509656,-0.5951779,-0.2319152,0.76940143,,1.1049840651097913,0.3939211584484438,0.2091563915,0.378700037933051,0.19525355816481438,1.156546640542131,-0.3970894247724328,,-0.7964763322502706,-0.2913941568102392,0.17392582188000003,-0.6001326182527087,0.17776408619483802,-0.14144250688300003,0.4879087255430921,,-0.048616146314302056,-0.07213882130805563,0.0795457676,-0.07359428191455561,,-9.600073e-06,2.3841858e-07,5.9604645e-07,0.99999994,-1.3206154e-05,-1.1365861e-05,1.3206154e-05,0.99999994,-1.4603138e-06,1.135841e-05,1.4305115e-06,1.0,697,2.144,1,1,0.363,False,-0.25588632848275505,0.6602800086747327
2.153303832979873,14:53:25.887073,14:53:11.921953,0,,0.13168538,0.005136743,0.02199307,-0.746028,-0.46832243,-0.4734091,-0.4199631,-0.22083202,0.8802637,-0.51679105,0.8555158,-0.03193137,,0.034186248,-0.029169306,0.033598542,0.7137768,-0.5825753,0.38875216,-0.7000818,-0.6094824,0.3720436,0.020194352,-0.53771436,-0.8428851,,0.106934205,1.3440124,0.44342563,0.99562997,0.020213325,-0.09117217,-0.04398544,-0.7597141,-0.6487678,-0.082378544,0.64994293,-0.7555051,,-0.099336825,0.26036665,-0.079677165,0.7729276,0.3700377,0.5154174,-0.6334302,0.4029904,0.6605792,0.03673096,-0.8370608,0.54587543,,-0.00065001484,0.40375426,-0.37531802,-0.6759366,0.6623642,-0.32308426,-0.43470088,-0.71236116,-0.55097795,-0.59510076,-0.23198114,0.76944125,,1.105076737904282,0.3939906630443118,0.20906046604000003,0.3784903479895665,0.19580010416387617,1.1561826476674857,-0.39725276883856697,,-0.7962909866612892,-0.2914018795431134,0.17392971075000002,-0.6001326182527087,0.17776408619483802,-0.14152418562314062,0.48545856455107794,,-0.048616146314302056,-0.07213882130805563,0.0795457676,-0.07359428191455561,,-9.600073e-06,2.3841858e-07,5.9604645e-07,0.99999994,-1.3206154e-05,-1.1365861e-05,1.3206154e-05,0.99999994,-1.4603138e-06,1.135841e-05,1.4305115e-06,1.0,706,2.172,1,1,0.391,False,-0.2555288621716292,0.6596040858638204
2.191957528993953,14:53:25.920530,14:53:11.921953,0,,0.1316908,0.005111277,0.022068232,-0.7474214,-0.4680735,-0.47145352,-0.41784725,-0.22049806,0.8813536,-0.5164928,0.85573816,-0.030778348,,0.034193426,-0.029168442,0.03360355,0.7137631,-0.5825605,0.38879973,-0.7000952,-0.60946333,0.37204987,0.020217746,-0.5377522,-0.84286046,,0.106934205,1.3440124,0.44342563,0.99562997,0.020213325,-0.09117217,-0.04398544,-0.7597141,-0.6487678,-0.082378544,0.64994293,-0.7555051,,-0.09935088,0.2603961,-0.07974969,0.77438307,0.369784,0.5134108,-0.63159084,0.40338132,0.6621001,0.037733704,-0.83698463,0.5459238,,-0.00065767654,0.4037581,-0.37531987,-0.67592454,0.6623521,-0.32313424,-0.43468684,-0.71238434,-0.5509591,-0.59512466,-0.23194456,0.7694338,,1.1050844606371562,0.3940601676401798,0.20898398493000003,0.38100662731138074,0.19634665016293792,1.1564720847139651,-0.39774280103697013,,-0.7963450457914087,-0.2914018795431134,0.17392841446,-0.6001326182527087,0.17776408619483802,-0.14152418562314062,0.48545856455107794,,-0.048616146314302056,-0.07213882130805563,0.0795457676,-0.07359428191455561,,-9.600073e-06,2.3841858e-07,5.9604645e-07,0.99999994,-1.3206154e-05,-1.1365861e-05,1.3206154e-05,0.99999994,-1.4603138e-06,1.135841e-05,1.4305115e-06,1.0,719,2.213,1,1,0.432,False,-0.25546928445310746,0.6602800086747327
2.2254030449839775,14:53:25.951264,14:53:11.921953,0,,0.13177593,0.0050822794,0.022106692,-0.74771297,-0.46705604,-0.47199982,-0.4176774,-0.22177729,0.8811131,-0.516208,0.85596347,-0.029253066,,0.034208007,-0.029167637,0.033610463,0.71373516,-0.58250254,0.38893768,-0.7001222,-0.6093991,0.3721042,0.020266742,-0.53788775,-0.8427727,,0.106934205,1.3440124,0.44342563,0.99562997,0.020213325,-0.09117217,-0.04398544,-0.7597141,-0.6487678,-0.082378544,0.64994293,-0.7555051,,-0.09944069,0.26039666,-0.07978845,0.7746527,0.36868972,0.5137909,-0.6312682,0.4025283,0.66292644,0.037598807,-0.83787763,0.5445617,,-0.00067288766,0.40376276,-0.3753228,-0.67590016,0.6623045,-0.32328266,-0.43465713,-0.71247,-0.55087173,-0.595174,-0.23181719,0.769434,,1.1046442648633255,0.3942686814277839,0.20894379994,0.3816356971418343,0.19580010416387617,1.1584696523914215,-0.3965993925740301,,-0.7964454413187737,-0.29140960227598767,0.17392841446,-0.6001326182527087,0.17776408619483802,-0.1416058643632812,0.48529522048494367,,-0.048616146314302056,-0.07213882130805563,0.0795457676,-0.07359428191455561,,-9.600073e-06,2.3841858e-07,5.9604645e-07,0.99999994,-1.3206154e-05,-1.1365861e-05,1.3206154e-05,0.99999994,-1.4603138e-06,1.135841e-05,1.4305115e-06,1.0,728,2.242,1,1,0.461,False,-0.2550522404234603,0.6593626848599232
2.256147908978164,14:53:25.983502,14:53:11.921953,0,,0.13179912,0.005058348,0.022135764,-0.7483487,-0.46602273,-0.47201374,-0.41709158,-0.2227093,0.8811556,-0.51576024,0.8562846,-0.02771008,,0.03420359,-0.029168263,0.033608317,0.71374303,-0.58257467,0.38881534,-0.70011455,-0.6094707,0.372001,0.02025336,-0.53772837,-0.84287477,,0.106934205,1.3440124,0.44342563,0.99562997,0.020213325,-0.09117217,-0.04398544,-0.7597141,-0.6487678,-0.082378544,0.64994293,-0.7555051,,-0.09946776,0.26039678,-0.07982341,0.77526784,0.3675866,0.51365346,-0.63051397,0.4020006,0.66396356,0.037575103,-0.8386153,0.54342663,,-0.00066825614,0.4037611,-0.3753222,-0.6759071,0.66236424,-0.3231459,-0.43466514,-0.71236676,-0.55099887,-0.59516037,-0.23196377,0.76940036,,1.1045052556715893,0.39431501782502926,0.20890880011000001,0.38268414685925695,0.1955268311643453,1.1600810267812038,-0.3957826722433584,,-0.7964145503872768,-0.29140960227598767,0.17392841446,-0.6001326182527087,0.17776408619483802,-0.14144250688300003,0.48529522048494367,,-0.048616146314302056,-0.07213882130805563,0.0795457676,-0.07359428191455561,,-9.600073e-06,2.3841858e-07,5.9604645e-07,0.99999994,-1.3206154e-05,-1.1365861e-05,1.3206154e-05,0.99999994,-1.4603138e-06,1.135841e-05,1.4305115e-06,1.0,737,2.269,1,1,0.488,False,-0.2549926627049395,0.6592661244583637
2.288382228987757,14:53:26.016219,14:53:12.091073,0,,0.13174057,0.0050769746,0.022164702,-0.7484642,-0.4657823,-0.47206774,-0.4169553,-0.2230261,0.8811399,-0.51570284,0.8563329,-0.02728343,,0.03419177,-0.029168755,0.033604145,0.7137651,-0.58262604,0.38869777,-0.7000932,-0.6095268,0.3719494,0.020214409,-0.5376091,-0.8429518,,0.106934205,1.3440124,0.44342563,0.99562997,0.020213325,-0.09117217,-0.04398544,-0.7597141,-0.6487678,-0.082378544,0.64994293,-0.7555051,,-0.099411555,0.26043144,-0.079839304,0.7753834,0.3673279,0.513664,-0.63036984,0.40178478,0.664231,0.037608206,-0.838832,0.5430897,,-0.0006560748,0.40375862,-0.3753205,-0.67592627,0.66240656,-0.3230189,-0.43468884,-0.712291,-0.55107814,-0.59512126,-0.23207548,0.76939696,,1.1048527786509295,0.3942995723592808,0.20888676318000002,0.38268414685925695,0.19566346766411072,1.1602146450979292,-0.395946016309493,,-0.7963373230585346,-0.2914018795431134,0.17392711817,-0.6001326182527087,0.17776408619483802,-0.14136082814285955,0.48447850015427224,,-0.048616146314302056,-0.07213882130805563,0.0795457676,-0.07359428191455561,,-9.600073e-06,2.3841858e-07,5.9604645e-07,0.99999994,-1.3206154e-05,-1.1365861e-05,1.3206154e-05,0.99999994,-1.4603138e-06,1.135841e-05,1.4305115e-06,1.0,750,2.311,1,1,0.53,False,-0.2555288621716292,0.6590247234544666
2.321098255983088,14:53:26.052380,14:53:12.091073,0,,0.13170041,0.0050695688,0.022228718,-0.74855524,-0.46565744,-0.47204667,-0.416902,-0.22306573,0.88115513,-0.51561385,0.85639054,-0.027156591,,0.03419791,-0.029174268,0.033604562,0.7137452,-0.58262545,0.38873532,-0.70011234,-0.60952425,0.37191743,0.020255238,-0.5376126,-0.84294856,,0.106934205,1.3440124,0.44342563,0.99562997,0.020213325,-0.09117217,-0.04398544,-0.7597141,-0.6487678,-0.082378544,0.64994293,-0.7555051,,-0.099378355,0.26046866,-0.07989656,0.7754676,0.36719617,0.5136312,-0.6302689,0.40178862,0.6643245,0.037566233,-0.8388879,0.54300636,,-0.00066194235,0.40375537,-0.37532532,-0.67590946,0.66240615,-0.32305494,-0.43466264,-0.7122927,-0.5510966,-0.5951595,-0.23207149,0.7693686,,1.105076737904282,0.39431501782502926,0.20882324497000002,0.38268414685925695,0.19566346766411072,1.1601329663577888,-0.39643604850789593,,-0.7963682139900314,-0.29144049320748455,0.17392841446,-0.6001326182527087,0.17776408619483802,-0.14136082814285955,0.48447850015427224,,-0.048616146314302056,-0.07213882130805563,0.0795457676,-0.07359428191455561,,-9.600073e-06,2.3841858e-07,5.9604645e-07,0.99999994,-1.3206154e-05,-1.1365861e-05,1.3206154e-05,0.99999994,-1.4603138e-06,1.135841e-05,1.4305115e-06,1.0,759,2.34,1,1,0.559,False,-0.2547543518308557,0.6577694382342005
2.3571524129947647,14:53:26.086570,14:53:12.091073,0,,0.13172056,0.0050626993,0.02225408,-0.74911255,-0.4656854,-0.47113422,-0.4160579,-0.2226854,0.8816501,-0.51548624,0.8564744,-0.026935756,,0.03420359,-0.029177457,0.03360808,0.713728,-0.5825878,0.38882312,-0.7001288,-0.6094853,0.37195042,0.020288378,-0.5376977,-0.84289354,,0.106934205,1.3440124,0.44342563,0.99562997,0.020213325,-0.09117217,-0.04398544,-0.7597141,-0.6487678,-0.082378544,0.64994293,-0.7555051,,-0.09940121,0.2604794,-0.07991797,0.77604884,0.3672336,0.5127258,-0.6295294,0.40213248,0.6648174,0.037959605,-0.83870673,0.5432588,,-0.000667763,0.403756,-0.37532985,-0.67589486,0.66237503,-0.32314923,-0.43464172,-0.7123473,-0.5510425,-0.5951913,-0.23199268,0.76936775,,1.1049995105755397,0.39439224515377147,0.20879991175,0.3837325965766796,0.19580010416387617,1.1600215484540923,-0.39643604850789593,,-0.7964068276544025,-0.29146366140610724,0.17392582188000003,-0.6001326182527087,0.17776408619483802,-0.14144250688300006,0.48268171542679517,,-0.048616146314302056,-0.07213882130805563,0.0795457676,-0.07359428191455561,,-9.600073e-06,2.3841858e-07,5.9604645e-07,0.99999994,-1.3206154e-05,-1.1365861e-05,1.3206154e-05,0.99999994,-1.4603138e-06,1.135841e-05,1.4305115e-06,1.0,772,2.381,1,1,0.6,False,-0.25493308498641865,0.6573349164271858
2.3914158099796623,14:53:26.122587,14:53:12.091073,0,,0.13174047,0.005029142,0.02229312,-0.7493313,-0.4650842,-0.4713801,-0.4162985,-0.22272956,0.8815254,-0.51497376,0.85678947,-0.026715696,,0.034197126,-0.02917321,0.033605814,0.71374756,-0.58256036,0.38882846,-0.7001101,-0.6094618,0.37202415,0.020249724,-0.53775394,-0.84285855,,0.106934205,1.3440124,0.44342563,0.99562997,0.020213325,-0.09117217,-0.04398544,-0.7597141,-0.6487678,-0.082378544,0.64994293,-0.7555051,,-0.09942648,0.26047876,-0.07996703,0.77620393,0.36660272,0.51294243,-0.629372,0.40228674,0.6648731,0.037394356,-0.83890873,0.54298604,,-0.00066134,0.4037571,-0.3753251,-0.6759114,0.6623521,-0.32316166,-0.43466628,-0.712385,-0.5509744,-0.5951546,-0.23194243,0.7694113,,1.1048450559180552,0.3944308588181426,0.20875065273,0.3839422865201641,0.19511692166504896,1.1604969592324337,-0.3965993925740301,,-0.7963682139900314,-0.2914327704746103,0.17392711817,-0.6001326182527087,0.17776408619483802,-0.14152418562314062,0.48219168322839234,,-0.048616146314302056,-0.07213882130805563,0.0795457676,-0.07359428191455561,,-9.600073e-06,2.3841858e-07,5.9604645e-07,0.99999994,-1.3206154e-05,-1.1365861e-05,1.3206154e-05,0.99999994,-1.4603138e-06,1.135841e-05,1.4305115e-06,1.0,781,2.41,1,1,0.629,False,-0.254218152364166,0.6575280372303034
2.42745341398404,14:53:26.155738,14:53:12.091073,0,,0.1317082,0.0049880445,0.0223867,-0.75059825,-0.46430054,-0.4701353,-0.4150942,-0.22225034,0.88221395,-0.51410013,0.8573388,-0.025907904,,0.034197126,-0.02917321,0.033605814,0.71374756,-0.58256036,0.38882846,-0.7001101,-0.6094618,0.37202415,0.020249724,-0.53775394,-0.84285855,,0.106934205,1.3440124,0.44342563,0.99562997,0.020213325,-0.09117217,-0.04398544,-0.7597141,-0.6487678,-0.082378544,0.64994293,-0.7555051,,-0.09940566,0.26050943,-0.080067605,0.77743345,0.36579198,0.51165754,-0.62785316,0.40298522,0.6658854,0.037385117,-0.8389274,0.54295784,,-0.00066134,0.4037571,-0.3753251,-0.6759114,0.6623521,-0.32316166,-0.43466628,-0.712385,-0.5509744,-0.5951546,-0.23194243,0.7694113,,1.1049917878426656,0.3944231360852684,0.20864306066000002,0.38603918595500936,0.19484364866551807,1.1607197950398267,-0.3965993925740301,,-0.7963682139900314,-0.2914327704746103,0.17392711817,-0.6001326182527087,0.17776408619483802,-0.14152418562314062,0.4825183713606609,,-0.048616146314302056,-0.07213882130805563,0.0795457676,-0.07359428191455561,,-9.600073e-06,2.3841858e-07,5.9604645e-07,0.99999994,-1.3206154e-05,-1.1365861e-05,1.3206154e-05,0.99999994,-1.4603138e-06,1.135841e-05,1.4305115e-06,1.0,790,2.437,1,1,0.656,False,-0.2552905512975445,0.6560796312069197
2.4606189749902114,14:53:26.182722,14:53:12.245532,0,,0.13166942,0.004984796,0.022451103,-0.7507486,-0.46385768,-0.4703323,-0.41517544,-0.22247508,0.8821192,-0.5138149,0.8575201,-0.025559485,,0.0341971,-0.029180124,0.03360629,0.7137744,-0.5824767,0.38890442,-0.70008534,-0.6093563,0.3722436,0.020158261,-0.5379642,-0.8427266,,0.106934205,1.3440124,0.44342563,0.99562997,0.020213325,-0.09117217,-0.04398544,-0.7597141,-0.6487678,-0.082378544,0.64994293,-0.7555051,,-0.09937365,0.26055002,-0.0801223,0.7775507,0.36532313,0.5118143,-0.6277247,0.40292,0.6660459,0.037101723,-0.83916295,0.5426131,,-0.000661006,0.40375376,-0.3753312,-0.67593044,0.6622841,-0.32326117,-0.43473274,-0.71251416,-0.55075496,-0.5950844,-0.23173982,0.7695266,,1.105208024363144,0.39446947248251374,0.20858343132,0.38582949601152483,0.1945703756659872,1.1609426308472193,-0.3965993925740301,,-0.7963682139900314,-0.2914791068718557,0.17392582188000003,-0.6001326182527087,0.17790072269460347,-0.1417989610071182,0.48268171542679517,,-0.048616146314302056,-0.07213882130805563,0.0795457676,-0.07359428191455561,,-9.600073e-06,2.3841858e-07,5.9604645e-07,0.99999994,-1.3206154e-05,-1.1365861e-05,1.3206154e-05,0.99999994,-1.4603138e-06,1.135841e-05,1.4305115e-06,1.0,803,2.479,1,1,0.698,False,-0.2551713958605024,0.6558865104038021
2.487597403989639,14:53:26.221846,14:53:12.245532,0,,0.13161936,0.0049887598,0.022610545,-0.74955016,-0.46629882,-0.46982956,-0.41453418,-0.22270307,0.8823632,-0.51607734,0.85613596,-0.02636972,,0.034192245,-0.029176414,0.03360343,0.7141891,-0.5815382,0.38954714,-0.69968414,-0.6085507,0.37430987,0.019383848,-0.5398879,-0.84151363,,0.106934205,1.3440124,0.44342563,0.99562997,0.020213325,-0.09117217,-0.04398544,-0.7597141,-0.6487678,-0.082378544,0.64994293,-0.7555051,,-0.09933955,0.2606583,-0.08024501,0.77661467,0.3678761,0.51140666,-0.62874585,0.40191647,0.665689,0.039348297,-0.8385287,0.5434348,,-0.0006560885,0.40375388,-0.37532654,-0.6762875,0.66149795,-0.32412302,-0.4352136,-0.71380055,-0.54870564,-0.59432685,-0.23002,0.77062726,,1.105625051938352,0.3946084816742498,0.20844472829000002,0.3845713563506177,0.19702983266176513,1.1593455022813868,-0.3970894247724328,,-0.7963682139900314,-0.29149455233760413,0.17392841446,-0.6003423081961932,0.17885717819296154,-0.1441307823956638,0.48039489850091527,,-0.048616146314302056,-0.07213882130805563,0.0795457676,-0.07359428191455561,,-9.600073e-06,2.3841858e-07,5.9604645e-07,0.99999994,-1.3206154e-05,-1.1365861e-05,1.3206154e-05,0.99999994,-1.4603138e-06,1.135841e-05,1.4305115e-06,1.0,812,2.507,1,1,0.727,False,-0.2552905512975445,0.655789950002243
2.5267266889859457,14:53:26.251354,14:53:12.245532,0,,0.13157095,0.0049734116,0.02278611,-0.7483401,-0.4687395,-0.46932983,-0.4134712,-0.22363353,0.8826265,-0.51867974,0.8545591,-0.026456445,,0.034196075,-0.02917406,0.03360659,0.71410793,-0.5815222,0.3897198,-0.6997603,-0.6085871,0.37410846,0.01962623,-0.53986424,-0.8415233,,0.106934205,1.3440124,0.44342563,0.99562997,0.020213325,-0.09117217,-0.04398544,-0.7597141,-0.6487678,-0.082378544,0.64994293,-0.7555051,,-0.09930961,0.26076233,-0.08039225,0.7757207,0.3704145,0.510931,-0.6296688,0.40025467,0.66581786,0.04212607,-0.838206,0.5437243,,-0.0006603248,0.4037574,-0.37532625,-0.67622656,0.6614816,-0.32428348,-0.43504202,-0.7138018,-0.5488401,-0.59452176,-0.2300633,0.770464,,1.1060111885820632,0.39469343173586624,0.20828398833000003,0.38352290663319505,0.20003583565660482,1.1584462044627362,-0.3972527688385672,,-0.7963913821886541,-0.29147138413898144,0.17392711817,-0.6003423081961932,0.17858390519343065,-0.14407130406855206,0.4807215866331838,,-0.048616146314302056,-0.07213882130805563,0.0795457676,-0.07359428191455561,,-9.600073e-06,2.3841858e-07,5.9604645e-07,0.99999994,-1.3206154e-05,-1.1365861e-05,1.3206154e-05,0.99999994,-1.4603138e-06,1.135841e-05,1.4305115e-06,1.0,825,2.549,1,1,0.768,False,-0.2552905512975445,0.6543898241796384
2.5562202819855884,14:53:26.292204,14:53:12.353792,0,,0.13147554,0.004962608,0.023042038,-0.74744266,-0.4723758,-0.46710867,-0.40963012,-0.22583976,0.88385487,-0.52300334,0.8519727,-0.024697214,,0.034193806,-0.029179394,0.033605814,0.7140652,-0.58156276,0.3897375,-0.69980013,-0.6086558,0.37392202,0.019757032,-0.539743,-0.841598,,0.106934205,1.3440124,0.44342563,0.99562997,0.020213325,-0.09117217,-0.04398544,-0.7597141,-0.6487678,-0.082378544,0.64994293,-0.7555051,,-0.099240705,0.2609235,-0.080602,0.7754403,0.3741811,0.50860685,-0.629596,0.3970025,0.6678307,0.04797145,-0.8380797,0.5434346,,-0.00065772317,0.40375412,-0.37533033,-0.67619485,0.66151357,-0.3242843,-0.43494895,-0.71373236,-0.54900414,-0.5946259,-0.23018666,0.7703468,,1.1067680164037372,0.39473976813311157,0.20805584129000002,0.3839422865201641,0.2060478416462842,1.158117826147965,-0.3975794569708355,,-0.7963682139900314,-0.29149455233760413,0.17392582188000003,-0.6003423081961932,0.17844726869366523,-0.14395988616485567,0.479088145971841,,-0.048616146314302056,-0.07213882130805563,0.0795457676,-0.07359428191455561,,-9.600073e-06,2.3841858e-07,5.9604645e-07,0.99999994,-1.3206154e-05,-1.1365861e-05,1.3206154e-05,0.99999994,-1.4603138e-06,1.135841e-05,1.4305115e-06,1.0,834,2.578,1,1,0.797,False,-0.25642252794944387,0.6536173409671675
2.5970659329905175,14:53:26.324004,14:53:12.353792,0,,0.13137923,0.0049743205,0.023249418,-0.7459942,-0.476004,-0.465739,-0.4054088,-0.23023248,0.8846675,-0.52833354,0.8487715,-0.0212242,,0.034193255,-0.029179364,0.033604085,0.7140672,-0.58159673,0.3896832,-0.6997982,-0.60868907,0.3738714,0.019753635,-0.5396688,-0.84164554,,0.106934205,1.3440124,0.44342563,0.99562997,0.020213325,-0.09117217,-0.04398544,-0.7597141,-0.6487678,-0.082378544,0.64994293,-0.7555051,,-0.09916502,0.2610702,-0.08076068,0.77473,0.37789705,0.50693905,-0.629906,0.39169142,0.67066854,0.054879997,-0.838911,0.5414947,,-0.0006570092,0.40375277,-0.3753294,-0.6761966,0.6615418,-0.32422313,-0.43495095,-0.7136842,-0.5490651,-0.59462243,-0.2302548,0.77032906,,1.1075634578897824,0.3947088772016147,0.20788343472,0.3839422865201641,0.21328957613385255,1.159645442604846,-0.3970894247724328,,-0.7963604912571572,-0.29149455233760413,0.17392711817,-0.6003423081961932,0.17844726869366523,-0.14387820742471513,0.47892480190570674,,-0.048616146314302056,-0.07213882130805563,0.0795457676,-0.07359428191455561,,-9.600073e-06,2.3841858e-07,5.9604645e-07,0.99999994,-1.3206154e-05,-1.1365861e-05,1.3206154e-05,0.99999994,-1.4603138e-06,1.135841e-05,1.4305115e-06,1.0,847,2.619,1,1,0.838,False,-0.25636295023092304,0.6533276597624904
2.6288601489795838,14:53:26.361086,14:53:12.353792,0,,0.1312195,0.0049743205,0.023546666,-0.744325,-0.47940502,-0.46492052,-0.40250245,-0.23347539,0.88514465,-0.53289014,0.845967,-0.019180238,,0.034193255,-0.029179364,0.033604085,0.7140672,-0.58156484,0.3897307,-0.6997982,-0.60865855,0.37392113,0.019753635,-0.53973764,-0.8416015,,0.106934205,1.3440124,0.44342563,0.99562997,0.020213325,-0.09117217,-0.04398544,-0.7597141,-0.6487678,-0.082378544,0.64994293,-0.7555051,,-0.0990358,0.26126832,-0.08100132,0.7736613,0.38140228,0.5059451,-0.6307162,0.3875041,0.6723374,0.06037523,-0.8392693,0.54035354,,-0.0006570092,0.40375277,-0.3753294,-0.6761966,0.6615153,-0.32427716,-0.43495095,-0.7137291,-0.5490068,-0.59462243,-0.23019187,0.7703479,,1.1086755314236707,0.3947243226673631,0.20761899156000002,0.38289383680274147,0.21930158212353193,1.159807136730918,-0.39676273664016426,,-0.7963604912571572,-0.29149455233760413,0.17392711817,-0.6003423081961932,0.17844726869366523,-0.14395988616485572,0.47876145783957247,,-0.048616146314302056,-0.07213882130805563,0.0795457676,-0.07359428191455561,,-9.600073e-06,2.3841858e-07,5.9604645e-07,0.99999994,-1.3206154e-05,-1.1365861e-05,1.3206154e-05,0.99999994,-1.4603138e-06,1.135841e-05,1.4305115e-06,1.0,856,2.647,1,1,0.866,False,-0.25588632848275505,0.6532310993609318
2.665974390984047,14:53:26.393025,14:53:12.353792,0,,0.13109694,0.004981369,0.023760483,-0.7428437,-0.48355898,-0.46298358,-0.3998894,-0.23413724,0.8861536,-0.53690916,0.8434159,-0.019442767,,0.034195226,-0.02917777,0.033605278,0.7140657,-0.5815909,0.38969463,-0.6997998,-0.6086819,0.3738803,0.019754857,-0.5396833,-0.8416363,,0.106934205,1.3440124,0.44342563,0.99562997,0.020213325,-0.09117217,-0.04398544,-0.7597141,-0.6487678,-0.082378544,0.64994293,-0.7555051,,-0.09893489,0.2614164,-0.08117066,0.7727121,0.38575307,0.5040938,-0.6313935,0.38546127,0.6728758,0.06525527,-0.83822083,0.54141253,,-0.0006591666,0.4037544,-0.3753287,-0.67619514,0.66153705,-0.3242359,-0.43495056,-0.71369314,-0.54905385,-0.5946244,-0.23024096,0.77033174,,1.109548200238458,0.3947011544687405,0.20743362209000002,0.38205507702880337,0.2246304056143841,1.1575854857304124,-0.3980694891692387,,-0.7963759367229056,-0.2914868296047299,0.17392711817,-0.6003423081961932,0.17844726869366523,-0.14387820742471513,0.47892480190570674,,-0.048616146314302056,-0.07213882130805563,0.0795457676,-0.07359428191455561,,-9.600073e-06,2.3841858e-07,5.9604645e-07,0.99999994,-1.3206154e-05,-1.1365861e-05,1.3206154e-05,0.99999994,-1.4603138e-06,1.135841e-05,1.4305115e-06,1.0,865,2.675,1,1,0.894,False,-0.25636295023092304,0.6526517369515781
