AlexandreBanks6/ExpertPlaybackApp/resources/Motions/Pilot_01/PC1/Data_PC1_5.csv
Task Time,PC1 Time,PC2 Time,Gaze Calib,s_T_psm1,Tx,Ty,Tz,R00,R01,R02,R10,R11,R12,R20,R21,R22,s_T_psm3,Tx,Ty,Tz,R00,R01,R02,R10,R11,R12,R20,R21,R22,cart_T_ecm,Tx,Ty,Tz,R00,R01,R02,R10,R11,R12,R20,R21,R22,ecm_T_psm1,Tx,Ty,Tz,R00,R01,R02,R10,R11,R12,R20,R21,R22,ecm_T_psm3,Tx,Ty,Tz,R00,R01,R02,R10,R11,R12,R20,R21,R22,psm1_joints,q1,q2,q3,q4,q5,q6,jaw,psm3_joints,q1,q2,q3,q4,q5,q6,jaw,ecm_joints,q1,q2,q3,q4,ecmi_T_ecm,Tx,Ty,Tz,R00,R01,R02,R10,R11,R12,R20,R21,R22,Sample #,Task Duration (s),Collisions (binary),Collisions (increments),Cumulative Collision Time (s),Clutch Press,MTMR Angle,MTML Angle
""
lci_T_si,,,,,-0.06275115,0.020269286,0.23277931,0.9922883,-0.04035988,0.11719676,0.048105527,-0.7459988,-0.6642075,0.11423598,0.66472316,-0.7383043
rci_T_si,,,,,-0.0725517,0.024538085,0.24269353,0.9888494,-0.06173267,0.13552107,0.047746018,-0.730564,-0.6811729,0.14105745,0.680048,-0.71947026
ecm_T_lc,,,,,-4.4061628e-05,-0.00034663224,-0.01840835,-0.99912,0.030754527,0.028518902,-0.031987965,-0.99852574,-0.043852776,0.027128186,-0.04472645,0.9986309
ecm_T_rc,,,,,-0.0043358393,0.01870579,-0.007592615,-0.99555075,-0.052743673,-0.078081585,0.04863213,-0.9973746,0.053654674,-0.08070653,0.04961868,0.9955021
cart_T_ecmi,,,,,0.1069438,1.3440125,0.4434251,0.99563074,0.020226603,-0.091160834,-0.043968037,-0.75971377,-0.64876944,-0.082378544,0.64994293,-0.7555051
ecmac_T_ecmrep_psm1,,,,,0.01038242,-0.2501324,-0.30762842,0.998145,0.0496832,0.035188068,-0.04731537,0.99675006,-0.06519635,-0.03831287,0.06341047,0.99725187
ecmac_T_ecmrep_psm3,,,,,-0.018947443,-0.4527795,-0.5580277,0.99342906,-0.031421527,0.110051684,0.0051236153,0.97282016,0.23150527,-0.11433475,-0.2294202,0.9665888
""
0,14:54:57.559625,14:54:43.613067,0,,0.1201224,0.0057680756,0.013747841,-0.83444625,-0.3570146,-0.4198097,-0.4193529,-0.08289179,0.90403104,-0.35755092,0.93041354,-0.08054656,,0.02469812,-0.022441685,0.028921366,0.7225505,-0.4837736,0.4938459,-0.68789566,-0.57411957,0.44405645,0.06870392,-0.6605676,-0.7476163,,0.10692891,1.344011,0.44341892,0.99563116,0.020233775,-0.09115471,-0.04395864,-0.7597136,-0.6487703,-0.082378544,0.64994293,-0.7555051,,-0.08699444,0.25581348,-0.07429731,0.845033,0.2585056,0.46807486,-0.526726,0.55316997,0.6454167,-0.09208113,-0.7919456,0.6036085,,0.008898472,0.40446383,-0.36722744,-0.68998533,0.5743638,-0.4404843,-0.38848853,-0.807333,-0.44417354,-0.6107347,-0.13535015,0.7801817,,1.1511196713004086,0.35483640737199357,0.21581802581,0.4663504343095821,0.10124764632619138,1.0789926968998873,-0.39545598411109006,,-0.7342156598182726,-0.23881779140251874,0.17557340647000003,-0.6196337829967695,0.06189633439374452,-0.32115565520030215,0.8092065036292195,,-0.048616146314302056,-0.07213882130805563,0.0795457676,-0.07359428191455561,,-1.4256686e-05,-3.0398369e-06,7.033348e-06,1.0,7.1302056e-06,6.131828e-06,-7.1264803e-06,0.99999994,7.748604e-07,-6.131828e-06,-7.4505806e-07,1.0,36,0.108,0,0,0.0,False,-0.25535012901606535,0.9840470351017814
0.12883784700534306,14:54:57.593598,14:54:43.613067,0,,0.12007463,0.005791694,0.013975024,-0.8315929,-0.36501256,-0.41859195,-0.417201,-0.08694494,0.9046457,-0.3666014,0.92693377,-0.07998094,,0.024700087,-0.0224576,0.028922975,0.72252464,-0.48378518,0.49387237,-0.68791604,-0.57415766,0.4439756,0.06877184,-0.660526,-0.74764675,,0.10692891,1.344011,0.44341892,0.99563116,0.020233775,-0.09115471,-0.04395864,-0.7597136,-0.6487703,-0.082378544,0.64994293,-0.7555051,,-0.0869684,0.2559807,-0.07445799,0.8431979,0.26660866,0.4668374,-0.5310683,0.5480615,0.6462159,-0.08356884,-0.79281044,0.60371166,,0.008897172,0.40445644,-0.3672417,-0.68996525,0.57437325,-0.44050354,-0.3884396,-0.80731714,-0.44424513,-0.6107886,-0.13540468,0.78013,,1.1518069945262146,0.35487502103636465,0.21563395263000001,0.4627857052703453,0.11067556481000676,1.0780841969765007,-0.3962727044417613,,-0.7342156598182726,-0.23891046419700943,0.17556951760000003,-0.6196337829967695,0.06189633439374452,-0.32115565520030215,0.8092065036292195,,-0.048616146314302056,-0.07213882130805563,0.0795457676,-0.07359428191455561,,-1.4256686e-05,-3.0398369e-06,7.033348e-06,1.0,7.1302056e-06,6.131828e-06,-7.1264803e-06,0.99999994,7.748604e-07,-6.131828e-06,-7.4505806e-07,1.0,48,0.145,0,0,0.0,False,-0.256065061638318,0.9835642330939867
0.1627658710058313,14:54:57.620462,14:54:43.613067,0,,0.12004861,0.0058255047,0.014202312,-0.82682693,-0.37710035,-0.4173159,-0.41565448,-0.090195924,0.9050393,-0.37893066,0.92177,-0.08216724,,0.024701085,-0.022468328,0.028926611,0.72246635,-0.48381588,0.49392763,-0.68796074,-0.5742589,0.4437753,0.068936944,-0.6604154,-0.7477292,,0.10692891,1.344011,0.44341892,0.99563116,0.020233775,-0.09115471,-0.04395864,-0.7597136,-0.6487703,-0.082378544,0.64994293,-0.7555051,,-0.086963505,0.25615504,-0.07460982,0.83975875,0.278982,0.4658049,-0.5380598,0.5425834,0.6450542,-0.07277949,-0.79232085,0.6057482,,0.0088963695,0.40445367,-0.3672527,-0.68992114,0.57439804,-0.44054025,-0.3883186,-0.8072751,-0.4444272,-0.6109153,-0.13554972,0.78000563,,1.1524634268205236,0.35489046650211314,0.21545895348000002,0.4564950069658095,0.12283621328913097,1.0742939090580617,-0.3983961773015072,,-0.7342156598182726,-0.238964523327129,0.17556433244000003,-0.6196337829967695,0.06175969789397908,-0.3210442372966057,0.8092065036292195,,-0.048616146314302056,-0.07213882130805563,0.0795457676,-0.07359428191455561,,-1.4256686e-05,-3.0398369e-06,7.033348e-06,1.0,7.1302056e-06,6.131828e-06,-7.1264803e-06,0.99999994,7.748604e-07,-6.131828e-06,-7.4505806e-07,1.0,56,0.168,0,0,0.0,False,-0.256065061638318,0.9841435955033404
0.189666688995203,14:54:57.652724,14:54:43.705412,0,,0.120018125,0.005831644,0.014423132,-0.8253907,-0.3826171,-0.415132,-0.4112812,-0.09621787,0.90641594,-0.3867532,0.9188831,-0.07794607,,0.024702989,-0.022483319,0.02893114,0.7224403,-0.4837831,0.49399775,-0.6879814,-0.5742549,0.44374853,0.06900266,-0.66044307,-0.7476988,,0.10692891,1.344011,0.44341892,0.99563116,0.020233775,-0.09115471,-0.04395864,-0.7597136,-0.6487703,-0.082378544,0.64994293,-0.7555051,,-0.08695484,0.25630435,-0.07477524,0.8393153,0.28446677,0.4632802,-0.53987676,0.5362958,0.6487834,-0.06389789,-0.794648,0.60369825,,0.008894788,0.40444928,-0.3672678,-0.68990064,0.57436794,-0.44061154,-0.3882717,-0.8072997,-0.44442362,-0.61096823,-0.13553116,0.77996737,,1.1530349090532162,0.3549059119678616,0.21527488030000003,0.4558659371353559,0.1321274952731809,1.0766822979038535,-0.40068299422738696,,-0.7342233825511468,-0.23904947338874546,0.17555785099000001,-0.6196337829967695,0.06175969789397908,-0.32112591603674623,0.8093698476953537,,-0.048616146314302056,-0.07213882130805563,0.0795457676,-0.07359428191455561,,-1.4256686e-05,-3.0398369e-06,7.033348e-06,1.0,7.1302056e-06,6.131828e-06,-7.1264803e-06,0.99999994,7.748604e-07,-6.131828e-06,-7.4505806e-07,1.0,67,0.202,0,0,0.0,False,-0.2561246393568388,0.983805634097884
0.22190844200667925,14:54:57.688070,14:54:43.705412,0,,0.11994356,0.0057820827,0.01469335,-0.8241844,-0.38390344,-0.41633925,-0.41251618,-0.0967201,0.90580106,-0.38800845,0.9182936,-0.0786514,,0.024703924,-0.022516072,0.028932989,0.72256285,-0.48357174,0.49402547,-0.6878436,-0.57433033,0.44386438,0.069093674,-0.6605321,-0.74761164,,0.10692891,1.344011,0.44341892,0.99563116,0.020233775,-0.09115471,-0.04395864,-0.7597136,-0.6487703,-0.082378544,0.64994293,-0.7555051,,-0.08690993,0.25644484,-0.075018704,0.8381825,0.2857801,0.46452105,-0.54166555,0.5355683,0.6478927,-0.0636279,-0.7946674,0.60370123,,0.008895339,0.40443325,-0.36729643,-0.69003826,0.5741704,-0.4406535,-0.38813525,-0.8074378,-0.4442918,-0.6108995,-0.13554518,0.78001875,,1.1535368866900408,0.3550371984267234,0.21501043714,0.45355934775702617,0.1328106777720081,1.0757984934248093,-0.3983961773015072,,-0.7342079370853983,-0.23924254171060108,0.17555007325000002,-0.619843472940254,0.06189633439374452,-0.32140069142072386,0.8093698476953537,,-0.048616146314302056,-0.07213882130805563,0.0795457676,-0.07359428191455561,,-1.4256686e-05,-3.0398369e-06,7.033348e-06,1.0,7.1302056e-06,6.131828e-06,-7.1264803e-06,0.99999994,7.748604e-07,-6.131828e-06,-7.4505806e-07,1.0,79,0.239,0,0,0.0,False,-0.25546928445310746,0.9841435955033404
0.25730293299420737,14:54:57.711836,14:54:43.705412,0,,0.11994241,0.0057644993,0.014818102,-0.8226582,-0.3880775,-0.41548696,-0.41247752,-0.09554675,0.9059432,-0.3912745,0.91666055,-0.081471086,,0.024708878,-0.022539794,0.028936803,0.7226482,-0.4834459,0.4940238,-0.68773484,-0.5745243,0.44378203,0.0692842,-0.6604556,-0.7476617,,0.10692891,1.344011,0.44341892,0.99563116,0.020233775,-0.09115471,-0.04395864,-0.7597136,-0.6487703,-0.082378544,0.64994293,-0.7555051,,-0.08692201,0.25651276,-0.075124145,0.83699185,0.2901466,0.46396074,-0.5438067,0.5355158,0.6461402,-0.06098293,-0.793119,0.606006,,0.008891246,0.4044233,-0.36731848,-0.69014716,0.57404774,-0.4406428,-0.3879268,-0.8074908,-0.44437754,-0.6109089,-0.13574874,0.779976,,1.153683618614651,0.35509125755684295,0.21489506733000002,0.45146244832218096,0.1358166807668478,1.0724488334019415,-0.39823283323537273,,-0.7342233825511468,-0.23938155090233712,0.1755435918,-0.6200531628837386,0.06189633439374452,-0.32140069142072386,0.8093698476953537,,-0.048616146314302056,-0.07213882130805563,0.0795457676,-0.07359428191455561,,-1.4256686e-05,-3.0398369e-06,7.033348e-06,1.0,7.1302056e-06,6.131828e-06,-7.1264803e-06,0.99999994,7.748604e-07,-6.131828e-06,-7.4505806e-07,1.0,90,0.272,0,0,0.0,False,-0.25535012901606535,0.9843849965072375
0.28101998899364844,14:54:57.746680,14:54:43.705412,0,,0.119961455,0.00573647,0.01498206,-0.8208142,-0.39392966,-0.41362244,-0.41136768,-0.094705224,0.90653604,-0.39628354,0.91424847,-0.084314704,,0.02471776,-0.022598699,0.02893883,0.72255105,-0.48340878,0.49420214,-0.6878111,-0.57459456,0.44357276,0.06953898,-0.66042167,-0.74766797,,0.10692891,1.344011,0.44341892,0.99563116,0.020233775,-0.09115471,-0.04395864,-0.7597136,-0.6487703,-0.082378544,0.64994293,-0.7555051,,-0.08695854,0.25659767,-0.07526372,0.83570915,0.29624265,0.46241808,-0.54627913,0.534753,0.6446847,-0.05629636,-0.79137826,0.6087292,,0.00888521,0.40439257,-0.3673692,-0.69007164,0.5740111,-0.44080877,-0.38774318,-0.80750394,-0.44451398,-0.61111075,-0.13582589,0.7798044,,1.1537994596077645,0.3551530394198367,0.21474340140000003,0.4493655488873357,0.1408722312581691,1.0686530859257362,-0.3985595213676414,,-0.7342233825511468,-0.23972907388167722,0.17553322148000003,-0.6200531628837386,0.06189633439374452,-0.321564048901005,0.8096965358276222,,-0.048616146314302056,-0.07213882130805563,0.0795457676,-0.07359428191455561,,-1.4256686e-05,-3.0398369e-06,7.033348e-06,1.0,7.1302056e-06,6.131828e-06,-7.1264803e-06,0.99999994,7.748604e-07,-6.131828e-06,-7.4505806e-07,1.0,98,0.296,0,0,0.0,False,-0.2549926627049395,0.9835642330939867
0.3158398749947082,14:54:57.777054,14:54:43.851363,0,,0.11995381,0.0056800395,0.01515466,-0.81996864,-0.3947569,-0.41450995,-0.4121836,-0.09527889,0.9061052,-0.3971852,0.91383195,-0.08458686,,0.024719521,-0.022631347,0.028943837,0.72263026,-0.48325768,0.49423414,-0.68770623,-0.5747795,0.4434957,0.06975308,-0.6603713,-0.74769247,,0.10692891,1.344011,0.44341892,0.99563116,0.020233775,-0.09115471,-0.04395864,-0.7597136,-0.6487703,-0.082378544,0.64994293,-0.7555051,,-0.08697077,0.25666746,-0.0754311,0.83491963,0.29707906,0.4633068,-0.5475095,0.5340707,0.6442064,-0.05605834,-0.7915255,0.6085597,,0.008884628,0.40437913,-0.36739942,-0.6901765,0.57386535,-0.44083434,-0.38751632,-0.8075769,-0.44457918,-0.6111362,-0.1360076,0.7797528,,1.153884409669381,0.35524571221432744,0.21456451338000002,0.44789771928294403,0.14128214075746542,1.0684821896949281,-0.39823283323537273,,-0.7342156598182726,-0.2399144194706586,0.17552285116000002,-0.620262852827223,0.06189633439374452,-0.3216457276411455,0.8092065036292194,,-0.048616146314302056,-0.07213882130805563,0.0795457676,-0.07359428191455561,,-1.4256686e-05,-3.0398369e-06,7.033348e-06,1.0,7.1302056e-06,6.131828e-06,-7.1264803e-06,0.99999994,7.748604e-07,-6.131828e-06,-7.4505806e-07,1.0,110,0.333,0,0,0.0,False,-0.25427773008268684,0.9838539142986635
0.3462872010131832,14:54:57.814908,14:54:43.851363,0,,0.12000804,0.005665332,0.015350118,-0.8167395,-0.4040531,-0.41191956,-0.4108267,-0.09407112,0.9068473,-0.4051641,0.9098855,-0.089164406,,0.024726354,-0.022688583,0.028949738,0.7226662,-0.48292005,0.49451166,-0.68763554,-0.5748409,0.44352582,0.070078164,-0.66056484,-0.7474911,,0.10692891,1.344011,0.44341892,0.99563116,0.020233775,-0.09115471,-0.04395864,-0.7597136,-0.6487703,-0.082378544,0.64994293,-0.7555051,,-0.087044775,0.25678197,-0.07558199,0.8325669,0.306768,0.46122196,-0.55176806,0.53268635,0.6417143,-0.04882924,-0.7887577,0.61276186,,0.008880165,0.40435278,-0.3674508,-0.6902475,0.5735517,-0.44113132,-0.3872099,-0.80780894,-0.44442457,-0.61125034,-0.1359525,0.779673,,1.1539539142652488,0.3553924441389377,0.21439599568000003,0.44412330030022257,0.14907042124409553,1.062539762884935,-0.39806948916923857,,-0.7342156598182726,-0.24024649698425027,0.17550859197000002,-0.6204725427707076,0.06189633439374452,-0.32213580008198894,0.8092065036292193,,-0.048616146314302056,-0.07213882130805563,0.0795457676,-0.07359428191455561,,-1.4256686e-05,-3.0398369e-06,7.033348e-06,1.0,7.1302056e-06,6.131828e-06,-7.1264803e-06,0.99999994,7.748604e-07,-6.131828e-06,-7.4505806e-07,1.0,122,0.369,0,0,0.0,False,-0.25439688551972894,0.9837573538971045
0.38411617299425416,14:54:57.847501,14:54:43.851363,0,,0.12004365,0.0056111664,0.015536919,-0.81526244,-0.40800568,-0.41094846,-0.40907305,-0.096530765,0.9073814,-0.40988585,0.9078618,-0.08820635,,0.024732012,-0.02272895,0.028948843,0.72260153,-0.48283193,0.4946921,-0.68768585,-0.5748334,0.44345754,0.07025018,-0.6606357,-0.74741226,,0.10692891,1.344011,0.44341892,0.99563116,0.020233775,-0.09115471,-0.04395864,-0.7597136,-0.6487703,-0.082378544,0.64994293,-0.7555051,,-0.087101296,0.25686148,-0.075753994,0.83165085,0.3107811,0.4601869,-0.5535546,0.52961755,0.64271504,-0.043979373,-0.78925306,0.61249113,,0.008876675,0.4043299,-0.3674844,-0.69019747,0.5734707,-0.44131485,-0.38708538,-0.8078741,-0.44441465,-0.61138564,-0.13590734,0.77957475,,1.1539616369981232,0.3554465032690573,0.21421321879000002,0.44286516063931547,0.1541259717354168,1.062746273675617,-0.3965993925740302,,-0.7342079370853983,-0.24048590170335124,0.17550340681,-0.6204725427707076,0.06189633439374452,-0.3223808363024106,0.8096965358276222,,-0.048616146314302056,-0.07213882130805563,0.0795457676,-0.07359428191455561,,-1.4256686e-05,-3.0398369e-06,7.033348e-06,1.0,7.1302056e-06,6.131828e-06,-7.1264803e-06,0.99999994,7.748604e-07,-6.131828e-06,-7.4505806e-07,1.0,133,0.403,0,0,0.0,False,-0.25540970673458663,0.983805634097884
0.41670329199405387,14:54:57.874986,14:54:43.851363,0,,0.120061785,0.0055866987,0.01572448,-0.8144246,-0.41056633,-0.4100585,-0.40826315,-0.096744746,0.9077233,-0.41235152,0.9066839,-0.08882797,,0.024733245,-0.022739664,0.028949857,0.72271293,-0.4827027,0.49465555,-0.68755585,-0.57500106,0.4434418,0.07037708,-0.66058433,-0.7474458,,0.10692891,1.344011,0.44341892,0.99563116,0.020233775,-0.09115471,-0.04395864,-0.7597136,-0.6487703,-0.082378544,0.64994293,-0.7555051,,-0.08713911,0.2569645,-0.07590911,0.83110136,0.31343305,0.4593803,-0.5545697,0.5287624,0.642544,-0.0415085,-0.7887776,0.61327565,,0.008875895,0.4043249,-0.36749396,-0.6903271,0.5733457,-0.4412745,-0.3869218,-0.8079346,-0.44444716,-0.6113428,-0.13607521,0.7795791,,1.1540697552583623,0.3556704625224098,0.21403951593000003,0.44202640086537737,0.15658542873119474,1.0614758600703467,-0.3970894247724329,,-0.7342079370853983,-0.24054768356634504,0.17550081423000002,-0.6206822327141921,0.06189633439374452,-0.3223808363024106,0.8096965358276222,,-0.048616146314302056,-0.07213882130805563,0.0795457676,-0.07359428191455561,,-1.4256686e-05,-3.0398369e-06,7.033348e-06,1.0,7.1302056e-06,6.131828e-06,-7.1264803e-06,0.99999994,7.748604e-07,-6.131828e-06,-7.4505806e-07,1.0,141,0.427,0,0,0.0,False,-0.2555288621716292,0.983902194499443
0.4442079790169373,14:54:57.906279,14:54:43.969184,0,,0.12009525,0.0055862814,0.015889794,-0.81285,-0.4154534,-0.40825656,-0.4071915,-0.09587708,0.9082966,-0.41649723,0.9045474,-0.09123555,,0.024734583,-0.022745013,0.028952062,0.72270197,-0.48266307,0.49471012,-0.6875646,-0.5749748,0.44346222,0.07040313,-0.66063607,-0.74739754,,0.10692891,1.344011,0.44341892,0.99563116,0.020233775,-0.09115471,-0.04395864,-0.7597136,-0.6487703,-0.082378544,0.64994293,-0.7555051,,-0.08718881,0.25707084,-0.076030225,0.8299989,0.31854373,0.45785558,-0.5565013,0.52817094,0.6413593,-0.037525028,-0.78712475,0.6156513,,0.008874623,0.40432373,-0.36749965,-0.6903184,0.5733101,-0.44133446,-0.38690343,-0.8079683,-0.44440177,-0.61136425,-0.1360249,0.779571,,1.1541701507857272,0.35590986724151075,0.21389951661000003,0.44034888131750116,0.16068452372415798,1.0580516442193135,-0.39757945697083563,,-0.7342156598182726,-0.24057857449784192,0.17549822165,-0.6206822327141921,0.06189633439374452,-0.3224625150425512,0.809533191761488,,-0.048616146314302056,-0.07213882130805563,0.0795457676,-0.07359428191455561,,-1.4256686e-05,-3.0398369e-06,7.033348e-06,1.0,7.1302056e-06,6.131828e-06,-7.1264803e-06,0.99999994,7.748604e-07,-6.131828e-06,-7.4505806e-07,1.0,153,0.464,0,0,0.0,False,-0.2561246393568388,0.9840470351017814
0.4754744640085846,14:54:57.945009,14:54:43.969184,0,,0.12014054,0.0055933297,0.01604636,-0.8131618,-0.41731036,-0.405734,-0.40491074,-0.095163524,0.90939057,-0.41810906,0.9037676,-0.091590285,,0.024733245,-0.022746757,0.028952539,0.722702,-0.4826267,0.4947454,-0.68756425,-0.5749445,0.443502,0.070405364,-0.66068906,-0.7473506,,0.10692891,1.344011,0.44341892,0.99563116,0.020233775,-0.09115471,-0.04395864,-0.7597136,-0.6487703,-0.082378544,0.64994293,-0.7555051,,-0.08724903,0.25717682,-0.07613865,0.83057684,0.32050067,0.4554354,-0.5558117,0.5282582,0.64188516,-0.03486286,-0.78627133,0.6168971,,0.00887599,0.4043234,-0.3675014,-0.6903187,0.57327753,-0.44137615,-0.38690138,-0.8080005,-0.44434497,-0.61136514,-0.1359706,0.77957976,,1.1542087644500982,0.35628055841947354,0.21376599874000002,0.44160702097840826,0.16287070772040502,1.0565956727207328,-0.39823283323537273,,-0.7342079370853983,-0.24058629723071615,0.17549692536000003,-0.6206822327141921,0.06189633439374452,-0.3225441937826917,0.8093698476953537,,-0.048616146314302056,-0.07213882130805563,0.0795457676,-0.07359428191455561,,-1.4256686e-05,-3.0398369e-06,7.033348e-06,1.0,7.1302056e-06,6.131828e-06,-7.1264803e-06,0.99999994,7.748604e-07,-6.131828e-06,-7.4505806e-07,1.0,161,0.488,0,0,0.0,False,-0.25558843989015,0.9838539142986635
0.5142161660187412,14:54:57.971077,14:54:43.969184,0,,0.120186225,0.005621463,0.016138628,-0.81301165,-0.41744518,-0.40589607,-0.4049298,-0.09554711,0.90934193,-0.4183824,0.9036648,-0.091355264,,0.024732962,-0.02274549,0.028952718,0.7227043,-0.48262575,0.49474323,-0.6875625,-0.57494134,0.44350883,0.0703997,-0.6606926,-0.74734807,,0.10692891,1.344011,0.44341892,0.99563116,0.020233775,-0.09115471,-0.04395864,-0.7597136,-0.6487703,-0.082378544,0.64994293,-0.7555051,,-0.08730228,0.2572569,-0.07618496,0.83045393,0.3206267,0.45557082,-0.55600846,0.52790433,0.6420059,-0.034653574,-0.7864576,0.6166714,,0.008876189,0.40432423,-0.36750042,-0.69032043,0.57327676,-0.44137454,-0.38690546,-0.8080019,-0.444339,-0.61136067,-0.13596606,0.7795841,,1.1541701507857272,0.35667441779605896,0.21370118424,0.4413973310349238,0.1627340712206396,1.0567070906244294,-0.39823283323537273,,-0.7342079370853983,-0.24057857449784192,0.17549692536000003,-0.6206822327141921,0.06189633439374452,-0.3225441937826917,0.8093698476953537,,-0.048616146314302056,-0.07213882130805563,0.0795457676,-0.07359428191455561,,-1.4256686e-05,-3.0398369e-06,7.033348e-06,1.0,7.1302056e-06,6.131828e-06,-7.1264803e-06,0.99999994,7.748604e-07,-6.131828e-06,-7.4505806e-07,1.0,176,0.534,0,0,0.0,False,-0.25576717304571295,0.9840470351017814
0.5402396999998018,14:54:58.015820,14:54:43.969184,0,,0.12026307,0.0056357235,0.016244873,-0.8138782,-0.41761154,-0.40398398,-0.40311563,-0.09488702,0.91021657,-0.41844973,0.90365756,-0.09111941,,0.02473203,-0.022745982,0.028955042,0.7227043,-0.48262575,0.49474323,-0.6875625,-0.57494134,0.44350883,0.0703997,-0.6606926,-0.74734807,,0.10692891,1.344011,0.44341892,0.99563116,0.020233775,-0.09115471,-0.04395864,-0.7597136,-0.6487703,-0.082378544,0.64994293,-0.7555051,,-0.08738853,0.25733465,-0.07624749,0.8314077,0.32082406,0.45368832,-0.55465114,0.528405,0.64276767,-0.03351585,-0.7860408,0.6172654,,0.008876912,0.40432605,-0.36750212,-0.69032043,0.57327676,-0.44137454,-0.38690546,-0.8080019,-0.444339,-0.61136067,-0.13596606,0.7795841,,1.1540002506624942,0.35711461356988977,0.21361692539000002,0.4432845405262845,0.1631439807199359,1.0562911581731995,-0.3983961773015071,,-0.7342079370853983,-0.24057857449784192,0.17549433278,-0.6206822327141921,0.06189633439374452,-0.3225441937826917,0.8093698476953537,,-0.048616146314302056,-0.07213882130805563,0.0795457676,-0.07359428191455561,,-1.4256686e-05,-3.0398369e-06,7.033348e-06,1.0,7.1302056e-06,6.131828e-06,-7.1264803e-06,0.99999994,7.748604e-07,-6.131828e-06,-7.4505806e-07,1.0,184,0.558,0,0,0.0,False,-0.2556480176086704,0.9836125132947662
0.5850493969919626,14:54:58.047002,14:54:44.108145,0,,0.12031123,0.005641043,0.016287878,-0.8135494,-0.4181093,-0.40413132,-0.40325937,-0.0950537,0.9101355,-0.41895017,0.90340984,-0.09127578,,0.024731841,-0.022747517,0.028956115,0.722702,-0.4826267,0.4947454,-0.68756425,-0.5749445,0.443502,0.070405364,-0.66068906,-0.7473506,,0.10692891,1.344011,0.44341892,0.99563116,0.020233775,-0.09115471,-0.04395864,-0.7597136,-0.6487703,-0.082378544,0.64994293,-0.7555051,,-0.08744042,0.2573653,-0.076271266,0.8311239,0.3213355,0.45384648,-0.5550955,0.5281317,0.64260864,-0.03319776,-0.7860155,0.61731476,,0.008877076,0.4043261,-0.36750394,-0.6903187,0.57327753,-0.44137615,-0.38690138,-0.8080005,-0.44434497,-0.61136514,-0.1359706,0.77957976,,1.1538457960050097,0.3573308500903681,0.21358322185000003,0.44286516063931547,0.16328061721970133,1.0561797402695032,-0.3983961773015071,,-0.7342079370853983,-0.24058629723071615,0.17549303649,-0.6206822327141921,0.06189633439374452,-0.3225441937826917,0.8093698476953537,,-0.048616146314302056,-0.07213882130805563,0.0795457676,-0.07359428191455561,,-1.4256686e-05,-3.0398369e-06,7.033348e-06,1.0,7.1302056e-06,6.131828e-06,-7.1264803e-06,0.99999994,7.748604e-07,-6.131828e-06,-7.4505806e-07,1.0,196,0.595,0,0,0.0,False,-0.2551118181419816,0.9842401559048992
0.6162226950109471,14:54:58.074195,14:54:44.108145,0,,0.12037225,0.005661145,0.016336635,-0.8122735,-0.42192352,-0.4027313,-0.40242824,-0.09440905,0.9105704,-0.42221242,0.9017025,-0.09310815,,0.024731658,-0.022749022,0.028957129,0.7227,-0.4826277,0.49474764,-0.687566,-0.5749476,0.4434953,0.07041103,-0.6606856,-0.7473531,,0.10692891,1.344011,0.44341892,0.99563116,0.020233775,-0.09115471,-0.04395864,-0.7597136,-0.6487703,-0.082378544,0.64994293,-0.7555051,,-0.08750497,0.25741053,-0.076288424,0.8302191,0.32532668,0.45265755,-0.5566258,0.5276195,0.6417051,-0.030067133,-0.78471667,0.61912495,,0.00887724,0.40432617,-0.3675058,-0.69031703,0.5732783,-0.44137776,-0.3868973,-0.8079992,-0.44435093,-0.61136967,-0.13597517,0.77957547,,1.1537299550118965,0.3575239184122237,0.21355599976000003,0.44160702097840826,0.16642325671430647,1.053698807224626,-0.39823283323537273,,-0.7342079370853983,-0.24059401996359037,0.17549174020000002,-0.6206822327141921,0.06189633439374452,-0.3225441937826917,0.8093698476953537,,-0.048616146314302056,-0.07213882130805563,0.0795457676,-0.07359428191455561,,-1.4256686e-05,-3.0398369e-06,7.033348e-06,1.0,7.1302056e-06,6.131828e-06,-7.1264803e-06,0.99999994,7.748604e-07,-6.131828e-06,-7.4505806e-07,1.0,204,0.62,0,0,0.0,False,-0.25540970673458663,0.9839504747002223
0.6433583240141161,14:54:58.098322,14:54:44.108145,0,,0.12041515,0.0056672543,0.016387865,-0.81039757,-0.42635792,-0.40183935,-0.4017564,-0.09481019,0.9108254,-0.42643595,0.899572,-0.09445825,,0.024731278,-0.022752032,0.028959155,0.72269565,-0.4825892,0.49479148,-0.6875694,-0.5749178,0.44352883,0.07042238,-0.66073966,-0.7473042,,0.10692891,1.344011,0.44341892,0.99563116,0.020233775,-0.09115471,-0.04395864,-0.7597136,-0.6487703,-0.082378544,0.64994293,-0.7555051,,-0.087552406,0.25744727,-0.07631844,0.82880586,0.32992676,0.4519172,-0.55892,0.52605647,0.6409938,-0.026252992,-0.78384495,0.6204014,,0.008877568,0.40432632,-0.36750942,-0.6903137,0.57324386,-0.4414278,-0.38688913,-0.8080329,-0.44429687,-0.6113786,-0.1359206,0.779578,,1.1536758958817768,0.35758570027521747,0.21352099993,0.43951012154356306,0.17052235170726968,1.0517448086961227,-0.3970894247724329,,-0.7342079370853983,-0.24060946542933884,0.17548914762,-0.6206822327141921,0.06189633439374452,-0.32262587252283226,0.8095331917614879,,-0.048616146314302056,-0.07213882130805563,0.0795457676,-0.07359428191455561,,-1.4256686e-05,-3.0398369e-06,7.033348e-06,1.0,7.1302056e-06,6.131828e-06,-7.1264803e-06,0.99999994,7.748604e-07,-6.131828e-06,-7.4505806e-07,1.0,223,0.677,0,0,0.0,False,-0.25558843989015,0.9842401559048992
0.6675304530072026,14:54:58.150069,14:54:44.108145,0,,0.12048997,0.00560683,0.016571343,-0.81033385,-0.4270957,-0.40118375,-0.3997359,-0.09769067,0.91140974,-0.428451,0.89891356,-0.09156355,,0.02473072,-0.0227637,0.028964937,0.72267836,-0.48263735,0.4947697,-0.68758285,-0.5749794,0.443428,0.07046765,-0.66065085,-0.74737847,,0.10692891,1.344011,0.44341892,0.99563116,0.020233775,-0.09115471,-0.04395864,-0.7597136,-0.6487703,-0.082378544,0.64994293,-0.7555051,,-0.087647855,0.2575187,-0.07648786,0.82903844,0.33058903,0.45100576,-0.55870116,0.52346426,0.64330256,-0.023416614,-0.78529996,0.61867243,,0.008878155,0.404325,-0.36752236,-0.6903003,0.5732862,-0.4413938,-0.38685647,-0.80798596,-0.44441056,-0.61141443,-0.13602068,0.77953243,,1.1534519366284244,0.3578173822614442,0.21333692675000002,0.44034888131750116,0.1729818087030476,1.0542316171373183,-0.3979061451031043,,-0.7342079370853983,-0.2406712472923326,0.17548136988000002,-0.6206822327141921,0.06189633439374452,-0.3225441937826917,0.8093698476953537,,-0.048616146314302056,-0.07213882130805563,0.0795457676,-0.07359428191455561,,-1.4256686e-05,-3.0398369e-06,7.033348e-06,1.0,7.1302056e-06,6.131828e-06,-7.1264803e-06,0.99999994,7.748604e-07,-6.131828e-06,-7.4505806e-07,1.0,231,0.702,0,0,0.0,False,-0.25439688551972894,0.9834193924916486
0.7192873370076995,14:54:58.178952,14:54:44.108145,0,,0.12052044,0.005597338,0.016661927,-0.8098558,-0.42853963,-0.40060872,-0.3992991,-0.097598046,0.91161114,-0.42976004,0.89823616,-0.09207532,,0.024731033,-0.022777766,0.028969109,0.722914,-0.48233253,0.49472275,-0.6873126,-0.5752594,0.4434839,0.070687324,-0.6606298,-0.7473763,,0.10692891,1.344011,0.44341892,0.99563116,0.020233775,-0.09115471,-0.04395864,-0.7597136,-0.6487703,-0.082378544,0.64994293,-0.7555051,,-0.08768759,0.2575696,-0.07655897,0.828714,0.3320959,0.45049456,-0.5592359,0.5231353,0.6431055,-0.022096911,-0.78488326,0.6192495,,0.008878146,0.40432099,-0.3675365,-0.6905696,0.57299536,-0.44135016,-0.38655382,-0.808151,-0.44437382,-0.6113017,-0.13626544,0.77957803,,1.1534133229640533,0.3579950051175514,0.21325266790000003,0.43971981148704753,0.17434817370070202,1.0532807955806351,-0.39757945697083585,,-0.7342079370853983,-0.24074847462107488,0.17547488843000003,-0.6211016126011611,0.06189633439374452,-0.32262587252283226,0.8095331917614879,,-0.048616146314302056,-0.07213882130805563,0.0795457676,-0.07359428191455561,,-1.4256686e-05,-3.0398369e-06,7.033348e-06,1.0,7.1302056e-06,6.131828e-06,-7.1264803e-06,0.99999994,7.748604e-07,-6.131828e-06,-7.4505806e-07,1.0,239,0.726,0,0,0.0,False,-0.25481392954937654,0.9837090736963254
0.7481598950107582,14:54:58.208841,14:54:44.279525,0,,0.12057865,0.0055891722,0.01681228,-0.8095181,-0.4289452,-0.40085736,-0.39882427,-0.099270314,0.9116384,-0.43083605,0.89785933,-0.090712786,,0.024729751,-0.022798464,0.028968513,0.72292954,-0.48221222,0.4948173,-0.68730086,-0.5751306,0.443669,0.070642054,-0.6608297,-0.7472039,,0.10692891,1.344011,0.44341892,0.99563116,0.020233775,-0.09115471,-0.04395864,-0.7597136,-0.6487703,-0.082378544,0.64994293,-0.7555051,,-0.08776075,0.2576596,-0.07667121,0.82850766,0.3324572,0.45060766,-0.559586,0.5216332,0.64402044,-0.020942697,-0.7857296,0.6182155,,0.008880533,0.40430954,-0.36755362,-0.6905812,0.57288873,-0.44147038,-0.38658723,-0.8082632,-0.44414073,-0.61126745,-0.13604842,0.7796428,,1.1532743137723172,0.3585355964187471,0.21307118730000002,0.43971981148704753,0.17489471969976378,1.0549587712095043,-0.3979061451031043,,-0.7341847688867756,-0.24087203834706244,0.17547099956,-0.6211016126011611,0.06203297089350997,-0.3229823266469503,0.8093698476953536,,-0.048616146314302056,-0.07213882130805563,0.0795457676,-0.07359428191455561,,-1.4256686e-05,-3.0398369e-06,7.033348e-06,1.0,7.1302056e-06,6.131828e-06,-7.1264803e-06,0.99999994,7.748604e-07,-6.131828e-06,-7.4505806e-07,1.0,251,0.763,0,0,0.0,False,-0.25624379479388093,0.9837573538971045
0.7780375049915165,14:54:58.240902,14:54:44.279525,0,,0.12068319,0.005615175,0.017051876,-0.8093452,-0.42838702,-0.4018023,-0.39883557,-0.10133278,0.9114065,-0.43115032,0.8978954,-0.08884293,,0.024728604,-0.022827119,0.02896893,0.7230219,-0.4821482,0.49474472,-0.6871845,-0.57538664,0.4435172,0.07082862,-0.6606535,-0.7473421,,0.10692891,1.344011,0.44341892,0.99563116,0.020233775,-0.09115471,-0.04395864,-0.7597136,-0.6487703,-0.082378544,0.64994293,-0.7555051,,-0.087887235,0.2578323,-0.07682353,0.82836646,0.33180115,0.45135015,-0.55980414,0.52007616,0.6450892,-0.020695133,-0.78703797,0.6165573,,0.00888308,0.40429476,-0.36757806,-0.69069713,0.5728209,-0.44137704,-0.3863788,-0.80825895,-0.4443297,-0.6112683,-0.13635851,0.779588,,1.1531584727792037,0.35921519691167886,0.21292470653,0.43951012154356306,0.17448481020046747,1.056436527282561,-0.39823283323537273,,-0.7341538779552788,-0.24103421573742118,0.17546451811000002,-0.6213113025446456,0.06203297089350997,-0.3229006479068098,0.8092065036292193,,-0.048616146314302056,-0.07213882130805563,0.0795457676,-0.07359428191455561,,-1.4256686e-05,-3.0398369e-06,7.033348e-06,1.0,7.1302056e-06,6.131828e-06,-7.1264803e-06,0.99999994,7.748604e-07,-6.131828e-06,-7.4505806e-07,1.0,259,0.787,0,0,0.0,False,-0.2561246393568388,0.983902194499443
0.810116000007838,14:54:58.270185,14:54:44.279525,0,,0.12074347,0.0056488216,0.01718013,-0.80938685,-0.42903796,-0.40102297,-0.39789483,-0.10161424,0.9117863,-0.43194047,0.8975527,-0.08846688,,0.024729487,-0.022857994,0.028966963,0.7231487,-0.48201993,0.4946844,-0.68704265,-0.5755341,0.44354558,0.070910096,-0.66061866,-0.7473651,,0.10692891,1.344011,0.44341892,0.99563116,0.020233775,-0.09115471,-0.04395864,-0.7597136,-0.6487703,-0.082378544,0.64994293,-0.7555051,,-0.08795828,0.25793958,-0.07689178,0.82853097,0.33246887,0.4505562,-0.5596038,0.5196584,0.64559954,-0.01949355,-0.7870321,0.6166039,,0.008883967,0.40427652,-0.36760306,-0.6908383,0.57269746,-0.4413163,-0.38624868,-0.8083225,-0.44432724,-0.611191,-0.13650042,0.77962375,,1.153127581847707,0.35971717454850344,0.21283007736,0.4399295014305321,0.17516799269929464,1.056287831464782,-0.398396177301507,,-0.7341307097566561,-0.24121956132640257,0.17546062924000003,-0.6215209924881302,0.0621696073932754,-0.32301206581050623,0.8092065036292193,,-0.048616146314302056,-0.07213882130805563,0.0795457676,-0.07359428191455561,,-1.4256686e-05,-3.0398369e-06,7.033348e-06,1.0,7.1302056e-06,6.131828e-06,-7.1264803e-06,0.99999994,7.748604e-07,-6.131828e-06,-7.4505806e-07,1.0,270,0.82,0,0,0.0,False,-0.25642252794944387,0.9836607934955457
0.8393835370079614,14:54:58.299289,14:54:44.279525,0,,0.12084004,0.0056769103,0.017438695,-0.8090313,-0.43054795,-0.40012115,-0.39673325,-0.10226256,0.9122199,-0.43367165,0.8967557,-0.0880793,,0.02473053,-0.022880644,0.028966725,0.7231166,-0.48200208,0.49474865,-0.6870672,-0.5755575,0.44347733,0.070999384,-0.6606113,-0.7473631,,0.10692891,1.344011,0.44341892,0.99563116,0.020233775,-0.09115471,-0.04395864,-0.7597136,-0.6487703,-0.082378544,0.64994293,-0.7555051,,-0.088078626,0.2581264,-0.07705784,0.8284045,0.3340181,0.4496419,-0.55986005,0.5186915,0.64615464,-0.017398084,-0.787014,0.6166898,,0.0088840965,0.40426415,-0.36762205,-0.69081384,0.57268023,-0.4413769,-0.38618338,-0.8083307,-0.44436902,-0.6112599,-0.13652386,0.77956563,,1.1530735227175872,0.3605435069660455,0.21261618951000003,0.43971981148704753,0.1766709941967145,1.055879021925527,-0.39888620949990994,,-0.7341152642909077,-0.2413508477852644,0.17545674037000003,-0.6215209924881302,0.0621696073932754,-0.32309374455064677,0.8093698476953536,,-0.048616146314302056,-0.07213882130805563,0.0795457676,-0.07359428191455561,,-1.4256686e-05,-3.0398369e-06,7.033348e-06,1.0,7.1302056e-06,6.131828e-06,-7.1264803e-06,0.99999994,7.748604e-07,-6.131828e-06,-7.4505806e-07,1.0,278,0.845,0,0,0.0,False,-0.2552309735790237,0.983805634097884
0.868513271008851,14:54:58.328598,14:54:44.409703,0,,0.12094447,0.005756095,0.0176474,-0.8077908,-0.43207267,-0.400983,-0.39585856,-0.10640803,0.9121257,-0.4367723,0.89553916,-0.08508441,,0.024732895,-0.02291356,0.028962076,0.72323906,-0.48187572,0.49469274,-0.68692863,-0.5757112,0.44349235,0.0710921,-0.66056955,-0.7473912,,0.10692891,1.344011,0.44341892,0.99563116,0.020233775,-0.09115471,-0.04395864,-0.7597136,-0.6487703,-0.082378544,0.64994293,-0.7555051,,-0.08819941,0.25831932,-0.07715236,0.82752097,0.3354581,0.45019656,-0.56125104,0.5147992,0.6480579,-0.014364568,-0.7889548,0.6142833,,0.008883867,0.40424243,-0.36764732,-0.69095165,0.57255834,-0.44131932,-0.38604513,-0.8083916,-0.4443785,-0.6111914,-0.13667488,0.7795929,,1.1530657999847131,0.3613852848493359,0.21248007906000002,0.438671361769625,0.178993814692727,1.058395569530278,-0.39676273664016426,,-0.734092096092285,-0.24155163883999423,0.17545544408000002,-0.6217306824316147,0.06230624389304085,-0.32320516245434316,0.809533191761488,,-0.048616146314302056,-0.07213882130805563,0.0795457676,-0.07359428191455561,,-1.4256686e-05,-3.0398369e-06,7.033348e-06,1.0,7.1302056e-06,6.131828e-06,-7.1264803e-06,0.99999994,7.748604e-07,-6.131828e-06,-7.4505806e-07,1.0,290,0.882,0,0,0.0,False,-0.25535012901606535,0.9833711122908688
0.8978070650191512,14:54:58.359964,14:54:44.409703,0,,0.121044084,0.0058122575,0.017872885,-0.8073813,-0.43466276,-0.39900354,-0.39349633,-0.107230335,0.91305107,-0.43965447,0.8941866,-0.08446261,,0.024736673,-0.022940785,0.028960526,0.72319615,-0.48181838,0.49481142,-0.686962,-0.57570827,0.44344455,0.071207434,-0.66061395,-0.747341,,0.10692891,1.344011,0.44341892,0.99563116,0.020233775,-0.09115471,-0.04395864,-0.7597136,-0.6487703,-0.082378544,0.64994293,-0.7555051,,-0.088318154,0.25850585,-0.077274956,0.8275121,0.33812788,0.4482112,-0.5613475,0.51336986,0.64910734,-0.010616839,-0.7887464,0.614627,,0.008881643,0.40422618,-0.36766946,-0.6909185,0.57250553,-0.44143978,-0.38596144,-0.80843353,-0.44437486,-0.61128175,-0.13664806,0.7795267,,1.1530657999847131,0.3621730036025068,0.21231545023,0.439090741656594,0.18199981768756668,1.0577413079320492,-0.3980694891692387,,-0.7340843733594108,-0.24171381623035293,0.1754528515,-0.6217306824316147,0.06230624389304085,-0.32336851993462434,0.809533191761488,,-0.048616146314302056,-0.07213882130805563,0.0795457676,-0.07359428191455561,,-1.4256686e-05,-3.0398369e-06,7.033348e-06,1.0,7.1302056e-06,6.131828e-06,-7.1264803e-06,0.99999994,7.748604e-07,-6.131828e-06,-7.4505806e-07,1.0,298,0.905,0,0,0.0,False,-0.2547543518308557,0.9835159528932076
0.9291595749964472,14:54:58.389219,14:54:44.409703,0,,0.121130854,0.005870983,0.018058583,-0.8066352,-0.43684465,-0.39812875,-0.3921533,-0.10841724,0.9134886,-0.44221655,0.8929795,-0.08385712,,0.024736192,-0.022959575,0.028959155,0.7231727,-0.48180073,0.4948627,-0.6869794,-0.5757248,0.4433961,0.07127634,-0.6606124,-0.7473358,,0.10692891,1.344011,0.44341892,0.99563116,0.020233775,-0.09115471,-0.04395864,-0.7597136,-0.6487703,-0.082378544,0.64994293,-0.7555051,,-0.088420056,0.25866878,-0.07736732,0.8270886,0.34036022,0.4473023,-0.56201833,0.51174676,0.64980817,-0.0077366675,-0.788841,0.6145486,,0.00888321,0.40421504,-0.36768457,-0.6909011,0.57248867,-0.4414888,-0.38591042,-0.80844295,-0.44440198,-0.6113336,-0.13666268,0.7794835,,1.1530657999847131,0.3628834950269355,0.21218582123000002,0.438671361769625,0.18432263818357916,1.0574807783720213,-0.3980694891692387,,-0.7340612051607881,-0.24182193449059208,0.17545025892000002,-0.6217306824316147,0.06230624389304085,-0.32345019867476493,0.809533191761488,,-0.048616146314302056,-0.07213882130805563,0.0795457676,-0.07359428191455561,,-1.4256686e-05,-3.0398369e-06,7.033348e-06,1.0,7.1302056e-06,6.131828e-06,-7.1264803e-06,0.99999994,7.748604e-07,-6.131828e-06,-7.4505806e-07,1.0,317,0.964,0,0,0.0,False,-0.25600548391979716,0.9837573538971045
0.9584513230074663,14:54:58.443691,14:54:44.409703,0,,0.12122101,0.0059357733,0.01838006,-0.80329436,-0.44265914,-0.39846084,-0.39111006,-0.11249024,0.9134433,-0.44916695,0.8896059,-0.08276573,,0.0248086,-0.022947326,0.028992653,0.72333187,-0.48157552,0.49484944,-0.686796,-0.5759006,0.44345176,0.07142866,-0.66062343,-0.74731153,,0.106959246,1.3440111,0.44342345,0.9956293,0.020201659,-0.091182135,-0.044000726,-0.7597145,-0.6487664,-0.082378544,0.64994293,-0.7555051,,-0.08856223,0.25892377,-0.07754982,0.8244898,0.34627607,0.44755948,-0.5658749,0.50661534,0.65048176,-0.001494212,-0.7895782,0.6136481,,0.008780332,0.40423673,-0.36768696,-0.6911125,0.57224524,-0.44147357,-0.3856823,-0.8085894,-0.4443336,-0.6112386,-0.13681597,0.7795311,,1.1530580772518388,0.3638333911704651,0.21194860016000003,0.43489694278690355,0.19033464417325854,1.0575607937579532,-0.39823283323537284,,-0.7339994232977943,-0.2418914390864601,0.17544637005000002,-0.6219403723750992,0.06230624389304085,-0.3235318774149055,0.8093698476953537,,-0.048616146314302056,-0.07213882130805563,0.0795457676,-0.07359428191455561,,1.5575439e-05,3.5762787e-07,8.34465e-07,1.0,-2.4806708e-05,-2.1342188e-05,2.4806708e-05,0.99999994,-2.7418137e-06,2.1334738e-05,2.7418137e-06,0.99999994,329,1.001,0,0,0.0,False,-0.25588632848275505,0.9834676726924281
1.012819212017348,14:54:58.480440,14:54:44.547828,0,,0.12126043,0.005924523,0.018519968,-0.80244243,-0.44454154,-0.39808166,-0.39008993,-0.11404392,0.9136868,-0.45157045,0.8884686,-0.08189762,,0.024783622,-0.022952259,0.028987408,0.723506,-0.48149976,0.49466866,-0.68661135,-0.57609767,0.4434818,0.07144117,-0.66050684,-0.74741334,,0.106959246,1.3440111,0.44342345,0.9956293,0.020201659,-0.091182135,-0.044000726,-0.7597145,-0.6487664,-0.082378544,0.64994293,-0.7555051,,-0.08861583,0.2590052,-0.07765824,0.8239301,0.34818634,0.4471079,-0.56669044,0.50475097,0.6512207,0.0010679876,-0.78993213,0.6131934,,0.008805912,0.4042325,-0.36768857,-0.6912961,0.5721685,-0.4412855,-0.38559237,-0.8086051,-0.44438317,-0.61108774,-0.13704406,0.7796093,,1.1530503545189645,0.36407279588956604,0.21182545261000002,0.43426787295645,0.19279410116903647,1.057923954955494,-0.3983961773015072,,-0.7338449686403098,-0.2418914390864601,0.17544118489000002,-0.6221500623185837,0.06230624389304085,-0.32353187741490547,0.8090431595630851,,-0.048616146314302056,-0.07213882130805563,0.0795457676,-0.07359428191455561,,1.5575439e-05,3.5762787e-07,8.34465e-07,1.0,-2.4806708e-05,-2.1342188e-05,2.4806708e-05,0.99999994,-2.7418137e-06,2.1334738e-05,2.7418137e-06,0.99999994,362,1.102,0,0,0.0,False,-0.25576717304571295,0.9833711122908688
1.0496142719930504,14:54:58.572440,14:54:44.547828,0,,0.12130031,0.005873084,0.018820867,-0.80144054,-0.44562632,-0.3988862,-0.38851854,-0.11913663,0.91370654,-0.4546936,0.8872561,-0.07765323,,0.024695978,-0.02298528,0.028957367,0.7236513,-0.48138165,0.4945711,-0.6864778,-0.5760218,0.44378692,0.07125288,-0.660659,-0.7472968,,0.106959246,1.3440111,0.44342345,0.9956293,0.020201659,-0.091182135,-0.044000726,-0.7597145,-0.6487664,-0.082378544,0.64994293,-0.7555051,,-0.0886878,0.2591609,-0.077913865,0.823319,0.3491436,0.44748694,-0.5675607,0.50013,0.65402204,0.0045459582,-0.79244477,0.6099267,,0.0088976305,0.40419924,-0.36770117,-0.69142896,0.57206213,-0.4412153,-0.3856949,-0.80870515,-0.44411194,-0.6108727,-0.13689736,0.7798036,,1.1531353045805812,0.36445893253327727,0.21154286139000003,0.43363880312599634,0.19607337716340703,1.0617025457378841,-0.39855952136764117,,-0.7332580409418687,-0.241991834613825,0.17543081457,-0.6221500623185837,0.06230624389304085,-0.32426698607617055,0.8082264392324138,,-0.048616146314302056,-0.07213882130805563,0.0795457676,-0.07359428191455561,,1.5575439e-05,3.5762787e-07,8.34465e-07,1.0,-2.4806708e-05,-2.1342188e-05,2.4806708e-05,0.99999994,-2.7418137e-06,2.1334738e-05,2.7418137e-06,0.99999994,370,1.127,0,0,0.0,False,-0.25588632848275505,0.9828883102830743
1.1416755100071896,14:54:58.602966,14:54:44.547828,0,,0.12132419,0.0058636665,0.018920392,-0.8002988,-0.4487642,-0.39765882,-0.38667563,-0.1206018,0.9142959,-0.45826155,0.8854748,-0.07700884,,0.02469074,-0.022993982,0.028953433,0.723652,-0.48132506,0.49462506,-0.68647563,-0.57598495,0.44383818,0.071266204,-0.66073245,-0.74723065,,0.106959246,1.3440111,0.44342345,0.9956293,0.020201659,-0.091182135,-0.044000726,-0.7597145,-0.6487664,-0.082378544,0.64994293,-0.7555051,,-0.08872187,0.25921786,-0.07799234,0.82262594,0.35236987,0.44623092,-0.56851864,0.49794966,0.65485317,0.008549994,-0.7923898,0.6099552,,0.008903659,0.40419188,-0.36770648,-0.6914311,0.5720112,-0.44127798,-0.38568267,-0.80875325,-0.444035,-0.610878,-0.13682634,0.7798119,,1.1531893637107007,0.3645207143962711,0.21145860254,0.43300973329554276,0.20017247215637027,1.0614638007523327,-0.39823283323537284,,-0.7332117045446234,-0.24203817101107036,0.17543081457,-0.6221500623185837,0.06230624389304085,-0.3244303435564516,0.8085531273646823,,-0.048616146314302056,-0.07213882130805563,0.0795457676,-0.07359428191455561,,1.5575439e-05,3.5762787e-07,8.34465e-07,1.0,-2.4806708e-05,-2.1342188e-05,2.4806708e-05,0.99999994,-2.7418137e-06,2.1334738e-05,2.7418137e-06,0.99999994,378,1.151,0,0,0.0,False,-0.2556480176086704,0.9824055082752798
1.1721745980030391,14:54:58.633529,14:54:44.699001,0,,0.12138084,0.0059004426,0.019050002,-0.79566175,-0.45834336,-0.39603513,-0.38365677,-0.12462711,0.9150275,-0.46875343,0.8799939,-0.07668555,,0.02469441,-0.02301225,0.028955221,0.7236196,-0.48129514,0.4947016,-0.68650115,-0.5759905,0.44379145,0.071348816,-0.6607493,-0.74720776,,0.106959246,1.3440111,0.44342345,0.9956293,0.020201659,-0.091182135,-0.044000726,-0.7597145,-0.6487664,-0.082378544,0.64994293,-0.7555051,,-0.08878931,0.2593285,-0.07805997,0.81920224,0.3622444,0.44461966,-0.5731932,0.49160486,0.6555717,0.018899988,-0.7918988,0.61035985,,0.00890077,0.4041832,-0.3677228,-0.69140565,0.57198334,-0.44135392,-0.38562346,-0.8087737,-0.44404915,-0.61094415,-0.13682169,0.7797609,,1.1533438183681852,0.36460566445788756,0.21138341772000002,0.4286062444823678,0.21124002863737093,1.0598717159057136,-0.39937624169831265,,-0.7332194272774977,-0.2421462892713095,0.1754269257,-0.6221500623185837,0.06230624389304085,-0.32451202229659226,0.8087164714308166,,-0.048616146314302056,-0.07213882130805563,0.0795457676,-0.07359428191455561,,1.5575439e-05,3.5762787e-07,8.34465e-07,1.0,-2.4806708e-05,-2.1342188e-05,2.4806708e-05,0.99999994,-2.7418137e-06,2.1334738e-05,2.7418137e-06,0.99999994,390,1.189,0,0,0.0,False,-0.2548735072678969,0.9826469092791772
1.2027598390122876,14:54:58.665839,14:54:44.699001,0,,0.12144665,0.005962923,0.019277602,-0.7830722,-0.4774143,-0.3985895,-0.38275123,-0.13520864,0.9139037,-0.49020332,0.8682132,-0.07685289,,0.024699878,-0.023028553,0.02895528,0.7235871,-0.4812207,0.4948215,-0.6865271,-0.5759539,0.4437989,0.07142925,-0.66083544,-0.74712396,,0.106959246,1.3440111,0.44342345,0.9956293,0.020201659,-0.091182135,-0.044000726,-0.7597145,-0.6487664,-0.082378544,0.64994293,-0.7555051,,-0.088874355,0.25952217,-0.07818366,0.8088627,0.38186806,0.44712186,-0.5868344,0.47646004,0.65468407,0.036967263,-0.791936,0.609484,,0.008896155,0.40417397,-0.36773655,-0.69137985,0.5719159,-0.44148165,-0.38556626,-0.8088345,-0.44398805,-0.6110094,-0.13674398,0.7797234,,1.1536990640803995,0.3645902189921391,0.21125378872000003,0.4137182584949665,0.231735503602187,1.0575344886159894,-0.40002961796284975,,-0.7332348727432461,-0.24224668479867442,0.17542562941,-0.6221500623185837,0.06230624389304085,-0.32467537977687333,0.808389783298548,,-0.048616146314302056,-0.07213882130805563,0.0795457676,-0.07359428191455561,,1.5575439e-05,3.5762787e-07,8.34465e-07,1.0,-2.4806708e-05,-2.1342188e-05,2.4806708e-05,0.99999994,-2.7418137e-06,2.1334738e-05,2.7418137e-06,0.99999994,398,1.214,0,0,0.0,False,-0.25576717304571295,0.982743469680736
1.2350152659928426,14:54:58.693035,14:54:44.699001,0,,0.12144683,0.0059899986,0.01941681,-0.77704453,-0.48498777,-0.401234,-0.38283452,-0.14184287,0.91286254,-0.49963933,0.862941,-0.07545191,,0.024701308,-0.023040041,0.028953373,0.72344154,-0.4813291,0.49492893,-0.686684,-0.57580715,0.44374657,0.071395576,-0.6608845,-0.7470838,,0.106959246,1.3440111,0.44342345,0.9956293,0.020201659,-0.091182135,-0.044000726,-0.7597145,-0.6487664,-0.082378544,0.64994293,-0.7555051,,-0.08888709,0.25963333,-0.0782708,0.80380493,0.38960472,0.4495618,-0.5932147,0.46821442,0.65488285,0.044654135,-0.79308474,0.6074723,,0.008895497,0.4041661,-0.36774522,-0.6912239,0.572021,-0.4415897,-0.38566232,-0.80878544,-0.44399408,-0.61112523,-0.1365948,0.77965873,,1.1540079733953685,0.3645902189921391,0.21116175213000002,0.40637911047300823,0.24061687608694063,1.0582151626693568,-0.39692608070629865,,-0.7332271500103719,-0.24231618939454244,0.17542562941,-0.6219403723750992,0.06230624389304085,-0.3247570585170139,0.8082264392324137,,-0.048616146314302056,-0.07213882130805563,0.0795457676,-0.07359428191455561,,1.5575439e-05,3.5762787e-07,8.34465e-07,1.0,-2.4806708e-05,-2.1342188e-05,2.4806708e-05,0.99999994,-2.7418137e-06,2.1334738e-05,2.7418137e-06,0.99999994,410,1.25,0,0,0.0,False,-0.25540970673458663,0.9824537884760594
1.2622436770179775,14:54:58.731231,14:54:44.699001,0,,0.121377096,0.0059888363,0.019792378,-0.76803064,-0.49769655,-0.40302247,-0.38253558,-0.14818192,0.9119805,-0.5136101,0.85459936,-0.07657841,,0.02470119,-0.023053482,0.028951883,0.72368157,-0.48111117,0.4947899,-0.68640894,-0.57616466,0.443708,0.07160762,-0.6607315,-0.7471988,,0.106959246,1.3440111,0.44342345,0.9956293,0.020201659,-0.091182135,-0.044000726,-0.7597145,-0.6487664,-0.082378544,0.64994293,-0.7555051,,-0.088855125,0.25987896,-0.078561574,0.79624766,0.40276438,0.4514095,-0.6023436,0.45834267,0.6535321,0.056319214,-0.792277,0.6075568,,0.008896448,0.40415767,-0.36775574,-0.6914971,0.5718076,-0.44143835,-0.385364,-0.80887175,-0.44409585,-0.61100435,-0.13697655,0.7796865,,1.1548651967444075,0.3645902189921391,0.21085582769000003,0.39547523341181295,0.25414388956371925,1.0549442705167644,-0.3957826722433586,,-0.7332117045446234,-0.24239341672328468,0.17542433312000003,-0.6223597522620683,0.06230624389304085,-0.32467537977687333,0.8080630951662795,,-0.048616146314302056,-0.07213882130805563,0.0795457676,-0.07359428191455561,,1.5575439e-05,3.5762787e-07,8.34465e-07,1.0,-2.4806708e-05,-2.1342188e-05,2.4806708e-05,0.99999994,-2.7418137e-06,2.1334738e-05,2.7418137e-06,0.99999994,418,1.275,0,0,0.0,False,-0.25582675076423333,0.9823572280745003
1.3004619580169674,14:54:58.761366,14:54:44.834676,0,,0.121314816,0.006038353,0.02009201,-0.7591417,-0.51220363,-0.40168577,-0.38051078,-0.1514835,0.9122851,-0.5281244,0.8453994,-0.079901695,,0.024705257,-0.023063421,0.028952718,0.72365975,-0.48107237,0.49485946,-0.6864265,-0.5761484,0.443702,0.07165977,-0.66077393,-0.74715626,,0.106959246,1.3440111,0.44342345,0.9956293,0.020201659,-0.091182135,-0.044000726,-0.7597145,-0.6487664,-0.082378544,0.64994293,-0.7555051,,-0.088820636,0.2601134,-0.0787615,0.78895026,0.41794065,0.45042542,-0.6105137,0.45026803,0.65156096,0.06950166,-0.78904015,0.6103976,,0.008892823,0.40415263,-0.3677646,-0.6914797,0.57177234,-0.44151133,-0.38532722,-0.8089029,-0.444071,-0.6110473,-0.13693972,0.77965933,,1.1557533110249432,0.3645902189921391,0.21064582871,0.3856198060680403,0.26903726803815226,1.0481905158631315,-0.39806948916923846,,-0.7332271500103719,-0.24245519858627848,0.17542303683000002,-0.6223597522620683,0.06230624389304085,-0.3247570585170139,0.8082264392324137,,-0.048616146314302056,-0.07213882130805563,0.0795457676,-0.07359428191455561,,1.5575439e-05,3.5762787e-07,8.34465e-07,1.0,-2.4806708e-05,-2.1342188e-05,2.4806708e-05,0.99999994,-2.7418137e-06,2.1334738e-05,2.7418137e-06,0.99999994,447,1.364,0,0,0.0,False,-0.25546928445310746,0.9824055082752798
1.3305434320063796,14:54:58.835657,14:54:44.834676,0,,0.12111283,0.0060988814,0.021017507,-0.73778504,-0.5429645,-0.4010769,-0.37261772,-0.16785958,0.9126768,-0.5628756,0.8228077,-0.078473955,,0.024708949,-0.023080364,0.028952062,0.72367054,-0.4809785,0.49493518,-0.68641967,-0.57603836,0.4438554,0.07161686,-0.66093826,-0.7470151,,0.106959246,1.3440111,0.44342345,0.9956293,0.020201659,-0.091182135,-0.044000726,-0.7597145,-0.6487664,-0.082378544,0.64994293,-0.7555051,,-0.08870894,0.26076764,-0.07944006,0.77154934,0.4499824,0.44969702,-0.6277675,0.42402747,0.65277,0.10305112,-0.78594947,0.60964245,,0.008890074,0.40414265,-0.36777848,-0.6914865,0.5716894,-0.4416081,-0.38536075,-0.80899227,-0.44387904,-0.6110185,-0.13675791,0.77971387,,1.1582168628118208,0.3645979417250133,0.20994323953000002,0.3636023620021652,0.30647566897388295,1.0409404511903722,-0.39855952136764117,,-0.7332348727432461,-0.24256331684651763,0.17542174054,-0.6223597522620683,0.06244288039280628,-0.32503183390099144,0.8078997511001451,,-0.048616146314302056,-0.07213882130805563,0.0795457676,-0.07359428191455561,,1.5575439e-05,3.5762787e-07,8.34465e-07,1.0,-2.4806708e-05,-2.1342188e-05,2.4806708e-05,0.99999994,-2.7418137e-06,2.1334738e-05,2.7418137e-06,0.99999994,455,1.389,0,0,0.0,False,-0.2555288621716292,0.9818261458659265
1.4048862920026295,14:54:58.871334,14:54:44.834676,0,,0.12105092,0.0060937703,0.021357924,-0.72964805,-0.5533161,-0.4018147,-0.37053186,-0.17395437,0.91238475,-0.57473457,0.81460476,-0.07809591,,0.024708636,-0.023084328,0.028951049,0.7236663,-0.480944,0.49497476,-0.6864227,-0.57601446,0.44388184,0.07163042,-0.66098416,-0.74697316,,0.106959246,1.3440111,0.44342345,0.9956293,0.020201659,-0.091182135,-0.044000726,-0.7597145,-0.6487664,-0.082378544,0.64994293,-0.7555051,,-0.08868146,0.2609872,-0.07970615,0.7647385,0.46079698,0.45037892,-0.6341408,0.41436327,0.6528159,0.1141951,-0.78483707,0.60908973,,0.008890684,0.40413973,-0.3677813,-0.6914835,0.57165843,-0.44165286,-0.38535056,-0.80902183,-0.44383407,-0.6110283,-0.13671274,0.7797141,,1.1589582451677465,0.36457477352639067,0.20967231492000002,0.35500507431929973,0.31904622695230345,1.0385311631037957,-0.3969260807062984,,-0.7332271500103719,-0.2425864850451403,0.17542174054,-0.6223597522620683,0.06244288039280628,-0.325113512641132,0.807736407034011,,-0.048616146314302056,-0.07213882130805563,0.0795457676,-0.07359428191455561,,1.5575439e-05,3.5762787e-07,8.34465e-07,1.0,-2.4806708e-05,-2.1342188e-05,2.4806708e-05,0.99999994,-2.7418137e-06,2.1334738e-05,2.7418137e-06,0.99999994,463,1.413,0,0,0.0,False,-0.2555288621716292,0.9820192666690444
1.4405399470124394,14:54:58.895606,14:54:44.834676,0,,0.121048905,0.006109953,0.021578848,-0.72298115,-0.5629561,-0.40047318,-0.36682612,-0.17840266,0.913023,-0.5854372,0.80700237,-0.07752532,,0.024706982,-0.02309002,0.028950572,0.72366226,-0.48095396,0.49497092,-0.68642527,-0.57603264,0.4438541,0.071646124,-0.6609609,-0.7469921,,0.106959246,1.3440111,0.44342345,0.9956293,0.020201659,-0.091182135,-0.044000726,-0.7597145,-0.6487664,-0.082378544,0.64994293,-0.7555051,,-0.088700645,0.26114336,-0.0798621,0.75935084,0.47092265,0.44901913,-0.6384902,0.4063183,0.6536327,0.12536573,-0.78303087,0.60921764,,0.008892659,0.4041365,-0.3677859,-0.6914809,0.571667,-0.44164583,-0.3853383,-0.809011,-0.44386438,-0.611039,-0.13674067,0.7797008,,1.1593675500100802,0.3645670507935164,0.20951935270000002,0.34913375590173307,0.3312068754314276,1.0359660562874646,-0.39888620949990994,,-0.7332117045446234,-0.24261737597663718,0.17542044425000003,-0.6223597522620683,0.06244288039280628,-0.325113512641132,0.8074097189017424,,-0.048616146314302056,-0.07213882130805563,0.0795457676,-0.07359428191455561,,1.5575439e-05,3.5762787e-07,8.34465e-07,1.0,-2.4806708e-05,-2.1342188e-05,2.4806708e-05,0.99999994,-2.7418137e-06,2.1334738e-05,2.7418137e-06,0.99999994,475,1.451,0,0,0.0,False,-0.2557075953271921,0.9822606676729413
1.46481094401679,14:54:58.927651,14:54:44.834676,0,,0.121015884,0.006080404,0.021933556,-0.7144786,-0.57308674,-0.4013625,-0.36394724,-0.18551195,0.91275823,-0.5975471,0.798221,-0.07602909,,0.024706665,-0.023093998,0.028949618,0.72365814,-0.48091948,0.49501052,-0.68642825,-0.57600874,0.44388053,0.071659625,-0.6610069,-0.7469502,,0.106959246,1.3440111,0.44342345,0.9956293,0.020201659,-0.091182135,-0.044000726,-0.7597145,-0.6487664,-0.082378544,0.64994293,-0.7555051,,-0.08870445,0.2613528,-0.08015174,0.7522393,0.48152703,0.44974193,-0.644436,0.39550158,0.65443164,0.13725285,-0.78211904,0.60782516,,0.008893268,0.4041336,-0.36778873,-0.6914779,0.571636,-0.44169062,-0.38532808,-0.80904055,-0.44381943,-0.61104876,-0.1366955,0.77970105,,1.1599313095098986,0.3645284371291453,0.20923028003000002,0.34074615816235204,0.3444606159086754,1.0345515747450764,-0.39774280103697013,,-0.7332039818117492,-0.24264054417525988,0.17542044425000003,-0.6223597522620683,0.06244288039280628,-0.32519519138127256,0.8075730629678766,,-0.048616146314302056,-0.07213882130805563,0.0795457676,-0.07359428191455561,,1.5575439e-05,3.5762787e-07,8.34465e-07,1.0,-2.4806708e-05,-2.1342188e-05,2.4806708e-05,0.99999994,-2.7418137e-06,2.1334738e-05,2.7418137e-06,0.99999994,483,1.476,0,0,0.0,False,-0.2552905512975445,0.9826951894799565
1.496803454007022,14:54:58.964507,14:54:44.834676,0,,0.12098627,0.0060485452,0.02217348,-0.7081555,-0.58069766,-0.40162933,-0.36455166,-0.1864295,0.9123299,-0.6046634,0.79248595,-0.07967329,,0.024710886,-0.023097292,0.028950572,0.7237732,-0.48073575,0.49502063,-0.68629557,-0.5761157,0.44394696,0.071768105,-0.66104734,-0.74690396,,0.106959246,1.3440111,0.44342345,0.9956293,0.020201659,-0.091182135,-0.044000726,-0.7597145,-0.6487664,-0.082378544,0.64994293,-0.7555051,,-0.088700354,0.2614857,-0.080356136,0.7466327,0.48961785,0.45034876,-0.64970994,0.39129186,0.65174204,0.14288673,-0.77920794,0.61026084,,0.00888915,0.40413216,-0.36779198,-0.6916096,0.57146275,-0.44170856,-0.38517892,-0.80915165,-0.44374633,-0.61099374,-0.13676241,0.77973247,,1.1602479415577418,0.3645207143962711,0.20902287363000002,0.3331973201969092,0.35115580439718197,1.0290920974639517,-0.39806948916923846,,-0.7332271500103719,-0.24266371237388254,0.17542044425000003,-0.6225694422055528,0.06244288039280628,-0.32527687012141315,0.807736407034011,,-0.048616146314302056,-0.07213882130805563,0.0795457676,-0.07359428191455561,,1.5575439e-05,3.5762787e-07,8.34465e-07,1.0,-2.4806708e-05,-2.1342188e-05,2.4806708e-05,0.99999994,-2.7418137e-06,2.1334738e-05,2.7418137e-06,0.99999994,520,1.589,0,0,0.0,False,-0.25588632848275505,0.9823089478737208
1.53369955701055,14:54:59.068313,14:54:45.137832,0,,0.12098691,0.005932674,0.023048967,-0.6807632,-0.6146712,-0.39842296,-0.35489482,-0.19904724,0.9134712,-0.6407893,0.76325583,-0.082639635,,0.024715763,-0.023130625,0.028945386,0.7238503,-0.48058954,0.49504998,-0.686191,-0.57630974,0.4438566,0.07198942,-0.6609845,-0.7469382,,0.106959246,1.3440111,0.44342345,0.9956293,0.020201659,-0.091182135,-0.044000726,-0.7597145,-0.6487664,-0.082378544,0.64994293,-0.7555051,,-0.08879344,0.26196775,-0.081090204,0.72345287,0.5256902,0.44751063,-0.6666952,0.363673,0.6505839,0.17925805,-0.76902,0.6135754,,0.008886499,0.40410948,-0.36781728,-0.6917131,0.5713211,-0.44172978,-0.38494602,-0.80921847,-0.44382653,-0.61102337,-0.1369585,0.7796748,,1.1611206103725293,0.36413457775255986,0.20832676590000002,0.3074054571483127,0.39173684482751775,1.014787090298444,-0.39806948916923846,,-0.7332117045446234,-0.24286450342861238,0.17542044425000003,-0.6227791321490374,0.06244288039280628,-0.32535854886155363,0.8078997511001451,,-0.048616146314302056,-0.07213882130805563,0.0795457676,-0.07359428191455561,,1.5575439e-05,3.5762787e-07,8.34465e-07,1.0,-2.4806708e-05,-2.1342188e-05,2.4806708e-05,0.99999994,-2.7418137e-06,2.1334738e-05,2.7418137e-06,0.99999994,528,1.614,0,0,0.0,False,-0.25636295023092304,0.9822606676729413
1.6375108530046418,14:54:59.094877,14:54:45.137832,0,,0.12096603,0.0058956146,0.023206964,-0.67706823,-0.6189448,-0.3981029,-0.3541128,-0.2002067,0.9135213,-0.64512205,0.75948954,-0.08362278,,0.024717122,-0.023142204,0.02894342,0.7238332,-0.4806417,0.4950243,-0.6862041,-0.57637745,0.44374853,0.07203686,-0.66088754,-0.7470195,,0.106959246,1.3440111,0.44342345,0.9956293,0.020201659,-0.091182135,-0.044000726,-0.7597145,-0.6487664,-0.082378544,0.64994293,-0.7555051,,-0.08879015,0.2620431,-0.081235416,0.72024775,0.53025705,0.44729254,-0.66902953,0.36046508,0.6499726,0.18341923,-0.76739323,0.6143818,,0.008885924,0.40410152,-0.36782598,-0.6917001,0.57136697,-0.44169083,-0.3849113,-0.80916756,-0.4439495,-0.61105996,-0.13706811,0.77962685,,1.1613059559615106,0.3640573504238176,0.20818547029,0.3036310381655913,0.3965191223193082,1.0122760022514585,-0.40051965016125246,,-0.7332039818117492,-0.2429340080244804,0.17542044425000003,-0.6227791321490374,0.06244288039280628,-0.32527687012141304,0.8080630951662795,,-0.048616146314302056,-0.07213882130805563,0.0795457676,-0.07359428191455561,,1.5575439e-05,3.5762787e-07,8.34465e-07,1.0,-2.4806708e-05,-2.1342188e-05,2.4806708e-05,0.99999994,-2.7418137e-06,2.1334738e-05,2.7418137e-06,0.99999994,536,1.639,0,0,0.0,False,-0.25535012901606535,0.9823089478737208
1.664065153017873,14:54:59.120731,14:54:45.137832,0,,0.12091596,0.0058626384,0.023437142,-0.6700682,-0.6250988,-0.40032515,-0.3557849,-0.20286441,0.9122844,-0.65147954,0.75372237,-0.08646777,,0.024720367,-0.023155138,0.028941989,0.7239787,-0.48048872,0.49495998,-0.68604827,-0.5764722,0.44386625,0.07205802,-0.66091615,-0.7469922,,0.106959246,1.3440111,0.44342345,0.9956293,0.020201659,-0.091182135,-0.044000726,-0.7597145,-0.6487664,-0.082378544,0.64994293,-0.7555051,,-0.088764794,0.2621694,-0.08143537,0.71384245,0.5368205,0.44972524,-0.67463887,0.35487235,0.6472465,0.18786012,-0.76543415,0.61548287,,0.008883491,0.4040931,-0.36783612,-0.6918547,0.5712225,-0.44163555,-0.38482636,-0.8092589,-0.44385672,-0.6109384,-0.13713135,0.779711,,1.1616380334751022,0.36401101402657227,0.20798454534000002,0.29482406053924126,0.40212121880969126,1.0081162619006083,-0.3992128976321785,,-0.7332117045446234,-0.24301895808609686,0.17542044425000003,-0.6229888220925219,0.06257951689257173,-0.32538828802510955,0.8080630951662795,,-0.048616146314302056,-0.07213882130805563,0.0795457676,-0.07359428191455561,,1.5575439e-05,3.5762787e-07,8.34465e-07,1.0,-2.4806708e-05,-2.1342188e-05,2.4806708e-05,0.99999994,-2.7418137e-06,2.1334738e-05,2.7418137e-06,0.99999994,544,1.664,0,0,0.0,False,-0.2552905512975445,0.9825020686768386
1.6899539650185034,14:54:59.148137,14:54:45.137832,0,,0.120889805,0.005855471,0.02367039,-0.66189826,-0.6346151,-0.39894158,-0.35461372,-0.20379195,0.91253376,-0.66040874,0.7454746,-0.09015378,,0.024723567,-0.023166582,0.028942227,0.72395706,-0.48041344,0.49506462,-0.68606544,-0.5764257,0.44390026,0.07211238,-0.66101146,-0.7469026,,0.106959246,1.3440111,0.44342345,0.9956293,0.020201659,-0.091182135,-0.044000726,-0.7597145,-0.6487664,-0.082378544,0.64994293,-0.7555051,,-0.08876231,0.26231655,-0.08161833,0.70666456,0.54705423,0.448728,-0.67979956,0.3490742,0.6449959,0.1962084,-0.7608409,0.6185656,,0.008880872,0.4040868,-0.36784586,-0.6918376,0.5711546,-0.44175002,-0.38478756,-0.8093222,-0.4437749,-0.6109822,-0.13704027,0.7796927,,1.1619778337215683,0.36397240036220113,0.20780824990000002,0.28622677285637577,0.4116857737932721,1.000807081082702,-0.3977428010369699,,-0.7332194272774977,-0.24308846268196488,0.17541914796000002,-0.6229888220925219,0.06257951689257173,-0.3255516455053907,0.8080630951662795,,-0.048616146314302056,-0.07213882130805563,0.0795457676,-0.07359428191455561,,1.5575439e-05,3.5762787e-07,8.34465e-07,1.0,-2.4806708e-05,-2.1342188e-05,2.4806708e-05,0.99999994,-2.7418137e-06,2.1334738e-05,2.7418137e-06,0.99999994,556,1.701,0,0,0.0,False,-0.25481392954937654,0.982212387472162
1.7173540410003625,14:54:59.183872,14:54:45.137832,0,,0.12085679,0.0058323145,0.02389349,-0.6559815,-0.64084524,-0.39875504,-0.35337216,-0.20607111,0.9125035,-0.66694534,0.7394943,-0.091278136,,0.024723526,-0.023171842,0.028941154,0.7239508,-0.48042035,0.49506715,-0.6860701,-0.57644117,0.443873,0.072131515,-0.660993,-0.74691725,,0.106959246,1.3440111,0.44342345,0.9956293,0.020201659,-0.091182135,-0.044000726,-0.7597145,-0.6487664,-0.082378544,0.64994293,-0.7555051,,-0.08875276,0.26244518,-0.08180479,0.7014919,0.5537325,0.44865286,-0.6832843,0.3436321,0.6442356,0.2025627,-0.7584835,0.6194119,,0.008881285,0.40408307,-0.3678497,-0.69183296,0.5711605,-0.44174972,-0.38477328,-0.80931413,-0.443802,-0.6109964,-0.13706337,0.7796775,,1.1623099112351598,0.36394150943070425,0.20762547301000003,0.2801457644953246,0.4189275082808404,0.9971889369107276,-0.3983961773015072,,-0.7332117045446234,-0.2431193536134618,0.17541914796000002,-0.6229888220925219,0.06257951689257173,-0.3255516455053907,0.8080630951662795,,-0.048616146314302056,-0.07213882130805563,0.0795457676,-0.07359428191455561,,1.5575439e-05,3.5762787e-07,8.34465e-07,1.0,-2.4806708e-05,-2.1342188e-05,2.4806708e-05,0.99999994,-2.7418137e-06,2.1334738e-05,2.7418137e-06,0.99999994,564,1.726,0,0,0.0,False,-0.2544564632382502,0.982212387472162
1.7530614249990322,14:54:59.217760,14:54:45.274464,0,,0.120821856,0.005782515,0.024106473,-0.654538,-0.6423824,-0.398654,-0.35070094,-0.20915458,0.9128324,-0.6697676,0.7372918,-0.08838454,,0.024723217,-0.023175806,0.028940141,0.7239467,-0.4804668,0.4950282,-0.68607306,-0.57648975,0.44380528,0.072145075,-0.66091675,-0.7469832,,0.106959246,1.3440111,0.44342345,0.9956293,0.020201659,-0.091182135,-0.044000726,-0.7597145,-0.6487664,-0.082378544,0.64994293,-0.7555051,,-0.08874155,0.26254708,-0.08200113,0.70046407,0.55533284,0.4482806,-0.6831372,0.33990377,0.646366,0.20657597,-0.7589933,0.6174589,,0.008881895,0.40408015,-0.36785254,-0.69183004,0.5712017,-0.44170114,-0.38476306,-0.8092711,-0.4438892,-0.61100626,-0.1371456,0.77965534,,1.1626419887487516,0.36393378669783,0.20742843693000002,0.27972638460835547,0.42316323977356907,0.9987990637848533,-0.3964360485078957,,-0.7332039818117492,-0.24314252181208446,0.17541914796000002,-0.6229888220925219,0.06257951689257173,-0.3254699667652501,0.8078997511001451,,-0.048616146314302056,-0.07213882130805563,0.0795457676,-0.07359428191455561,,1.5575439e-05,3.5762787e-07,8.34465e-07,1.0,-2.4806708e-05,-2.1342188e-05,2.4806708e-05,0.99999994,-2.7418137e-06,2.1334738e-05,2.7418137e-06,0.99999994,597,1.827,0,0,0.0,False,-0.2551118181419816,0.9824055082752798
1.7869884230021853,14:54:59.303624,14:54:45.381138,0,,0.12077079,0.005773604,0.024452925,-0.6444772,-0.65451515,-0.39529625,-0.34763613,-0.2096431,0.91389203,-0.68102723,0.7264018,-0.09242299,,0.024727318,-0.023184448,0.028939903,0.72418374,-0.48011243,0.49502522,-0.6858008,-0.57671773,0.44392988,0.07235363,-0.66097546,-0.74691117,,0.106959246,1.3440111,0.44342345,0.9956293,0.020201659,-0.091182135,-0.044000726,-0.7597145,-0.6487664,-0.082378544,0.64994293,-0.7555051,,-0.08872563,0.26276734,-0.08227305,0.69172806,0.56845045,0.4453946,-0.68843335,0.33279404,0.64444363,0.21810962,-0.7524043,0.6215432,,0.008878271,0.4040749,-0.36785966,-0.6920998,0.5708667,-0.44171152,-0.38446882,-0.8094807,-0.44376197,-0.61088586,-0.1373033,0.7797219,,1.1632289164471925,0.36391834123208155,0.20716529006,0.2698709572645829,0.43614370725128593,0.9889494715949584,-0.39725276883856697,,-0.7332194272774977,-0.24319658094220403,0.17541914796000002,-0.623408201979491,0.06257951689257173,-0.32563332424553126,0.8082264392324137,,-0.048616146314302056,-0.07213882130805563,0.0795457676,-0.07359428191455561,,1.5575439e-05,3.5762787e-07,8.34465e-07,1.0,-2.4806708e-05,-2.1342188e-05,2.4806708e-05,0.99999994,-2.7418137e-06,2.1334738e-05,2.7418137e-06,0.99999994,609,1.864,0,0,0.0,False,-0.25535012901606535,0.9826951894799565
1.8728565979981795,14:54:59.348151,14:54:45.381138,0,,0.12077468,0.00570409,0.024881586,-0.635381,-0.66413736,-0.3939705,-0.34221214,-0.21518227,0.9146514,-0.6922295,0.7159735,-0.090553224,,0.024731215,-0.023202702,0.028939009,0.7243206,-0.47996327,0.49496955,-0.6856516,-0.5768252,0.44402066,0.07239732,-0.66098994,-0.746894,,0.106959246,1.3440111,0.44342345,0.9956293,0.020201659,-0.091182135,-0.044000726,-0.7597145,-0.6487664,-0.082378544,0.64994293,-0.7555051,,-0.08877536,0.26299357,-0.08264042,0.6840569,0.57878745,0.44392717,-0.6918749,0.32208145,0.6461986,0.23103093,-0.74917865,0.6207705,,0.008875412,0.404064,-0.36787456,-0.6922477,0.5707253,-0.44166246,-0.38436756,-0.80956656,-0.4436931,-0.610782,-0.1373848,0.77978885,,1.1635609939607843,0.3639569548964527,0.20680881031,0.2625318092426245,0.4502172667271263,0.9858863377487048,-0.3983961773015068,,-0.7332271500103719,-0.2433124219353174,0.17541785167,-0.6236178919229755,0.06271615339233716,-0.32574474214922766,0.8082264392324137,,-0.048616146314302056,-0.07213882130805563,0.0795457676,-0.07359428191455561,,1.5575439e-05,3.5762787e-07,8.34465e-07,1.0,-2.4806708e-05,-2.1342188e-05,2.4806708e-05,0.99999994,-2.7418137e-06,2.1334738e-05,2.7418137e-06,0.99999994,617,1.889,0,0,0.0,False,-0.2556480176086704,0.9826469092791772
1.9173502850171644,14:54:59.375896,14:54:45.381138,0,,0.12078926,0.0056901127,0.02521038,-0.6268684,-0.6727848,-0.39293325,-0.33333182,-0.22425282,0.9157513,-0.7042198,0.7050327,-0.08368364,,0.024734043,-0.02322781,0.028934956,0.72449225,-0.4798027,0.49487415,-0.68547606,-0.5768778,0.44422328,0.072342426,-0.66106063,-0.7468368,,0.106959246,1.3440111,0.44342345,0.9956293,0.020201659,-0.091182135,-0.044000726,-0.7597145,-0.6487664,-0.082378544,0.64994293,-0.7555051,,-0.08882318,0.2631966,-0.082895376,0.677208,0.58803916,0.44226602,-0.693191,0.30832842,0.65147513,0.2467297,-0.747759,0.61642593,,0.008874274,0.40404686,-0.36789355,-0.6924218,0.57057524,-0.44158348,-0.38433877,-0.8096715,-0.44352654,-0.6106028,-0.13738978,0.7799284,,1.1639394078716212,0.36393378669783,0.20657936698,0.25770894054248045,0.46702355619827546,0.9874558600003303,-0.40084633829352145,,-0.7332194272774977,-0.2434745993256761,0.17541785167,-0.6238275818664599,0.06298942639186804,-0.3259675779566205,0.8082264392324137,,-0.048616146314302056,-0.07213882130805563,0.0795457676,-0.07359428191455561,,1.5575439e-05,3.5762787e-07,8.34465e-07,1.0,-2.4806708e-05,-2.1342188e-05,2.4806708e-05,0.99999994,-2.7418137e-06,2.1334738e-05,2.7418137e-06,0.99999994,629,1.926,0,0,0.0,False,-0.25576717304571295,0.9826469092791772
1.9451261940121185,14:54:59.400511,14:54:45.381138,0,,0.12075123,0.0056938976,0.025502086,-0.6164441,-0.6813999,-0.3945769,-0.33009508,-0.23131567,0.91516674,-0.71486616,0.694397,-0.082333595,,0.024743669,-0.023264095,0.028929532,0.72455585,-0.4796906,0.4948896,-0.68538254,-0.57710934,0.44406682,0.0725908,-0.66093993,-0.74691963,,0.106959246,1.3440111,0.44342345,0.9956293,0.020201659,-0.091182135,-0.044000726,-0.7597145,-0.6487664,-0.082378544,0.64994293,-0.7555051,,-0.08881417,0.26339048,-0.08311648,0.66805786,0.5973235,0.4437379,-0.697968,0.29629594,0.6519581,0.25795212,-0.7452606,0.6148555,,0.008867071,0.40402192,-0.3679212,-0.692514,0.57046384,-0.44158283,-0.38408753,-0.80970603,-0.44368115,-0.6106563,-0.13764893,0.77984077,,1.1643950491112005,0.3639028957663331,0.20637455316000003,0.24764382325522324,0.4797307506764614,0.9847717965297758,-0.3985595213676414,,-0.7332271500103719,-0.24369855857902864,0.17541914796000002,-0.6240372718099444,0.06298942639186804,-0.3259675779566205,0.8082264392324137,,-0.048616146314302056,-0.07213882130805563,0.0795457676,-0.07359428191455561,,1.5575439e-05,3.5762787e-07,8.34465e-07,1.0,-2.4806708e-05,-2.1342188e-05,2.4806708e-05,0.99999994,-2.7418137e-06,2.1334738e-05,2.7418137e-06,0.99999994,637,1.951,0,0,0.0,False,-0.2555288621716292,0.9823572280745003
1.9697131449938752,14:54:59.429123,14:54:45.381138,0,,0.12072348,0.0056999773,0.025709137,-0.61053526,-0.68858874,-0.3912702,-0.32684427,-0.23093763,0.916428,-0.72140104,0.68739593,-0.084065765,,0.024750605,-0.02329339,0.028926134,0.724545,-0.47964698,0.49494773,-0.68539256,-0.5770674,0.4441058,0.07260427,-0.6610082,-0.7468579,,0.106959246,1.3440111,0.44342345,0.9956293,0.020201659,-0.091182135,-0.044000726,-0.7597145,-0.6487664,-0.082378544,0.64994293,-0.7555051,,-0.08880687,0.2635307,-0.08327128,0.662988,0.60518205,0.4406831,-0.6999273,0.2922325,0.6516917,0.26561016,-0.74050987,0.61733,,0.008861997,0.40400267,-0.36794403,-0.69250405,0.570425,-0.4416486,-0.38408038,-0.80974567,-0.44361493,-0.61067206,-0.13757657,0.7798412,,1.1647657402891631,0.3639260639649558,0.20622936868000002,0.24261126461159468,0.48820221366191874,0.9784356376815817,-0.3990495535660441,,-0.7332348727432461,-0.24388390416801,0.17541914796000002,-0.6240372718099444,0.06312606289163349,-0.3261606746004575,0.8078997511001451,,-0.048616146314302056,-0.07213882130805563,0.0795457676,-0.07359428191455561,,1.5575439e-05,3.5762787e-07,8.34465e-07,1.0,-2.4806708e-05,-2.1342188e-05,2.4806708e-05,0.99999994,-2.7418137e-06,2.1334738e-05,2.7418137e-06,0.99999994,662,2.028,0,0,0.0,False,-0.2555288621716292,0.9829365904838538
1.998352808994241,14:54:59.505426,14:54:45.525712,0,,0.12051764,0.0055598468,0.026501536,-0.5983913,-0.699652,-0.3904035,-0.3239228,-0.23440942,0.9165839,-0.73280394,0.6749365,-0.086364776,,0.024774611,-0.023410395,0.028909266,0.7249034,-0.4790472,0.49500388,-0.68493676,-0.57774556,0.4439273,0.0733242,-0.66085076,-0.7469268,,0.106959246,1.3440111,0.44342345,0.9956293,0.020201659,-0.091182135,-0.044000726,-0.7597145,-0.6487664,-0.082378544,0.64994293,-0.7555051,,-0.08868763,0.2639462,-0.08398053,0.652189,0.6172511,0.44005746,-0.70548564,0.28180724,0.65028816,0.2773797,-0.734565,0.6192534,,0.008845704,0.4039235,-0.3680336,-0.6929535,0.5698478,-0.44168866,-0.38327265,-0.81004107,-0.44377416,-0.6106697,-0.1382277,0.77972794,,1.1661712776722721,0.36391061849920736,0.20551640918000003,0.22961048811555415,0.5018658636384628,0.9691724583351725,-0.3985595213676414,,-0.7332271500103719,-0.2446021183253129,0.17542044425000003,-0.6248760315838826,0.06326269939139893,-0.3265171287245756,0.8082264392324138,,-0.048616146314302056,-0.07213882130805563,0.0795457676,-0.07359428191455561,,1.5575439e-05,3.5762787e-07,8.34465e-07,1.0,-2.4806708e-05,-2.1342188e-05,2.4806708e-05,0.99999994,-2.7418137e-06,2.1334738e-05,2.7418137e-06,0.99999994,670,2.052,0,0,0.0,False,-0.2570778828531757,0.9827917498815155
2.0746590920025483,14:54:59.530932,14:54:45.525712,0,,0.12050728,0.0055096895,0.026866585,-0.5886857,-0.7080809,-0.38996238,-0.31878793,-0.23995769,0.91694844,-0.74284804,0.66410965,-0.0844681,,0.024776414,-0.023432687,0.028905392,0.72491235,-0.47904736,0.49499056,-0.6849306,-0.577729,0.4439583,0.07329336,-0.66086507,-0.74691725,,0.106959246,1.3440111,0.44342345,0.9956293,0.020201659,-0.091182135,-0.044000726,-0.7597145,-0.6487664,-0.082378544,0.64994293,-0.7555051,,-0.08871597,0.26414612,-0.084288955,0.6437834,0.6264412,0.43944785,-0.7084101,0.27079383,0.6517866,0.28930622,-0.7309187,0.6181098,,0.008845425,0.40390813,-0.36805028,-0.6929597,0.5698486,-0.4416779,-0.38329622,-0.8100442,-0.4437481,-0.61064786,-0.13820608,0.77974886,,1.166472464254367,0.3638951730334589,0.20522863280000003,0.22143258031965773,0.5151196041157104,0.9658793657695512,-0.39953958576444704,,-0.7332117045446234,-0.24474112751704893,0.17542044425000003,-0.6248760315838826,0.06339933589116437,-0.326628546628272,0.8082264392324138,,-0.048616146314302056,-0.07213882130805563,0.0795457676,-0.07359428191455561,,1.5575439e-05,3.5762787e-07,8.34465e-07,1.0,-2.4806708e-05,-2.1342188e-05,2.4806708e-05,0.99999994,-2.7418137e-06,2.1334738e-05,2.7418137e-06,0.99999994,678,2.078,0,0,0.0,False,-0.25558843989015,0.9829365904838538
2.100143596995622,14:54:59.557653,14:54:45.525712,0,,0.12047726,0.0054966807,0.027091816,-0.5841337,-0.71205217,-0.38957602,-0.31534055,-0.2431762,0.91729254,-0.7478958,0.65867066,-0.08249164,,0.0247317,-0.023450464,0.028875709,0.7249244,-0.47907642,0.49494466,-0.68492293,-0.5777273,0.44397235,0.07324645,-0.6608454,-0.74693924,,0.106953636,1.3440104,0.44342163,0.9956292,0.0201997,-0.091183804,-0.044003297,-0.7597145,-0.6487662,-0.082378544,0.64994293,-0.7555051,,-0.088703334,0.26428467,-0.08447233,0.639923,0.63077533,0.43888617,-0.70921403,0.26492497,0.65332246,0.2958278,-0.72934026,0.61688626,,0.008899239,0.4038793,-0.36805227,-0.6929693,0.5698737,-0.44163048,-0.3833315,-0.8100248,-0.44375303,-0.61061484,-0.13821636,0.7797729,,1.1666346416447255,0.3638951730334589,0.20503548559,0.21807754122390532,0.5222247021035133,0.9650680379259118,-0.398396177301507,,-0.7332117045446234,-0.24477974118142007,0.17542044425000003,-0.6248760315838826,0.06339933589116437,-0.3267102253684126,0.8080630951662795,,-0.048616146314302056,-0.07213882130805563,0.0795457676,-0.07359428191455561,,1.01700425e-05,-4.172325e-07,3.2186508e-06,1.0,-2.6755035e-05,-2.3014843e-05,2.6755035e-05,0.99999994,-2.9206276e-06,2.3018569e-05,2.9206276e-06,1.0,686,2.102,0,0,0.0,False,-0.2552905512975445,0.9825503488776182
2.126870965992566,14:54:59.589232,14:54:45.525712,0,,0.12045251,0.005403921,0.02741845,-0.5787256,-0.7161537,-0.3901291,-0.31360567,-0.24616493,0.91709006,-0.75281346,0.6530902,-0.08212808,,0.02473861,-0.023449302,0.02887863,0.7249106,-0.4790581,0.4949826,-0.6849352,-0.57771087,0.4439748,0.07326722,-0.66087306,-0.7469127,,0.106953636,1.3440104,0.44342163,0.9956292,0.0201997,-0.091183804,-0.044003297,-0.7597145,-0.6487662,-0.082378544,0.64994293,-0.7555051,,-0.08871557,0.26442766,-0.08478106,0.63511837,0.6352645,0.43939015,-0.71125585,0.25914344,0.6534216,0.30123046,-0.72751886,0.61642236,,0.008892028,0.40388164,-0.3680528,-0.69295704,0.5698573,-0.44167086,-0.38331917,-0.8100413,-0.44373363,-0.6106365,-0.13818745,0.7797611,,1.1668431554323295,0.3638951730334589,0.20473085744000002,0.2128352926367922,0.5283733445929583,0.962994666904633,-0.3990495535660443,,-0.7332580409418687,-0.24477974118142007,0.17542044425000003,-0.6248760315838826,0.06339933589116437,-0.3267102253684126,0.8080630951662795,,-0.048616146314302056,-0.07213882130805563,0.0795457676,-0.07359428191455561,,1.01700425e-05,-4.172325e-07,3.2186508e-06,1.0,-2.6755035e-05,-2.3014843e-05,2.6755035e-05,0.99999994,-2.9206276e-06,2.3018569e-05,2.9206276e-06,1.0,702,2.152,0,0,0.0,False,-0.2564821056679656,0.9826951894799565
2.1584454810072202,14:54:59.630924,14:54:45.674800,0,,0.12041631,0.005289778,0.027800575,-0.57393324,-0.7208988,-0.3884657,-0.3114428,-0.24657328,0.9177173,-0.7573665,0.6476933,-0.08300221,,0.024739448,-0.023445562,0.02887988,0.7249535,-0.4789862,0.49498948,-0.68490386,-0.5775832,0.44418925,0.073137164,-0.66103673,-0.74678063,,0.106953636,1.3440104,0.44342163,0.9956292,0.0201997,-0.091183804,-0.044003297,-0.7597145,-0.6487662,-0.082378544,0.64994293,-0.7555051,,-0.08872297,0.26459092,-0.08514666,0.6309099,0.64049745,0.43785346,-0.7127178,0.25545728,0.65328014,0.30657142,-0.7242269,0.61766446,,0.00889088,0.4038846,-0.36805028,-0.6929885,0.56979537,-0.44170147,-0.38341618,-0.81011826,-0.4435092,-0.6105399,-0.1379913,0.7798714,,1.1671366192815502,0.36391061849920736,0.20436659995000003,0.2084318038236172,0.5343853505826376,0.9586640303229743,-0.39888620949990994,,-0.7332734864076172,-0.2447642957156716,0.17542044425000003,-0.6248760315838826,0.06353597239092981,-0.3269033220122496,0.8078997511001452,,-0.048616146314302056,-0.07213882130805563,0.0795457676,-0.07359428191455561,,1.01700425e-05,-4.172325e-07,3.2186508e-06,1.0,-2.6755035e-05,-2.3014843e-05,2.6755035e-05,0.99999994,-2.9206276e-06,2.3018569e-05,2.9206276e-06,1.0,731,2.241,0,0,0.0,False,-0.25427773008268684,0.9829848706846334
2.2001526489912067,14:54:59.711318,14:54:45.674800,0,,0.12039454,0.0051060766,0.028726399,-0.554378,-0.73707247,-0.38650906,-0.2930467,-0.26179153,0.9195591,-0.7789664,0.62304854,-0.07086533,,0.02474374,-0.02344878,0.028880894,0.7249401,-0.47889903,0.4950933,-0.68491507,-0.577512,0.44426456,0.07316452,-0.661162,-0.7466669,,0.106953636,1.3440104,0.44342163,0.9956292,0.0201997,-0.091183804,-0.044003297,-0.7597145,-0.6487662,-0.082378544,0.64994293,-0.7555051,,-0.088802,0.26505494,-0.08596507,0.614491,0.6582994,0.4347905,-0.71339107,0.22833696,0.662522,0.3368591,-0.71728945,0.6099359,,0.008886684,0.40388325,-0.3680535,-0.69297737,0.56971735,-0.44181955,-0.38339776,-0.81019497,-0.44338503,-0.6105641,-0.13786317,0.7798751,,1.16788572437035,0.36374844110884863,0.20361993691000002,0.1962697871015148,0.567724656525405,0.9576969374061679,-0.39806948916923846,,-0.7332966546062398,-0.2447874639142943,0.17542044425000003,-0.6248760315838826,0.06353597239092981,-0.3270666794925307,0.8082264392324137,,-0.048616146314302056,-0.07213882130805563,0.0795457676,-0.07359428191455561,,1.01700425e-05,-4.172325e-07,3.2186508e-06,1.0,-2.6755035e-05,-2.3014843e-05,2.6755035e-05,0.99999994,-2.9206276e-06,2.3018569e-05,2.9206276e-06,1.0,739,2.265,0,0,0.0,False,-0.25558843989015,0.982212387472162
2.2805276430153754,14:54:59.750527,14:54:45.799274,0,,0.1203001,0.005022049,0.029082656,-0.54847574,-0.74156743,-0.38633186,-0.2884882,-0.26583534,0.91984034,-0.7848241,0.6159622,-0.06812939,,0.024739943,-0.023447111,0.028882563,0.72494894,-0.4789437,0.49503708,-0.6849076,-0.57754743,0.4442301,0.07314631,-0.66109884,-0.7467247,,0.106953636,1.3440104,0.44342163,0.9956292,0.0201997,-0.091183804,-0.044003297,-0.7597145,-0.6487662,-0.082378544,0.64994293,-0.7555051,,-0.088747494,0.26522586,-0.08629779,0.60942245,0.6632792,0.4343559,-0.71391743,0.22078617,0.6645114,0.34485677,-0.7150624,0.6080786,,0.008890204,0.40388596,-0.36805305,-0.69298476,0.56975734,-0.44175634,-0.38341004,-0.8101559,-0.44344574,-0.610548,-0.13792735,0.7798764,,1.1685112657331622,0.363555372786993,0.20330753102000002,0.19165660834485526,0.5768793020096895,0.9563578433690498,-0.39921289763217827,,-0.7332812091404914,-0.24477201844854585,0.17541785167,-0.6248760315838826,0.06353597239092981,-0.3269850007523901,0.8080630951662794,,-0.048616146314302056,-0.07213882130805563,0.0795457676,-0.07359428191455561,,1.01700425e-05,-4.172325e-07,3.2186508e-06,1.0,-2.6755035e-05,-2.3014843e-05,2.6755035e-05,0.99999994,-2.9206276e-06,2.3018569e-05,2.9206276e-06,1.0,747,2.29,0,0,0.0,False,-0.2549926627049395,0.9826469092791772
2.319753710005898,14:54:59.780706,14:54:45.799274,0,,0.12023167,0.004965842,0.029372618,-0.5433379,-0.74644667,-0.3841893,-0.2819231,-0.26882243,0.9210069,-0.7907612,0.6087299,-0.064379275,,0.024741378,-0.02344817,0.02888292,0.72494453,-0.47894156,0.49504566,-0.6849113,-0.57754785,0.44422376,0.0731554,-0.6611,-0.7467228,,0.106953636,1.3440104,0.44342163,0.9956292,0.0201997,-0.091183804,-0.044003297,-0.7597145,-0.6487662,-0.082378544,0.64994293,-0.7555051,,-0.08871094,0.26537398,-0.086559795,0.6052168,0.6687055,0.4319092,-0.71295124,0.21395294,0.66777587,0.35413718,-0.7120794,0.60624236,,0.008888805,0.4038855,-0.36805412,-0.69298106,0.5697554,-0.44176468,-0.3834039,-0.81015736,-0.44344848,-0.61055607,-0.1379271,0.77987015,,1.1690673025001064,0.3633623044651374,0.20307419882000002,0.18914032902304095,0.587263675991863,0.9550778118204912,-0.3998662738967156,,-0.7332889318733656,-0.24477974118142007,0.17541785167,-0.6248760315838826,0.06353597239092981,-0.3269850007523901,0.807736407034011,,-0.048616146314302056,-0.07213882130805563,0.0795457676,-0.07359428191455561,,1.01700425e-05,-4.172325e-07,3.2186508e-06,1.0,-2.6755035e-05,-2.3014843e-05,2.6755035e-05,0.99999994,-2.9206276e-06,2.3018569e-05,2.9206276e-06,1.0,759,2.328,0,0,0.0,False,-0.256065061638318,0.982840030082295
2.3499377370171715,14:54:59.804676,14:54:45.799274,0,,0.12013282,0.004918158,0.029658481,-0.53845525,-0.7492097,-0.38568223,-0.27670285,-0.27511382,0.92073226,-0.795928,0.6024925,-0.059172124,,0.024742525,-0.023448005,0.028883398,0.7249423,-0.47893846,0.49505198,-0.6849134,-0.5775451,0.44422418,0.07315883,-0.6611046,-0.7467184,,0.106953636,1.3440104,0.44342163,0.9956292,0.0201997,-0.091183804,-0.044003297,-0.7597145,-0.6487662,-0.082378544,0.64994293,-0.7555051,,-0.08864334,0.26552677,-0.08681642,0.60112447,0.67177314,0.43286285,-0.71249646,0.2052,0.67100054,0.3619367,-0.7117681,0.6019867,,0.008887604,0.4038859,-0.3680542,-0.69297904,0.56975263,-0.44177142,-0.38340184,-0.8101601,-0.44344524,-0.61055964,-0.13792229,0.7798681,,1.1697546257259122,0.3631692361432818,0.20284086662000003,0.1859949798707731,0.5961450484766166,0.9573103819365292,-0.3965993925740301,,-0.7332966546062398,-0.24477974118142007,0.17541785167,-0.6248760315838826,0.06353597239092981,-0.3269850007523901,0.807736407034011,,-0.048616146314302056,-0.07213882130805563,0.0795457676,-0.07359428191455561,,1.01700425e-05,-4.172325e-07,3.2186508e-06,1.0,-2.6755035e-05,-2.3014843e-05,2.6755035e-05,0.99999994,-2.9206276e-06,2.3018569e-05,2.9206276e-06,1.0,767,2.352,0,0,0.0,False,-0.2548735072678969,0.982743469680736
2.373910293012159,14:54:59.834660,14:54:45.799274,0,,0.12000914,0.004869029,0.02995108,-0.53332114,-0.752882,-0.38566485,-0.27296504,-0.2783575,0.9208731,-0.8006613,0.59639406,-0.057056695,,0.024743676,-0.023447827,0.028883874,0.72494,-0.478895,0.49509743,-0.6849154,-0.57750607,0.44427168,0.07316232,-0.6611702,-0.74666,,0.106953636,1.3440104,0.44342163,0.9956292,0.0201997,-0.091183804,-0.044003297,-0.7597145,-0.6487662,-0.082378544,0.64994293,-0.7555051,,-0.08855182,0.26568356,-0.08708169,0.59666884,0.67587507,0.4326421,-0.7128911,0.19887549,0.6724841,0.3684733,-0.709677,0.6004881,,0.008886402,0.4038863,-0.3680543,-0.692977,0.56971383,-0.44182467,-0.38339978,-0.810199,-0.44337583,-0.6105633,-0.13785377,0.7798774,,1.1705191762804605,0.3629607223556777,0.20259457152000002,0.1815914910575981,0.6037966924634813,0.9556449887774012,-0.3975794569708355,,-0.7333043773391141,-0.24477974118142007,0.17541785167,-0.6248760315838826,0.06353597239092981,-0.32706667949253065,0.8078997511001451,,-0.048616146314302056,-0.07213882130805563,0.0795457676,-0.07359428191455561,,1.01700425e-05,-4.172325e-07,3.2186508e-06,1.0,-2.6755035e-05,-2.3014843e-05,2.6755035e-05,0.99999994,-2.9206276e-06,2.3018569e-05,2.9206276e-06,1.0,796,2.441,0,0,0.0,False,-0.2566012611050077,0.9823089478737208
2.4038863260066137,14:54:59.913808,14:54:45.799274,0,,0.11971794,0.0047611,0.03075485,-0.5162593,-0.7664361,-0.3821678,-0.25886816,-0.28571102,0.9226898,-0.8163723,0.5752782,-0.05090511,,0.024742119,-0.023449197,0.02888155,0.7249423,-0.47886172,0.49512607,-0.684913,-0.57747847,0.44431138,0.073161066,-0.66121846,-0.7466174,,0.106953636,1.3440104,0.44342163,0.9956292,0.0201997,-0.091183804,-0.044003297,-0.7597145,-0.6487662,-0.082378544,0.64994293,-0.7555051,,-0.08834734,0.2661334,-0.08778762,0.5819394,0.6910956,0.42864138,-0.7129195,0.17994237,0.6777659,0.39127028,-0.7000054,0.59741104,,0.008888247,0.40388376,-0.36805424,-0.6929794,0.569684,-0.44185936,-0.3833998,-0.8102284,-0.4433221,-0.61056054,-0.13780428,0.77988833,,1.1724575822318908,0.362420131054482,0.20196327829000002,0.16838102461807306,0.6301675369182114,0.9474549680069034,-0.3997029298305812,,-0.7332889318733656,-0.2447874639142943,0.17541914796000002,-0.6248760315838826,0.06353597239092981,-0.3271483582326713,0.8080630951662794,,-0.048616146314302056,-0.07213882130805563,0.0795457676,-0.07359428191455561,,1.01700425e-05,-4.172325e-07,3.2186508e-06,1.0,-2.6755035e-05,-2.3014843e-05,2.6755035e-05,0.99999994,-2.9206276e-06,2.3018569e-05,2.9206276e-06,1.0,800,2.454,0,0,0.0,False,-0.2551713958605024,0.9825986290783977
2.4830141460115556,14:54:59.933435,14:54:45.799274,0,,0.11962359,0.0047458857,0.030992389,-0.50697076,-0.7715479,-0.38431042,-0.25494152,-0.2916897,0.9219122,-0.8233987,0.5653592,-0.04882157,,0.024742674,-0.023451746,0.028881252,0.7249381,-0.47886363,0.49513048,-0.6849163,-0.5774849,0.4442979,0.07317236,-0.6612115,-0.74662244,,0.106953636,1.3440104,0.44342163,0.9956292,0.0201997,-0.091183804,-0.044003297,-0.7597145,-0.6487662,-0.082378544,0.64994293,-0.7555051,,-0.08827787,0.26627922,-0.087986276,0.57359135,0.6968782,0.4305272,-0.71478367,0.1690976,0.67859435,0.40009648,-0.6969697,0.5951101,,0.0088878535,0.4038821,-0.3680562,-0.69297606,0.5696856,-0.44186255,-0.38339165,-0.8102258,-0.443334,-0.6105694,-0.13781345,0.77987975,,1.1729750053344639,0.36218072633538106,0.20179994575000001,0.1593643570482385,0.6406885474001502,0.9449200161926805,-0.398396177301507,,-0.7332889318733656,-0.24480290938004273,0.17541914796000002,-0.6248760315838826,0.06353597239092981,-0.3271483582326713,0.8080630951662794,,-0.048616146314302056,-0.07213882130805563,0.0795457676,-0.07359428191455561,,1.01700425e-05,-4.172325e-07,3.2186508e-06,1.0,-2.6755035e-05,-2.3014843e-05,2.6755035e-05,0.99999994,-2.9206276e-06,2.3018569e-05,2.9206276e-06,1.0,812,2.491,0,0,0.0,False,-0.25535012901606535,0.9826951894799565
2.5026481520035304,14:54:59.966427,14:54:45.799274,0,,0.11944291,0.0046548843,0.031365857,-0.49483278,-0.77621174,-0.39068654,-0.24930957,-0.30387896,0.9195119,-0.8324573,0.55240655,-0.04314792,,0.02474438,-0.023454085,0.02888143,0.7249315,-0.47886252,0.49514124,-0.68492174,-0.57748854,0.44428486,0.07318711,-0.6612091,-0.74662316,,0.106953636,1.3440104,0.44342163,0.9956292,0.0201997,-0.091183804,-0.044003297,-0.7597145,-0.6487662,-0.082378544,0.64994293,-0.7555051,,-0.0881397,0.26645854,-0.088345654,0.5626939,0.7022224,0.43618724,-0.7167598,0.15155423,0.68065166,0.41186282,-0.69564,0.58860344,,0.008886258,0.4038808,-0.36805826,-0.6929707,0.56968445,-0.4418725,-0.38338143,-0.81022584,-0.44334272,-0.61058193,-0.13781779,0.7798692,,1.1738167832177544,0.3615551849725689,0.20149920647000003,0.14762172021310516,0.6550353798755215,0.9462897347270463,-0.3983961773015068,,-0.7332966546062398,-0.24481835484579118,0.17541914796000002,-0.6248760315838826,0.06353597239092981,-0.3271483582326713,0.8080630951662794,,-0.048616146314302056,-0.07213882130805563,0.0795457676,-0.07359428191455561,,1.01700425e-05,-4.172325e-07,3.2186508e-06,1.0,-2.6755035e-05,-2.3014843e-05,2.6755035e-05,0.99999994,-2.9206276e-06,2.3018569e-05,2.9206276e-06,1.0,820,2.516,0,0,0.0,False,-0.25672041654204936,0.9825986290783977
2.535661557019921,14:55:00.002729,14:54:45.799274,0,,0.119299814,0.0045515746,0.03158535,-0.48999143,-0.7790749,-0.39108932,-0.24790454,-0.3055784,0.9193286,-0.83573425,0.5474159,-0.043405622,,0.024745252,-0.023452625,0.028882086,0.7249313,-0.4788989,0.4951062,-0.6849221,-0.5775189,0.4442448,0.07318494,-0.66115624,-0.7466701,,0.106953636,1.3440104,0.44342163,0.9956292,0.0201997,-0.091183804,-0.044003297,-0.7597145,-0.6487662,-0.082378544,0.64994293,-0.7555051,,-0.08802416,0.2665272,-0.088593155,0.558274,0.7054833,0.43660447,-0.7179673,0.14709884,0.68035644,0.41575614,-0.693293,0.5886354,,0.008885253,0.40388203,-0.36805737,-0.6929703,0.569717,-0.44183108,-0.38338345,-0.8101937,-0.4433997,-0.6105811,-0.13787208,0.77986026,,1.1743805427175726,0.36102231640424737,0.20128013346,0.14216978168250752,0.6602275668666083,0.9429543205281286,-0.3985595213676414,,-0.7333043773391141,-0.24481063211291695,0.17541914796000002,-0.6248760315838826,0.06353597239092981,-0.32706667949253065,0.8078997511001451,,-0.048616146314302056,-0.07213882130805563,0.0795457676,-0.07359428191455561,,1.01700425e-05,-4.172325e-07,3.2186508e-06,1.0,-2.6755035e-05,-2.3014843e-05,2.6755035e-05,0.99999994,-2.9206276e-06,2.3018569e-05,2.9206276e-06,1.0,836,2.565,0,0,0.0,False,-0.2549926627049395,0.9829365904838538
2.5719558940036222,14:55:00.040957,14:54:46.090229,0,,0.119147465,0.0044648647,0.031904325,-0.47502747,-0.78815204,-0.39136332,-0.24166071,-0.31080428,0.9192393,-0.84613764,0.53124106,-0.042825013,,0.024744108,-0.023452803,0.02888161,0.7249337,-0.478902,0.49509993,-0.6849201,-0.5775216,0.4442444,0.07318151,-0.6611516,-0.74667454,,0.106953636,1.3440104,0.44342163,0.9956292,0.0201997,-0.091183804,-0.044003297,-0.7597145,-0.6487662,-0.082378544,0.64994293,-0.7555051,,-0.08790855,0.2666735,-0.08890575,0.5447303,0.71586424,0.4368149,-0.72043633,0.13286695,0.68067455,0.42923233,-0.68548137,0.5881113,,0.008886455,0.40388164,-0.36805728,-0.69297236,0.56971973,-0.44182438,-0.3833855,-0.810191,-0.44340292,-0.6105775,-0.1378769,0.7798622,,1.1749288567516427,0.36028865678119604,0.20104420868000003,0.1274914856385908,0.6767605833382265,0.9342101211090141,-0.39823283323537284,,-0.7332966546062398,-0.24481063211291695,0.17541914796000002,-0.6248760315838826,0.06353597239092981,-0.32706667949253065,0.8078997511001451,,-0.048616146314302056,-0.07213882130805563,0.0795457676,-0.07359428191455561,,1.01700425e-05,-4.172325e-07,3.2186508e-06,1.0,-2.6755035e-05,-2.3014843e-05,2.6755035e-05,0.99999994,-2.9206276e-06,2.3018569e-05,2.9206276e-06,1.0,861,2.642,0,0,0.0,False,-0.25624379479388093,0.9827917498815155
2.610179765004432,14:55:00.114451,14:54:46.090229,0,,0.11891207,0.0043058097,0.03244932,-0.4509582,-0.7964815,-0.4028076,-0.23252863,-0.33087745,0.91457677,-0.8617233,0.5061002,-0.03599304,,0.024745222,-0.023457885,0.028880954,0.7249251,-0.4788654,0.49514785,-0.68492675,-0.5774981,0.44426465,0.07320407,-0.6611986,-0.7466307,,0.106953636,1.3440104,0.44342163,0.9956292,0.0201997,-0.091183804,-0.044003297,-0.7597145,-0.6487662,-0.082378544,0.64994293,-0.7555051,,-0.08773626,0.26691446,-0.08944424,0.5227882,0.7256887,0.44729006,-0.7243514,0.10151459,0.6819163,0.44945246,-0.680493,0.57872427,,0.008885668,0.40387827,-0.36806118,-0.6929657,0.5696868,-0.4418773,-0.38336918,-0.81022185,-0.4433606,-0.61059535,-0.13783152,0.77985626,,1.1756779618404425,0.3591997514459304,0.20062291443000002,0.10295776225090146,0.701765062795302,0.9324433974846172,-0.39953958576444704,,-0.7332966546062398,-0.24484152304441387,0.17541914796000002,-0.6248760315838826,0.06353597239092981,-0.3271483582326713,0.8080630951662794,,-0.048616146314302056,-0.07213882130805563,0.0795457676,-0.07359428191455561,,1.01700425e-05,-4.172325e-07,3.2186508e-06,1.0,-2.6755035e-05,-2.3014843e-05,2.6755035e-05,0.99999994,-2.9206276e-06,2.3018569e-05,2.9206276e-06,1.0,865,2.654,0,0,0.0,False,-0.2551713958605024,0.9826951894799565
2.683654993015807,14:55:00.146174,14:54:46.205616,0,,0.11877124,0.0042550415,0.032682076,-0.4350949,-0.8022782,-0.40870795,-0.22898197,-0.3404066,0.9119707,-0.87078106,0.49038056,-0.035598278,,0.024745222,-0.023457885,0.028880954,0.7249251,-0.4788654,0.49514785,-0.68492675,-0.5774981,0.44426465,0.07320407,-0.6611986,-0.7466307,,0.106953636,1.3440104,0.44342163,0.9956292,0.0201997,-0.091183804,-0.044003297,-0.7597145,-0.6487662,-0.082378544,0.64994293,-0.7555051,,-0.08762181,0.26703155,-0.089667365,0.50808907,0.73255986,0.4529918,-0.7280162,0.084220216,0.68036705,0.46025854,-0.67547244,0.57610685,,0.008885668,0.40387827,-0.36806118,-0.6929657,0.5696868,-0.4418773,-0.38336918,-0.81022185,-0.4433606,-0.61059535,-0.13783152,0.77985626,,1.1759868711554113,0.3585742100831182,0.20046865592000002,0.08513411705471688,0.7154287127718462,0.926529046483971,-0.3993762416983129,,-0.7332966546062398,-0.24484152304441387,0.17541914796000002,-0.6248760315838826,0.06353597239092981,-0.3271483582326713,0.8080630951662794,,-0.048616146314302056,-0.07213882130805563,0.0795457676,-0.07359428191455561,,1.01700425e-05,-4.172325e-07,3.2186508e-06,1.0,-2.6755035e-05,-2.3014843e-05,2.6755035e-05,0.99999994,-2.9206276e-06,2.3018569e-05,2.9206276e-06,1.0,881,2.705,0,0,0.0,False,-0.25624379479388093,0.9830331508854129
2.715395397011889,14:55:00.177835,14:54:46.205616,0,,0.1186962,0.004185036,0.032834128,-0.4280484,-0.8063393,-0.40815634,-0.22591442,-0.3418178,0.91220784,-0.8750641,0.48267752,-0.035849303,,0.024745494,-0.023459122,0.028880775,0.7249229,-0.47886637,0.49515006,-0.68492836,-0.5775013,0.44425794,0.0732097,-0.66119516,-0.7466333,,0.106953636,1.3440104,0.44342163,0.9956292,0.0201997,-0.091183804,-0.044003297,-0.7597145,-0.6487662,-0.082378544,0.64994293,-0.7555051,,-0.08756564,0.2670796,-0.08983524,0.50165623,0.7372945,0.45247972,-0.7286813,0.078252286,0.6803676,0.46622372,-0.67102414,0.57650846,,0.008885471,0.40387744,-0.36806217,-0.692964,0.56968755,-0.4418789,-0.3833651,-0.81022054,-0.44336656,-0.61059976,-0.1378361,0.779852,,1.1761490485457702,0.35813401430928743,0.20034291579000002,0.07800465897624305,0.7229437202589454,0.921136170441933,-0.398396177301507,,-0.7332966546062398,-0.2448492457772881,0.17541914796000002,-0.6248760315838826,0.06353597239092981,-0.3271483582326713,0.8080630951662794,,-0.048616146314302056,-0.07213882130805563,0.0795457676,-0.07359428191455561,,1.01700425e-05,-4.172325e-07,3.2186508e-06,1.0,-2.6755035e-05,-2.3014843e-05,2.6755035e-05,0.99999994,-2.9206276e-06,2.3018569e-05,2.9206276e-06,1.0,889,2.729,0,0,0.0,False,-0.2555288621716292,0.9827917498815155
2.747039953013882,14:55:00.206544,14:54:46.205616,0,,0.11862652,0.0041098446,0.032927915,-0.4239746,-0.8067279,-0.41162574,-0.22670239,-0.34549546,0.9106255,-0.8768418,0.4793987,-0.03640601,,0.024745777,-0.023460388,0.028880656,0.72492075,-0.47886735,0.49515226,-0.68493,-0.57750446,0.44425118,0.073215365,-0.66119164,-0.7466358,,0.106953636,1.3440104,0.44342163,0.9956292,0.0201997,-0.091183804,-0.044003297,-0.7597145,-0.6487662,-0.082378544,0.64994293,-0.7555051,,-0.08750927,0.26708564,-0.08996209,0.4977464,0.73783207,0.45590833,-0.730554,0.07333935,0.6789051,0.46748194,-0.67098826,0.5755305,,0.008885274,0.4038766,-0.36806315,-0.69296235,0.5696883,-0.44188052,-0.383361,-0.81021917,-0.44337252,-0.6106042,-0.13784069,0.7798477,,1.1762262758745123,0.35776332313132464,0.20023402743000002,0.0723430305021609,0.724993267755427,0.9204450467681732,-0.3977428010369699,,-0.7332966546062398,-0.2448569685101623,0.17541914796000002,-0.6248760315838826,0.06353597239092981,-0.3271483582326713,0.8080630951662794,,-0.048616146314302056,-0.07213882130805563,0.0795457676,-0.07359428191455561,,1.01700425e-05,-4.172325e-07,3.2186508e-06,1.0,-2.6755035e-05,-2.3014843e-05,2.6755035e-05,0.99999994,-2.9206276e-06,2.3018569e-05,2.9206276e-06,1.0,901,2.766,0,0,0.0,False,-0.25546928445310746,0.9831297112869717
2.7757789329916704,14:55:00.244070,14:54:46.205616,0,,0.11856128,0.004068896,0.03298606,-0.416139,-0.80892026,-0.4153028,-0.22675917,-0.34997836,0.908898,-0.88057286,0.47240162,-0.037790567,,0.024744902,-0.023461863,0.02888,0.72492087,-0.47883093,0.49518728,-0.6849296,-0.5774742,0.44429126,0.07321754,-0.6612446,-0.74658877,,0.106953636,1.3440104,0.44342163,0.9956292,0.0201997,-0.091183804,-0.044003297,-0.7597145,-0.6487662,-0.082378544,0.64994293,-0.7555051,,-0.087452136,0.2670943,-0.090039395,0.49032632,0.7404936,0.4596187,-0.73325235,0.0654471,0.6767996,0.47108504,-0.66886914,0.5750591,,0.008886279,0.40387538,-0.36806405,-0.6929627,0.5696558,-0.44192195,-0.383359,-0.81025136,-0.44331554,-0.61060506,-0.13778639,0.7798566,,1.1761876622101413,0.3573540182889907,0.20018995357000002,0.062487603158388264,0.7299121817469829,0.916842395935805,-0.3988862094999097,,-0.7332889318733656,-0.24486469124303653,0.17541914796000002,-0.6248760315838826,0.06353597239092981,-0.32723003697281183,0.8082264392324138,,-0.048616146314302056,-0.07213882130805563,0.0795457676,-0.07359428191455561,,1.01700425e-05,-4.172325e-07,3.2186508e-06,1.0,-2.6755035e-05,-2.3014843e-05,2.6755035e-05,0.99999994,-2.9206276e-06,2.3018569e-05,2.9206276e-06,1.0,922,2.83,0,0,0.0,False,-0.2552905512975445,0.9831779914877512
2.813265828997828,14:55:00.306605,14:54:46.382094,0,,0.11850202,0.0040424317,0.033134058,-0.39475492,-0.81748176,-0.419395,-0.21551338,-0.36134577,0.90718424,-0.8931531,0.44850075,-0.03353539,,0.024747286,-0.023474663,0.028879642,0.72477114,-0.47889677,0.49534273,-0.68509066,-0.57729185,0.44427985,0.07319322,-0.661356,-0.7464924,,0.106953636,1.3440104,0.44342163,0.9956292,0.0201997,-0.091183804,-0.044003297,-0.7597145,-0.6487662,-0.082378544,0.64994293,-0.7555051,,-0.08740918,0.2671723,-0.090174265,0.4708548,0.7508382,0.46318215,-0.73353004,0.0415121,0.6783881,0.49013206,-0.65918034,0.57030857,,0.00888459,0.403868,-0.36807466,-0.6928034,0.56972283,-0.44208527,-0.3834489,-0.8102404,-0.4432578,-0.6107294,-0.13757339,0.77979684,,1.1759405347581662,0.35655085407007137,0.20018476841000002,0.042147678640389395,0.7532770232068732,0.909143279283255,-0.39806948916923846,,-0.7332889318733656,-0.24494191857177877,0.17541785167,-0.624666341640398,0.06353597239092981,-0.3273933944530929,0.8085531273646822,,-0.048616146314302056,-0.07213882130805563,0.0795457676,-0.07359428191455561,,1.01700425e-05,-4.172325e-07,3.2186508e-06,1.0,-2.6755035e-05,-2.3014843e-05,2.6755035e-05,0.99999994,-2.9206276e-06,2.3018569e-05,2.9206276e-06,1.0,930,2.855,0,0,0.0,False,-0.2561246393568388,0.9827917498815155
2.875839050015202,14:55:00.337364,14:54:46.382094,0,,0.11847384,0.0040227026,0.033187076,-0.38376406,-0.8210365,-0.42263964,-0.21139675,-0.367418,0.9057126,-0.8989085,0.4369247,-0.032562792,,0.024750076,-0.023491204,0.02887714,0.72521734,-0.47842693,0.49514368,-0.6845634,-0.57801527,0.4441521,0.07370639,-0.661064,-0.7467004,,0.106953636,1.3440104,0.44342163,0.9956292,0.0201997,-0.091183804,-0.044003297,-0.7597145,-0.6487662,-0.082378544,0.64994293,-0.7555051,,-0.087387376,0.26719266,-0.09022998,0.46069753,0.75523335,0.4662407,-0.7344719,0.029472668,0.67799884,0.49830595,-0.6547931,0.56827563,,0.008882899,0.40385675,-0.36808726,-0.69332355,0.56926405,-0.44186068,-0.38278604,-0.8104329,-0.44347864,-0.61055493,-0.13833608,0.77979857,,1.1757011300390652,0.3561415492277375,0.20018995357000002,0.030614731748740555,0.7635247606892812,0.9049525522531922,-0.3985595213676416,,-0.7332812091404914,-0.24503459136626946,0.17541785167,-0.6255051014143361,0.06339933589116437,-0.3272002978092559,0.8087164714308165,,-0.048616146314302056,-0.07213882130805563,0.0795457676,-0.07359428191455561,,1.01700425e-05,-4.172325e-07,3.2186508e-06,1.0,-2.6755035e-05,-2.3014843e-05,2.6755035e-05,0.99999994,-2.9206276e-06,2.3018569e-05,2.9206276e-06,1.0,938,2.88,0,0,0.0,False,-0.2566608388235285,0.9826951894799565
2.9065964610199444,14:55:00.366688,14:54:46.382094,0,,0.11843623,0.0039928854,0.03322448,-0.3709858,-0.82588744,-0.4245934,-0.20823804,-0.37159255,0.90474075,-0.9049897,0.4240625,-0.034125805,,0.02475211,-0.023513004,0.028874934,0.7254337,-0.47811714,0.49512598,-0.68435436,-0.5778699,0.4446631,0.07351741,-0.6614153,-0.746408,,0.106953636,1.3440104,0.44342163,0.9956292,0.0201997,-0.091183804,-0.044003297,-0.7597145,-0.6487662,-0.082378544,0.64994293,-0.7555051,,-0.08735513,0.2671955,-0.09028148,0.44875062,0.7611345,0.46829176,-0.73640406,0.018072747,0.6763005,0.50629234,-0.64834225,0.5686127,,0.008882192,0.4038431,-0.3681045,-0.6935308,0.56898296,-0.44189748,-0.38285667,-0.81068385,-0.44295883,-0.61027515,-0.1380222,0.7800731,,1.1753458843268507,0.3556395715909129,0.20020421276000003,0.016146125648308373,0.7737724981716892,0.8963511732555388,-0.3990495535660443,,-0.7332812091404914,-0.24518132329087974,0.17541655538,-0.6257147913578207,0.06380924539046068,-0.3277795877407669,0.8085531273646822,,-0.048616146314302056,-0.07213882130805563,0.0795457676,-0.07359428191455561,,1.01700425e-05,-4.172325e-07,3.2186508e-06,1.0,-2.6755035e-05,-2.3014843e-05,2.6755035e-05,0.99999994,-2.9206276e-06,2.3018569e-05,2.9206276e-06,1.0,950,2.918,0,0,0.0,False,-0.25588632848275505,0.9826951894799565
