AlexandreBanks6/ExpertPlaybackApp/resources/Motions/Pilot_01/PC1/Data_PC1_3.csv
Task Time,PC1 Time,PC2 Time,Gaze Calib,s_T_psm1,Tx,Ty,Tz,R00,R01,R02,R10,R11,R12,R20,R21,R22,s_T_psm3,Tx,Ty,Tz,R00,R01,R02,R10,R11,R12,R20,R21,R22,cart_T_ecm,Tx,Ty,Tz,R00,R01,R02,R10,R11,R12,R20,R21,R22,ecm_T_psm1,Tx,Ty,Tz,R00,R01,R02,R10,R11,R12,R20,R21,R22,ecm_T_psm3,Tx,Ty,Tz,R00,R01,R02,R10,R11,R12,R20,R21,R22,psm1_joints,q1,q2,q3,q4,q5,q6,jaw,psm3_joints,q1,q2,q3,q4,q5,q6,jaw,ecm_joints,q1,q2,q3,q4,ecmi_T_ecm,Tx,Ty,Tz,R00,R01,R02,R10,R11,R12,R20,R21,R22,Sample #,Task Duration (s),Collisions (binary),Collisions (increments),Cumulative Collision Time (s),Clutch Press,MTMR Angle,MTML Angle
""
lci_T_si,,,,,-0.06275115,0.020269286,0.23277931,0.9922883,-0.04035988,0.11719676,0.048105527,-0.7459988,-0.6642075,0.11423598,0.66472316,-0.7383043
rci_T_si,,,,,-0.0725517,0.024538085,0.24269353,0.9888494,-0.06173267,0.13552107,0.047746018,-0.730564,-0.6811729,0.14105745,0.680048,-0.71947026
ecm_T_lc,,,,,-4.4061628e-05,-0.00034663224,-0.01840835,-0.99912,0.030754527,0.028518902,-0.031987965,-0.99852574,-0.043852776,0.027128186,-0.04472645,0.9986309
ecm_T_rc,,,,,-0.0043358393,0.01870579,-0.007592615,-0.99555075,-0.052743673,-0.078081585,0.04863213,-0.9973746,0.053654674,-0.08070653,0.04961868,0.9955021
cart_T_ecmi,,,,,0.1069438,1.3440125,0.4434251,0.99563074,0.020226603,-0.091160834,-0.043968037,-0.75971377,-0.64876944,-0.082378544,0.64994293,-0.7555051
ecmac_T_ecmrep_psm1,,,,,0.01038242,-0.2501324,-0.30762842,0.998145,0.0496832,0.035188068,-0.04731537,0.99675006,-0.06519635,-0.03831287,0.06341047,0.99725187
ecmac_T_ecmrep_psm3,,,,,-0.018947443,-0.4527795,-0.5580277,0.99342906,-0.031421527,0.110051684,0.0051236153,0.97282016,0.23150527,-0.11433475,-0.2294202,0.9665888
""
0,14:52:16.201184,14:52:02.249805,0,,0.1224245,0.008394554,0.016515493,-0.83278805,-0.2835051,-0.47548816,-0.4307052,-0.20778999,0.87824607,-0.3477888,0.9361881,0.050937712,,0.04076491,-0.03381095,0.034180045,0.47985092,-0.770839,0.41898718,-0.87181616,-0.3653848,0.32623664,-0.09838417,-0.5218248,-0.84736025,,0.10694351,1.3440129,0.44342378,0.99563044,0.020221325,-0.09116534,-0.043974955,-0.75971395,-0.6487688,-0.082378544,0.64994293,-0.7555051,,-0.0894447,0.2595401,-0.07442176,0.84186995,0.17895031,0.50914806,-0.52904,0.46006396,0.7130623,-0.10663797,-0.86966544,0.4819859,,-0.0070202476,0.40104717,-0.3794859,-0.4231522,0.83557,-0.35037833,-0.60016733,-0.5481905,-0.5824829,-0.6787793,-0.036193274,0.7334499,,1.1490963152873617,0.3768539187964076,0.21465784626000003,0.4604791158920155,0.06681524838530038,1.2151309818373495,-0.3926791349868075,,-0.8280391415072261,-0.3271735782165214,0.17562785065000003,-0.28769460246076745,0.20044574515590113,-0.06429207419200766,0.5654971569568747,,-0.048616146314302056,-0.07213882130805563,0.0795457676,-0.07359428191455561,,-1.9744039e-07,-1.1920929e-06,8.34465e-07,1.0,-5.248934e-06,-4.518777e-06,5.248934e-06,0.99999994,-5.662441e-07,4.5113266e-06,5.9604645e-07,1.0,35,0.106,1,1,0.081,False,-0.25403941920860307,0.7396526587561625
0.12968785502016544,14:52:16.230389,14:52:02.249805,0,,0.122402325,0.008386061,0.016680405,-0.8325479,-0.28439343,-0.47537827,-0.42978725,-0.20980376,0.8782171,-0.3494952,0.93546927,0.05244282,,0.040765114,-0.033812262,0.034180045,0.47984785,-0.77080566,0.41905203,-0.87181854,-0.3653589,0.32625926,-0.09837788,-0.52189213,-0.8473195,,0.10694351,1.3440129,0.44342378,0.99563044,0.020221325,-0.09116534,-0.043974955,-0.75971395,-0.6487688,-0.082378544,0.64994293,-0.7555051,,-0.08943944,0.25964165,-0.07455373,0.8418442,0.17980924,0.50888795,-0.52946156,0.45809418,0.7140169,-0.10473177,-0.8705276,0.48084602,,-0.007020381,0.4010464,-0.37948695,-0.42314965,0.83554214,-0.35044792,-0.60016304,-0.54823685,-0.5824437,-0.6787847,-0.03613497,0.73344773,,1.1493897791365821,0.3770315416525148,0.21450877291000003,0.46026942594853093,0.06872815938201654,1.2161848508700972,-0.39300582311907584,,-0.8280391415072261,-0.32718130094939557,0.17562785065000003,-0.28769460246076745,0.20044574515590113,-0.0643737529321482,0.565660501023009,,-0.048616146314302056,-0.07213882130805563,0.0795457676,-0.07359428191455561,,-1.9744039e-07,-1.1920929e-06,8.34465e-07,1.0,-5.248934e-06,-4.518777e-06,5.248934e-06,0.99999994,-5.662441e-07,4.5113266e-06,5.9604645e-07,1.0,43,0.13,1,1,0.105,False,-0.25427773008268684,0.7386387745397935
0.15888564399210736,14:52:16.263813,14:52:02.249805,0,,0.12236549,0.0083921105,0.01683046,-0.8327368,-0.2840957,-0.4752254,-0.42947927,-0.2102443,0.87826246,-0.3494239,0.9354608,0.053064764,,0.040766407,-0.03381338,0.034180522,0.47984314,-0.77097493,0.41874588,-0.871822,-0.36548963,0.32610354,-0.098370194,-0.5215504,-0.8475307,,0.10694351,1.3440129,0.44342378,0.99563044,0.020221325,-0.09116534,-0.043974955,-0.75971395,-0.6487688,-0.082378544,0.64994293,-0.7555051,,-0.08941744,0.259745,-0.074666634,0.84203947,0.17949326,0.5086764,-0.52917606,0.45774597,0.7144518,-0.1046053,-0.870776,0.48042372,,-0.0070216586,0.40104607,-0.37948817,-0.42314556,0.8356837,-0.3501151,-0.6001579,-0.54800147,-0.58267045,-0.67879176,-0.036430087,0.7334266,,1.1497295793830482,0.37727094637161573,0.21437784762000003,0.4604791158920155,0.06872815938201654,1.2163482083503785,-0.3926791349868073,,-0.8280468642401004,-0.3271890236822698,0.17562785065000003,-0.28769460246076745,0.20044574515590113,-0.06396535923144542,0.5645170925600691,,-0.048616146314302056,-0.07213882130805563,0.0795457676,-0.07359428191455561,,-1.9744039e-07,-1.1920929e-06,8.34465e-07,1.0,-5.248934e-06,-4.518777e-06,5.248934e-06,0.99999994,-5.662441e-07,4.5113266e-06,5.9604645e-07,1.0,60,0.184,1,1,0.159,False,-0.25403941920860307,0.7387836151421321
0.19229578200611286,14:52:16.304274,14:52:02.369849,0,,0.122332245,0.008397251,0.016991317,-0.832592,-0.28520072,-0.47481695,-0.42894146,-0.21035358,0.878499,-0.3504279,0.93509996,0.052804142,,0.04076501,-0.033809967,0.03418088,0.47994694,-0.7709234,0.4187219,-0.871737,-0.36542758,0.3264001,-0.09861675,-0.52167016,-0.84742844,,0.10694351,1.3440129,0.44342378,0.99563044,0.020221325,-0.09116534,-0.043974955,-0.75971395,-0.6487688,-0.082378544,0.64994293,-0.7555051,,-0.08940014,0.25985458,-0.07478788,0.8420208,0.18062226,0.5083075,-0.5294259,0.45746005,0.71444976,-0.10348483,-0.8706928,0.480817,,-0.007020473,0.40104833,-0.37948546,-0.423229,0.83564097,-0.35011628,-0.6003307,-0.5480744,-0.5824238,-0.67858696,-0.036313076,0.7336219,,1.1500848250952624,0.37749490562496824,0.21423784830000003,0.46026942594853093,0.06982125138014007,1.2155385438609478,-0.3928424790529417,,-0.8280468642401004,-0.32718130094939557,0.17562785065000003,-0.28769460246076745,0.20071901815543203,-0.06410651629869768,0.5643537484939347,,-0.048616146314302056,-0.07213882130805563,0.0795457676,-0.07359428191455561,,-1.9744039e-07,-1.1920929e-06,8.34465e-07,1.0,-5.248934e-06,-4.518777e-06,5.248934e-06,0.99999994,-5.662441e-07,4.5113266e-06,5.9604645e-07,1.0,68,0.208,1,1,0.183,False,-0.254218152364166,0.7376731705242046
0.2327772570133675,14:52:16.331685,14:52:02.369849,0,,0.12231551,0.008378953,0.017101899,-0.8323318,-0.28589955,-0.47485295,-0.4288496,-0.2105889,0.87848747,-0.35115784,0.9348335,0.05267176,,0.040765632,-0.033813797,0.03418058,0.47993773,-0.7708576,0.41885355,-0.8717442,-0.36537647,0.32643807,-0.098597914,-0.5218031,-0.8473488,,0.10694351,1.3440129,0.44342378,0.99563044,0.020221325,-0.09116534,-0.043974955,-0.75971395,-0.6487688,-0.082378544,0.64994293,-0.7555051,,-0.08939536,0.25991318,-0.07488476,0.841839,0.18133216,0.5083559,-0.529839,0.45712832,0.7143559,-0.1028482,-0.87071943,0.4809053,,-0.007020872,0.40104598,-0.37948856,-0.42322132,0.83558595,-0.35025683,-0.6003177,-0.54816586,-0.58235115,-0.67860323,-0.03619804,0.73361254,,1.150247002485621,0.37758757841945895,0.21413155252000002,0.45985004606156193,0.07050443387896727,1.2152264905628871,-0.39365919938361316,,-0.8280468642401004,-0.32720446914801826,0.17562785065000003,-0.28769460246076745,0.20071901815543203,-0.0642698737789788,0.5637003722293977,,-0.048616146314302056,-0.07213882130805563,0.0795457676,-0.07359428191455561,,-1.9744039e-07,-1.1920929e-06,8.34465e-07,1.0,-5.248934e-06,-4.518777e-06,5.248934e-06,0.99999994,-5.662441e-07,4.5113266e-06,5.9604645e-07,1.0,76,0.234,1,1,0.209,False,-0.2538011083345184,0.7373834893195279
0.2601759149983991,14:52:16.363591,14:52:02.369849,0,,0.1223225,0.008343577,0.017227426,-0.8319292,-0.287878,-0.47436294,-0.42822593,-0.21056053,0.8787984,-0.35286874,0.9342326,0.051894456,,0.040765174,-0.03381779,0.034179747,0.4799301,-0.7708971,0.41878957,-0.87175035,-0.36540854,0.32638562,-0.0985803,-0.5217223,-0.84740055,,0.10694351,1.3440129,0.44342378,0.99563044,0.020221325,-0.09116534,-0.043974955,-0.75971395,-0.6487688,-0.082378544,0.64994293,-0.7555051,,-0.089416444,0.25996786,-0.07500147,0.8416383,0.18335962,0.5079608,-0.5304914,0.45681575,0.7140716,-0.10111258,-0.87045884,0.48174435,,-0.007020127,0.4010432,-0.37949148,-0.42321512,0.835619,-0.35018554,-0.60030544,-0.5481109,-0.5824155,-0.67861795,-0.03626878,0.7335954,,1.1503010616157407,0.3776648057482012,0.21400581239000002,0.4594306661745929,0.072280708375918,1.2141864515155367,-0.3928424790529417,,-0.8280391415072261,-0.3272276373466409,0.17562785065000003,-0.28769460246076745,0.20071901815543203,-0.06418819503883821,0.5635370281632635,,-0.048616146314302056,-0.07213882130805563,0.0795457676,-0.07359428191455561,,-1.9744039e-07,-1.1920929e-06,8.34465e-07,1.0,-5.248934e-06,-4.518777e-06,5.248934e-06,0.99999994,-5.662441e-07,4.5113266e-06,5.9604645e-07,1.0,89,0.274,1,1,0.249,False,-0.2537415306159976,0.7374800497210869
0.2920896160067059,14:52:16.395489,14:52:02.369849,0,,0.122381,0.008301601,0.017463088,-0.8290068,-0.29636243,-0.47425437,-0.42688662,-0.21248215,0.8789875,-0.36126935,0.93113935,0.049635828,,0.040764786,-0.03381925,0.03418082,0.47992703,-0.7708979,0.41879147,-0.87175286,-0.36540928,0.32637838,-0.09857395,-0.52172047,-0.84740245,,0.10694351,1.3440129,0.44342378,0.99563044,0.020221325,-0.09116534,-0.043974955,-0.75971395,-0.6487688,-0.082378544,0.64994293,-0.7555051,,-0.089499995,0.26008776,-0.07519987,0.83963156,0.19200872,0.50808614,-0.535029,0.45358974,0.71274143,-0.09361009,-0.870281,0.4835785,,-0.0070197745,0.40104336,-0.37949327,-0.42321256,0.8356197,-0.35018688,-0.6003011,-0.54810965,-0.5824212,-0.67862344,-0.03627038,0.7335903,,1.1503473980129861,0.3778192604056857,0.21378673938000003,0.4556562471918714,0.08034226186207899,1.2116150534643353,-0.39300582311907584,,-0.8280391415072261,-0.32723536007951515,0.17562655436000002,-0.28769460246076745,0.20071901815543203,-0.06418819503883821,0.5635370281632635,,-0.048616146314302056,-0.07213882130805563,0.0795457676,-0.07359428191455561,,-1.9744039e-07,-1.1920929e-06,8.34465e-07,1.0,-5.248934e-06,-4.518777e-06,5.248934e-06,0.99999994,-5.662441e-07,4.5113266e-06,5.9604645e-07,1.0,97,0.298,1,1,0.273,False,-0.2539202637715605,0.7372386487171894
0.3239803049946204,14:52:16.423862,14:52:02.369849,0,,0.12242855,0.008293226,0.017616525,-0.8262436,-0.30243266,-0.47524333,-0.42648494,-0.2153131,0.8784934,-0.3680111,0.9285337,0.04891792,,0.040764995,-0.033820517,0.0341807,0.47992393,-0.77093303,0.4187304,-0.87175524,-0.36543667,0.3263413,-0.098567635,-0.5216494,-0.8474468,,0.10694351,1.3440129,0.44342378,0.99563044,0.020221325,-0.09116534,-0.043974955,-0.75971395,-0.6487688,-0.082378544,0.64994293,-0.7555051,,-0.08956289,0.26017994,-0.07531574,0.83757377,0.19816677,0.509117,-0.5391932,0.4499215,0.7119279,-0.08798223,-0.87080455,0.48369262,,-0.0070199077,0.40104258,-0.3794943,-0.42321,0.835649,-0.35011998,-0.60029674,-0.54806083,-0.58247155,-0.67862886,-0.036331903,0.7335822,,1.1503937344102315,0.3779737150631702,0.21365451780000003,0.45188182820915,0.0864909043515238,1.2109302210254462,-0.3915357265238675,,-0.8280391415072261,-0.3272430828123894,0.17562655436000002,-0.28769460246076745,0.20071901815543203,-0.06410651629869768,0.5633736840971292,,-0.048616146314302056,-0.07213882130805563,0.0795457676,-0.07359428191455561,,-1.9744039e-07,-1.1920929e-06,8.34465e-07,1.0,-5.248934e-06,-4.518777e-06,5.248934e-06,0.99999994,-5.662441e-07,4.5113266e-06,5.9604645e-07,1.0,114,0.352,1,1,0.327,False,-0.2539202637715605,0.7378662913273226
0.35231194001971744,14:52:16.472782,14:52:02.369849,0,,0.12251231,0.00833413,0.017866,-0.82512754,-0.30777138,-0.47375253,-0.4240444,-0.21670401,0.8793325,-0.37329736,0.92645353,0.04829955,,0.04076401,-0.03382086,0.034181893,0.47997123,-0.77089137,0.41875276,-0.87171626,-0.3653934,0.32649368,-0.09868145,-0.5217412,-0.8473772,,0.10694351,1.3440129,0.44342378,0.99563044,0.020221325,-0.09116534,-0.043974955,-0.75971395,-0.6487688,-0.082378544,0.64994293,-0.7555051,,-0.08966898,0.26037094,-0.07546802,0.8371052,0.2036138,0.50773644,-0.5408158,0.4476666,0.7121186,-0.08229947,-0.8707101,0.48486158,,-0.0070190295,0.4010435,-0.37949526,-0.42324784,0.83561444,-0.35015672,-0.6003766,-0.54811925,-0.5823343,-0.67853457,-0.03624582,0.7336737,,1.1504941299375964,0.37863014735747924,0.21346266688,0.4510430684352119,0.09181972784237599,1.2092803212059242,-0.3920257587222702,,-0.8280391415072261,-0.3272508055452636,0.17562525807,-0.28769460246076745,0.20085565465519745,-0.06421793420239413,0.5630469959648605,,-0.048616146314302056,-0.07213882130805563,0.0795457676,-0.07359428191455561,,-1.9744039e-07,-1.1920929e-06,8.34465e-07,1.0,-5.248934e-06,-4.518777e-06,5.248934e-06,0.99999994,-5.662441e-07,4.5113266e-06,5.9604645e-07,1.0,122,0.376,1,1,0.351,False,-0.2537415306159976,0.7367558467093946
0.401245375018334,14:52:16.501256,14:52:02.369849,0,,0.12253268,0.008381471,0.018075377,-0.8231333,-0.3133026,-0.47359607,-0.42347014,-0.21696705,0.8795444,-0.37831813,0.92453593,0.045918375,,0.040763833,-0.03382363,0.034182906,0.47996506,-0.7708932,0.41875657,-0.87172115,-0.3653949,0.32647908,-0.09866884,-0.5217376,-0.8473809,,0.10694351,1.3440129,0.44342378,0.99563044,0.020221325,-0.09116534,-0.043974955,-0.75971395,-0.6487688,-0.082378544,0.64994293,-0.7555051,,-0.08970778,0.26054257,-0.07559264,0.83564895,0.20928943,0.50782746,-0.5437065,0.44637856,0.7107246,-0.07793616,-0.87002534,0.48680782,,-0.00701881,0.40104288,-0.3794981,-0.42324272,0.83561593,-0.3501594,-0.6003679,-0.5481168,-0.58234555,-0.6785455,-0.036249023,0.73366344,,1.150826207451188,0.37910123406280694,0.21330581579000002,0.448317099169913,0.09632873233463551,1.206256960305067,-0.3933325112513444,,-0.8280391415072261,-0.32726625101101203,0.17562396178,-0.28769460246076745,0.20085565465519745,-0.06421793420239408,0.5633736840971292,,-0.048616146314302056,-0.07213882130805563,0.0795457676,-0.07359428191455561,,-1.9744039e-07,-1.1920929e-06,8.34465e-07,1.0,-5.248934e-06,-4.518777e-06,5.248934e-06,0.99999994,-5.662441e-07,4.5113266e-06,5.9604645e-07,1.0,135,0.417,1,1,0.392,False,-0.2540989969271239,0.736562725906277
0.42973439701017924,14:52:16.536784,14:52:02.369849,0,,0.12255873,0.008411258,0.018378869,-0.820693,-0.322734,-0.47149318,-0.41974044,-0.21933463,0.8807441,-0.38766074,0.9207253,0.044541776,,0.040763374,-0.03382761,0.034182012,0.47995743,-0.7709669,0.41862968,-0.87172735,-0.3654536,0.32639682,-0.09865132,-0.5215875,-0.8474753,,0.10694351,1.3440129,0.44342378,0.99563044,0.020221325,-0.09116534,-0.043974955,-0.75971395,-0.6487688,-0.082378544,0.64994293,-0.7555051,,-0.089762405,0.26076198,-0.0757989,0.83432823,0.21892989,0.50593096,-0.54703027,0.44237453,0.7106776,-0.06822238,-0.8696979,0.4888468,,-0.007018065,0.40104008,-0.37950101,-0.42323652,0.8356775,-0.35001987,-0.6003557,-0.5480142,-0.58245474,-0.6785602,-0.036379687,0.73364335,,1.15130501688939,0.3795028161722666,0.21306340956000003,0.4460105097915833,0.10630319681751266,1.2032692139640835,-0.39610936037562716,,-0.8280314187743519,-0.3272894192096347,0.17562396178,-0.28769460246076745,0.20085565465519745,-0.06405457672211295,0.562720307832592,,-0.048616146314302056,-0.07213882130805563,0.0795457676,-0.07359428191455561,,-1.9744039e-07,-1.1920929e-06,8.34465e-07,1.0,-5.248934e-06,-4.518777e-06,5.248934e-06,0.99999994,-5.662441e-07,4.5113266e-06,5.9604645e-07,1.0,143,0.442,1,1,0.417,False,-0.25386068605304013,0.7362730447016004
0.46527417900506407,14:52:16.565066,14:52:02.369849,0,,0.122540355,0.008389682,0.018503264,-0.82018024,-0.32273203,-0.4723859,-0.4186516,-0.22417915,0.88004225,-0.3899168,0.9195584,0.0487549,,0.040763374,-0.03382761,0.034182012,0.47995743,-0.7709669,0.41862968,-0.87172735,-0.3654536,0.32639682,-0.09865132,-0.5215875,-0.8474753,,0.10694351,1.3440129,0.44342378,0.99563044,0.020221325,-0.09116534,-0.043974955,-0.75971395,-0.6487688,-0.082378544,0.64994293,-0.7555051,,-0.089757524,0.26082712,-0.07590849,0.8340942,0.2188143,0.50636655,-0.54768795,0.43794018,0.71291393,-0.065762505,-0.87196827,0.48512533,,-0.007018065,0.40104008,-0.37950101,-0.42323652,0.8356775,-0.35001987,-0.6003557,-0.5480142,-0.58245474,-0.6785602,-0.036379687,0.73364335,,1.1515212534098682,0.37953370710376355,0.21294544717000002,0.44559112990461425,0.10889929031305604,1.2073598580445344,-0.38892222146571886,,-0.8280314187743519,-0.3272894192096347,0.17562396178,-0.28769460246076745,0.20085565465519745,-0.06405457672211295,0.562720307832592,,-0.048616146314302056,-0.07213882130805563,0.0795457676,-0.07359428191455561,,-1.9744039e-07,-1.1920929e-06,8.34465e-07,1.0,-5.248934e-06,-4.518777e-06,5.248934e-06,0.99999994,-5.662441e-07,4.5113266e-06,5.9604645e-07,1.0,156,0.483,1,1,0.458,False,-0.2551118181419816,0.7368041269101742
0.49354416999267414,14:52:16.604426,14:52:02.369849,0,,0.122474715,0.008347854,0.018693909,-0.81927586,-0.32533544,-0.4721695,-0.4181745,-0.22440925,0.88021046,-0.39232272,0.9185844,0.047805876,,0.040762983,-0.03382779,0.03418207,0.48000467,-0.77092534,0.41865203,-0.8716885,-0.36541033,0.3265492,-0.098765135,-0.5216792,-0.84740555,,0.10694351,1.3440129,0.44342378,0.99563044,0.020221325,-0.09116534,-0.043974955,-0.75971395,-0.6487688,-0.082378544,0.64994293,-0.7555051,,-0.0897132,0.26092142,-0.07608611,0.8334569,0.22148776,0.5062537,-0.54891855,0.43720683,0.7124174,-0.06354584,-0.87166125,0.48597178,,-0.0070176716,0.40104005,-0.3795012,-0.42327437,0.835643,-0.35005662,-0.60043555,-0.54807264,-0.5823174,-0.6784659,-0.036293603,0.73373485,,1.1519691719165732,0.37951053890514086,0.21275748512000003,0.44433299024370715,0.1114953838085994,1.2058963477954268,-0.3938225434497473,,-0.8280314187743519,-0.3272971419425089,0.17562396178,-0.28769460246076745,0.2009922911549629,-0.06416599462580941,0.562720307832592,,-0.048616146314302056,-0.07213882130805563,0.0795457676,-0.07359428191455561,,-1.9744039e-07,-1.1920929e-06,8.34465e-07,1.0,-5.248934e-06,-4.518777e-06,5.248934e-06,0.99999994,-5.662441e-07,4.5113266e-06,5.9604645e-07,1.0,164,0.507,1,1,0.482,False,-0.254694774112334,0.7359833634969237
0.5329241350118537,14:52:16.626583,14:52:02.369849,0,,0.12245339,0.008324161,0.018789515,-0.8184094,-0.32741663,-0.47223353,-0.4182237,-0.22418657,0.8802438,-0.39407477,0.917899,0.046542853,,0.040763192,-0.0338291,0.034181952,0.4800016,-0.7709262,0.4186539,-0.8716908,-0.36541104,0.3265419,-0.09875882,-0.52167743,-0.84740746,,0.10694351,1.3440129,0.44342378,0.99563044,0.020221325,-0.09116534,-0.043974955,-0.75971395,-0.6487688,-0.082378544,0.64994293,-0.7555051,,-0.08970261,0.2609663,-0.07617571,0.8327674,0.22363493,0.50644433,-0.5501215,0.43698972,0.7116223,-0.062167376,-0.8712218,0.48693717,,-0.007017805,0.40103927,-0.37950224,-0.4232718,0.8356437,-0.35005796,-0.6004312,-0.5480714,-0.5823231,-0.6784713,-0.036295205,0.7337297,,1.1521390720398061,0.3795028161722666,0.21266285595000003,0.44307485058279994,0.11313502180578469,1.2044776542109292,-0.39365919938361316,,-0.8280314187743519,-0.32730486467538317,0.17562396178,-0.28769460246076745,0.2009922911549629,-0.06416599462580941,0.562720307832592,,-0.048616146314302056,-0.07213882130805563,0.0795457676,-0.07359428191455561,,-1.9744039e-07,-1.1920929e-06,8.34465e-07,1.0,-5.248934e-06,-4.518777e-06,5.248934e-06,0.99999994,-5.662441e-07,4.5113266e-06,5.9604645e-07,1.0,177,0.548,1,1,0.523,False,-0.25403941920860307,0.735307440686011
0.5550654919934459,14:52:16.671521,14:52:02.369849,0,,0.122459546,0.008301243,0.019012004,-0.81506777,-0.33783856,-0.47066945,-0.41648513,-0.22306961,0.8813512,-0.40274638,0.9143878,0.041111916,,0.04076095,-0.03383357,0.034184575,0.47999397,-0.7709999,0.418527,-0.87169707,-0.36546978,0.32645968,-0.09874126,-0.5215274,-0.8475018,,0.10694351,1.3440129,0.44342378,0.99563044,0.020221325,-0.09116534,-0.043974955,-0.75971395,-0.6487688,-0.082378544,0.64994293,-0.7555051,,-0.089731924,0.2610936,-0.07635739,0.83038974,0.23439524,0.50548166,-0.55454475,0.43585226,0.70888144,-0.054156892,-0.86896014,0.4919099,,-0.0070156036,0.4010393,-0.37950742,-0.4232656,0.8357053,-0.34991843,-0.6004189,-0.5479688,-0.5824322,-0.67848605,-0.03642588,0.73370963,,1.1524557040876493,0.37954142983663774,0.21246581987000002,0.439090741656594,0.12187975779077288,1.1980003382954827,-0.39365919938361316,,-0.8280236960414777,-0.32732803287400586,0.17562007291,-0.28769460246076745,0.2009922911549629,-0.06400263714552826,0.5610868671712492,,-0.048616146314302056,-0.07213882130805563,0.0795457676,-0.07359428191455561,,-1.9744039e-07,-1.1920929e-06,8.34465e-07,1.0,-5.248934e-06,-4.518777e-06,5.248934e-06,0.99999994,-5.662441e-07,4.5113266e-06,5.9604645e-07,1.0,185,0.573,1,1,0.548,False,-0.2547543518308557,0.7353557208867905
0.6000206079916097,14:52:16.703014,14:52:02.369849,0,,0.12248719,0.008248359,0.019168392,-0.81361777,-0.34151286,-0.47052652,-0.41465855,-0.22642738,0.88135624,-0.40753448,0.9121949,0.042613924,,0.040759303,-0.033837892,0.034186065,0.4799863,-0.7710052,0.418526,-0.87170327,-0.36547515,0.32643706,-0.09872365,-0.52151585,-0.84751105,,0.10694351,1.3440129,0.44342378,0.99563044,0.020221325,-0.09116534,-0.043974955,-0.75971395,-0.6487688,-0.082378544,0.64994293,-0.7555051,,-0.08977743,0.2611545,-0.07650651,0.8295107,0.23810595,0.5051906,-0.55631834,0.43198398,0.70985895,-0.049212594,-0.8698824,0.49079806,,-0.007013888,0.4010384,-0.37951186,-0.4232594,0.8357097,-0.34991542,-0.60040665,-0.5479614,-0.5824519,-0.6785008,-0.036436696,0.73369545,,1.152471149553398,0.37953370710376355,0.21231026507000003,0.4378326019956868,0.12707194478185962,1.1991572548042957,-0.39300582311907584,,-0.8280159733086034,-0.3273512010726285,0.17561748033000002,-0.28769460246076745,0.2009922911549629,-0.06400263714552826,0.5610868671712492,,-0.048616146314302056,-0.07213882130805563,0.0795457676,-0.07359428191455561,,-1.9744039e-07,-1.1920929e-06,8.34465e-07,1.0,-5.248934e-06,-4.518777e-06,5.248934e-06,0.99999994,-5.662441e-07,4.5113266e-06,5.9604645e-07,1.0,198,0.614,1,1,0.589,False,-0.2543373078012081,0.7350177594813347
0.6315120469953399,14:52:16.735585,14:52:02.786868,0,,0.122485235,0.008170262,0.019342259,-0.81278217,-0.3434074,-0.47059178,-0.41447723,-0.22677746,0.88135153,-0.40938213,0.9113963,0.04198599,,0.040759236,-0.033842094,0.03418976,0.4799755,-0.770971,0.41860136,-0.8717115,-0.36544752,0.32644597,-0.098703355,-0.5215857,-0.8474703,,0.10694351,1.3440129,0.44342378,0.99563044,0.020221325,-0.09116534,-0.043974955,-0.75971395,-0.6487688,-0.082378544,0.64994293,-0.7555051,,-0.08979646,0.2612085,-0.07668831,0.82887226,0.2400517,0.5053176,-0.55740786,0.4312533,0.70944846,-0.0476156,-0.86971015,0.49126062,,-0.0070139756,0.4010393,-0.3795174,-0.42325023,0.83568114,-0.34999475,-0.6003929,-0.54800904,-0.58242124,-0.6785187,-0.036375556,0.7336819,,1.152509763217769,0.37953370710376355,0.21212230302,0.4367841522782643,0.12884821927881035,1.1984439307175072,-0.39316916718521,,-0.8280236960414777,-0.3273743692712512,0.17561359146000002,-0.28769460246076745,0.2009922911549629,-0.06408431588566885,0.5609235231051148,,-0.048616146314302056,-0.07213882130805563,0.0795457676,-0.07359428191455561,,-1.9744039e-07,-1.1920929e-06,8.34465e-07,1.0,-5.248934e-06,-4.518777e-06,5.248934e-06,0.99999994,-5.662441e-07,4.5113266e-06,5.9604645e-07,1.0,206,0.638,1,1,0.613,False,-0.25451604095677105,0.7353557208867905
0.6640862990170717,14:52:16.765315,14:52:02.786868,0,,0.1224937,0.008101299,0.019526944,-0.81097585,-0.34802884,-0.47031283,-0.41426036,-0.2260921,0.88162947,-0.4131664,0.9098122,0.039180517,,0.040759347,-0.03384351,0.034192562,0.47997084,-0.7709692,0.41861004,-0.8717149,-0.36544505,0.3264396,-0.098695695,-0.52159005,-0.8474685,,0.10694351,1.3440129,0.44342378,0.99563044,0.020221325,-0.09116534,-0.043974955,-0.75971395,-0.6487688,-0.082378544,0.64994293,-0.7555051,,-0.08982649,0.2612762,-0.076871224,0.8274631,0.2448349,0.5053323,-0.5597592,0.43087542,0.7078248,-0.044435035,-0.8685633,0.4935821,,-0.0070142825,0.40104085,-0.37952012,-0.42324615,0.83567965,-0.35000318,-0.60038775,-0.54801154,-0.5824241,-0.67852575,-0.036371145,0.7336756,,1.1525638223478885,0.37954142983663774,0.21193174839,0.43447756289993444,0.1324007682727118,1.1953837077411191,-0.39349585531747855,,-0.8280314187743519,-0.32738209200412544,0.17561099888,-0.28769460246076745,0.2009922911549629,-0.06408431588566885,0.5609235231051148,,-0.048616146314302056,-0.07213882130805563,0.0795457676,-0.07359428191455561,,-1.9744039e-07,-1.1920929e-06,8.34465e-07,1.0,-5.248934e-06,-4.518777e-06,5.248934e-06,0.99999994,-5.662441e-07,4.5113266e-06,5.9604645e-07,1.0,219,0.679,1,1,0.654,False,-0.254218152364166,0.7347763584774372
0.6938152869988699,14:52:16.799129,14:52:02.786868,0,,0.122496635,0.008034751,0.019719422,-0.80877334,-0.35209474,-0.47107854,-0.41491836,-0.22607136,0.88132536,-0.41680726,0.9082516,0.03674975,,0.04075224,-0.033844925,0.034194827,0.48002443,-0.7709383,0.41860557,-0.8716719,-0.36541453,0.32658854,-0.098814934,-0.52165717,-0.8474133,,0.10694351,1.3440129,0.44342378,0.99563044,0.020221325,-0.09116534,-0.043974955,-0.75971395,-0.6487688,-0.082378544,0.64994293,-0.7555051,,-0.08985168,0.26135093,-0.077059016,0.82560444,0.24903211,0.50632036,-0.5626923,0.42999268,0.70603377,-0.041888975,-0.86780715,0.49513233,,-0.007007371,0.40104282,-0.3795226,-0.42328998,0.8356539,-0.35001168,-0.60047066,-0.54805493,-0.58229786,-0.6784251,-0.036309112,0.7337718,,1.1526410496766308,0.3795800435010089,0.21173471231000002,0.4313322137476666,0.1354067712675515,1.1930141925999385,-0.39365919938361316,,-0.828000527842855,-0.32738981473699963,0.17560581372,-0.28769460246076745,0.2011289276547283,-0.06419573378936524,0.5612502112373835,,-0.048616146314302056,-0.07213882130805563,0.0795457676,-0.07359428191455561,,-1.9744039e-07,-1.1920929e-06,8.34465e-07,1.0,-5.248934e-06,-4.518777e-06,5.248934e-06,0.99999994,-5.662441e-07,4.5113266e-06,5.9604645e-07,1.0,227,0.704,1,1,0.679,False,-0.254694774112334,0.7354522812883495
0.7276052420202177,14:52:16.829325,14:52:02.786868,0,,0.122506276,0.007972971,0.0199617,-0.8083917,-0.35484388,-0.46966887,-0.41340297,-0.22576371,0.88211596,-0.4190475,0.90725774,0.035811782,,0.04075088,-0.03384795,0.034198105,0.48001826,-0.77094,0.41860932,-0.87167674,-0.36541602,0.32657412,-0.09880227,-0.5216536,-0.847417,,0.10694351,1.3440129,0.44342378,0.99563044,0.020221325,-0.09116534,-0.043974955,-0.75971395,-0.6487688,-0.082378544,0.64994293,-0.7555051,,-0.089888245,0.26146153,-0.077280454,0.8255194,0.25187784,0.5050498,-0.5630123,0.42965847,0.7059821,-0.039177686,-0.8671512,0.4965017,,-0.0070061814,0.40104407,-0.3795269,-0.42328486,0.83565533,-0.35001436,-0.60046196,-0.5480525,-0.58230907,-0.678436,-0.036312312,0.7337616,,1.1527646134026184,0.3797808345557387,0.21149619495000002,0.4313322137476666,0.13800286476309484,1.1913056461304092,-0.39349585531747877,,-0.828000527842855,-0.32740526020274807,0.17560192485,-0.28769460246076745,0.2011289276547283,-0.06419573378936524,0.5612502112373835,,-0.048616146314302056,-0.07213882130805563,0.0795457676,-0.07359428191455561,,-1.9744039e-07,-1.1920929e-06,8.34465e-07,1.0,-5.248934e-06,-4.518777e-06,5.248934e-06,0.99999994,-5.662441e-07,4.5113266e-06,5.9604645e-07,1.0,240,0.745,1,1,0.72,False,-0.25481392954937654,0.7347280782766576
0.7578254239924718,14:52:16.869155,14:52:02.931367,0,,0.1225612,0.007906541,0.020307422,-0.80545616,-0.36171696,-0.46946922,-0.41269854,-0.22619542,0.88233525,-0.42534733,0.9044316,0.032910317,,0.040750556,-0.033857442,0.034200966,0.47999677,-0.77094626,0.4186227,-0.8716936,-0.36542115,0.32652327,-0.09875813,-0.52164084,-0.84743,,0.10694351,1.3440129,0.44342378,0.99563044,0.020221325,-0.09116534,-0.043974955,-0.75971395,-0.6487688,-0.082378544,0.64994293,-0.7555051,,-0.089980334,0.26163462,-0.07757797,0.8232608,0.25896943,0.50515,-0.56666416,0.42768976,0.7042537,-0.033667322,-0.8660348,0.4988489,,-0.0070056566,0.40104142,-0.37953645,-0.42326692,0.8356605,-0.35002378,-0.60043156,-0.5480439,-0.5823485,-0.67847407,-0.03632352,0.7337258,,1.1528263952656121,0.3801592484665757,0.21117082616000002,0.42776748470842973,0.14374159775324336,1.1878512752772683,-0.3939858875158815,,-0.828000527842855,-0.32745931933286765,0.17559803598,-0.28769460246076745,0.2011289276547283,-0.06419573378936524,0.5612502112373835,,-0.048616146314302056,-0.07213882130805563,0.0795457676,-0.07359428191455561,,-1.9744039e-07,-1.1920929e-06,8.34465e-07,1.0,-5.248934e-06,-4.518777e-06,5.248934e-06,0.99999994,-5.662441e-07,4.5113266e-06,5.9604645e-07,1.0,265,0.823,1,1,0.798,False,-0.2550522404234603,0.73453495747354
0.7976580900140107,14:52:16.938644,14:52:02.931367,0,,0.12262294,0.007874846,0.020691708,-0.80165374,-0.3711809,-0.4685895,-0.40954313,-0.22999537,0.882823,-0.43546033,0.8996259,0.032361925,,0.04074819,-0.03385807,0.034205496,0.47999677,-0.7710487,0.4184338,-0.8716936,-0.3655012,0.32643378,-0.09875813,-0.5214332,-0.8475578,,0.10694351,1.3440129,0.44342378,0.99563044,0.020221325,-0.09116534,-0.043974955,-0.75971395,-0.6487688,-0.082378544,0.64994293,-0.7555051,,-0.090081364,0.26185897,-0.077881195,0.82063544,0.26867318,0.5043532,-0.57096446,0.42195246,0.7042412,-0.023602372,-0.86589307,0.49967197,,-0.007003716,0.40104517,-0.37953946,-0.42326692,0.8357462,-0.349819,-0.60043156,-0.5479012,-0.5824828,-0.67847407,-0.03650331,0.7337169,,1.1530735227175872,0.38057627604178385,0.21083508705,0.4239930657257082,0.1541259717354168,1.1859994925477255,-0.39349585531747855,,-0.828000527842855,-0.32745931933286765,0.17559285082,-0.28769460246076745,0.2011289276547283,-0.06395069756894359,0.560433490906712,,-0.048616146314302056,-0.07213882130805563,0.0795457676,-0.07359428191455561,,-1.9744039e-07,-1.1920929e-06,8.34465e-07,1.0,-5.248934e-06,-4.518777e-06,5.248934e-06,0.99999994,-5.662441e-07,4.5113266e-06,5.9604645e-07,1.0,269,0.835,1,1,0.81,False,-0.2547543518308557,0.7347763584774372
0.8671488160034642,14:52:16.967204,14:52:02.931367,0,,0.12261219,0.007873759,0.020845741,-0.79969007,-0.37470442,-0.4691401,-0.409815,-0.23040438,0.8825901,-0.43880227,0.89805925,0.030692399,,0.040745832,-0.03385984,0.034204304,0.4800441,-0.77104753,0.4183817,-0.87165505,-0.36549166,0.32654732,-0.09886837,-0.5214415,-0.8475398,,0.10694351,1.3440129,0.44342378,0.99563044,0.020221325,-0.09116534,-0.043974955,-0.75971395,-0.6487688,-0.082378544,0.64994293,-0.7555051,,-0.09008603,0.26195875,-0.077998966,0.81900275,0.27231157,0.5050553,-0.5734031,0.42072415,0.70299363,-0.021055672,-0.86535406,0.50071853,,-0.007001167,0.40104347,-0.37954032,-0.42330518,0.8357454,-0.34977472,-0.60050863,-0.5479033,-0.5824014,-0.678382,-0.036490794,0.7338026,,1.1533283729024366,0.38074617616501677,0.21070286547000003,0.4212670964604094,0.15699533823049108,1.1840681102708035,-0.39431257564815003,,-0.8279850823771066,-0.3274747647986161,0.17559285082,-0.28769460246076745,0.2012655641544938,-0.06398043673249945,0.5602701468405777,,-0.048616146314302056,-0.07213882130805563,0.0795457676,-0.07359428191455561,,-1.9744039e-07,-1.1920929e-06,8.34465e-07,1.0,-5.248934e-06,-4.518777e-06,5.248934e-06,0.99999994,-5.662441e-07,4.5113266e-06,5.9604645e-07,1.0,286,0.888,1,1,0.863,False,-0.25642252794944387,0.7344866772727605
0.8956111489969771,14:52:17.010417,14:52:02.931367,0,,0.122598946,0.007871538,0.021153644,-0.7951877,-0.384713,-0.4686923,-0.40806592,-0.23220614,0.8829284,-0.44850713,0.8933511,0.027659029,,0.04074524,-0.033860005,0.034205437,0.4800441,-0.77104753,0.4183817,-0.87165505,-0.36549166,0.32654732,-0.09886837,-0.5214415,-0.8475398,,0.10694351,1.3440129,0.44342378,0.99563044,0.020221325,-0.09116534,-0.043974955,-0.75971395,-0.6487688,-0.082378544,0.64994293,-0.7555051,,-0.09010355,0.2621579,-0.07823354,0.8155746,0.28264165,0.5049275,-0.57852465,0.41658166,0.7012624,-0.012137585,-0.8640448,0.5032686,,-0.007000682,0.4010444,-0.37954107,-0.42330518,0.8357454,-0.34977472,-0.60050863,-0.5479033,-0.5824014,-0.678382,-0.036490794,0.7338026,,1.1538766869365067,0.38094696721974664,0.21044490376000002,0.4160248478732963,0.16669652971383736,1.1797513036745424,-0.39496595191268713,,-0.8279850823771066,-0.3274747647986161,0.17559155453000003,-0.28769460246076745,0.2012655641544938,-0.06398043673249945,0.5602701468405777,,-0.048616146314302056,-0.07213882130805563,0.0795457676,-0.07359428191455561,,-1.9744039e-07,-1.1920929e-06,8.34465e-07,1.0,-5.248934e-06,-4.518777e-06,5.248934e-06,0.99999994,-5.662441e-07,4.5113266e-06,5.9604645e-07,1.0,303,0.941,1,1,0.916,False,-0.2555288621716292,0.73453495747354
0.9388842710177414,14:52:17.067373,14:52:03.131214,0,,0.12253094,0.007897213,0.021582529,-0.7900809,-0.39522833,-0.46857962,-0.4045056,-0.23821181,0.88296676,-0.46059453,0.8871582,0.02833429,,0.040745657,-0.0338613,0.034208417,0.47987583,-0.77112675,0.4184289,-0.8717377,-0.3652968,0.32654476,-0.098956496,-0.5214612,-0.8475175,,0.10694351,1.3440129,0.44342378,0.99563044,0.020221325,-0.09116534,-0.043974955,-0.75971395,-0.6487688,-0.082378544,0.64994293,-0.7555051,,-0.09007734,0.26245853,-0.07854682,0.8118681,0.2934237,0.50475025,-0.5838409,0.40829858,0.70172787,-0.00018519872,-0.8644043,0.50279737,,-0.0070013157,0.40104616,-0.37954375,-0.42312515,0.8358161,-0.3498237,-0.6006082,-0.5478071,-0.5823892,-0.6784061,-0.03631652,0.73378897,,1.1549347013402753,0.38124043106896716,0.21009749804000002,0.4105729093426987,0.17954036069178875,1.1784260396228217,-0.39431257564815003,,-0.8279928051099809,-0.32748248753149034,0.17558896195,-0.2874849125172829,0.2012655641544938,-0.06398043673249945,0.5602701468405777,,-0.048616146314302056,-0.07213882130805563,0.0795457676,-0.07359428191455561,,-1.9744039e-07,-1.1920929e-06,8.34465e-07,1.0,-5.248934e-06,-4.518777e-06,5.248934e-06,0.99999994,-5.662441e-07,4.5113266e-06,5.9604645e-07,1.0,324,1.007,1,1,0.982,False,-0.2545756186752919,0.7341487158673043
0.9958489460113924,14:52:17.136387,14:52:03.131214,0,,0.12247652,0.007909849,0.02217777,-0.7839582,-0.40775597,-0.46812886,-0.39703497,-0.25038147,0.8829905,-0.47725534,0.8780912,0.0343951,,0.040725335,-0.033843793,0.034200788,0.47988033,-0.771166,0.41835132,-0.8717338,-0.36532497,0.3265239,-0.09896973,-0.52138335,-0.84756374,,0.10694914,1.3440099,0.44342205,0.9956293,0.020201556,-0.09118222,-0.04400086,-0.7597145,-0.6487664,-0.082378544,0.64994293,-0.7555051,,-0.09008383,0.2628575,-0.078994095,0.8077801,0.3061924,0.5037237,-0.5892137,0.39351913,0.70566976,0.01784581,-0.8668269,0.4982897,,-0.0069856877,0.40104935,-0.3795286,-0.4231518,0.8358376,-0.34974006,-0.6006109,-0.54776907,-0.5824222,-0.67838717,-0.036395293,0.7338026,,1.1561394476686544,0.3816033995140557,0.20959453752,0.4055403506990701,0.19839619765941952,1.1815914429246233,-0.39414923158201587,,-0.8279696369113582,-0.32749021026436453,0.17558766566000003,-0.2874849125172829,0.2012655641544938,-0.06389875799235886,0.5604334909067121,,-0.048616146314302056,-0.07213882130805563,0.0795457676,-0.07359428191455561,,5.684793e-06,1.1920929e-07,3.5762787e-06,1.0,-2.4903566e-05,-2.1424145e-05,2.4903566e-05,0.99999994,-2.7418137e-06,2.1424145e-05,2.7418137e-06,1.0,333,1.036,1,1,1.011,False,-0.25558843989015,0.7342935564696424
1.0648895530030131,14:52:17.163386,14:52:03.131214,0,,0.12243797,0.00787881,0.022536755,-0.78055316,-0.4153157,-0.46717203,-0.39443362,-0.25255027,0.8835386,-0.48493177,0.87391716,0.033314347,,0.040727835,-0.033846177,0.03420204,0.47975466,-0.77120167,0.4184296,-0.8717809,-0.36508432,0.32666725,-0.09916413,-0.521499,-0.8474699,,0.10694914,1.3440099,0.44342205,0.9956293,0.020201556,-0.09118222,-0.04400086,-0.7597145,-0.6487664,-0.082378544,0.64994293,-0.7555051,,-0.090082645,0.26306877,-0.07928851,0.8052815,0.31401798,0.50290596,-0.5923365,0.38937506,0.7053542,0.02567487,-0.86589825,0.49956083,,-0.0069881757,0.40104884,-0.37953123,-0.42300552,0.8358722,-0.34983426,-0.60078526,-0.5477338,-0.58227557,-0.678324,-0.036130514,0.7338741,,1.156772711764341,0.38180419056878556,0.20927824276,0.40218531160331766,0.20673102414511138,1.1788788878061696,-0.39545598411109006,,-0.8279850823771066,-0.3275133784629872,0.17558766566000003,-0.2872752225737984,0.20140220065425923,-0.06401017589605526,0.5604334909067121,,-0.048616146314302056,-0.07213882130805563,0.0795457676,-0.07359428191455561,,5.684793e-06,1.1920929e-07,3.5762787e-06,1.0,-2.4903566e-05,-2.1424145e-05,2.4903566e-05,0.99999994,-2.7418137e-06,2.1424145e-05,2.7418137e-06,1.0,347,1.081,1,1,1.056,False,-0.2552905512975445,0.7337141940602891
1.091851683013374,14:52:17.201121,14:52:03.131214,0,,0.12240872,0.00784415,0.02288732,-0.7773197,-0.4214666,-0.46705467,-0.39052513,-0.25877956,0.8834723,-0.49321812,0.8691369,0.036561042,,0.04073084,-0.033851005,0.034202814,0.47973913,-0.77119994,0.41845065,-0.8717925,-0.3650809,0.32663992,-0.09913617,-0.52150404,-0.84747,,0.10694914,1.3440099,0.44342205,0.9956293,0.020201556,-0.09118222,-0.04400086,-0.7597145,-0.6487664,-0.082378544,0.64994293,-0.7555051,,-0.09009003,0.26327154,-0.07957794,0.803076,0.32031104,0.50246364,-0.59485984,0.38171577,0.7074142,0.03479428,-0.86700284,0.49708697,,-0.0069909957,0.4010466,-0.37953573,-0.42299226,0.83587074,-0.34985378,-0.60076636,-0.54773635,-0.58229256,-0.67834896,-0.036124878,0.73385125,,1.1573750849285305,0.3819509224933958,0.20897102203,0.39966903228150347,0.21629557912869224,1.180636047143866,-0.3920257587222702,,-0.828000527842855,-0.3275442693944841,0.17558766566000003,-0.2872752225737984,0.20140220065425923,-0.06401017589605532,0.5601068027744435,,-0.048616146314302056,-0.07213882130805563,0.0795457676,-0.07359428191455561,,5.684793e-06,1.1920929e-07,3.5762787e-06,1.0,-2.4903566e-05,-2.1424145e-05,2.4903566e-05,0.99999994,-2.7418137e-06,2.1424145e-05,2.7418137e-06,1.0,356,1.109,1,1,1.084,False,-0.25588632848275505,0.7332313920524944
1.1296244109980762,14:52:17.233861,14:52:03.131214,0,,0.12235369,0.007775426,0.023411348,-0.77341557,-0.42814794,-0.46745875,-0.3845759,-0.26929948,0.8829378,-0.5039143,0.8626512,0.043624908,,0.04073059,-0.033856295,0.03420186,0.47972843,-0.7712745,0.41832557,-0.87180114,-0.36514035,0.32655045,-0.09911227,-0.5213522,-0.84756625,,0.10694914,1.3440099,0.44342205,0.9956293,0.020201556,-0.09118222,-0.04400086,-0.7597145,-0.6487664,-0.082378544,0.64994293,-0.7555051,,-0.09009065,0.26356217,-0.0800228,0.80054003,0.32709736,0.5021384,-0.59742355,0.36970696,0.7116192,0.04712471,-0.86966896,0.49138087,,-0.0069903834,0.40104303,-0.3795397,-0.4229835,0.835933,-0.34971556,-0.60074973,-0.5476326,-0.58240736,-0.67836916,-0.036257163,0.7338261,,1.1582709219419405,0.3821439908152514,0.20850176505,0.3971527529596891,0.22913941010664365,1.1857634035632496,-0.391862414656136,,-0.8279928051099809,-0.32757516032598105,0.17558766566000003,-0.2872752225737984,0.20140220065425923,-0.06384681841577419,0.5597801146421749,,-0.048616146314302056,-0.07213882130805563,0.0795457676,-0.07359428191455561,,5.684793e-06,1.1920929e-07,3.5762787e-06,1.0,-2.4903566e-05,-2.1424145e-05,2.4903566e-05,0.99999994,-2.7418137e-06,2.1424145e-05,2.7418137e-06,1.0,370,1.154,1,1,1.129,False,-0.25481392954937654,0.7339073148634068
1.1622741809987929,14:52:17.273619,14:52:03.334702,0,,0.12225187,0.0076907426,0.023888618,-0.77123034,-0.43234006,-0.4672108,-0.38232103,-0.2722339,0.8830171,-0.5089542,0.85963404,0.044662207,,0.040727638,-0.033858217,0.03420186,0.47977576,-0.7712391,0.41833648,-0.8717625,-0.36510417,0.32669377,-0.09922245,-0.5214298,-0.8475056,,0.10694914,1.3440099,0.44342205,0.9956293,0.020201556,-0.09118222,-0.04400086,-0.7597145,-0.6487664,-0.082378544,0.64994293,-0.7555051,,-0.09004087,0.2638116,-0.08044781,0.7989755,0.3314246,0.5017926,-0.59905744,0.36563802,0.71234757,0.05261504,-0.86975086,0.4906782,,-0.00698735,0.40104228,-0.3795413,-0.42302176,0.8359036,-0.34973958,-0.60082674,-0.5476822,-0.5822812,-0.6782771,-0.036184702,0.73391473,,1.1591667589553505,0.3823447818699813,0.20805065613,0.39505585352484385,0.2350147795965576,1.1853014069317531,-0.3946392637804186,,-0.8279773596442324,-0.3275906057917295,0.17558636937000002,-0.2872752225737984,0.20153883715402465,-0.06395823631947059,0.5597801146421749,,-0.048616146314302056,-0.07213882130805563,0.0795457676,-0.07359428191455561,,5.684793e-06,1.1920929e-07,3.5762787e-06,1.0,-2.4903566e-05,-2.1424145e-05,2.4903566e-05,0.99999994,-2.7418137e-06,2.1424145e-05,2.7418137e-06,1.0,379,1.183,1,1,1.158,False,-0.25672041654204936,0.7337624742610682
1.2020261849975213,14:52:17.303808,14:52:03.334702,0,,0.122216284,0.0076461732,0.024257436,-0.7689251,-0.4377358,-0.46598467,-0.37784934,-0.27680805,0.88351977,-0.5157364,0.85543245,0.04744634,,0.040728934,-0.033859365,0.034202337,0.4797711,-0.7712373,0.41834506,-0.871766,-0.36510172,0.32668737,-0.09921482,-0.5214342,-0.8475038,,0.10694914,1.3440099,0.44342205,0.9956293,0.020201556,-0.09118222,-0.04400086,-0.7597145,-0.6487664,-0.082378544,0.64994293,-0.7555051,,-0.09004425,0.26401892,-0.08075812,0.79756993,0.33698803,0.5003212,-0.60014755,0.359589,0.7145059,0.06086993,-0.87013495,0.48903993,,-0.006988627,0.40104195,-0.37954253,-0.4230177,0.83590215,-0.349748,-0.6008217,-0.5476848,-0.58228403,-0.6782841,-0.036180288,0.7339085,,1.1596224001949298,0.38247606832884307,0.20780565732000003,0.3946364736378748,0.2411634220860024,1.1860867918153943,-0.3952926400449559,,-0.8279850823771066,-0.3275983285246037,0.17558636937000002,-0.2872752225737984,0.20153883715402465,-0.06395823631947059,0.5597801146421749,,-0.048616146314302056,-0.07213882130805563,0.0795457676,-0.07359428191455561,,5.684793e-06,1.1920929e-07,3.5762787e-06,1.0,-2.4903566e-05,-2.1424145e-05,2.4903566e-05,0.99999994,-2.7418137e-06,2.1424145e-05,2.7418137e-06,1.0,393,1.228,1,1,1.203,False,-0.2552905512975445,0.7337624742610682
1.2322986680082977,14:52:17.344682,14:52:03.334702,0,,0.12213661,0.007585913,0.024744153,-0.765803,-0.44345313,-0.46572012,-0.3746302,-0.28098616,0.8835716,-0.5226835,0.85111463,0.04904893,,0.040729143,-0.03386066,0.034202218,0.47976804,-0.7712382,0.41834697,-0.87176836,-0.36510247,0.32668012,-0.099208534,-0.52143234,-0.8475057,,0.10694914,1.3440099,0.44342205,0.9956293,0.020201556,-0.09118222,-0.04400086,-0.7597145,-0.6487664,-0.082378544,0.64994293,-0.7555051,,-0.09001625,0.26429236,-0.081172004,0.79530936,0.34290153,0.4999016,-0.6023187,0.353774,0.71558094,0.06852162,-0.8702083,0.4878958,,-0.00698876,0.40104115,-0.37954357,-0.42301515,0.83590287,-0.34974933,-0.6008173,-0.54768354,-0.5822897,-0.67828953,-0.036181886,0.73390335,,1.1606958600644468,0.3828081458424347,0.20728195616000003,0.39128143454212244,0.2515477960681759,1.1860319413689442,-0.3952926400449557,,-0.8279850823771066,-0.32760605125747794,0.17558636937000002,-0.2872752225737984,0.20153883715402465,-0.06395823631947059,0.5597801146421749,,-0.048616146314302056,-0.07213882130805563,0.0795457676,-0.07359428191455561,,5.684793e-06,1.1920929e-07,3.5762787e-06,1.0,-2.4903566e-05,-2.1424145e-05,2.4903566e-05,0.99999994,-2.7418137e-06,2.1424145e-05,2.7418137e-06,1.0,402,1.257,1,1,1.232,False,-0.25672041654204936,0.7336176336587301
1.2731589570175856,14:52:17.379543,14:52:03.334702,0,,0.12208694,0.0075457543,0.025116473,-0.76320535,-0.4477558,-0.4658673,-0.37127936,-0.28619385,0.8833145,-0.5288375,0.84711736,0.05218208,,0.040729348,-0.033861957,0.03420216,0.47976497,-0.7712732,0.4182859,-0.87177086,-0.3651299,0.32664305,-0.099202156,-0.5213613,-0.84755015,,0.10694914,1.3440099,0.44342205,0.9956293,0.020201556,-0.09118222,-0.04400086,-0.7597145,-0.6487664,-0.082378544,0.64994293,-0.7555051,,-0.090005785,0.26450574,-0.08148356,0.7934977,0.34732822,0.49972448,-0.60385853,0.34734586,0.71742994,0.07560645,-0.8710419,0.48535523,,-0.006988893,0.40104038,-0.37954462,-0.42301258,0.83593214,-0.3496824,-0.600813,-0.5476348,-0.58234006,-0.678295,-0.036243424,0.7338953,,1.1613754605573787,0.38302438236291303,0.20695140221000002,0.38939422505076177,0.2589261670555097,1.187774854882691,-0.39610936037562716,,-0.8279850823771066,-0.32761377399035213,0.17558636937000002,-0.2872752225737984,0.20153883715402465,-0.06387655757933006,0.5596167705760406,,-0.048616146314302056,-0.07213882130805563,0.0795457676,-0.07359428191455561,,5.684793e-06,1.1920929e-07,3.5762787e-06,1.0,-2.4903566e-05,-2.1424145e-05,2.4903566e-05,0.99999994,-2.7418137e-06,2.1424145e-05,2.7418137e-06,1.0,416,1.302,1,1,1.277,False,-0.25588632848275505,0.7322175078361259
1.3080423650098965,14:52:17.425815,14:52:03.463633,0,,0.121994436,0.0075169653,0.025663301,-0.7587434,-0.45603085,-0.46512842,-0.36362863,-0.29591164,0.8832952,-0.54044664,0.8393284,0.05869496,,0.040730257,-0.03386327,0.034202695,0.4798075,-0.7712641,0.41825393,-0.87173533,-0.36511084,0.32675907,-0.09930831,-0.5213882,-0.8475212,,0.10694914,1.3440099,0.44342205,0.9956293,0.020201556,-0.09118222,-0.04400086,-0.7597145,-0.6487664,-0.082378544,0.64994293,-0.7555051,,-0.089969516,0.26484257,-0.0819236,0.79057854,0.35586601,0.49834222,-0.6057421,0.33514312,0.721634,0.08978904,-0.8723752,0.48051998,,-0.0069897766,0.40104002,-0.37954602,-0.42304632,0.83592474,-0.34965932,-0.6008877,-0.54764813,-0.58225036,-0.67820776,-0.03621286,0.73397744,,1.1626188205501289,0.38324834161626553,0.20648992297000002,0.38708763567243193,0.2736829090301772,1.1913423606503246,-0.39235244685453874,,-0.8279928051099809,-0.3276292194561006,0.17558636937000002,-0.2872752225737984,0.2016754736537901,-0.06390629674288587,0.5578199858485636,,-0.048616146314302056,-0.07213882130805563,0.0795457676,-0.07359428191455561,,5.684793e-06,1.1920929e-07,3.5762787e-06,1.0,-2.4903566e-05,-2.1424145e-05,2.4903566e-05,0.99999994,-2.7418137e-06,2.1424145e-05,2.7418137e-06,1.0,425,1.331,1,1,1.306,False,-0.256065061638318,0.7326037494423616
1.3542378320125863,14:52:17.454196,14:52:03.463633,0,,0.12190993,0.0075169504,0.02590008,-0.75581574,-0.4614578,-0.46454206,-0.36174434,-0.2970849,0.88367504,-0.54578704,0.83594096,0.057611555,,0.040729165,-0.033863403,0.0342021,0.47980914,-0.7713351,0.4181212,-0.87173426,-0.3651674,0.3266987,-0.09930968,-0.5212436,-0.84761,,0.10694914,1.3440099,0.44342205,0.9956293,0.020201556,-0.09118222,-0.04400086,-0.7597145,-0.6487664,-0.082378544,0.64994293,-0.7555051,,-0.08990904,0.26499915,-0.08211077,0.7882885,0.36154082,0.49788505,-0.6078741,0.33220467,0.7211998,0.09534341,-0.8711649,0.48164442,,-0.0069886325,0.40103957,-0.37954584,-0.42304784,0.83598405,-0.3495157,-0.6008885,-0.54754925,-0.58234257,-0.67820615,-0.036338776,0.7339727,,1.1633679256389287,0.3832792325477624,0.20629418318,0.3841519764636486,0.279831551519622,1.188697238448062,-0.3957826722433586,,-0.8279850823771066,-0.3276292194561006,0.17558636937000002,-0.2872752225737984,0.2016754736537901,-0.06374293926260474,0.5581466739808322,,-0.048616146314302056,-0.07213882130805563,0.0795457676,-0.07359428191455561,,5.684793e-06,1.1920929e-07,3.5762787e-06,1.0,-2.4903566e-05,-2.1424145e-05,2.4903566e-05,0.99999994,-2.7418137e-06,2.1424145e-05,2.7418137e-06,1.0,439,1.376,1,1,1.351,False,-0.2557075953271921,0.7323140682376845
1.382693677995121,14:52:17.496411,14:52:03.463633,0,,0.121799916,0.007496774,0.02617149,-0.7533723,-0.46628156,-0.46369353,-0.36004227,-0.29757592,0.88420475,-0.55027235,0.83308464,0.056304246,,0.04073046,-0.033864565,0.034202576,0.47980446,-0.7713333,0.41812983,-0.8717377,-0.36516494,0.3266922,-0.09930211,-0.52124786,-0.8476082,,0.10694914,1.3440099,0.44342205,0.9956293,0.020201556,-0.09118222,-0.04400086,-0.7597145,-0.6487664,-0.082378544,0.64994293,-0.7555051,,-0.089827605,0.26516372,-0.08233981,0.7863861,0.36659572,0.49719667,-0.60957366,0.33011204,0.720726,0.10008447,-0.8698469,0.4830626,,-0.00698991,0.40103924,-0.37954706,-0.42304376,0.83598256,-0.3495241,-0.6008834,-0.5475518,-0.5823454,-0.6782132,-0.03633436,0.7339664,,1.1642174262550933,0.3832792325477624,0.20605566582,0.3816356971418343,0.28516037501047425,1.185740478786291,-0.39496595191268713,,-0.8279928051099809,-0.3276369421889748,0.17558636937000002,-0.2872752225737984,0.2016754736537901,-0.0637429392626048,0.5584733621131007,,-0.048616146314302056,-0.07213882130805563,0.0795457676,-0.07359428191455561,,5.684793e-06,1.1920929e-07,3.5762787e-06,1.0,-2.4903566e-05,-2.1424145e-05,2.4903566e-05,0.99999994,-2.7418137e-06,2.1424145e-05,2.7418137e-06,1.0,448,1.404,1,1,1.379,False,-0.25636295023092304,0.7327485900446997
1.4248847000126261,14:52:17.523578,14:52:03.463633,0,,0.12176587,0.0075010806,0.026272908,-0.75126076,-0.46991453,-0.4634519,-0.35937834,-0.29771876,0.8844267,-0.55358315,0.8309897,0.05478713,,0.04073046,-0.033864565,0.034202576,0.47980446,-0.7713333,0.41812983,-0.8717377,-0.36516494,0.3266922,-0.09930211,-0.52124786,-0.8476082,,0.10694914,1.3440099,0.44342205,0.9956293,0.020201556,-0.09118222,-0.04400086,-0.7597145,-0.6487664,-0.082378544,0.64994293,-0.7555051,,-0.08980363,0.265234,-0.08241695,0.7846477,0.37040794,0.49711767,-0.6112865,0.3287448,0.7198997,0.103231736,-0.868749,0.48437423,,-0.00698991,0.40103924,-0.37954706,-0.42304376,0.83598256,-0.3495241,-0.6008834,-0.5475518,-0.5823454,-0.6782132,-0.03633436,0.7339664,,1.1645417810358107,0.38327150981488817,0.20597659213000002,0.37932910776350454,0.28871292400437565,1.183415364471168,-0.3951292959788213,,-0.8279928051099809,-0.3276369421889748,0.17558636937000002,-0.2872752225737984,0.2016754736537901,-0.0637429392626048,0.5584733621131007,,-0.048616146314302056,-0.07213882130805563,0.0795457676,-0.07359428191455561,,5.684793e-06,1.1920929e-07,3.5762787e-06,1.0,-2.4903566e-05,-2.1424145e-05,2.4903566e-05,0.99999994,-2.7418137e-06,2.1424145e-05,2.7418137e-06,1.0,462,1.449,1,1,1.424,False,-0.25582675076423333,0.7322175078361259
1.452077719004592,14:52:17.571137,14:52:03.598107,0,,0.12174627,0.007486433,0.026509658,-0.74617445,-0.478643,-0.46273598,-0.356767,-0.2993472,0.8849342,-0.56208616,0.8254042,0.0526011,,0.040729873,-0.03386473,0.034203768,0.47980446,-0.77136743,0.41806683,-0.8717377,-0.36519164,0.3266624,-0.09930211,-0.5211787,-0.84765077,,0.10694914,1.3440099,0.44342205,0.9956293,0.020201556,-0.09118222,-0.04400086,-0.7597145,-0.6487664,-0.082378544,0.64994293,-0.7555051,,-0.089808375,0.26537758,-0.0826067,0.7805606,0.379561,0.4966473,-0.6149883,0.3241254,0.7188408,0.111867905,-0.86653113,0.48642513,,-0.0069894246,0.40104017,-0.3795478,-0.42304376,0.8360111,-0.34945583,-0.6008834,-0.54750425,-0.5823901,-0.6782132,-0.03639431,0.73396343,,1.1649819768096414,0.38327150981488817,0.20578603750000002,0.3745062390633605,0.29814084248819106,1.1794030724224402,-0.39480260784655297,,-0.8279928051099809,-0.3276369421889748,0.17558507308000001,-0.2872752225737984,0.2016754736537901,-0.06366126052246421,0.5583100180469664,,-0.048616146314302056,-0.07213882130805563,0.0795457676,-0.07359428191455561,,5.684793e-06,1.1920929e-07,3.5762787e-06,1.0,-2.4903566e-05,-2.1424145e-05,2.4903566e-05,0.99999994,-2.7418137e-06,2.1424145e-05,2.7418137e-06,1.0,471,1.478,1,1,1.453,False,-0.2561246393568388,0.7319278266314488
1.4996368850115687,14:52:17.602604,14:52:03.598107,0,,0.12175177,0.0074576586,0.02666597,-0.74308264,-0.48428214,-0.4618431,-0.3549508,-0.29983386,0.8854996,-0.5673078,0.82193094,0.05090487,,0.040728785,-0.033864878,0.03420317,0.47980607,-0.7713701,0.41806012,-0.87173665,-0.36519483,0.3266616,-0.099303424,-0.5211725,-0.84765434,,0.10694914,1.3440099,0.44342205,0.9956293,0.020201556,-0.09118222,-0.04400086,-0.7597145,-0.6487664,-0.082378544,0.64994293,-0.7555051,,-0.08983073,0.26545736,-0.08274246,0.7780923,0.38548777,0.49595517,-0.6170994,0.32165802,0.7181396,0.11730607,-0.8648325,0.4881639,,-0.0069882805,0.40103972,-0.37954763,-0.42304528,0.8360133,-0.34944877,-0.60088414,-0.5475005,-0.5823929,-0.67821157,-0.036400322,0.7339646,,1.165136431467126,0.383263787082014,0.20565122334000002,0.37178026979806167,0.304016211978105,1.176490713586727,-0.39480260784655274,,-0.8279850823771066,-0.3276369421889748,0.17558507308000001,-0.2872752225737984,0.2016754736537901,-0.06366126052246421,0.5579833299146979,,-0.048616146314302056,-0.07213882130805563,0.0795457676,-0.07359428191455561,,5.684793e-06,1.1920929e-07,3.5762787e-06,1.0,-2.4903566e-05,-2.1424145e-05,2.4903566e-05,0.99999994,-2.7418137e-06,2.1424145e-05,2.7418137e-06,1.0,485,1.523,1,1,1.498,False,-0.25642252794944387,0.7322657880369055
1.5310669580067042,14:52:17.644652,14:52:03.598107,0,,0.12177935,0.0074169636,0.026882663,-0.7385306,-0.49129063,-0.46174255,-0.35155472,-0.3037787,0.88550985,-0.5753102,0.8163039,0.051634192,,0.040728785,-0.033864878,0.03420317,0.47980607,-0.77133596,0.41812313,-0.87173665,-0.36516812,0.3266914,-0.099303424,-0.5212417,-0.8476118,,0.10694914,1.3440099,0.44342205,0.9956293,0.020201556,-0.09118222,-0.04400086,-0.7597145,-0.6487664,-0.082378544,0.64994293,-0.7555051,,-0.089881584,0.26556677,-0.08292904,0.77452374,0.39282563,0.4957832,-0.6198647,0.3152049,0.7186193,0.12601879,-0.8639062,0.4876324,,-0.0069882805,0.40103972,-0.37954763,-0.42304528,0.83598477,-0.34951705,-0.60088414,-0.54754806,-0.58234817,-0.67821157,-0.036340374,0.7339676,,1.1652754406588621,0.3832560643491397,0.20546844645,0.3682155407588248,0.31330749396215496,1.1758569890473183,-0.3957826722433586,,-0.8279850823771066,-0.3276369421889748,0.17558507308000001,-0.2872752225737984,0.2016754736537901,-0.0637429392626048,0.5578199858485636,,-0.048616146314302056,-0.07213882130805563,0.0795457676,-0.07359428191455561,,5.684793e-06,1.1920929e-07,3.5762787e-06,1.0,-2.4903566e-05,-2.1424145e-05,2.4903566e-05,0.99999994,-2.7418137e-06,2.1424145e-05,2.7418137e-06,1.0,494,1.552,1,1,1.527,False,-0.25672041654204936,0.7317347058283312
1.5731488460151013,14:52:17.673805,14:52:03.598107,0,,0.12178515,0.007416919,0.02704361,-0.7338136,-0.4996739,-0.4602648,-0.34853667,-0.3046402,0.8864064,-0.5831293,0.81087625,0.04939434,,0.040728785,-0.033864878,0.03420317,0.47980607,-0.77133596,0.41812313,-0.87173665,-0.36516812,0.3266914,-0.099303424,-0.5212417,-0.8476118,,0.10694914,1.3440099,0.44342205,0.9956293,0.020201556,-0.09118222,-0.04400086,-0.7597145,-0.6487664,-0.082378544,0.64994293,-0.7555051,,-0.08990335,0.26567134,-0.083049595,0.7707551,0.40165624,0.49457946,-0.62280214,0.31126007,0.7177985,0.13436541,-0.861272,0.49005765,,-0.0069882805,0.40103972,-0.37954763,-0.42304528,0.83598477,-0.34951705,-0.60088414,-0.54754806,-0.58234817,-0.67821157,-0.036340374,0.7339676,,1.1655380135765856,0.3832328961505171,0.20535307664000002,0.3642314318326188,0.32232550294667406,1.1716071995286956,-0.3965993925740299,,-0.8279850823771066,-0.3276369421889748,0.17558507308000001,-0.2872752225737984,0.2016754736537901,-0.0637429392626048,0.5578199858485636,,-0.048616146314302056,-0.07213882130805563,0.0795457676,-0.07359428191455561,,5.684793e-06,1.1920929e-07,3.5762787e-06,1.0,-2.4903566e-05,-2.1424145e-05,2.4903566e-05,0.99999994,-2.7418137e-06,2.1424145e-05,2.7418137e-06,1.0,508,1.597,1,1,1.572,False,-0.2559459062012759,0.7311553434189779
1.6023073719989043,14:52:17.716271,14:52:03.763945,0,,0.121797964,0.0074465126,0.027328536,-0.72332704,-0.5154907,-0.4594208,-0.34117043,-0.31165022,0.8868352,-0.60033387,0.79821265,0.049554646,,0.040728807,-0.03386762,0.034203053,0.4798471,-0.7713986,0.41796038,-0.87170255,-0.3652064,0.32673973,-0.0994046,-0.5211222,-0.8476735,,0.10694914,1.3440099,0.44342205,0.9956293,0.020201556,-0.09118222,-0.04400086,-0.7597145,-0.6487664,-0.082378544,0.64994293,-0.7555051,,-0.08994298,0.26587892,-0.083243415,0.76239026,0.41830254,0.493745,-0.6287183,0.29815552,0.7182037,0.15321365,-0.857978,0.4903053,,-0.006988153,0.40103814,-0.3795499,-0.42307794,0.83603734,-0.3493517,-0.6009553,-0.54746133,-0.5823563,-0.6781281,-0.036437344,0.7340399,,1.1661094958092784,0.38312477789027793,0.20517807749000003,0.35584383409323783,0.34268434141172466,1.168074530300419,-0.3965993925740301,,-0.8279850823771066,-0.3276601103875975,0.17558507308000001,-0.2872752225737984,0.20181211015355555,-0.06360932094587948,0.5576566417824294,,-0.048616146314302056,-0.07213882130805563,0.0795457676,-0.07359428191455561,,5.684793e-06,1.1920929e-07,3.5762787e-06,1.0,-2.4903566e-05,-2.1424145e-05,2.4903566e-05,0.99999994,-2.7418137e-06,2.1424145e-05,2.7418137e-06,1.0,517,1.625,1,1,1.6,False,-0.25672041654204936,0.7321209474345669
1.6447685229941271,14:52:17.746712,14:52:03.763945,0,,0.12173319,0.007461071,0.027673185,-0.71331686,-0.5309471,-0.45746508,-0.33463043,-0.3155024,0.88796425,-0.61579335,0.7864816,0.047381997,,0.040729016,-0.03386893,0.034202933,0.479844,-0.77139956,0.41796225,-0.87170494,-0.3652071,0.32673243,-0.099398255,-0.5211203,-0.8476753,,0.10694914,1.3440099,0.44342205,0.9956293,0.020201556,-0.09118222,-0.04400086,-0.7597145,-0.6487664,-0.082378544,0.64994293,-0.7555051,,-0.089912124,0.2661162,-0.08350017,0.75428647,0.43464765,0.49207044,-0.6341113,0.28804284,0.71758914,0.17016107,-0.8532952,0.4928818,,-0.006988286,0.40103737,-0.37955093,-0.42307538,0.83603805,-0.34935305,-0.60095096,-0.5474601,-0.58236194,-0.6781336,-0.03643894,0.7340348,,1.1670362237541851,0.3829626004999192,0.20493826384000002,0.34745623635385686,0.36126690537982453,1.1614979631124647,-0.39414923158201565,,-0.8279850823771066,-0.3276678331204717,0.17558507308000001,-0.2872752225737984,0.20181211015355555,-0.06360932094587948,0.5576566417824294,,-0.048616146314302056,-0.07213882130805563,0.0795457676,-0.07359428191455561,,5.684793e-06,1.1920929e-07,3.5762787e-06,1.0,-2.4903566e-05,-2.1424145e-05,2.4903566e-05,0.99999994,-2.7418137e-06,2.1424145e-05,2.7418137e-06,1.0,531,1.671,1,1,1.646,False,-0.25695872741613357,0.7315898652259931
1.6752098250144627,14:52:17.794572,14:52:03.763945,0,,0.12161423,0.0074801445,0.028073832,-0.69896185,-0.5496802,-0.45749766,-0.33069277,-0.31879723,0.8882627,-0.63410926,0.77215284,0.041051716,,0.040729016,-0.03386893,0.034202933,0.479844,-0.77139956,0.41796225,-0.87170494,-0.3652071,0.32673243,-0.099398255,-0.5211203,-0.8476753,,0.10694914,1.3440099,0.44342205,0.9956293,0.020201556,-0.09118222,-0.04400086,-0.7597145,-0.6487664,-0.082378544,0.64994293,-0.7555051,,-0.08983279,0.26639494,-0.08380192,0.7420246,0.45453396,0.4927458,-0.64346325,0.27675647,0.7136952,0.18802814,-0.8466432,0.497836,,-0.006988286,0.40103737,-0.37955093,-0.42307538,0.83603805,-0.34935305,-0.60095096,-0.5474601,-0.58236194,-0.6781336,-0.03643894,0.7340348,,1.1682023564181931,0.3826923048493214,0.20465826520000002,0.3327779403099402,0.3816257438448752,1.1504508497912562,-0.3944759197142844,,-0.8279850823771066,-0.3276678331204717,0.17558507308000001,-0.2872752225737984,0.20181211015355555,-0.06360932094587948,0.5576566417824294,,-0.048616146314302056,-0.07213882130805563,0.0795457676,-0.07359428191455561,,5.684793e-06,1.1920929e-07,3.5762787e-06,1.0,-2.4903566e-05,-2.1424145e-05,2.4903566e-05,0.99999994,-2.7418137e-06,2.1424145e-05,2.7418137e-06,1.0,554,1.744,1,1,1.719,False,-0.2568991496976123,0.7319761068322284
1.7230494370160159,14:52:17.868244,14:52:03.889627,0,,0.121345,0.007589698,0.029170439,-0.66116834,-0.5991021,-0.45158964,-0.31019455,-0.32977128,0.89164466,-0.6831073,0.7296079,0.032195985,,0.040729515,-0.03386893,0.03420466,0.47984248,-0.77139693,0.41796896,-0.87170595,-0.36520392,0.32673332,-0.099396974,-0.5211265,-0.8476716,,0.10694914,1.3440099,0.44342205,0.9956293,0.020201556,-0.09118222,-0.04400086,-0.7597145,-0.6487664,-0.082378544,0.64994293,-0.7555051,,-0.089668915,0.26719972,-0.084584504,0.71029913,0.5073613,0.48791355,-0.6609057,0.24216236,0.7103246,0.2422369,-0.82700783,0.5073257,,-0.006988945,0.40103874,-0.37955186,-0.4230739,0.8360359,-0.3493601,-0.60095024,-0.54746383,-0.58235914,-0.67813516,-0.036432922,0.7340336,,1.1713532314308768,0.38218260447962255,0.20395826860000002,0.2998566191828698,0.44188244024143436,1.1241856015004918,-0.39480260784655297,,-0.8279928051099809,-0.3276678331204717,0.17558377679,-0.2872752225737984,0.20181211015355555,-0.06360932094587948,0.5576566417824294,,-0.048616146314302056,-0.07213882130805563,0.0795457676,-0.07359428191455561,,5.684793e-06,1.1920929e-07,3.5762787e-06,1.0,-2.4903566e-05,-2.1424145e-05,2.4903566e-05,0.99999994,-2.7418137e-06,2.1424145e-05,2.7418137e-06,1.0,577,1.818,1,1,1.793,False,-0.25737577144578117,0.7310587830174189
1.7967207120091189,14:52:17.936247,14:52:03.889627,0,,0.12098268,0.0076559484,0.030067578,-0.6156578,-0.6432641,-0.4551667,-0.30200854,-0.34089744,0.89026946,-0.72784346,0.68556565,0.015604854,,0.04072822,-0.033867784,0.034204125,0.4798471,-0.7713986,0.41796038,-0.87170255,-0.3652064,0.32673973,-0.0994046,-0.5211222,-0.8476735,,0.10694914,1.3440099,0.44342205,0.9956293,0.020201556,-0.09118222,-0.04400086,-0.7597145,-0.6487664,-0.082378544,0.64994293,-0.7555051,,-0.08939477,0.2678445,-0.0852551,0.66989666,0.5551022,0.49305165,-0.68513536,0.2063262,0.6985836,0.28605583,-0.80578595,0.5185374,,-0.0069876676,0.40103906,-0.37955064,-0.42307794,0.83603734,-0.3493517,-0.6009553,-0.54746133,-0.5823563,-0.6781281,-0.036437344,0.7340399,,1.1739635151423646,0.38112459007585375,0.20339956761000003,0.25204731206839825,0.49325776415324,1.0921755972676452,-0.3962727044417613,,-0.8279850823771066,-0.3276601103875975,0.17558377679,-0.2872752225737984,0.20181211015355555,-0.06360932094587951,0.5556965129888181,,-0.048616146314302056,-0.07213882130805563,0.0795457676,-0.07359428191455561,,5.684793e-06,1.1920929e-07,3.5762787e-06,1.0,-2.4903566e-05,-2.1424145e-05,2.4903566e-05,0.99999994,-2.7418137e-06,2.1424145e-05,2.7418137e-06,1.0,600,1.892,0,1,1.816,False,-0.2580907040680329,0.7306242612104037
1.8647300100128632,14:52:18.005596,14:52:04.045004,0,,0.120352566,0.007458538,0.031165496,-0.5721523,-0.68595934,-0.44955707,-0.29054677,-0.34306443,0.8932465,-0.76695776,0.6416904,-0.0030182898,,0.040728915,-0.033867843,0.03420484,0.47989276,-0.7714228,0.4178635,-0.8716646,-0.36521333,0.3268332,-0.09951708,-0.5210816,-0.8476852,,0.10694914,1.3440099,0.44342205,0.9956293,0.020201556,-0.09118222,-0.04400086,-0.7597145,-0.6487664,-0.082378544,0.64994293,-0.7555051,,-0.0888869,0.26842773,-0.08627652,0.6310838,0.6017934,0.489467,-0.70316255,0.177352,0.68855554,0.32756022,-0.7787111,0.5350825,,-0.0069884188,0.40103948,-0.37955102,-0.42311427,0.8360577,-0.349259,-0.6010344,-0.54742837,-0.58230567,-0.6780354,-0.036465164,0.7341242,,1.1772765675454069,0.3789081657409513,0.20254012734000001,0.20717366416271008,0.5431300865676258,1.0512630261980298,-0.39676273664016426,,-0.8279928051099809,-0.3276678331204717,0.17558377679,-0.2872752225737984,0.20194874665332097,-0.06355738136929479,0.5560232011210866,,-0.048616146314302056,-0.07213882130805563,0.0795457676,-0.07359428191455561,,5.684793e-06,1.1920929e-07,3.5762787e-06,1.0,-2.4903566e-05,-2.1424145e-05,2.4903566e-05,0.99999994,-2.7418137e-06,2.1424145e-05,2.7418137e-06,1.0,609,1.92,0,1,1.816,False,-0.2575545046013441,0.7301897394033885
1.9341004519956186,14:52:18.045986,14:52:04.045004,0,,0.11989248,0.0072990805,0.031824082,-0.5473517,-0.70938486,-0.44404876,-0.28152788,-0.34359416,0.89592695,-0.78812945,0.61539924,-0.01164484,,0.040726528,-0.03386683,0.034203768,0.47989896,-0.771393,0.41791114,-0.8716601,-0.36519226,0.32686865,-0.09952608,-0.52114034,-0.847648,,0.10694914,1.3440099,0.44342205,0.9956293,0.020201556,-0.09118222,-0.04400086,-0.7597145,-0.6487664,-0.082378544,0.64994293,-0.7555051,,-0.088502586,0.26874882,-0.08692462,0.6089643,0.6276629,0.48497605,-0.7108212,0.16051072,0.6848135,0.35198814,-0.76175827,0.5439014,,-0.006985998,0.4010394,-0.37954962,-0.4231198,0.8360328,-0.3493118,-0.60104024,-0.5474697,-0.5822608,-0.67802674,-0.036415637,0.7341346,,1.1795161600789321,0.37724005544011885,0.20200994473000003,0.18222056088805166,0.5727802070167264,1.0268403048754848,-0.39725276883856697,,-0.8279773596442324,-0.3276601103875975,0.17558377679,-0.2872752225737984,0.20194874665332097,-0.06363906010943537,0.5561865451872208,,-0.048616146314302056,-0.07213882130805563,0.0795457676,-0.07359428191455561,,5.684793e-06,1.1920929e-07,3.5762787e-06,1.0,-2.4903566e-05,-2.1424145e-05,2.4903566e-05,0.99999994,-2.7418137e-06,2.1424145e-05,2.7418137e-06,1.0,623,1.965,0,1,1.816,False,-0.2570778828531757,0.7299966186002704
1.9744490580051206,14:52:18.085964,14:52:04.045004,0,,0.11938971,0.0071777403,0.03240177,-0.52459085,-0.72873515,-0.44016993,-0.27332443,-0.34549254,0.8977352,-0.8062866,0.59125286,-0.017939031,,0.040727828,-0.033867992,0.034204245,0.4798943,-0.77142537,0.41785675,-0.8716635,-0.3652165,0.32683232,-0.09951839,-0.5210754,-0.8476888,,0.10694914,1.3440099,0.44342205,0.9956293,0.020201556,-0.09118222,-0.04400086,-0.7597145,-0.6487664,-0.082378544,0.64994293,-0.7555051,,-0.088066004,0.2690474,-0.0874916,0.588534,0.6492041,0.4818317,-0.717077,0.14390984,0.6819754,0.3734009,-0.7468762,0.55022514,,-0.0069872746,0.40103903,-0.37955084,-0.42311576,0.83605987,-0.34925193,-0.6010351,-0.5474246,-0.5823084,-0.67803377,-0.03647118,0.7341253,,1.1819102072699417,0.3755719451392864,0.20155883581000003,0.1585255972743004,0.5991510514714563,1.005418328202216,-0.3977428010369699,,-0.8279850823771066,-0.3276678331204717,0.17558377679,-0.2872752225737984,0.20194874665332097,-0.06355738136929479,0.5560232011210866,,-0.048616146314302056,-0.07213882130805563,0.0795457676,-0.07359428191455561,,5.684793e-06,1.1920929e-07,3.5762787e-06,1.0,-2.4903566e-05,-2.1424145e-05,2.4903566e-05,0.99999994,-2.7418137e-06,2.1424145e-05,2.7418137e-06,1.0,632,1.994,0,1,1.816,False,-0.25731619372725945,0.7301414592026094
2.014434576005442,14:52:18.108157,14:52:04.045004,0,,0.11896767,0.007111445,0.032858893,-0.50632226,-0.74265,-0.43830225,-0.2671183,-0.3482009,0.89855653,-0.8199301,0.57203776,-0.022073716,,0.040727828,-0.033867992,0.034204245,0.4798943,-0.77145946,0.41779375,-0.8716635,-0.36524323,0.32680252,-0.09951839,-0.52100617,-0.84773135,,0.10694914,1.3440099,0.44342205,0.9956293,0.020201556,-0.09118222,-0.04400086,-0.7597145,-0.6487664,-0.082378544,0.64994293,-0.7555051,,-0.08769506,0.2693069,-0.08792351,0.5720258,0.66481453,0.48042494,-0.7217796,0.129748,0.67985266,0.38964176,-0.7356542,0.5540688,,-0.0069872746,0.40103903,-0.37955084,-0.42311576,0.8360884,-0.34918365,-0.6010351,-0.54737705,-0.5823531,-0.67803377,-0.036531143,0.73412234,,1.1839335632829884,0.3743363078794104,0.20121661525,0.1388147425867551,0.6192366169369762,0.9891215750989827,-0.3975794569708355,,-0.8279850823771066,-0.3276678331204717,0.17558377679,-0.2872752225737984,0.20194874665332097,-0.0634757026291542,0.5558598570549522,,-0.048616146314302056,-0.07213882130805563,0.0795457676,-0.07359428191455561,,5.684793e-06,1.1920929e-07,3.5762787e-06,1.0,-2.4903566e-05,-2.1424145e-05,2.4903566e-05,0.99999994,-2.7418137e-06,2.1424145e-05,2.7418137e-06,1.0,655,2.068,0,1,1.816,False,-0.25791197091247,0.7299483383994909
2.0366145629959647,14:52:18.187565,14:52:04.226296,0,,0.118111715,0.0070584863,0.033626333,-0.4813248,-0.7617269,-0.4337034,-0.2555373,-0.35135627,0.9006938,-0.83846706,0.5443536,-0.025533289,,0.040727828,-0.033867992,0.034204245,0.4798943,-0.77145946,0.41779375,-0.8716635,-0.36524323,0.32680252,-0.09951839,-0.52100617,-0.84773135,,0.10694914,1.3440099,0.44342205,0.9956293,0.020201556,-0.09118222,-0.04400086,-0.7597145,-0.6487664,-0.082378544,0.64994293,-0.7555051,,-0.08692306,0.2697911,-0.08862638,0.5495703,0.6863758,0.476299,-0.7257853,0.109882645,0.6790887,0.4137731,-0.71889776,0.5585497,,-0.0069872746,0.40103903,-0.37955084,-0.42311576,0.8360884,-0.34918365,-0.6010351,-0.54737705,-0.5823531,-0.67803377,-0.036531143,0.73412234,,1.188289184624051,0.37226661546911827,0.20065661797,0.11134535999028242,0.649296646885373,0.96460963628577,-0.3975794569708355,,-0.8279850823771066,-0.3276678331204717,0.17558377679,-0.2872752225737984,0.20194874665332097,-0.0634757026291542,0.5558598570549522,,-0.048616146314302056,-0.07213882130805563,0.0795457676,-0.07359428191455561,,5.684793e-06,1.1920929e-07,3.5762787e-06,1.0,-2.4903566e-05,-2.1424145e-05,2.4903566e-05,0.99999994,-2.7418137e-06,2.1424145e-05,2.7418137e-06,1.0,664,2.097,0,1,1.816,False,-0.25773323775690704,0.7297552175963733
2.116065782000078,14:52:18.219150,14:52:04.226296,0,,0.11778322,0.0070540607,0.03386034,-0.47313136,-0.76773596,-0.4321206,-0.25137573,-0.35245776,0.9014342,-0.84436774,0.5351215,-0.026231587,,0.040728036,-0.033869304,0.034204125,0.47989124,-0.77146035,0.4177957,-0.87166595,-0.3652439,0.32679528,-0.09951207,-0.5210044,-0.84773326,,0.10694914,1.3440099,0.44342205,0.9956293,0.020201556,-0.09118222,-0.04400086,-0.7597145,-0.6487664,-0.082378544,0.64994293,-0.7555051,,-0.08662001,0.2699496,-0.08884023,0.54221004,0.69321316,0.4748302,-0.72670686,0.10321042,0.67915,0.42178833,-0.71330434,0.5597245,,-0.0069874073,0.40103826,-0.3795519,-0.4231132,0.83608913,-0.349185,-0.60103077,-0.5473758,-0.5823587,-0.67803925,-0.036532737,0.73411727,,1.1899418494591352,0.3714634512501989,0.20049717430000003,0.10211900247696336,0.6594077478680156,0.9563647114122348,-0.3975794569708355,,-0.8279850823771066,-0.32767555585334596,0.17558377679,-0.2872752225737984,0.20194874665332097,-0.0634757026291542,0.5558598570549522,,-0.048616146314302056,-0.07213882130805563,0.0795457676,-0.07359428191455561,,5.684793e-06,1.1920929e-07,3.5762787e-06,1.0,-2.4903566e-05,-2.1424145e-05,2.4903566e-05,0.99999994,-2.7418137e-06,2.1424145e-05,2.7418137e-06,1.0,678,2.142,0,1,1.816,False,-0.25791197091247,0.7301897394033885
2.1476309430145193,14:52:18.260995,14:52:04.226296,0,,0.1175672,0.007052034,0.034033358,-0.46113512,-0.7743479,-0.4332894,-0.24877727,-0.3558977,0.9008033,-0.8517418,0.5231847,-0.028523326,,0.04067608,-0.033892334,0.03420353,0.4798383,-0.7714902,0.4178012,-0.8716955,-0.36520517,0.32676,-0.09950879,-0.52098733,-0.8477441,,0.106950745,1.3440112,0.4434265,0.99563015,0.020216461,-0.09116949,-0.04398133,-0.75971407,-0.6487682,-0.082378544,0.64994293,-0.7555051,,-0.08642662,0.27006373,-0.088991046,0.53114766,0.70081514,0.47617254,-0.7298759,0.09303258,0.6772194,0.43030602,-0.70725036,0.56092215,,-0.006936817,0.40102968,-0.3795667,-0.42304188,0.8361238,-0.34918836,-0.60104316,-0.5473251,-0.5823937,-0.6780728,-0.03649965,0.73408794,,1.1906137272191926,0.37091513721612895,0.20039217481000002,0.08827946620698475,0.6699287583499546,0.947458817867048,-0.39823283323537284,,-0.8279928051099809,-0.32767555585334596,0.17558248050000003,-0.2872752225737984,0.20194874665332097,-0.0634757026291542,0.5558598570549522,,-0.048616146314302056,-0.07213882130805563,0.0795457676,-0.07359428191455561,,6.854534e-06,2.1457672e-06,-7.1525574e-07,0.99999994,-1.0084361e-05,-8.676201e-06,1.0084361e-05,0.99999994,-1.1026859e-06,8.676201e-06,1.1324883e-06,1.0,687,2.17,0,1,1.816,False,-0.25856732581620134,0.7303828602065061
2.1894842210167553,14:52:18.291887,14:52:04.356584,0,,0.11754556,0.006985113,0.034113675,-0.4580806,-0.77759707,-0.43070298,-0.24631512,-0.35451776,0.9020232,-0.85410243,0.51928806,-0.0291363,,0.04067955,-0.033893198,0.0342052,0.47983053,-0.77148324,0.4178232,-0.87170094,-0.36519632,0.3267552,-0.09949851,-0.52100396,-0.84773505,,0.106950745,1.3440112,0.4434265,0.99563015,0.020216461,-0.09116949,-0.04398133,-0.75971407,-0.6487682,-0.082378544,0.64994293,-0.7555051,,-0.08641626,0.27006587,-0.08909727,0.5284628,0.704497,0.4737205,-0.72963345,0.09163638,0.6776709,0.43400705,-0.70376617,0.56245095,,-0.0069403816,0.4010302,-0.37956828,-0.42303485,0.836118,-0.3492109,-0.60103655,-0.5473351,-0.5823911,-0.678083,-0.0364832,0.7340793,,1.1905982817534442,0.3705985051682858,0.20031310112000003,0.08597287682865498,0.6744377628422141,0.9432919546042228,-0.39888620949990994,,-0.8280159733086034,-0.32768327858622015,0.17558248050000003,-0.2872752225737984,0.20194874665332097,-0.0634757026291542,0.5558598570549522,,-0.048616146314302056,-0.07213882130805563,0.0795457676,-0.07359428191455561,,6.854534e-06,2.1457672e-06,-7.1525574e-07,0.99999994,-1.0084361e-05,-8.676201e-06,1.0084361e-05,0.99999994,-1.1026859e-06,8.676201e-06,1.1324883e-06,1.0,710,2.244,0,1,1.816,False,-0.25791197091247,0.7299483383994909
2.2203232220199425,14:52:18.367160,14:52:04.356584,0,,0.117551744,0.006931737,0.03426686,-0.43750426,-0.78839654,-0.43245912,-0.2420527,-0.3599231,0.9010359,-0.86602557,0.49888504,-0.033365756,,0.040678848,-0.033891886,0.03420353,0.47983518,-0.7714849,0.41781458,-0.87169755,-0.3651988,0.3267616,-0.09950617,-0.52099967,-0.84773684,,0.106950745,1.3440112,0.4434265,0.99563015,0.020216461,-0.09116949,-0.04398133,-0.75971407,-0.6487682,-0.082378544,0.64994293,-0.7555051,,-0.086440146,0.27012494,-0.08924661,0.5093977,0.7170014,0.4758393,-0.7347573,0.07456564,0.6742193,0.4479349,-0.69307214,0.56480557,,-0.00693959,0.40102962,-0.3795663,-0.4230389,0.8361194,-0.34920248,-0.6010416,-0.5473326,-0.5823882,-0.67807597,-0.036487617,0.73408556,,1.189972740390632,0.3700733593328385,0.20024699033,0.0637457428192954,0.6912440523133632,0.92917915874886,-0.3987228654337758,,-0.8280082505757292,-0.32767555585334596,0.17558377679,-0.2872752225737984,0.20194874665332097,-0.0634757026291542,0.5558598570549522,,-0.048616146314302056,-0.07213882130805563,0.0795457676,-0.07359428191455561,,6.854534e-06,2.1457672e-06,-7.1525574e-07,0.99999994,-1.0084361e-05,-8.676201e-06,1.0084361e-05,0.99999994,-1.1026859e-06,8.676201e-06,1.1324883e-06,1.0,719,2.273,0,1,1.816,False,-0.25725661600873906,0.7308173820135213
2.2956581320031546,14:52:18.397222,14:52:04.356584,0,,0.11752048,0.006927952,0.03433627,-0.4257998,-0.7933836,-0.43501377,-0.24038517,-0.36430624,0.89971983,-0.87230116,0.48767152,-0.03559631,,0.04067906,-0.033893213,0.03420347,0.47983208,-0.7715542,0.41769043,-0.8717,-0.36525288,0.3266947,-0.09949985,-0.5208593,-0.84782374,,0.106950745,1.3440112,0.4434265,0.99563015,0.020216461,-0.09116949,-0.04398133,-0.75971407,-0.6487682,-0.082378544,0.64994293,-0.7555051,,-0.08641616,0.27016816,-0.08930461,0.49846667,0.7228643,0.47853762,-0.7379163,0.06408487,0.67184275,0.45498407,-0.68801194,0.5653575,,-0.006939723,0.4010288,-0.37956735,-0.42303634,0.83617723,-0.34906724,-0.6010373,-0.5472362,-0.58248323,-0.67808145,-0.036609128,0.7340745,,1.1897873948016506,0.3697876182164922,0.20023273114,0.05032558643628584,0.6998521517985861,0.922078152075845,-0.3985595213676416,,-0.8280082505757292,-0.32768327858622015,0.17558377679,-0.2872752225737984,0.20194874665332097,-0.06331234514887304,0.5561865451872209,,-0.048616146314302056,-0.07213882130805563,0.0795457676,-0.07359428191455561,,6.854534e-06,2.1457672e-06,-7.1525574e-07,0.99999994,-1.0084361e-05,-8.676201e-06,1.0084361e-05,0.99999994,-1.1026859e-06,8.676201e-06,1.1324883e-06,1.0,733,2.318,0,1,1.816,False,-0.25677999426057063,0.7302862998049475
2.325701279012719,14:52:18.440806,14:52:04.356584,0,,0.11745,0.0069588274,0.034517437,-0.40372935,-0.80523324,-0.43428317,-0.23272431,-0.36868322,0.8999511,-0.8847835,0.464405,-0.038549274,,0.04068038,-0.033897117,0.034203827,0.47986847,-0.7715466,0.41766226,-0.8716693,-0.3652354,0.32679623,-0.09959343,-0.52088255,-0.8477985,,0.106950745,1.3440112,0.4434265,0.99563015,0.020216461,-0.09116949,-0.04398133,-0.75971407,-0.6487682,-0.082378544,0.64994293,-0.7555051,,-0.08636263,0.27031156,-0.08942837,0.47813308,0.7367456,0.4781157,-0.7408696,0.045960337,0.6700746,0.47170016,-0.6746062,0.56780756,,-0.006940872,0.4010269,-0.37957084,-0.42306495,0.8361712,-0.34904686,-0.60110337,-0.5472472,-0.5824048,-0.67800504,-0.036581796,0.7341464,,1.1897024447400342,0.36936286790840983,0.20020421276000003,0.026840312766019118,0.7198010807643402,0.9047493145143402,-0.39872286543377555,,-0.8280159733086034,-0.3277141695177171,0.17558377679,-0.2872752225737984,0.2020853831530864,-0.06334208431242896,0.5563498892533552,,-0.048616146314302056,-0.07213882130805563,0.0795457676,-0.07359428191455561,,6.854534e-06,2.1457672e-06,-7.1525574e-07,0.99999994,-1.0084361e-05,-8.676201e-06,1.0084361e-05,0.99999994,-1.1026859e-06,8.676201e-06,1.1324883e-06,1.0,742,2.346,0,1,1.816,False,-0.2575545046013441,0.7309622226158599
2.3692668540170416,14:52:18.467592,14:52:04.356584,0,,0.11737615,0.006942481,0.03464049,-0.3883846,-0.81092435,-0.43767464,-0.23009571,-0.37457338,0.898193,-0.8923078,0.4495515,-0.041111827,,0.040680587,-0.033898413,0.03420371,0.4798654,-0.7715134,0.41772723,-0.8716717,-0.36520937,0.3268188,-0.09958705,-0.52094996,-0.8477578,,0.106950745,1.3440112,0.4434265,0.99563015,0.020216461,-0.09116949,-0.04398133,-0.75971407,-0.6487682,-0.082378544,0.64994293,-0.7555051,,-0.08630222,0.27038142,-0.08953943,0.4637535,0.74359834,0.4816578,-0.7442177,0.03198709,0.66717076,0.48070025,-0.66786104,0.56823313,,-0.0069410047,0.4010261,-0.37957188,-0.42306238,0.83614343,-0.3491165,-0.601099,-0.5472935,-0.5823657,-0.67801046,-0.036523428,0.7341443,,1.1895788810140466,0.36896128579895016,0.20015236116000001,0.008806977626350023,0.7308686372453409,0.8950710343938055,-0.39806948916923846,,-0.8280159733086034,-0.3277218922505913,0.17558377679,-0.2872752225737984,0.2020853831530864,-0.06342376305256955,0.5565132333194893,,-0.048616146314302056,-0.07213882130805563,0.0795457676,-0.07359428191455561,,6.854534e-06,2.1457672e-06,-7.1525574e-07,0.99999994,-1.0084361e-05,-8.676201e-06,1.0084361e-05,0.99999994,-1.1026859e-06,8.676201e-06,1.1324883e-06,1.0,756,2.391,0,1,1.816,False,-0.25695872741613357,0.7318795464306693
2.3960248910007067,14:52:18.511785,14:52:04.570763,0,,0.11731364,0.006886065,0.034922898,-0.35833076,-0.8258821,-0.43533662,-0.21990517,-0.37851548,0.8990927,-0.9073261,0.4179054,-0.045982152,,0.040680327,-0.033903673,0.034202814,0.47985467,-0.77151966,0.41772816,-0.8716803,-0.36521545,0.32678902,-0.09956321,-0.5209365,-0.84776884,,0.106950745,1.3440112,0.4434265,0.99563015,0.020216461,-0.09116949,-0.04398133,-0.75971407,-0.6487682,-0.082378544,0.64994293,-0.7555051,,-0.08627081,0.2705243,-0.089795254,0.43585673,0.7614217,0.47986037,-0.7471339,0.008826921,0.6646149,0.5018165,-0.6481968,0.57273126,,-0.006940392,0.40102255,-0.37957585,-0.42305362,0.8361486,-0.34911484,-0.60108244,-0.5472848,-0.58239096,-0.67803067,-0.03653582,0.734125,,1.1889687851169828,0.36829713077176685,0.20003050990000001,-0.024114343500720302,0.7564196627014783,0.8686817320730166,-0.3997029298305812,,-0.8280082505757292,-0.32775278318208817,0.17558377679,-0.2872752225737984,0.2020853831530864,-0.06342376305256955,0.5565132333194893,,-0.048616146314302056,-0.07213882130805563,0.0795457676,-0.07359428191455561,,6.854534e-06,2.1457672e-06,-7.1525574e-07,0.99999994,-1.0084361e-05,-8.676201e-06,1.0084361e-05,0.99999994,-1.1026859e-06,8.676201e-06,1.1324883e-06,1.0,765,2.42,0,1,1.816,False,-0.25773323775690704,0.7312519038205365
2.4402773510082625,14:52:18.543796,14:52:04.570763,0,,0.11729726,0.0068416595,0.03510791,-0.33871537,-0.8344396,-0.4347212,-0.21400371,-0.38159844,0.89921355,-0.9162283,0.39760944,-0.049320072,,0.040680952,-0.033907518,0.034202516,0.47984546,-0.7715223,0.41773388,-0.87168753,-0.3652177,0.32676727,-0.09954423,-0.5209311,-0.84777445,,0.106950745,1.3440112,0.4434265,0.99563015,0.020216461,-0.09116949,-0.04398133,-0.75971407,-0.6487682,-0.082378544,0.64994293,-0.7555051,,-0.08627501,0.27061152,-0.08996509,0.41752434,0.7717971,0.47958595,-0.74902,-0.0064773257,0.66251576,0.51443416,-0.6358359,0.575387,,-0.00694079,0.4010202,-0.37957895,-0.42304593,0.8361508,-0.3491189,-0.6010694,-0.54728115,-0.5824079,-0.678047,-0.036540605,0.7341097,,1.1883741346856675,0.3679804987239237,0.19994106589000002,-0.04634147751007988,0.7717229506752076,0.8516289174111459,-0.3964360485078955,,-0.8280082505757292,-0.32777595138071086,0.17558377679,-0.2872752225737984,0.2020853831530864,-0.06342376305256955,0.5565132333194893,,-0.048616146314302056,-0.07213882130805563,0.0795457676,-0.07359428191455561,,6.854534e-06,2.1457672e-06,-7.1525574e-07,0.99999994,-1.0084361e-05,-8.676201e-06,1.0084361e-05,0.99999994,-1.1026859e-06,8.676201e-06,1.1324883e-06,1.0,788,2.494,0,1,1.816,False,-0.2570778828531757,0.7316864256275517
2.472244436998153,14:52:18.619066,14:52:04.570763,0,,0.11732827,0.0066784024,0.03554964,-0.29005828,-0.8501843,-0.4393777,-0.20032513,-0.39500555,0.89657146,-0.9358076,0.34807646,-0.055738837,,0.04068299,-0.03391385,0.034202933,0.47971204,-0.7716316,0.41768524,-0.8717407,-0.3650358,0.32682848,-0.099721014,-0.5208968,-0.84777474,,0.106950745,1.3440112,0.4434265,0.99563015,0.020216461,-0.09116949,-0.04398133,-0.75971407,-0.6487682,-0.082378544,0.64994293,-0.7555051,,-0.08635746,0.27077436,-0.0904003,0.37175566,0.79173094,0.48472655,-0.7527975,-0.048438817,0.6564675,0.5432252,-0.60894644,0.5780057,,-0.0069425325,0.40101692,-0.3795845,-0.42289343,0.83624685,-0.34907362,-0.6012314,-0.54714334,-0.58237016,-0.6779985,-0.03640651,0.73416114,,1.186227214946633,0.36735495736111146,0.19969736337000002,-0.10316745219438597,0.8068385311149259,0.8146632846668281,-0.39872286543377555,,-0.8280159733086034,-0.3278222877779562,0.17558377679,-0.2870655326303138,0.20222201965285186,-0.06337182347598483,0.5568399214517579,,-0.048616146314302056,-0.07213882130805563,0.0795457676,-0.07359428191455561,,6.854534e-06,2.1457672e-06,-7.1525574e-07,0.99999994,-1.0084361e-05,-8.676201e-06,1.0084361e-05,0.99999994,-1.1026859e-06,8.676201e-06,1.1324883e-06,1.0,797,2.523,0,1,1.816,False,-0.25785239319394915,0.7319278266314488
2.547561598010361,14:52:18.644019,14:52:04.570763,0,,0.11734532,0.006620556,0.03574127,-0.2681953,-0.8563293,-0.441329,-0.19505966,-0.40035313,0.8953597,-0.9434103,0.32621682,-0.05966267,,0.04068294,-0.033920437,0.03420192,0.47969827,-0.7716386,0.41768804,-0.8717518,-0.36504263,0.32679147,-0.099690795,-0.5208816,-0.84778774,,0.106950745,1.3440112,0.4434265,0.99563015,0.020216461,-0.09116949,-0.04398133,-0.75971407,-0.6487682,-0.082378544,0.64994293,-0.7555051,,-0.086396165,0.27085474,-0.09058032,0.3510301,0.7997565,0.48699832,-0.7543849,-0.066548504,0.6530503,0.5546903,-0.5966245,0.57996374,,-0.0069420524,0.40101257,-0.3795895,-0.4228821,0.8362527,-0.3490733,-0.6012104,-0.54713345,-0.5824011,-0.6780241,-0.036420494,0.7341368,,1.1851923687414871,0.36724683910087236,0.19959236388,-0.1300077649604051,0.8207754540910007,0.7963559655778455,-0.39888620949991016,,-0.8280082505757292,-0.3278609014423273,0.17558377679,-0.2870655326303138,0.20222201965285186,-0.06337182347598483,0.5568399214517579,,-0.048616146314302056,-0.07213882130805563,0.0795457676,-0.07359428191455561,,6.854534e-06,2.1457672e-06,-7.1525574e-07,0.99999994,-1.0084361e-05,-8.676201e-06,1.0084361e-05,0.99999994,-1.1026859e-06,8.676201e-06,1.1324883e-06,1.0,811,2.568,0,1,1.816,False,-0.2575545046013441,0.7317347058283312
2.572484013013309,14:52:18.683914,14:52:04.731022,0,,0.117378265,0.006549984,0.035908908,-0.24697293,-0.8617002,-0.44325745,-0.18853375,-0.4059568,0.8942337,-0.95050466,0.3044206,-0.062199324,,0.04068708,-0.033930287,0.034202576,0.47950688,-0.77172107,0.41775548,-0.8718523,-0.36484957,0.32673913,-0.09973347,-0.5208946,-0.8477746,,0.106950745,1.3440112,0.4434265,0.99563015,0.020216461,-0.09116949,-0.04398133,-0.75971407,-0.6487682,-0.082378544,0.64994293,-0.7555051,,-0.086448915,0.2709094,-0.090748824,0.33095053,0.80699414,0.48911366,-0.7546669,-0.084833555,0.65060055,0.5665241,-0.5844345,0.5809361,,-0.00694573,0.4010074,-0.3795981,-0.4226826,0.8363261,-0.34913892,-0.60127884,-0.54703236,-0.5824254,-0.6780879,-0.03625128,0.7340863,,1.1840262360774791,0.3670923844433878,0.19950680874,-0.1557996280090016,0.8352589230661375,0.7790731921966071,-0.39921289763217827,,-0.8280236960414777,-0.32792268330532115,0.17558377679,-0.2868558426868293,0.20222201965285186,-0.06337182347598483,0.5568399214517579,,-0.048616146314302056,-0.07213882130805563,0.0795457676,-0.07359428191455561,,6.854534e-06,2.1457672e-06,-7.1525574e-07,0.99999994,-1.0084361e-05,-8.676201e-06,1.0084361e-05,0.99999994,-1.1026859e-06,8.676201e-06,1.1324883e-06,1.0,820,2.596,0,1,1.816,False,-0.2570183051346544,0.7311070632181984
2.6123935210052878,14:52:18.713219,14:52:04.731022,0,,0.117415234,0.0064673573,0.036027998,-0.22645102,-0.8661445,-0.44554877,-0.1842638,-0.41107684,0.89278364,-0.95643437,0.28427038,-0.06651044,,0.04068871,-0.03393656,0.034200966,0.4794915,-0.7717254,0.417765,-0.87186426,-0.36485317,0.32670283,-0.09970191,-0.5208856,-0.8477839,,0.106950745,1.3440112,0.4434265,0.99563015,0.020216461,-0.09116949,-0.04398133,-0.75971407,-0.6487682,-0.082378544,0.64994293,-0.7555051,,-0.086501405,0.2709232,-0.090888225,0.31134456,0.8131703,0.49175057,-0.75588155,-0.10170698,0.6467602,0.57594067,-0.57307047,0.5829945,,-0.0069468785,0.4010026,-0.37960255,-0.4226698,0.8363298,-0.34914562,-0.60125715,-0.5470262,-0.5824536,-0.6781151,-0.036259245,0.7340607,,1.1827210942217352,0.3669224843201549,0.19943940166000002,-0.18201087094456714,0.8468730255461999,0.7612714388880738,-0.3997029298305814,,-0.8280236960414777,-0.32796129696969223,0.17558507308000001,-0.2868558426868293,0.20222201965285186,-0.06337182347598483,0.5568399214517579,,-0.048616146314302056,-0.07213882130805563,0.0795457676,-0.07359428191455561,,6.854534e-06,2.1457672e-06,-7.1525574e-07,0.99999994,-1.0084361e-05,-8.676201e-06,1.0084361e-05,0.99999994,-1.1026859e-06,8.676201e-06,1.1324883e-06,1.0,834,2.641,0,1,1.816,False,-0.25815028178655464,0.7314933048244336
2.641712832992198,14:52:18.763551,14:52:04.731022,0,,0.11754681,0.006233126,0.036170572,-0.19460909,-0.87380755,-0.44563165,-0.17629322,-0.4157608,0.89222395,-0.9649082,0.25219682,-0.073135704,,0.040691197,-0.033951983,0.034200013,0.47945458,-0.7717019,0.41785085,-0.8718932,-0.36483523,0.32664564,-0.09962618,-0.5209331,-0.8477636,,0.106950745,1.3440112,0.4434265,0.99563015,0.020216461,-0.09116949,-0.04398133,-0.75971407,-0.6487682,-0.082378544,0.64994293,-0.7555051,,-0.086657435,0.27083454,-0.09113377,0.28091535,0.82375073,0.49246448,-0.75627273,-0.12591892,0.6420249,0.5908791,-0.55279213,0.5876077,,-0.00694847,0.40099323,-0.379615,-0.422639,0.8363101,-0.34923008,-0.60120505,-0.54705906,-0.5824765,-0.67818046,-0.0362184,0.73400235,,1.1799718013185112,0.36638961575183343,0.19932662443000002,-0.2222713400935958,0.8657288625138307,0.7302134500709797,-0.4010096823596556,,-0.8280236960414777,-0.32805396976418294,0.17558507308000001,-0.2868558426868293,0.20222201965285186,-0.06345350221612536,0.5570032655178923,,-0.048616146314302056,-0.07213882130805563,0.0795457676,-0.07359428191455561,,6.854534e-06,2.1457672e-06,-7.1525574e-07,0.99999994,-1.0084361e-05,-8.676201e-06,1.0084361e-05,0.99999994,-1.1026859e-06,8.676201e-06,1.1324883e-06,1.0,843,2.67,0,1,1.816,False,-0.2585077480976805,0.7320726672337874
2.692038050998235,14:52:18.794870,14:52:04.870031,0,,0.11772221,0.0059833527,0.036197096,-0.17376271,-0.8778009,-0.44639903,-0.17029658,-0.4196818,0.8915527,-0.9699513,0.23093894,-0.07656163,,0.040692855,-0.03396228,0.034199297,0.47943002,-0.77184534,0.41761404,-0.87191254,-0.36494774,0.3264684,-0.09957576,-0.5206416,-0.84794855,,0.106950745,1.3440112,0.4434265,0.99563015,0.020216461,-0.09116949,-0.04398133,-0.75971407,-0.6487682,-0.082378544,0.64994293,-0.7555051,,-0.08684624,0.2706573,-0.09129745,0.26098064,0.82964545,0.4935357,-0.75560987,-0.14261699,0.63930756,0.6007852,-0.5397673,0.58966804,,-0.0069495304,0.40098697,-0.3796233,-0.4226185,0.83643,-0.3489676,-0.60117036,-0.5468589,-0.58270025,-0.678224,-0.036470935,0.7339496,,1.177384685805646,0.3657795198547697,0.19926958767000003,-0.24806320314219232,0.8787093299915476,0.7112975177254823,-0.39872286543377555,,-0.8280236960414777,-0.32811575162717677,0.17558507308000001,-0.2868558426868293,0.20222201965285186,-0.06312678725556314,0.5579833299146979,,-0.048616146314302056,-0.07213882130805563,0.0795457676,-0.07359428191455561,,6.854534e-06,2.1457672e-06,-7.1525574e-07,0.99999994,-1.0084361e-05,-8.676201e-06,1.0084361e-05,0.99999994,-1.1026859e-06,8.676201e-06,1.1324883e-06,1.0,866,2.744,0,1,1.816,False,-0.2587460589717643,0.7335693534579506
2.7233350110182073,14:52:18.870502,14:52:04.870031,0,,0.11807118,0.0055034757,0.036207914,-0.13470215,-0.8860749,-0.44353878,-0.1568994,-0.4228983,0.8924906,-0.97838527,0.18981142,-0.08205935,,0.040693995,-0.03396769,0.034199655,0.47951052,-0.7717973,0.41761035,-0.87184525,-0.36488774,0.32671508,-0.099776745,-0.5207549,-0.8478553,,0.106950745,1.3440112,0.4434265,0.99563015,0.020216461,-0.09116949,-0.04398133,-0.75971407,-0.6487682,-0.082378544,0.64994293,-0.7555051,,-0.0872169,0.27029026,-0.09158044,0.22362985,0.8418019,0.49128333,-0.7520675,-0.17159255,0.6363572,0.6199872,-0.5117867,0.59471864,,-0.006950419,0.40098423,-0.37962803,-0.42268237,0.83639026,-0.34898555,-0.60131186,-0.54692715,-0.5824901,-0.67805874,-0.036359146,0.73410785,,1.1722722366429095,0.36462883265651025,0.19920218059000003,-0.297130649917571,0.9041237189479195,0.6703174600830886,-0.3993762416983129,,-0.8280314187743519,-0.3281620880244221,0.17558507308000001,-0.2868558426868293,0.20249529265238275,-0.0632679443228154,0.5581466739808323,,-0.048616146314302056,-0.07213882130805563,0.0795457676,-0.07359428191455561,,6.854534e-06,2.1457672e-06,-7.1525574e-07,0.99999994,-1.0084361e-05,-8.676201e-06,1.0084361e-05,0.99999994,-1.1026859e-06,8.676201e-06,1.1324883e-06,1.0,875,2.772,0,1,1.816,False,-0.2583885926606384,0.7345832376743195
2.7990024640166666,14:52:18.897083,14:52:04.870031,0,,0.118112236,0.0053566247,0.03621006,-0.11261137,-0.88599145,-0.4498199,-0.15452743,-0.4315759,0.8887426,-0.98154974,0.16959213,-0.088309765,,0.04069471,-0.033970073,0.034199655,0.4793407,-0.77194804,0.41752678,-0.87192905,-0.36475006,0.32664505,-0.09985998,-0.520628,-0.8479235,,0.106950745,1.3440112,0.4434265,0.99563015,0.020216461,-0.09116949,-0.04398133,-0.75971407,-0.6487682,-0.082378544,0.64994293,-0.7555051,,-0.08726488,0.2701791,-0.09167313,0.20209993,0.8433161,0.4979695,-0.75296694,-0.19134024,0.62962663,0.62625587,-0.5022021,0.59631926,,-0.0069510126,0.4009829,-0.37963006,-0.42250124,0.8365207,-0.34889233,-0.60140777,-0.5467308,-0.58257544,-0.6780866,-0.03631229,0.7340844,,1.1703569988901017,0.36431992334154123,0.19918273624000002,-0.3290035213272187,0.9120486359343151,0.6516850893877524,-0.39823283323537284,,-0.8280314187743519,-0.32817753349017054,0.17558507308000001,-0.28664615274334476,0.20249529265238275,-0.06310458684253428,0.5591267383776379,,-0.048616146314302056,-0.07213882130805563,0.0795457676,-0.07359428191455561,,6.854534e-06,2.1457672e-06,-7.1525574e-07,0.99999994,-1.0084361e-05,-8.676201e-06,1.0084361e-05,0.99999994,-1.1026859e-06,8.676201e-06,1.1324883e-06,1.0,889,2.817,0,1,1.816,False,-0.25773323775690704,0.7359833634969237
2.825521998020122,14:52:18.935660,14:52:04.870031,0,,0.118113205,0.005243778,0.036263376,-0.0855219,-0.8903753,-0.4471217,-0.14775705,-0.4324695,0.8894594,-0.9853191,0.14213371,-0.09457371,,0.04069771,-0.033973694,0.034199417,0.47937554,-0.77204025,0.41731626,-0.87189937,-0.36480936,0.32665807,-0.09995213,-0.52044964,-0.8480221,,0.106950745,1.3440112,0.4434265,0.99563015,0.020216461,-0.09116949,-0.04398133,-0.75971407,-0.6487682,-0.082378544,0.64994293,-0.7555051,,-0.08727649,0.27012816,-0.09178648,0.17587021,0.85035837,0.49594387,-0.75106835,-0.20976736,0.62601435,0.63636935,-0.48258504,0.6017854,,-0.006953791,0.40098044,-0.37963298,-0.42252836,0.836598,-0.34867412,-0.60147303,-0.5466028,-0.58262813,-0.6780118,-0.03645883,0.7341463,,1.168403147472923,0.364173191416931,0.19916718076,-0.3701027502501855,0.9244825574129701,0.6162256507078037,-0.40133637049192417,,-0.8280468642401004,-0.3282084244216674,0.17558636937000002,-0.28664615274334476,0.2026319291521482,-0.06288928978566852,0.5604334909067121,,-0.048616146314302056,-0.07213882130805563,0.0795457676,-0.07359428191455561,,6.854534e-06,2.1457672e-06,-7.1525574e-07,0.99999994,-1.0084361e-05,-8.676201e-06,1.0084361e-05,0.99999994,-1.1026859e-06,8.676201e-06,1.1324883e-06,1.0,898,2.846,0,1,1.816,False,-0.2570183051346544,0.7369972477132922
2.8641325469943695,14:52:18.964249,14:52:05.018806,0,,0.118062794,0.005206734,0.03625658,-0.071888655,-0.89187497,-0.44653225,-0.14956489,-0.4329893,0.8889041,-0.986135,0.13068774,-0.10226622,,0.040699597,-0.033974677,0.03419876,0.47937086,-0.7721748,0.41707262,-0.8719028,-0.36491367,0.32653248,-0.09994453,-0.52017695,-0.8481903,,0.106950745,1.3440112,0.4434265,0.99563015,0.020216461,-0.09116949,-0.04398133,-0.75971407,-0.6487682,-0.082378544,0.64994293,-0.7555051,,-0.08722746,0.2700971,-0.09181081,0.16231516,0.8529612,0.49609575,-0.7533648,-0.2175699,0.62056816,0.637256,-0.4744687,0.607276,,-0.0069555524,0.40097916,-0.37963346,-0.4225243,0.8367104,-0.3484092,-0.60146797,-0.546415,-0.58280957,-0.6780188,-0.036694255,0.73412806,,1.1677389924457398,0.364173191416931,0.19915681044000003,-0.3902329848246998,0.9250291034120318,0.5985457649233593,-0.3951292959788215,,-0.8280545869729746,-0.32821614715454167,0.17558766566000003,-0.28664615274334476,0.2026319291521482,-0.06256257482510624,0.5617402434357863,,-0.048616146314302056,-0.07213882130805563,0.0795457676,-0.07359428191455561,,6.854534e-06,2.1457672e-06,-7.1525574e-07,0.99999994,-1.0084361e-05,-8.676201e-06,1.0084361e-05,0.99999994,-1.1026859e-06,8.676201e-06,1.1324883e-06,1.0,912,2.891,0,1,1.816,False,-0.2580311263495121,0.7370938081148513
2.8927483250154182,14:52:19.015259,14:52:05.018806,0,,0.11789064,0.005114615,0.036291957,-0.035870306,-0.89594835,-0.4427075,-0.14915532,-0.433231,0.8888551,-0.9881628,0.09791575,-0.11809549,,0.04070154,-0.033982486,0.03419888,0.47939804,-0.77216995,0.41705024,-0.87187934,-0.3648983,0.3266123,-0.1000191,-0.52019477,-0.84817064,,0.106950745,1.3440112,0.4434265,0.99563015,0.020216461,-0.09116949,-0.04398133,-0.75971407,-0.6487682,-0.082378544,0.64994293,-0.7555051,,-0.08706423,0.27005523,-0.09191557,0.1267364,0.86025345,0.49386418,-0.75541526,-0.23897083,0.6101153,0.6428729,-0.45039636,0.6195623,,-0.0069570984,0.4009749,-0.37964007,-0.42254522,0.8367066,-0.34839293,-0.60152096,-0.54642224,-0.582748,-0.6779587,-0.036671717,0.7341847,,1.166132664007901,0.3641809141498052,0.19911273658000003,-0.447478339395975,0.930357926902884,0.5478886210195001,-0.3965993925740299,,-0.8280623097058488,-0.32827020628466125,0.17558766566000003,-0.28664615274334476,0.20276856565191362,-0.06259231398866208,0.5619035875019206,,-0.048616146314302056,-0.07213882130805563,0.0795457676,-0.07359428191455561,,6.854534e-06,2.1457672e-06,-7.1525574e-07,0.99999994,-1.0084361e-05,-8.676201e-06,1.0084361e-05,0.99999994,-1.1026859e-06,8.676201e-06,1.1324883e-06,1.0,921,2.92,0,1,1.816,False,-0.25826943722359585,0.7394595379530449
2.9437574009934906,14:52:19.044071,14:52:05.018806,0,,0.117836,0.0050254017,0.036354065,-0.017775662,-0.8996419,-0.43626666,-0.14366275,-0.42950976,0.89156175,-0.989467,0.07852346,-0.12161031,,0.040703043,-0.033984885,0.034199297,0.47939035,-0.77233934,0.41674542,-0.8718852,-0.36502996,0.32644954,-0.10000518,-0.51985085,-0.84838307,,0.106950745,1.3440112,0.4434265,0.99563015,0.020216461,-0.09116949,-0.04398133,-0.75971407,-0.6487682,-0.082378544,0.64994293,-0.7555051,,-0.087020315,0.27002957,-0.09202611,0.109141454,0.86602706,0.48793983,-0.75262105,-0.24866632,0.6096939,0.6493456,-0.43377668,0.6246504,,-0.0069585075,0.40097377,-0.3796423,-0.4225386,0.8368481,-0.34806097,-0.60151154,-0.54618555,-0.5829796,-0.67797124,-0.036968704,0.7341582,,1.1650823723370065,0.36411140955393717,0.19906607014000002,-0.47557679182290125,0.9378729343899832,0.5182371591557151,-0.3972527688385672,,-0.828070032438723,-0.3282856517504097,0.17558766566000003,-0.28664615274334476,0.20276856565191362,-0.06218392028795924,0.5643537484939348,,-0.048616146314302056,-0.07213882130805563,0.0795457676,-0.07359428191455561,,6.854534e-06,2.1457672e-06,-7.1525574e-07,0.99999994,-1.0084361e-05,-8.676201e-06,1.0084361e-05,0.99999994,-1.1026859e-06,8.676201e-06,1.1324883e-06,1.0,935,2.965,0,1,1.816,False,-0.25779281547542787,0.7433702342161808
2.972563752991846,14:52:19.089708,14:52:05.153904,0,,0.11796491,0.0047289133,0.036336154,-0.00084744394,-0.903707,-0.4281506,-0.14443934,-0.42355043,0.89428306,-0.98951316,0.06259975,-0.13017207,,0.040700886,-0.03398542,0.034200132,0.47932264,-0.7725098,0.41650718,-0.8718851,-0.3648878,0.32660866,-0.100329846,-0.51969725,-0.84843886,,0.106950745,1.3440112,0.4434265,0.99563015,0.020216461,-0.09116949,-0.04398133,-0.75971407,-0.6487682,-0.082378544,0.64994293,-0.7555051,,-0.087160714,0.2697893,-0.09219163,0.092283845,0.87193155,0.48085245,-0.75372946,-0.2543953,0.6059496,0.65067315,-0.41835204,0.6337239,,-0.006956422,0.40097442,-0.37964323,-0.42243966,0.83699536,-0.3478268,-0.6017764,-0.5459622,-0.5829154,-0.67779785,-0.03693265,0.73432016,,1.1626651569473743,0.3636789365129806,0.19894810775000002,-0.5009492749845287,0.9395125723871685,0.4890476939234263,-0.39806948916923846,,-0.8280623097058488,-0.32830109721615813,0.17558636937000002,-0.2864364627998603,0.2030418386514445,-0.06199836239464929,0.5681106620150232,,-0.048616146314302056,-0.07213882130805563,0.0795457676,-0.07359428191455561,,6.854534e-06,2.1457672e-06,-7.1525574e-07,0.99999994,-1.0084361e-05,-8.676201e-06,1.0084361e-05,0.99999994,-1.1026859e-06,8.676201e-06,1.1324883e-06,1.0,944,2.994,0,1,1.816,False,-0.2575545046013441,0.7436116352200779
3.018201842001872,14:52:19.108085,14:52:05.153904,0,,0.11806947,0.0045304745,0.036325097,0.0027641729,-0.9027986,-0.43005472,-0.14762974,-0.42571247,0.89273417,-0.9890387,0.0610213,-0.13445687,,0.0407011,-0.033986747,0.034200013,0.47931957,-0.77251077,0.4165091,-0.8718875,-0.36488852,0.32660136,-0.10032356,-0.5196954,-0.84844065,,0.106950745,1.3440112,0.4434265,0.99563015,0.020216461,-0.09116949,-0.04398133,-0.75971407,-0.6487682,-0.082378544,0.64994293,-0.7555051,,-0.08727294,0.26962855,-0.0923012,0.08849587,0.87108296,0.4830972,-0.7559449,-0.2570891,0.60204023,0.648626,-0.41847295,0.63573945,,-0.0069565545,0.40097362,-0.37964427,-0.4224371,0.8369961,-0.34782815,-0.60177207,-0.54596096,-0.5829211,-0.6778033,-0.036934234,0.73431504,,1.1614604106189952,0.3633005226021436,0.19884570084000003,-0.5057721436846727,0.9373263883909215,0.48739987329666545,-0.39741611290470136,,-0.8280623097058488,-0.3283088199490324,0.17558636937000002,-0.2864364627998603,0.2030418386514445,-0.06199836239464929,0.5681106620150232,,-0.048616146314302056,-0.07213882130805563,0.0795457676,-0.07359428191455561,,6.854534e-06,2.1457672e-06,-7.1525574e-07,0.99999994,-1.0084361e-05,-8.676201e-06,1.0084361e-05,0.99999994,-1.1026859e-06,8.676201e-06,1.1324883e-06,1.0,967,3.067,0,1,1.816,False,-0.2580311263495121,0.7431771134130627
3.036577071005013,14:52:19.185459,14:52:05.153904,0,,0.11827929,0.0037454069,0.036240786,0.018232457,-0.8967966,-0.4420672,-0.14762375,-0.43970937,0.8859249,-0.9888755,0.049107105,-0.1404056,,0.040703,-0.033989355,0.03420502,0.4793087,-0.7725045,0.41653305,-0.8718954,-0.36488038,0.32658938,-0.10030687,-0.5197103,-0.8484336,,0.106950745,1.3440112,0.4434265,0.99563015,0.020216461,-0.09116949,-0.04398133,-0.75971407,-0.6487682,-0.082378544,0.64994293,-0.7555051,,-0.08751033,0.26897213,-0.09272572,0.07310561,0.86563766,0.49530494,-0.7562811,-0.27563572,0.59334975,0.65014964,-0.41796693,0.63451487,,-0.006958795,0.4009762,-0.37964916,-0.4224275,0.836991,-0.34785205,-0.6017611,-0.5459698,-0.5829241,-0.67781895,-0.03691934,0.7343013,,1.1573519167299078,0.36088330721251133,0.19856570220000003,-0.5275798978070633,0.9418353928831811,0.48331468877398076,-0.3972527688385672,,-0.8280854779044715,-0.3283242654147808,0.17558248050000003,-0.2864364627998603,0.2030418386514445,-0.06199836239464929,0.5677839738827547,,-0.048616146314302056,-0.07213882130805563,0.0795457676,-0.07359428191455561,,6.854534e-06,2.1457672e-06,-7.1525574e-07,0.99999994,-1.0084361e-05,-8.676201e-06,1.0084361e-05,0.99999994,-1.1026859e-06,8.676201e-06,1.1324883e-06,1.0,990,3.141,0,1,1.816,False,-0.2583885926606384,0.7442875580309907
