AlexandreBanks6/ExpertPlaybackApp/resources/Motions/Pilot_01/PC1/Data_PC1_1.csv
Task Time,PC1 Time,PC2 Time,Gaze Calib,s_T_psm1,Tx,Ty,Tz,R00,R01,R02,R10,R11,R12,R20,R21,R22,s_T_psm3,Tx,Ty,Tz,R00,R01,R02,R10,R11,R12,R20,R21,R22,cart_T_ecm,Tx,Ty,Tz,R00,R01,R02,R10,R11,R12,R20,R21,R22,ecm_T_psm1,Tx,Ty,Tz,R00,R01,R02,R10,R11,R12,R20,R21,R22,ecm_T_psm3,Tx,Ty,Tz,R00,R01,R02,R10,R11,R12,R20,R21,R22,psm1_joints,q1,q2,q3,q4,q5,q6,jaw,psm3_joints,q1,q2,q3,q4,q5,q6,jaw,ecm_joints,q1,q2,q3,q4,ecmi_T_ecm,Tx,Ty,Tz,R00,R01,R02,R10,R11,R12,R20,R21,R22,Sample #,Task Duration (s),Collisions (binary),Collisions (increments),Cumulative Collision Time (s),Clutch Press,MTMR Angle,MTML Angle
""
lci_T_si,,,,,-0.06275115,0.020269286,0.23277931,0.9922883,-0.04035988,0.11719676,0.048105527,-0.7459988,-0.6642075,0.11423598,0.66472316,-0.7383043
rci_T_si,,,,,-0.0725517,0.024538085,0.24269353,0.9888494,-0.06173267,0.13552107,0.047746018,-0.730564,-0.6811729,0.14105745,0.680048,-0.71947026
ecm_T_lc,,,,,-4.4061628e-05,-0.00034663224,-0.01840835,-0.99912,0.030754527,0.028518902,-0.031987965,-0.99852574,-0.043852776,0.027128186,-0.04472645,0.9986309
ecm_T_rc,,,,,-0.0043358393,0.01870579,-0.007592615,-0.99555075,-0.052743673,-0.078081585,0.04863213,-0.9973746,0.053654674,-0.08070653,0.04961868,0.9955021
cart_T_ecmi,,,,,0.1069438,1.3440125,0.4434251,0.99563074,0.020226603,-0.091160834,-0.043968037,-0.75971377,-0.64876944,-0.082378544,0.64994293,-0.7555051
ecmac_T_ecmrep_psm1,,,,,0.01038242,-0.2501324,-0.30762842,0.998145,0.0496832,0.035188068,-0.04731537,0.99675006,-0.06519635,-0.03831287,0.06341047,0.99725187
ecmac_T_ecmrep_psm3,,,,,-0.018947443,-0.4527795,-0.5580277,0.99342906,-0.031421527,0.110051684,0.0051236153,0.97282016,0.23150527,-0.11433475,-0.2294202,0.9665888
""
0,14:48:42.702602,14:48:28.763628,0,,0.118698046,0.0048000216,0.017976478,-0.72883624,-0.38323158,-0.5673899,-0.58049375,-0.09357238,0.8088702,-0.36307657,0.91890013,-0.15426466,,0.03940541,-0.060383268,0.03598976,0.4197173,-0.7883902,0.4497533,-0.36034033,0.31005555,0.87978417,-0.83306175,-0.531325,-0.15395322,,0.10695681,1.3440118,0.44342306,0.9956293,0.020202175,-0.091181695,-0.044000052,-0.7597144,-0.64876646,-0.082378544,0.64994293,-0.7555051,,-0.08606601,0.25787324,-0.078252256,0.7329563,0.28519663,0.61760664,-0.65562755,0.5383196,0.5294946,-0.18145968,-0.7930163,0.5815475,,-0.0045107473,0.38853568,-0.40290356,-0.3177041,0.81970155,-0.47660613,-0.93685967,-0.1938976,0.2910286,0.1461438,0.53897405,0.82954746,,1.157707162442122,0.35867460561048314,0.21152082446000003,0.2816135940997162,0.034022488441594674,1.054255212621619,-0.4029698111532668,,-0.7940436713948898,-0.5262656317140292,0.17805839440000001,0.1396535023606932,1.2806939123014733,-0.32383184456665837,0.7744142175426179,,-0.048616146314302056,-0.0721453662927506,0.0795457676,-0.07359428191455561,,1.31465495e-05,-4.7683716e-07,8.34465e-07,0.99999994,-2.4292618e-05,-2.0902604e-05,2.4292618e-05,0.99999994,-2.682209e-06,2.0895153e-05,2.682209e-06,0.99999994,38,0.114,0,0,0.0,False,-0.25642252794944387,0.9489956093358944
0.12306756200268865,14:48:42.733390,14:48:28.763628,0,,0.11872129,0.0048180968,0.018072933,-0.7282623,-0.38306472,-0.5682388,-0.5808903,-0.09487417,0.8084338,-0.36359358,0.9188363,-0.15342537,,0.039406255,-0.06038592,0.035988808,0.4197165,-0.78838706,0.44975963,-0.3603546,0.31005368,0.879779,-0.8330561,-0.5313308,-0.1539644,,0.10695681,1.3440118,0.44342306,0.9956293,0.020202175,-0.091181695,-0.044000052,-0.7597144,-0.64876646,-0.082378544,0.64994293,-0.7555051,,-0.08609784,0.25794905,-0.07831064,0.7324184,0.2849754,0.6183464,-0.6562815,0.53728575,0.5297345,-0.1812674,-0.7937966,0.5805421,,-0.0045113573,0.38853338,-0.4029053,-0.3177031,0.8196991,-0.47661105,-0.9368624,-0.1939038,0.29101574,0.14612864,0.5389756,0.82954913,,1.1577534988393674,0.35899123765832636,0.21144434335,0.2807748343257781,0.034022488441594674,1.0552353575033058,-0.4023164348887298,,-0.7940436713948898,-0.5262810771797777,0.17805969069000002,0.1396535023606932,1.2806939123014733,-0.32383184456665837,0.7744142175426179,,-0.048616146314302056,-0.0721453662927506,0.0795457676,-0.07359428191455561,,1.31465495e-05,-4.7683716e-07,8.34465e-07,0.99999994,-2.4292618e-05,-2.0902604e-05,2.4292618e-05,0.99999994,-2.682209e-06,2.0895153e-05,2.682209e-06,0.99999994,46,0.138,0,0,0.0,False,-0.25672041654204936,0.9489473291351151
0.15378494100878015,14:48:42.769818,14:48:28.763628,0,,0.11875327,0.0048389137,0.018149212,-0.7281032,-0.3832341,-0.56832844,-0.58088404,-0.095220596,0.80839753,-0.363922,0.9187298,-0.15328422,,0.039406635,-0.060389705,0.035989106,0.41971523,-0.78838235,0.44976908,-0.3603761,0.31005073,0.8797712,-0.8330474,-0.53133947,-0.15398121,,0.10695681,1.3440118,0.44342306,0.9956293,0.020202175,-0.091181695,-0.044000052,-0.7597144,-0.64876646,-0.082378544,0.64994293,-0.7555051,,-0.08613622,0.25801358,-0.0783511,0.7322932,0.28513792,0.61841977,-0.65649515,0.5369586,0.5298015,-0.18099931,-0.7939596,0.5804028,,-0.0045115747,0.38853157,-0.40290865,-0.3177016,0.8196954,-0.4766184,-0.93686646,-0.19391313,0.29099646,0.1461059,0.5389778,0.82955164,,1.157745776106493,0.3593001469732953,0.21138730659000002,0.2805651443822936,0.034022488441594674,1.0553170362434463,-0.402479778954864,,-0.7940436713948898,-0.5263042453784004,0.17805969069000002,0.1396535023606932,1.2806939123014733,-0.32383184456665837,0.7744142175426179,,-0.048616146314302056,-0.0721453662927506,0.0795457676,-0.07359428191455561,,1.31465495e-05,-4.7683716e-07,8.34465e-07,0.99999994,-2.4292618e-05,-2.0902604e-05,2.4292618e-05,0.99999994,-2.682209e-06,2.0895153e-05,2.682209e-06,0.99999994,57,0.171,0,0,0.0,False,-0.2568991496976123,0.9487542083319973
0.19024676698609255,14:48:42.803417,14:48:28.763628,0,,0.1187858,0.0048716366,0.018195152,-0.72779936,-0.38347387,-0.56855595,-0.5810235,-0.09561816,0.8082504,-0.36430714,0.91858846,-0.15321657,,0.039408736,-0.060394727,0.035988867,0.41971833,-0.7883716,0.44978505,-0.36040387,0.3100502,0.87976,-0.83303386,-0.53135574,-0.15399852,,0.10695681,1.3440118,0.44342306,0.9956293,0.020202175,-0.091181695,-0.044000052,-0.7597144,-0.64876646,-0.082378544,0.64994293,-0.7555051,,-0.08617155,0.25806737,-0.07836097,0.73202276,0.28537145,0.6186322,-0.6568604,0.5365719,0.52974045,-0.18076783,-0.7941371,0.5802321,,-0.004513386,0.38852847,-0.40291274,-0.31770462,0.81968635,-0.476632,-0.9368702,-0.19392829,0.29097423,0.14607517,0.53898615,0.82955164,,1.1577303306407447,0.35959361082251584,0.21136267708000003,0.2801457644953246,0.034022488441594674,1.0553987149835868,-0.4023164348887297,,-0.794051394127764,-0.5263351363098973,0.17806098698000003,0.1396535023606932,1.2806939123014733,-0.32383184456665837,0.7744142175426179,,-0.048616146314302056,-0.0721453662927506,0.0795457676,-0.07359428191455561,,1.31465495e-05,-4.7683716e-07,8.34465e-07,0.99999994,-2.4292618e-05,-2.0902604e-05,2.4292618e-05,0.99999994,-2.682209e-06,2.0895153e-05,2.682209e-06,0.99999994,69,0.207,0,0,0.0,False,-0.25677999426057063,0.9489956093358944
0.22386953799286857,14:48:42.841821,14:48:28.884293,0,,0.118839815,0.0049296618,0.018270388,-0.7235011,-0.38791165,-0.5710261,-0.58381855,-0.09758091,0.8059985,-0.36837745,0.91651636,-0.15587017,,0.039407857,-0.060396157,0.03598845,0.41971305,-0.78833777,0.44984922,-0.3604118,0.31011778,0.8797329,-0.8330331,-0.53136647,-0.15396586,,0.10695681,1.3440118,0.44342306,0.9956293,0.020202175,-0.091181695,-0.044000052,-0.7597144,-0.64876646,-0.082378544,0.64994293,-0.7555051,,-0.08622997,0.2581588,-0.07837414,0.72802246,0.28989503,0.6212441,-0.66175455,0.53386235,0.5263762,-0.17906497,-0.79432476,0.5805031,,-0.004512402,0.38852745,-0.40291372,-0.31769907,0.81965035,-0.4766976,-0.9368732,-0.19390489,0.29098016,0.14606799,0.5390493,0.8295119,,1.1577303306407447,0.36000291566484977,0.21132508467000002,0.27406475613427334,0.03607203593807628,1.053809125168281,-0.4021530908225954,,-0.7940436713948898,-0.5263428590427714,0.17806098698000003,0.1396535023606932,1.2806939123014733,-0.323913523306799,0.774577561608752,,-0.048616146314302056,-0.0721453662927506,0.0795457676,-0.07359428191455561,,1.31465495e-05,-4.7683716e-07,8.34465e-07,0.99999994,-2.4292618e-05,-2.0902604e-05,2.4292618e-05,0.99999994,-2.682209e-06,2.0895153e-05,2.682209e-06,0.99999994,80,0.241,0,0,0.0,False,-0.2555288621716292,0.9482231261234231
0.2622944919858128,14:48:42.870908,14:48:28.884293,0,,0.11890784,0.004987076,0.01836516,-0.7209647,-0.39585882,-0.5687756,-0.5826717,-0.097990036,0.80677843,-0.37510467,0.9130682,-0.16000843,,0.03940698,-0.060397573,0.035988092,0.4197078,-0.7883407,0.44984898,-0.36041978,0.31011364,0.8797312,-0.8330323,-0.5313646,-0.15397653,,0.10695681,1.3440118,0.44342306,0.9956293,0.020202175,-0.091181695,-0.044000052,-0.7597144,-0.64876646,-0.082378544,0.64994293,-0.7555051,,-0.08630427,0.2582621,-0.078400895,0.726224,0.298117,0.61945534,-0.66533744,0.53153676,0.52420866,-0.17298776,-0.79283977,0.58436316,,-0.0045114183,0.38852647,-0.4029147,-0.31769353,0.8196533,-0.47669625,-0.93687624,-0.19390526,0.29097027,0.14606082,0.5390448,0.8295161,,1.157745776106493,0.3603041022469445,0.21127193678000003,0.27091940698200545,0.04235731492728654,1.048847259078527,-0.4018264026903269,,-0.7940359486620157,-0.5263505817756456,0.17806098698000003,0.1396535023606932,1.2806939123014733,-0.3239135233067989,0.7742508734764837,,-0.048616146314302056,-0.0721453662927506,0.0795457676,-0.07359428191455561,,1.31465495e-05,-4.7683716e-07,8.34465e-07,0.99999994,-2.4292618e-05,-2.0902604e-05,2.4292618e-05,0.99999994,-2.682209e-06,2.0895153e-05,2.682209e-06,0.99999994,88,0.266,0,0,0.0,False,-0.25576717304571295,0.9478368845171876
0.2913731090084184,14:48:42.890855,14:48:28.884293,0,,0.11895198,0.0050133616,0.018444061,-0.72022533,-0.40086928,-0.5661972,-0.5806006,-0.09840712,0.80821955,-0.37970814,0.91083455,-0.16186973,,0.0394051,-0.060399078,0.03598714,0.4196978,-0.7884583,0.44965228,-0.3604285,0.30989057,0.87980616,-0.83303356,-0.5313203,-0.15412253,,0.10695681,1.3440118,0.44342306,0.9956293,0.020202175,-0.091181695,-0.044000052,-0.7597144,-0.64876646,-0.082378544,0.64994293,-0.7555051,,-0.086354725,0.2583321,-0.078438506,0.7260446,0.30329913,0.6171458,-0.6667848,0.52991104,0.52401555,-0.1680989,-0.7919621,0.5869743,,-0.0045093778,0.38852507,-0.4029155,-0.31768298,0.81977713,-0.4764903,-0.9368809,-0.19397418,0.29090938,0.14605404,0.5388316,0.8296558,,1.1577612215722417,0.360458556904429,0.21121749260000003,0.2702903371515519,0.047276228918842395,1.0458980381672829,-0.40002961796284986,,-0.7940205031962672,-0.52635830450852,0.17806098698000003,0.1396535023606932,1.2806939123014733,-0.3236684870863772,0.7737608412780808,,-0.048616146314302056,-0.0721453662927506,0.0795457676,-0.07359428191455561,,1.31465495e-05,-4.7683716e-07,8.34465e-07,0.99999994,-2.4292618e-05,-2.0902604e-05,2.4292618e-05,0.99999994,-2.682209e-06,2.0895153e-05,2.682209e-06,0.99999994,96,0.29,0,0,0.0,False,-0.25630337251240265,0.9479817251195257
0.3113128900004085,14:48:42.914901,14:48:28.884293,0,,0.118998796,0.005021259,0.018590033,-0.7171217,-0.40567374,-0.56671435,-0.5804566,-0.10241678,0.80782473,-0.3857543,0.9082618,-0.16203079,,0.03937725,-0.060394563,0.035983324,0.4208135,-0.78891134,0.44781107,-0.359418,0.30825,0.88079536,-0.8329072,-0.531602,-0.15383324,,0.10695681,1.3440118,0.44342306,0.9956293,0.020202175,-0.091181695,-0.044000052,-0.7597144,-0.64876646,-0.082378544,0.64994293,-0.7555051,,-0.08641538,0.2584318,-0.078538254,0.72356725,0.30813992,0.617657,-0.67070144,0.52533346,0.52362615,-0.16312578,-0.7931422,0.586784,,-0.004481559,0.38852733,-0.40290993,-0.31885546,0.820338,-0.47473857,-0.936358,-0.19503616,0.29188126,0.14685011,0.5375932,0.8303184,,1.1577921125037385,0.3606670706920331,0.21109564134000003,0.26630622822534594,0.05260505240969457,1.0457183556702914,-0.40345984335166973,,-0.794051394127764,-0.52635830450852,0.17806098698000003,0.1360887733214563,1.2817870042995967,-0.3254582964574949,0.7732708090796778,,-0.048616146314302056,-0.0721453662927506,0.0795457676,-0.07359428191455561,,1.31465495e-05,-4.7683716e-07,8.34465e-07,0.99999994,-2.4292618e-05,-2.0902604e-05,2.4292618e-05,0.99999994,-2.682209e-06,2.0895153e-05,2.682209e-06,0.99999994,104,0.314,0,0,0.0,False,-0.2559459062012759,0.9475472033125107
0.33532190398545936,14:48:42.942358,14:48:28.884293,0,,0.11902206,0.005031064,0.018707693,-0.7160249,-0.409194,-0.5655693,-0.57941306,-0.10350138,0.80843544,-0.38934404,0.9065581,-0.16298282,,0.03930132,-0.060392596,0.03595364,0.42351297,-0.78973055,0.4438043,-0.35842443,0.303851,0.88272655,-0.83196664,-0.53291655,-0.15437403,,0.10695681,1.3440118,0.44342306,0.9956293,0.020202175,-0.091181695,-0.044000052,-0.7597144,-0.64876646,-0.082378544,0.64994293,-0.7555051,,-0.08644973,0.25851515,-0.078617945,0.72288305,0.31175655,0.6166425,-0.6722786,0.52350336,0.5234365,-0.15962963,-0.7929389,0.58801895,,-0.004403293,0.3885118,-0.4028931,-0.3216806,0.8215034,-0.47080117,-0.9353345,-0.19839585,0.29289666,0.14721061,0.53457576,0.8322006,,1.1578847852982292,0.3608446935481402,0.21099841959,0.2650480885644388,0.056157601403596026,1.0441283500164333,-0.4011730264257899,,-0.794082285059261,-0.5263737499742683,0.17806228327,0.12623334597768365,1.2828800962977203,-0.3308419703947969,0.7731074650135434,,-0.048616146314302056,-0.0721453662927506,0.0795457676,-0.07359428191455561,,1.31465495e-05,-4.7683716e-07,8.34465e-07,0.99999994,-2.4292618e-05,-2.0902604e-05,2.4292618e-05,0.99999994,-2.682209e-06,2.0895153e-05,2.682209e-06,0.99999994,119,0.36,0,0,0.0,False,-0.2552309735790237,0.9478368845171876
0.36278486900846474,14:48:42.984268,14:48:29.020993,0,,0.11902858,0.005026862,0.018988833,-0.71322966,-0.41377366,-0.5657691,-0.57990015,-0.1050666,0.8078841,-0.39372456,0.90429646,-0.16501084,,0.03930997,-0.060413055,0.035926938,0.42388916,-0.7858479,0.45028973,-0.36141232,0.30910724,0.87967813,-0.8304812,-0.53562635,-0.15298805,,0.10695681,1.3440118,0.44342306,0.9956293,0.020202175,-0.091181695,-0.044000052,-0.7597144,-0.64876646,-0.082378544,0.64994293,-0.7555051,,-0.086484335,0.2586948,-0.07883157,0.72051686,0.31645888,0.6170164,-0.6755806,0.520976,0.5217038,-0.15635294,-0.79274064,0.5891655,,-0.004408252,0.38847756,-0.402896,-0.32204795,0.81764203,-0.47722802,-0.9357239,-0.19828928,0.29172277,0.14389563,0.54050237,0.8289459,,1.158193694613198,0.3612617211233483,0.21074953191,0.2612736695817173,0.059573513897732036,1.041832974864866,-0.40215309082259576,,-0.7942290169838713,-0.5264509773030106,0.17806357956000002,0.12308799682541581,1.2797374568031152,-0.3405311696308635,0.7727807768812751,,-0.048616146314302056,-0.0721453662927506,0.0795457676,-0.07359428191455561,,1.31465495e-05,-4.7683716e-07,8.34465e-07,0.99999994,-2.4292618e-05,-2.0902604e-05,2.4292618e-05,0.99999994,-2.682209e-06,2.0895153e-05,2.682209e-06,0.99999994,127,0.384,0,0,0.0,False,-0.2561842170753601,0.9478368845171876
0.40470789500977844,14:48:43.005947,14:48:29.020993,0,,0.1190401,0.005059734,0.019240126,-0.7111464,-0.41833436,-0.56503737,-0.5795787,-0.10607582,0.80798286,-0.39794368,0.9020777,-0.16702223,,0.039316185,-0.06041973,0.035931766,0.42391533,-0.78592175,0.45013618,-0.36145055,0.3089053,0.87973344,-0.8304512,-0.5356345,-0.15312225,,0.10695681,1.3440118,0.44342306,0.9956293,0.020202175,-0.091181695,-0.044000052,-0.7597144,-0.64876646,-0.082378544,0.64994293,-0.7555051,,-0.08651919,0.258883,-0.07899809,0.71888053,0.3211644,0.6164935,-0.67814374,0.5188978,0.5204481,-0.1527477,-0.7922112,0.5908211,,-0.00441456,0.38847736,-0.40290412,-0.32207495,0.8177265,-0.4770651,-0.935722,-0.19839577,0.2916565,0.14384754,0.54033554,0.829063,,1.1585412175925383,0.36176369876017295,0.21054471809000003,0.2585477003164185,0.06312606289163349,1.0390994668490403,-0.4018264026903271,,-0.7942753533811165,-0.526497313700256,0.17806228327,0.12308799682541581,1.2797374568031152,-0.3402861334104419,0.7732708090796778,,-0.048616146314302056,-0.0721453662927506,0.0795457676,-0.07359428191455561,,1.31465495e-05,-4.7683716e-07,8.34465e-07,0.99999994,-2.4292618e-05,-2.0902604e-05,2.4292618e-05,0.99999994,-2.682209e-06,2.0895153e-05,2.682209e-06,0.99999994,135,0.409,0,0,0.0,False,-0.2566012611050077,0.9475472033125107
0.426424183009658,14:48:43.034824,14:48:29.020993,0,,0.1190424,0.005092457,0.019417629,-0.7110065,-0.41902497,-0.56470156,-0.5791048,-0.106613636,0.8082518,-0.39888248,0.90169364,-0.16685641,,0.039320745,-0.06042581,0.035932958,0.42396867,-0.7862457,0.44951987,-0.3616096,0.3081018,0.87994975,-0.8303547,-0.5356219,-0.15368861,,0.10695681,1.3440118,0.44342306,0.9956293,0.020202175,-0.091181695,-0.044000052,-0.7597144,-0.64876646,-0.082378544,0.64994293,-0.7555051,,-0.086537555,0.2590233,-0.07911012,0.71885717,0.32186347,0.61615604,-0.6783995,0.51825976,0.52075034,-0.1517184,-0.7923451,0.59090674,,-0.0044189044,0.3884746,-0.40290985,-0.3221293,0.81808794,-0.47640824,-0.93573177,-0.19877839,0.2913644,0.14366205,0.53964734,0.82954323,,1.1588192359760103,0.3622193399997522,0.21040342248000002,0.25833801037293397,0.06380924539046068,1.0387057348108395,-0.40149971455805844,,-0.7943139670454877,-0.5265359273646271,0.17806228327,0.12287830688193127,1.2796008203033498,-0.33960296432576165,0.7727807768812752,,-0.048616146314302056,-0.0721453662927506,0.0795457676,-0.07359428191455561,,1.31465495e-05,-4.7683716e-07,8.34465e-07,0.99999994,-2.4292618e-05,-2.0902604e-05,2.4292618e-05,0.99999994,-2.682209e-06,2.0895153e-05,2.682209e-06,0.99999994,147,0.445,0,0,0.0,False,-0.256065061638318,0.9474023627101724
0.4553013459953945,14:48:43.066566,14:48:29.020993,0,,0.11907096,0.0052077323,0.019753247,-0.70847464,-0.42420775,-0.5640137,-0.578673,-0.1082924,0.8083379,-0.40398154,0.8990663,-0.16875517,,0.039322846,-0.06042888,0.035932362,0.4240164,-0.78617495,0.44959858,-0.36137545,0.3083311,0.87996566,-0.8304322,-0.53559387,-0.15336701,,0.10695681,1.3440118,0.44342306,0.9956293,0.020202175,-0.091181695,-0.044000052,-0.7597144,-0.64876646,-0.082378544,0.64994293,-0.7555051,,-0.086593814,0.25932842,-0.079284735,0.7168676,0.32719615,0.6156651,-0.68146473,0.5154257,0.5195596,-0.14733167,-0.7920095,0.5924646,,-0.004420774,0.38847226,-0.4029121,-0.32218105,0.81800324,-0.47651866,-0.9356771,-0.19864029,0.29163396,0.14390174,0.5398266,0.82938504,,1.1593907182087029,0.36322329527340136,0.21016360883000001,0.2549829712771816,0.06777170388365845,1.0357196518240648,-0.40198974675646115,,-0.7943216897783619,-0.5265590955632498,0.17806617214,0.12287830688193127,1.2798740933028807,-0.33982580013315444,0.7724540887490066,,-0.048616146314302056,-0.0721453662927506,0.0795457676,-0.07359428191455561,,1.31465495e-05,-4.7683716e-07,8.34465e-07,0.99999994,-2.4292618e-05,-2.0902604e-05,2.4292618e-05,0.99999994,-2.682209e-06,2.0895153e-05,2.682209e-06,0.99999994,162,0.491,0,0,0.0,False,-0.2566012611050077,0.9475954835132903
0.48703072700300254,14:48:43.113885,14:48:29.020993,0,,0.11909409,0.00533396,0.019980177,-0.7083117,-0.42567492,-0.5631123,-0.5775806,-0.1091308,0.8090062,-0.4058265,0.8982712,-0.16856298,,0.03932092,-0.0604304,0.035929978,0.4240648,-0.7862809,0.44936773,-0.36138317,0.30805767,0.88005817,-0.83040416,-0.53559566,-0.15351242,,0.10695681,1.3440118,0.44342306,0.9956293,0.020202175,-0.091181695,-0.044000052,-0.7597144,-0.64876646,-0.082378544,0.64994293,-0.7555051,,-0.086633354,0.25957125,-0.07937103,0.7169407,0.3286937,0.6147817,-0.6818419,0.5143145,0.5201656,-0.14521593,-0.7921118,0.5928501,,-0.004418555,0.38846967,-0.40291214,-0.32223147,0.81812257,-0.47627974,-0.935663,-0.19877613,0.2915867,0.1438806,0.5395957,0.82953894,,1.1598695276469049,0.3641500232183083,0.21002360951000001,0.2547732813336971,0.06913806888131287,1.0347688302673816,-0.4023164348887299,,-0.7943139670454877,-0.526566818296124,0.17806746843000001,0.12266861693844675,1.2798740933028807,-0.3397441213930139,0.7729441209474094,,-0.048616146314302056,-0.0721453662927506,0.0795457676,-0.07359428191455561,,1.31465495e-05,-4.7683716e-07,8.34465e-07,0.99999994,-2.4292618e-05,-2.0902604e-05,2.4292618e-05,0.99999994,-2.682209e-06,2.0895153e-05,2.682209e-06,0.99999994,174,0.528,0,0,0.0,False,-0.2555288621716292,0.9474023627101724
0.5343053399992641,14:48:43.151132,14:48:29.020993,0,,0.11912471,0.0054145455,0.020063058,-0.7061625,-0.42980775,-0.562672,-0.5773559,-0.11048022,0.8089834,-0.4098714,0.8961356,-0.17013514,,0.039321635,-0.0604318,0.035928905,0.42406434,-0.786316,0.44930667,-0.36139035,0.3079848,0.8800807,-0.8304013,-0.53558606,-0.15356174,,0.10695681,1.3440118,0.44342306,0.9956293,0.020202175,-0.091181695,-0.044000052,-0.7597144,-0.64876646,-0.082378544,0.64994293,-0.7555051,,-0.08666821,0.25968543,-0.07937778,0.715217,0.33294955,0.6144992,-0.68436694,0.51202005,0.5191121,-0.14179778,-0.7918207,0.5940651,,-0.004419093,0.38846797,-0.40291274,-0.32223096,0.81816024,-0.47621536,-0.93566436,-0.19880305,0.29156402,0.14387302,0.53952867,0.8295838,,1.1600548732358862,0.36454388259489373,0.20999120226,0.25204731206839825,0.07255398137544887,1.0327184913362362,-0.401826402690327,,-0.7943139670454877,-0.5265745410289981,0.17806876472000002,0.12266861693844675,1.2798740933028807,-0.33966244265287326,0.7731074650135438,,-0.048616146314302056,-0.0721453662927506,0.0795457676,-0.07359428191455561,,1.31465495e-05,-4.7683716e-07,8.34465e-07,0.99999994,-2.4292618e-05,-2.0902604e-05,2.4292618e-05,0.99999994,-2.682209e-06,2.0895153e-05,2.682209e-06,0.99999994,186,0.564,0,0,0.0,False,-0.25558843989015,0.9479334449187466
0.5715988799929619,14:48:43.186497,14:48:29.020993,0,,0.11912629,0.0054050237,0.020077482,-0.7059739,-0.4299786,-0.5627781,-0.57615364,-0.11344731,0.80942976,-0.4118831,0.89568293,-0.16764289,,0.039322183,-0.060431845,0.035926342,0.42412272,-0.78637767,0.44914356,-0.36138943,0.30779076,0.880149,-0.83037186,-0.535607,-0.1536476,,0.10695681,1.3440118,0.44342306,0.9956293,0.020202175,-0.091181695,-0.044000052,-0.7597144,-0.64876646,-0.082378544,0.64994293,-0.7555051,,-0.08667165,0.25968754,-0.07939463,0.7152864,0.33302367,0.6143782,-0.68477005,0.50947964,0.52107626,-0.13948248,-0.7934266,0.5924685,,-0.0044193813,0.38846567,-0.40291137,-0.3222919,0.81823343,-0.47604832,-0.9356456,-0.1989174,0.2915463,0.14385863,0.5393755,0.8296859,,1.1600703187016348,0.36443576433465463,0.20997564678000002,0.25204731206839825,0.07501343837122681,1.0349602635570099,-0.4018264026903269,,-0.7943216897783619,-0.5265745410289981,0.1780713573,0.12245892699496222,1.2798740933028807,-0.33966244265287326,0.7731074650135438,,-0.048616146314302056,-0.0721453662927506,0.0795457676,-0.07359428191455561,,1.31465495e-05,-4.7683716e-07,8.34465e-07,0.99999994,-2.4292618e-05,-2.0902604e-05,2.4292618e-05,0.99999994,-2.682209e-06,2.0895153e-05,2.682209e-06,0.99999994,194,0.588,0,0,0.0,False,-0.2551118181419816,0.9477403241156286
0.606962032004958,14:48:43.215379,14:48:29.020993,0,,0.11912556,0.005389869,0.020076111,-0.7057362,-0.43095064,-0.5623325,-0.57578665,-0.113588125,0.80967116,-0.4128025,0.89519775,-0.16797242,,0.039322957,-0.060432874,0.03592515,0.4241444,-0.78630865,0.44924384,-0.36126912,0.3079762,0.88013357,-0.8304131,-0.53560174,-0.1534428,,0.10695681,1.3440118,0.44342306,0.9956293,0.020202175,-0.091181695,-0.044000052,-0.7597144,-0.64876646,-0.082378544,0.64994293,-0.7555051,,-0.08667151,0.25967517,-0.07940353,0.7151589,0.3340313,0.6139795,-0.68509716,0.5090851,0.5210319,-0.13852687,-0.7932562,0.59292066,,-0.004419984,0.38846406,-0.4029116,-0.32231548,0.81815493,-0.47616723,-0.9356184,-0.1988216,0.2916988,0.14398248,0.53952986,0.8295641,,1.160047150503012,0.3643276460744155,0.20997046162000002,0.2518376221249138,0.07610653036935033,1.0344773140281414,-0.40133637049192394,,-0.7943216897783619,-0.5265822637618724,0.17807394988000003,0.12245892699496222,1.280010729802646,-0.3398555392967104,0.7729441209474094,,-0.048616146314302056,-0.0721453662927506,0.0795457676,-0.07359428191455561,,1.31465495e-05,-4.7683716e-07,8.34465e-07,0.99999994,-2.4292618e-05,-2.0902604e-05,2.4292618e-05,0.99999994,-2.682209e-06,2.0895153e-05,2.682209e-06,0.99999994,209,0.634,0,0,0.0,False,-0.25588632848275505,0.9473058023086134
0.6358259420085233,14:48:43.260415,14:48:29.324914,0,,0.11914554,0.0053852648,0.020131096,-0.70163286,-0.43924797,-0.5610459,-0.57554704,-0.11482701,0.80966675,-0.4200676,0.89099705,-0.17224148,,0.03932325,-0.060434468,0.035922468,0.42413914,-0.7863116,0.44924372,-0.36127707,0.30797192,0.8801318,-0.8304123,-0.5355999,-0.1534535,,0.10695681,1.3440118,0.44342306,0.9956293,0.020202175,-0.091181695,-0.044000052,-0.7597144,-0.64876646,-0.082378544,0.64994293,-0.7555051,,-0.086697064,0.2597069,-0.07944578,0.7118134,0.34263676,0.61312455,-0.68976367,0.50565034,0.5182122,-0.1324681,-0.7917814,0.59626704,,-0.004419931,0.3884609,-0.4029115,-0.32230997,0.81815785,-0.47616592,-0.9356214,-0.19882199,0.29168892,0.14397533,0.5395253,0.8295683,,1.1600703187016348,0.364173191416931,0.20992509147000002,0.24680506348128517,0.08293835535762235,1.0297232062447257,-0.4023164348887296,,-0.7943139670454877,-0.5265899864947466,0.17807654246000001,0.12245892699496222,1.280010729802646,-0.3398555392967104,0.7729441209474094,,-0.048616146314302056,-0.0721453662927506,0.0795457676,-0.07359428191455561,,1.31465495e-05,-4.7683716e-07,8.34465e-07,0.99999994,-2.4292618e-05,-2.0902604e-05,2.4292618e-05,0.99999994,-2.682209e-06,2.0895153e-05,2.682209e-06,0.99999994,217,0.659,0,0,0.0,False,-0.25588632848275505,0.9472575221078341
0.6808908109960612,14:48:43.286335,14:48:29.324914,0,,0.1191417,0.005366817,0.020196036,-0.7016441,-0.43813476,-0.5619016,-0.5755121,-0.11647177,0.8094566,-0.42009676,0.8913316,-0.17043015,,0.039322965,-0.06043596,0.03592086,0.42413387,-0.7862779,0.44930768,-0.36128497,0.30803958,0.8801049,-0.8304116,-0.53561056,-0.15342045,,0.10695681,1.3440118,0.44342306,0.9956293,0.020202175,-0.091181695,-0.044000052,-0.7597144,-0.64876646,-0.082378544,0.64994293,-0.7555051,,-0.086700566,0.25973532,-0.07950706,0.71182907,0.34141916,0.61378527,-0.6897558,0.50458837,0.5192567,-0.1324247,-0.79298395,0.5946765,,-0.0044194125,0.38845882,-0.40291193,-0.32230443,0.8181219,-0.4762314,-0.9356244,-0.19879855,0.29169527,0.14396818,0.5395884,0.8295285,,1.1601166550988802,0.3642272505470506,0.20985898068000003,0.24680506348128517,0.08293835535762235,1.0316834960080994,-0.4023164348887297,,-0.7943062443126135,-0.5265977092276208,0.17807783875000002,0.12245892699496222,1.280010729802646,-0.33993721803685095,0.7731074650135437,,-0.048616146314302056,-0.0721453662927506,0.0795457676,-0.07359428191455561,,1.31465495e-05,-4.7683716e-07,8.34465e-07,0.99999994,-2.4292618e-05,-2.0902604e-05,2.4292618e-05,0.99999994,-2.682209e-06,2.0895153e-05,2.682209e-06,0.99999994,229,0.696,0,0,0.0,False,-0.2556480176086704,0.9469678409031572
0.7068062550097238,14:48:43.318068,14:48:29.324914,0,,0.1191296,0.005383566,0.02040127,-0.69979954,-0.44223052,-0.56099266,-0.5749259,-0.11741328,0.8097371,-0.42395836,0.8891828,-0.1720841,,0.039324682,-0.06043721,0.035920322,0.42413825,-0.7862351,0.44937846,-0.36129135,0.3081137,0.8800763,-0.8304066,-0.53563064,-0.15337723,,0.10695681,1.3440118,0.44342306,0.9956293,0.020202175,-0.091181695,-0.044000052,-0.7597144,-0.64876646,-0.082378544,0.64994293,-0.7555051,,-0.08670813,0.25988197,-0.0796519,0.7104071,0.34565884,0.61305934,-0.6918785,0.50259364,0.5183665,-0.12894177,-0.7924138,0.5962,,-0.004421007,0.3884575,-0.40291268,-0.32230893,0.8180776,-0.47630447,-0.93562406,-0.19878055,0.29170853,0.14396016,0.5396622,0.8294819,,1.1604796235439687,0.3645207143962711,0.20968787040000003,0.24449847410295542,0.0864909043515238,1.029195024212695,-0.40182640269032677,,-0.7943139670454877,-0.5266054319604951,0.17807913504000003,0.12245892699496222,1.280010729802646,-0.3400188967769915,0.7726174328151408,,-0.048616146314302056,-0.0721453662927506,0.0795457676,-0.07359428191455561,,1.31465495e-05,-4.7683716e-07,8.34465e-07,0.99999994,-2.4292618e-05,-2.0902604e-05,2.4292618e-05,0.99999994,-2.682209e-06,2.0895153e-05,2.682209e-06,0.99999994,237,0.719,0,0,0.0,False,-0.25588632848275505,0.9473540825093929
0.7385011700098403,14:48:43.344253,14:48:29.324914,0,,0.119113445,0.0053903162,0.020509437,-0.6985876,-0.4451931,-0.5601593,-0.5743513,-0.117990345,0.8100609,-0.4267269,0.88762665,-0.17327064,,0.03932741,-0.060438298,0.035920262,0.42414743,-0.7862245,0.4493883,-0.36129692,0.30811924,0.88007206,-0.83039945,-0.535643,-0.15337262,,0.10695681,1.3440118,0.44342306,0.9956293,0.020202175,-0.091181695,-0.044000052,-0.7597144,-0.64876646,-0.082378544,0.64994293,-0.7555051,,-0.08670249,0.25995797,-0.07973063,0.7095047,0.34873062,0.6123643,-0.69328004,0.5012284,0.51781553,-0.12635623,-0.79193246,0.59739184,,-0.0044236584,0.3884566,-0.40291354,-0.32231846,0.818068,-0.47631449,-0.9356221,-0.19878912,0.29170907,0.14395171,0.53967357,0.82947594,,1.1607190282630695,0.36460566445788756,0.20959713010000003,0.24303064449856374,0.08922363434683261,1.0273750598394695,-0.4029698111532669,,-0.7943294125112361,-0.5266131546933693,0.17808043133,0.12245892699496222,1.280010729802646,-0.3400188967769916,0.7722907446828722,,-0.048616146314302056,-0.0721453662927506,0.0795457676,-0.07359428191455561,,1.31465495e-05,-4.7683716e-07,8.34465e-07,0.99999994,-2.4292618e-05,-2.0902604e-05,2.4292618e-05,0.99999994,-2.682209e-06,2.0895153e-05,2.682209e-06,0.99999994,245,0.744,0,0,0.0,False,-0.25588632848275505,0.9464367586945834
0.7647303369885776,14:48:43.375346,14:48:29.440486,0,,0.11906332,0.005373448,0.020673215,-0.69799054,-0.44630918,-0.5600155,-0.57406276,-0.11876786,0.8101518,-0.42809,0.8869623,-0.17331064,,0.039327994,-0.060438357,0.03591919,0.42414743,-0.7862245,0.4493883,-0.36129692,0.30811924,0.88007206,-0.83039945,-0.535643,-0.15337262,,0.10695681,1.3440118,0.44342306,0.9956293,0.020202175,-0.091181695,-0.044000052,-0.7597144,-0.64876646,-0.082378544,0.64994293,-0.7555051,,-0.08666974,0.26005325,-0.079870164,0.7090604,0.34986904,0.6122296,-0.6939658,0.50023836,0.51785433,-0.12507953,-0.7920563,0.59749633,,-0.004424124,0.38845554,-0.402913,-0.32231846,0.818068,-0.47631449,-0.9356221,-0.19878912,0.29170907,0.14395171,0.53967357,0.82947594,,1.1611051649067807,0.364690614519504,0.20944416788000003,0.2421918847246256,0.09058999934448701,1.0268326319834893,-0.4028064670871325,,-0.7943294125112361,-0.5266131546933693,0.17808172762000002,0.12245892699496222,1.280010729802646,-0.3400188967769916,0.7719640565506037,,-0.048616146314302056,-0.0721453662927506,0.0795457676,-0.07359428191455561,,1.31465495e-05,-4.7683716e-07,8.34465e-07,0.99999994,-2.4292618e-05,-2.0902604e-05,2.4292618e-05,0.99999994,-2.682209e-06,2.0895153e-05,2.682209e-06,0.99999994,256,0.778,0,0,0.0,False,-0.2552905512975445,0.9465815992969215
0.7958219620049931,14:48:43.404740,14:48:29.440486,0,,0.11903156,0.0053964406,0.02084601,-0.6957586,-0.450101,-0.559758,-0.5740957,-0.119868815,0.8099663,-0.4316641,0.8848957,-0.17500141,,0.03931887,-0.060464934,0.035925627,0.4241675,-0.78620595,0.44940165,-0.36129832,0.30812925,0.88006806,-0.8303886,-0.53566444,-0.15335661,,0.106973596,1.344011,0.4434233,0.9956284,0.020186784,-0.09119484,-0.044020224,-0.75971484,-0.64876467,-0.082378544,0.64994293,-0.7555051,,-0.08666805,0.26018405,-0.07998671,0.7071832,0.35378814,0.61214864,-0.69639313,0.49816072,0.51659703,-0.12218249,-0.79162484,0.5986665,,-0.004430428,0.38844597,-0.40293837,-0.32235184,0.8180553,-0.47631377,-0.9356108,-0.19881544,0.29172754,0.14395073,0.5396832,0.82946986,,1.1615994198107311,0.3648991283071081,0.20931324259000003,0.2392562255158423,0.09373263883909215,1.0245150564188932,-0.4023164348887298,,-0.7943139670454877,-0.5266208774262435,0.17808172762000002,0.12245892699496222,1.280010729802646,-0.3400188967769916,0.7719640565506037,,-0.048616146314302056,-0.0721453662927506,0.0795457676,-0.07359428191455561,,2.9876828e-05,7.748604e-07,-3.5762787e-07,0.99999994,-3.9599836e-05,-3.4064054e-05,3.9599836e-05,0.99999994,-4.2915344e-06,3.406778e-05,4.351139e-06,1.0,268,0.815,0,0,0.0,False,-0.2552905512975445,0.9465815992969215
0.8251893389970064,14:48:43.432566,14:48:29.440486,0,,0.118984826,0.005418211,0.020995706,-0.6958731,-0.44992566,-0.55975646,-0.573816,-0.12035611,0.81009233,-0.43185133,0.88491875,-0.17442203,,0.039261818,-0.060460567,0.035909593,0.42615733,-0.7872995,0.4455886,-0.3600096,0.3042792,0.8819338,-0.8299295,-0.53625876,-0.15376472,,0.106973596,1.344011,0.4434233,0.9956284,0.020186784,-0.09119484,-0.044020224,-0.75971484,-0.64876467,-0.082378544,0.64994293,-0.7555051,,-0.08663543,0.26029935,-0.08009016,0.7073289,0.35358846,0.61209553,-0.6962995,0.49780104,0.51706976,-0.12187191,-0.7919402,0.59831256,,-0.004372386,0.38844112,-0.40292662,-0.32443964,0.8193952,-0.4725785,-0.93475586,-0.20124824,0.29279795,0.14481165,0.5367408,0.83122736,,1.162039615584562,0.3651617012248317,0.20919009504000002,0.2392562255158423,0.09386927533885758,1.024566995995478,-0.40198974675646115,,-0.7943294125112361,-0.5266208774262435,0.17808172762000002,0.11553915885997292,1.2813770948003005,-0.34284832935690746,0.772127400616738,,-0.048616146314302056,-0.0721453662927506,0.0795457676,-0.07359428191455561,,2.9876828e-05,7.748604e-07,-3.5762787e-07,0.99999994,-3.9599836e-05,-3.4064054e-05,3.9599836e-05,0.99999994,-4.2915344e-06,3.406778e-05,4.351139e-06,1.0,276,0.838,0,0,0.0,False,-0.2551713958605024,0.9468230003008189
0.8530404019984417,14:48:43.458961,14:48:29.440486,0,,0.11897654,0.005468264,0.02110307,-0.69577885,-0.45007706,-0.559752,-0.57363176,-0.12079388,0.81015766,-0.43224788,0.88478214,-0.1741328,,0.039200243,-0.06045872,0.035880864,0.42878127,-0.7856977,0.4458986,-0.35970086,0.30428427,0.882058,-0.8287109,-0.5386001,-0.15214485,,0.106973596,1.344011,0.4434233,0.9956284,0.020186784,-0.09119484,-0.044020224,-0.75971484,-0.64876467,-0.082378544,0.64994293,-0.7555051,,-0.0866355,0.26040748,-0.0801393,0.7072833,0.35373175,0.6120655,-0.69642067,0.49738443,0.51730746,-0.12144375,-0.792138,0.5981378,,-0.0043084687,0.38842472,-0.40291026,-0.3271821,0.818031,-0.47305083,-0.93385637,-0.20338447,0.29418886,0.14444442,0.5380148,0.8304672,,1.1623253567009082,0.3655401151356687,0.20911879909000003,0.23904653557235778,0.09400591183862303,1.0244555780917817,-0.40198974675646115,,-0.7944529762372238,-0.5266208774262435,0.17808172762000002,0.10568373151620027,1.2816503677998314,-0.35328100768187054,0.7722907446828724,,-0.048616146314302056,-0.0721453662927506,0.0795457676,-0.07359428191455561,,2.9876828e-05,7.748604e-07,-3.5762787e-07,0.99999994,-3.9599836e-05,-3.4064054e-05,3.9599836e-05,0.99999994,-4.2915344e-06,3.406778e-05,4.351139e-06,1.0,284,0.863,0,0,0.0,False,-0.25588632848275505,0.9463884784938039
0.8794099630031269,14:48:43.488348,14:48:29.440486,0,,0.11900032,0.0055077076,0.021167725,-0.6951669,-0.45062125,-0.5600745,-0.57390165,-0.12126523,0.809896,-0.43287385,0.88444054,-0.17431289,,0.039237097,-0.060468987,0.03585905,0.42845836,-0.7834483,0.45014673,-0.3634991,0.30664545,0.87968004,-0.8272192,-0.54053426,-0.153398,,0.106973596,1.344011,0.4434233,0.9956284,0.020186784,-0.09119484,-0.044020224,-0.75971484,-0.64876467,-0.082378544,0.64994293,-0.7555051,,-0.086663686,0.2604788,-0.080159806,0.7067244,0.35428426,0.6123915,-0.6970506,0.49682024,0.5170011,-0.12108311,-0.7922451,0.598069,,-0.004342451,0.38839692,-0.40290686,-0.32681417,0.81586415,-0.47703063,-0.9345964,-0.20399307,0.29140422,0.1404353,0.5410661,0.8291715,,1.162387138563902,0.36587219264926035,0.20908120668000002,0.23820777579841967,0.09414254833838846,1.0242624814479444,-0.40182640269032677,,-0.7946460445590794,-0.5266208774262435,0.17808302391000003,0.10505466168574669,1.277551272806868,-0.35712619970334747,0.7716373684183353,,-0.048616146314302056,-0.0721453662927506,0.0795457676,-0.07359428191455561,,2.9876828e-05,7.748604e-07,-3.5762787e-07,0.99999994,-3.9599836e-05,-3.4064054e-05,3.9599836e-05,0.99999994,-4.2915344e-06,3.406778e-05,4.351139e-06,1.0,303,0.921,0,0,0.0,False,-0.2556480176086704,0.9468230003008189
0.9087517749867402,14:48:43.543789,14:48:29.440486,0,,0.11913976,0.0056269616,0.021280453,-0.6966688,-0.4502405,-0.5585123,-0.57201815,-0.121217996,0.8112345,-0.43295228,0.88464093,-0.17309707,,0.03926894,-0.06046419,0.03587383,0.42846403,-0.78336763,0.45028168,-0.36360043,0.30672956,0.8796088,-0.82717174,-0.5406034,-0.15341032,,0.106973596,1.344011,0.4434233,0.9956284,0.020186784,-0.09119484,-0.044020224,-0.75971484,-0.64876467,-0.082378544,0.64994293,-0.7555051,,-0.08680781,0.2606386,-0.08015231,0.70831436,0.35388812,0.61078143,-0.6956296,0.49697554,0.51876277,-0.119959444,-0.7923248,0.59818995,,-0.004375784,0.38840836,-0.40291044,-0.3268193,0.8157865,-0.47715995,-0.93461126,-0.204015,0.29134116,0.14032437,0.54117495,0.82911927,,1.1621863475091723,0.36690703885440645,0.20904231798000003,0.24051436517674943,0.09400591183862303,1.0246189355720627,-0.40198974675646104,,-0.7948622810795577,-0.5266131546933693,0.17808302391000003,0.10547404157271575,1.2774146363071028,-0.35668806683908894,0.7716373684183351,,-0.048616146314302056,-0.0721453662927506,0.0795457676,-0.07359428191455561,,2.9876828e-05,7.748604e-07,-3.5762787e-07,0.99999994,-3.9599836e-05,-3.4064054e-05,3.9599836e-05,0.99999994,-4.2915344e-06,3.406778e-05,4.351139e-06,1.0,311,0.946,0,0,0.0,False,-0.25540970673458663,0.9465815992969215
0.9642588380083907,14:48:43.572492,14:48:29.638970,0,,0.11922144,0.0056522936,0.021314621,-0.69640136,-0.4506318,-0.5585302,-0.57199925,-0.12148142,0.81120837,-0.43340728,0.8844055,-0.17316136,,0.03926709,-0.060464486,0.03587562,0.428665,-0.7836264,0.44963965,-0.36347362,0.30604964,0.879898,-0.8271234,-0.54061365,-0.15363488,,0.106973596,1.344011,0.4434233,0.9956284,0.020186784,-0.09119484,-0.044020224,-0.75971484,-0.64876467,-0.082378544,0.64994293,-0.7555051,,-0.08689119,0.2606777,-0.08015289,0.7080946,0.35428795,0.61080444,-0.6959192,0.49663377,0.5187016,-0.119576365,-0.79236037,0.59821945,,-0.0043741087,0.38840994,-0.40291166,-0.3270302,0.81607914,-0.47651455,-0.934525,-0.20435807,0.29137737,0.1404074,0.54060394,0.8294776,,1.1619160518585743,0.36727773003236924,0.20902676250000002,0.2403046752332649,0.09400591183862303,1.0247006143122033,-0.40215309082259565,,-0.7948931720110546,-0.5266208774262435,0.17808172762000002,0.10484497174226218,1.277551272806868,-0.3565544485223635,0.7718007124844695,,-0.048616146314302056,-0.0721453662927506,0.0795457676,-0.07359428191455561,,2.9876828e-05,7.748604e-07,-3.5762787e-07,0.99999994,-3.9599836e-05,-3.4064054e-05,3.9599836e-05,0.99999994,-4.2915344e-06,3.406778e-05,4.351139e-06,1.0,323,0.982,0,0,0.0,False,-0.2555288621716292,0.9466298794977013
0.9929366190044675,14:48:43.607555,14:48:29.638970,0,,0.119279444,0.005662605,0.021366537,-0.69615823,-0.45114857,-0.5584161,-0.5719381,-0.121575624,0.81123745,-0.4338783,0.88412905,-0.17339328,,0.039264,-0.060473546,0.035874188,0.428663,-0.7836039,0.4496807,-0.36339936,0.30614477,0.87989557,-0.82715696,-0.54059243,-0.15352836,,0.106973596,1.344011,0.4434233,0.9956284,0.020186784,-0.09119484,-0.044020224,-0.75971484,-0.64876467,-0.082378544,0.64994293,-0.7555051,,-0.08695351,0.26071766,-0.08017909,0.70790267,0.35482454,0.61071545,-0.6961865,0.4963972,0.5185694,-0.11915629,-0.79226846,0.598425,,-0.004370444,0.38840425,-0.40291858,-0.3270287,0.8160499,-0.47656563,-0.9345134,-0.20429197,0.29146093,0.14048813,0.5406731,0.8294189,,1.1617384290024673,0.3675634711487155,0.20898787380000003,0.24009498528978038,0.09414254833838846,1.0245075176683662,-0.4023164348887299,,-0.7948622810795577,-0.5266749365563631,0.17808302391000003,0.10484497174226218,1.2776879093066338,-0.35666586642606,0.7718007124844695,,-0.048616146314302056,-0.0721453662927506,0.0795457676,-0.07359428191455561,,2.9876828e-05,7.748604e-07,-3.5762787e-07,0.99999994,-3.9599836e-05,-3.4064054e-05,3.9599836e-05,0.99999994,-4.2915344e-06,3.406778e-05,4.351139e-06,1.0,331,1.006,0,0,0.0,False,-0.2566012611050077,0.9466298794977013
1.0279957489983644,14:48:43.634001,14:48:29.638970,0,,0.11931822,0.005657211,0.021435946,-0.6957825,-0.45169407,-0.55844337,-0.5719656,-0.12183818,0.81117857,-0.43444416,0.88381433,-0.17358074,,0.039264653,-0.06048353,0.035873234,0.42867485,-0.7835663,0.449735,-0.36332995,0.30624855,0.8798881,-0.8271813,-0.54058814,-0.15341213,,0.106973596,1.344011,0.4434233,0.9956284,0.020186784,-0.09119484,-0.044020224,-0.75971484,-0.64876467,-0.082378544,0.64994293,-0.7555051,,-0.08699919,0.26075763,-0.08023072,0.70758414,0.35538554,0.61075836,-0.6965866,0.49600896,0.5184035,-0.118708506,-0.7922602,0.59852487,,-0.004370488,0.38839802,-0.4029265,-0.32704163,0.8160068,-0.47663054,-0.9344981,-0.20423712,0.29154846,0.14055988,0.5407588,0.8293508,,1.1616303107422281,0.3677719849363196,0.20892565188,0.23967560540281135,0.09441582133791936,1.024366360601114,-0.40215309082259565,,-0.7948545583466834,-0.5267367184193569,0.17808561649000001,0.10484497174226218,1.277824545806399,-0.3567772843297563,0.7718007124844695,,-0.048616146314302056,-0.0721453662927506,0.0795457676,-0.07359428191455561,,2.9876828e-05,7.748604e-07,-3.5762787e-07,0.99999994,-3.9599836e-05,-3.4064054e-05,3.9599836e-05,0.99999994,-4.2915344e-06,3.406778e-05,4.351139e-06,1.0,339,1.032,0,0,0.0,False,-0.2559459062012759,0.9461953576906861
1.0544598620035686,14:48:43.666236,14:48:29.638970,0,,0.119358025,0.00565207,0.021553248,-0.69536906,-0.45450142,-0.55667794,-0.57069385,-0.12155032,0.812117,-0.43677264,0.8824136,-0.17485896,,0.03926338,-0.06050171,0.035871685,0.42871308,-0.7836561,0.44954205,-0.36343014,0.30595848,0.87994766,-0.82711756,-0.54062223,-0.15363598,,0.106973596,1.344011,0.4434233,0.9956284,0.020186784,-0.09119484,-0.044020224,-0.75971484,-0.64876467,-0.082378544,0.64994293,-0.7555051,,-0.087050654,0.26082894,-0.08031809,0.7074647,0.3583286,0.6091751,-0.69714975,0.49539644,0.51823217,-0.116085745,-0.7913172,0.6002842,,-0.004368146,0.38838714,-0.40294102,-0.32708076,0.81611407,-0.47641996,-0.93450224,-0.20441066,0.2914136,0.14044145,0.5405313,0.8295192,,1.1615994198107311,0.3679882214567979,0.20882324497000002,0.23946591545932683,0.09687527833369727,1.0222791595944378,-0.40198974675646104,,-0.794839112880935,-0.526844836679596,0.17808691278000002,0.10463528179877765,1.277824545806399,-0.35669560558961577,0.7716373684183353,,-0.048616146314302056,-0.0721453662927506,0.0795457676,-0.07359428191455561,,2.9876828e-05,7.748604e-07,-3.5762787e-07,0.99999994,-3.9599836e-05,-3.4064054e-05,3.9599836e-05,0.99999994,-4.2915344e-06,3.406778e-05,4.351139e-06,1.0,351,1.069,0,0,0.0,False,-0.25630337251240265,0.9461470774899066
1.0867103769851383,14:48:43.689454,14:48:29.638970,0,,0.11937406,0.005645469,0.021650359,-0.6953599,-0.45453238,-0.556664,-0.57057613,-0.1217697,0.81216687,-0.43694085,0.88236743,-0.17467168,,0.03926624,-0.060514346,0.035872042,0.42871338,-0.7835992,0.44964096,-0.36350077,0.3060233,0.879896,-0.8270863,-0.540668,-0.15364274,,0.106973596,1.344011,0.4434233,0.9956284,0.020186784,-0.09119484,-0.044020224,-0.75971484,-0.64876467,-0.082378544,0.64994293,-0.7555051,,-0.08707655,0.2608867,-0.080393784,0.7074779,0.35835359,0.60914505,-0.69717026,0.49520087,0.5183915,-0.1158817,-0.7914283,0.60017717,,-0.004370387,0.3883804,-0.40295184,-0.32708052,0.8160587,-0.47651497,-0.93451375,-0.20442072,0.29136953,0.14036511,0.5406111,0.8294801,,1.1616225880093538,0.3682044579772762,0.20873509725000003,0.23946591545932683,0.09687527833369727,1.0223608383345786,-0.40215309082259565,,-0.7948468356138092,-0.5269220640083383,0.17808820907000003,0.10463528179877765,1.277824545806399,-0.3567772843297563,0.7718007124844695,,-0.048616146314302056,-0.0721453662927506,0.0795457676,-0.07359428191455561,,2.9876828e-05,7.748604e-07,-3.5762787e-07,0.99999994,-3.9599836e-05,-3.4064054e-05,3.9599836e-05,0.99999994,-4.2915344e-06,3.406778e-05,4.351139e-06,1.0,359,1.093,0,0,0.0,False,-0.2555288621716292,0.9466298794977013
1.109898572001839,14:48:43.722402,14:48:29.638970,0,,0.11944456,0.0056530684,0.021908835,-0.69574726,-0.45466295,-0.5560731,-0.56979114,-0.122021854,0.8126799,-0.43734843,0.8822653,-0.17416671,,0.03927063,-0.06053558,0.035871863,0.42873073,-0.78353846,0.44973025,-0.3634941,0.30612436,0.8798636,-0.82708025,-0.5406989,-0.15356681,,0.106973596,1.344011,0.4434233,0.9956284,0.020186784,-0.09119484,-0.044020224,-0.75971484,-0.64876467,-0.082378544,0.64994293,-0.7555051,,-0.087171935,0.2610587,-0.080575846,0.70794064,0.35848156,0.6085319,-0.696829,0.4949469,0.5190923,-0.115105934,-0.79152924,0.6001934,,-0.0043736566,0.38836846,-0.40296963,-0.3270987,0.81599617,-0.47660953,-0.934507,-0.20439933,0.29140618,0.14036767,0.54071355,0.82941294,,1.1616225880093538,0.3689458403332017,0.20851343166000003,0.24009498528978038,0.09687527833369727,1.0223608383345786,-0.40215309082259565,,-0.7948545583466834,-0.5270533504672001,0.17809209794000003,0.10463528179877765,1.2779611823061645,-0.3568887022334528,0.7718007124844695,,-0.048616146314302056,-0.0721453662927506,0.0795457676,-0.07359428191455561,,2.9876828e-05,7.748604e-07,-3.5762787e-07,0.99999994,-3.9599836e-05,-3.4064054e-05,3.9599836e-05,0.99999994,-4.2915344e-06,3.406778e-05,4.351139e-06,1.0,388,1.182,0,0,0.0,False,-0.25624379479388093,0.9464850388953625
1.1428290939948056,14:48:43.799249,14:48:29.818933,0,,0.119679496,0.005811125,0.02241382,-0.6937894,-0.461734,-0.55268234,-0.5675856,-0.12180054,0.814255,-0.4432861,0.8786161,-0.17756969,,0.03926687,-0.060548022,0.035865963,0.42875683,-0.7836497,0.4495115,-0.36356083,0.30582958,0.8799385,-0.82703733,-0.5407045,-0.15377796,,0.106973596,1.344011,0.4434233,0.9956284,0.020186784,-0.09119484,-0.044020224,-0.75971484,-0.64876467,-0.082378544,0.64994293,-0.7555051,,-0.087448105,0.26150057,-0.08082818,0.7066891,0.36588258,0.6055744,-0.69907814,0.49294314,0.5179737,-0.108996235,-0.78939027,0.6041381,,-0.0043687164,0.38835728,-0.40297702,-0.32712546,0.81612223,-0.47637528,-0.9345095,-0.20454909,0.291293,0.14028856,0.5404666,0.8295872,,1.1615685288792343,0.370984641811997,0.20815565562000002,0.23820777579841967,0.10124764632619138,1.0169985331332008,-0.40149971455805844,,-0.7948159446823123,-0.5271228550630681,0.17809598681000002,0.10442559185529314,1.2779611823061645,-0.3568070234933123,0.7716373684183353,,-0.048616146314302056,-0.0721453662927506,0.0795457676,-0.07359428191455561,,2.9876828e-05,7.748604e-07,-3.5762787e-07,0.99999994,-3.9599836e-05,-3.4064054e-05,3.9599836e-05,0.99999994,-4.2915344e-06,3.406778e-05,4.351139e-06,1.0,392,1.194,0,0,0.0,False,-0.25493308498641865,0.9463884784938039
1.219687876990065,14:48:43.821798,14:48:29.818933,0,,0.11978565,0.005898714,0.022616073,-0.6927828,-0.46586752,-0.5504719,-0.56589615,-0.12195605,0.81540674,-0.4470048,0.87640977,-0.17914367,,0.039268594,-0.06054926,0.035865426,0.42876115,-0.7836436,0.44951802,-0.36356723,0.30583185,0.879935,-0.8270323,-0.5407121,-0.15377843,,0.106973596,1.344011,0.4434233,0.9956284,0.020186784,-0.09119484,-0.044020224,-0.75971484,-0.64876467,-0.082378544,0.64994293,-0.7555051,,-0.08756955,0.2616956,-0.08091219,0.7061381,0.37020278,0.6035884,-0.70024675,0.49150813,0.51775885,-0.104992814,-0.78827006,0.6063059,,-0.0043703113,0.38835597,-0.40297776,-0.3271299,0.8161168,-0.47638154,-0.93450916,-0.20455492,0.29129004,0.14028051,0.5404726,0.82958466,,1.1615685288792343,0.37185731062678434,0.20802602662000003,0.23736901602448157,0.10452692232056193,1.0141611459642053,-0.4011730264257899,,-0.7948236674151865,-0.5271305777959424,0.17809728310000003,0.10442559185529314,1.2779611823061645,-0.3568070234933123,0.7716373684183353,,-0.048616146314302056,-0.0721453662927506,0.0795457676,-0.07359428191455561,,2.9876828e-05,7.748604e-07,-3.5762787e-07,0.99999994,-3.9599836e-05,-3.4064054e-05,3.9599836e-05,0.99999994,-4.2915344e-06,3.406778e-05,4.351139e-06,1.0,400,1.219,0,0,0.0,False,-0.25481392954937654,0.9464850388953625
1.2422222509921994,14:48:43.850318,14:48:29.818933,0,,0.11982703,0.0059256107,0.022729471,-0.6927621,-0.46591428,-0.5504585,-0.5657283,-0.12227619,0.8154753,-0.4472494,0.87634027,-0.17887273,,0.039269052,-0.060548097,0.035864174,0.4287616,-0.78364515,0.44951484,-0.36356014,0.30583283,0.87993765,-0.82703525,-0.5407092,-0.15377283,,0.106973596,1.344011,0.4434233,0.9956284,0.020186784,-0.09119484,-0.044020224,-0.75971484,-0.64876467,-0.082378544,0.64994293,-0.7555051,,-0.087620676,0.26178864,-0.080975644,0.7061497,0.37024096,0.6035514,-0.7002793,0.4912215,0.51798683,-0.10469744,-0.78843075,0.60614794,,-0.004370706,0.3883555,-0.4029761,-0.32713044,0.81611806,-0.47637907,-0.93450785,-0.2045518,0.29129648,0.1402881,0.5404719,0.8295838,,1.1615762516121084,0.3723052291334894,0.20794047148000003,0.23736901602448157,0.1043902858207965,1.0142725638679018,-0.4011730264257899,,-0.7948236674151865,-0.5271228550630681,0.17809857939,0.10442559185529314,1.2779611823061645,-0.3568070234933123,0.7716373684183353,,-0.048616146314302056,-0.0721453662927506,0.0795457676,-0.07359428191455561,,2.9876828e-05,7.748604e-07,-3.5762787e-07,0.99999994,-3.9599836e-05,-3.4064054e-05,3.9599836e-05,0.99999994,-4.2915344e-06,3.406778e-05,4.351139e-06,1.0,412,1.256,0,0,0.0,False,-0.25493308498641865,0.9468712805015984
1.2707932489865925,14:48:43.880620,14:48:29.818933,0,,0.11988893,0.0059572905,0.022865698,-0.691073,-0.46971333,-0.54935175,-0.56514055,-0.1226719,0.8158234,-0.450593,0.87425447,-0.18067896,,0.039270367,-0.060550153,0.03586471,0.42878562,-0.7835711,0.44962093,-0.36344635,0.3060213,0.8799192,-0.82707274,-0.54070985,-0.15356869,,0.106973596,1.344011,0.4434233,0.9956284,0.020186784,-0.09119484,-0.044020224,-0.75971484,-0.64876467,-0.082378544,0.64994293,-0.7555051,,-0.08769422,0.26189956,-0.081051,0.7048309,0.37420535,0.6026473,-0.702059,0.4896731,0.517043,-0.10161992,-0.78752184,0.60785097,,-0.004371966,0.38835475,-0.40297812,-0.32715642,0.816035,-0.4765035,-0.93448126,-0.20445988,0.2914462,0.14040448,0.54063207,0.8294598,,1.1615530834134857,0.37273770217444596,0.20784065715000002,0.23548180653312087,0.10725965231587076,1.0118511091501363,-0.40133637049192417,,-0.7948313901480608,-0.5271383005288166,0.17809987568000002,0.10442559185529314,1.27809781880593,-0.3570001201371493,0.7718007124844695,,-0.048616146314302056,-0.0721453662927506,0.0795457676,-0.07359428191455561,,2.9876828e-05,7.748604e-07,-3.5762787e-07,0.99999994,-3.9599836e-05,-3.4064054e-05,3.9599836e-05,0.99999994,-4.2915344e-06,3.406778e-05,4.351139e-06,1.0,420,1.282,0,0,0.0,False,-0.2555288621716292,0.9465815992969215
1.3010616969841067,14:48:43.909144,14:48:29.818933,0,,0.119922616,0.0059285164,0.022992358,-0.6909689,-0.4718297,-0.54766655,-0.56383497,-0.122348726,0.8167747,-0.45238474,0.8731594,-0.18149504,,0.03926961,-0.060552806,0.035864472,0.42877993,-0.78357255,0.44962388,-0.36346143,0.30601597,0.87991476,-0.8270691,-0.5407108,-0.15358496,,0.106973596,1.344011,0.4434233,0.9956284,0.020186784,-0.09119484,-0.044020224,-0.75971484,-0.64876467,-0.082378544,0.64994293,-0.7555051,,-0.08774165,0.26195922,-0.081161425,0.70496726,0.37643296,0.6010985,-0.70223814,0.48926643,0.5171847,-0.09941195,-0.7867125,0.6092624,,-0.0043710526,0.38835317,-0.4029802,-0.32715037,0.81603676,-0.4765046,-0.9344856,-0.20446339,0.2914299,0.14038976,0.5406281,0.82946485,,1.1614990242833663,0.37289215683193044,0.20771880589000002,0.2356914964766054,0.10930919981235236,1.0102615193348305,-0.40149971455805833,,-0.7948236674151865,-0.527153745994565,0.17809987568000002,0.10442559185529314,1.27809781880593,-0.3570001201371493,0.7718007124844695,,-0.048616146314302056,-0.0721453662927506,0.0795457676,-0.07359428191455561,,2.9876828e-05,7.748604e-07,-3.5762787e-07,0.99999994,-3.9599836e-05,-3.4064054e-05,3.9599836e-05,0.99999994,-4.2915344e-06,3.406778e-05,4.351139e-06,1.0,428,1.306,0,0,0.0,False,-0.25546928445310746,0.9463401982930244
1.3295930559979752,14:48:43.933631,14:48:29.987101,0,,0.11993673,0.00588271,0.023093522,-0.689607,-0.47370878,-0.547761,-0.56414455,-0.12286055,0.81648403,-0.45407373,0.8720695,-0.1825149,,0.039268315,-0.060554445,0.035862386,0.42876998,-0.78354335,0.44968432,-0.36347005,0.30608028,0.87988883,-0.82707053,-0.54071677,-0.15355664,,0.106973596,1.344011,0.4434233,0.9956284,0.020186784,-0.09119484,-0.044020224,-0.75971484,-0.64876467,-0.082378544,0.64994293,-0.7555051,,-0.0877679,0.26198992,-0.08126584,0.7037667,0.3783846,0.6012799,-0.70361185,0.4882229,0.51630294,-0.09819753,-0.7864245,0.6098309,,-0.004369477,0.3883507,-0.4029805,-0.32713988,0.81600505,-0.47656614,-0.93449026,-0.20443727,0.29143322,0.1403831,0.54068583,0.8294284,,1.1614449651532466,0.3729076022976789,0.20760991753000002,0.2340139769287292,0.11067556481000676,1.0093106977781474,-0.4018264026903269,,-0.7948082219494381,-0.5271614687274393,0.17810117197000003,0.10442559185529314,1.27809781880593,-0.35708179887728986,0.7719640565506038,,-0.048616146314302056,-0.0721453662927506,0.0795457676,-0.07359428191455561,,2.9876828e-05,7.748604e-07,-3.5762787e-07,0.99999994,-3.9599836e-05,-3.4064054e-05,3.9599836e-05,0.99999994,-4.2915344e-06,3.406778e-05,4.351139e-06,1.0,465,1.42,0,0,0.0,False,-0.25558843989015,0.9472575221078341
1.3540370530099608,14:48:44.041152,14:48:29.987101,0,,0.12006677,0.0057259947,0.023739487,-0.67938095,-0.4933836,-0.543152,-0.5595472,-0.13052744,0.8184556,-0.4747087,0.8599622,-0.1873936,,0.039270706,-0.06056109,0.035859466,0.42876774,-0.78353554,0.44970012,-0.36350572,0.30607513,0.8798759,-0.827056,-0.5407311,-0.15358463,,0.106973596,1.344011,0.4434233,0.9956284,0.020186784,-0.09119484,-0.044020224,-0.75971484,-0.64876467,-0.082378544,0.64994293,-0.7555051,,-0.087968744,0.26228786,-0.08183999,0.69587046,0.3987789,0.5972769,-0.7138538,0.4750934,0.5144892,-0.078594916,-0.78438616,0.61527324,,-0.0043712347,0.38834444,-0.40298453,-0.3271373,0.8159989,-0.4765784,-0.9344969,-0.20445286,0.2914011,0.14034516,0.54068923,0.8294326,,1.1613754605573787,0.3730929478866603,0.20699417978,0.22311009986753394,0.13130767627458828,1.0013078982551686,-0.40345984335166973,,-0.7948082219494381,-0.5272000823918104,0.17810506084000002,0.10442559185529314,1.27809781880593,-0.35708179887728986,0.7719640565506038,,-0.048616146314302056,-0.0721453662927506,0.0795457676,-0.07359428191455561,,2.9876828e-05,7.748604e-07,-3.5762787e-07,0.99999994,-3.9599836e-05,-3.4064054e-05,3.9599836e-05,0.99999994,-4.2915344e-06,3.406778e-05,4.351139e-06,1.0,473,1.444,0,0,0.0,False,-0.25600548391979716,0.9467264398992599
1.4615300899895374,14:48:44.074412,14:48:30.129595,0,,0.120078556,0.0056675076,0.023980796,-0.67545354,-0.4992262,-0.5427113,-0.5594317,-0.13256529,0.8182069,-0.480415,0.8562707,-0.18974137,,0.03927,-0.06056285,0.035856187,0.4287578,-0.78354305,0.44969654,-0.36351442,0.30606756,0.87987494,-0.82705736,-0.5407244,-0.15360042,,0.106973596,1.344011,0.4434233,0.9956284,0.020186784,-0.09119484,-0.044020224,-0.75971484,-0.64876467,-0.082378544,0.64994293,-0.7555051,,-0.08800719,0.26240024,-0.08205834,0.69253916,0.40485606,0.5970604,-0.71759444,0.47131303,0.5127594,-0.07380858,-0.7835532,0.6169252,,-0.004370125,0.38834086,-0.4029843,-0.3271268,0.8160061,-0.4765733,-0.9345016,-0.20445055,0.29138774,0.1403385,0.5406792,0.82944024,,1.1614835788176179,0.37317789794827677,0.20676084758000002,0.21849692111087438,0.136499863265675,0.9983808777569536,-0.4031331552194013,,-0.7947927764836896,-0.5272078051246846,0.17810765342,0.10442559185529314,1.27809781880593,-0.35708179887728986,0.7719640565506038,,-0.048616146314302056,-0.0721453662927506,0.0795457676,-0.07359428191455561,,2.9876828e-05,7.748604e-07,-3.5762787e-07,0.99999994,-3.9599836e-05,-3.4064054e-05,3.9599836e-05,0.99999994,-4.2915344e-06,3.406778e-05,4.351139e-06,1.0,485,1.481,0,0,0.0,False,-0.25677999426057063,0.9470161211039367
1.4948549330001697,14:48:44.108495,14:48:30.129595,0,,0.120084144,0.005601838,0.024243966,-0.6717861,-0.50695515,-0.5400924,-0.5580859,-0.1330438,0.8190478,-0.48707637,0.85164297,-0.19354764,,0.03927012,-0.0605641,0.035856307,0.4287573,-0.78357816,0.44963568,-0.36352152,0.30599466,0.87989736,-0.82705444,-0.54071474,-0.1536502,,0.106973596,1.344011,0.4434233,0.9956284,0.020186784,-0.09119484,-0.044020224,-0.75971484,-0.64876467,-0.082378544,0.64994293,-0.7555051,,-0.08804201,0.2625216,-0.082298465,0.6896195,0.41297495,0.59487534,-0.7210163,0.46816048,0.5108437,-0.0675315,-0.78120255,0.62061423,,-0.0043701967,0.38834026,-0.40298542,-0.32712626,0.8160438,-0.4765091,-0.9345029,-0.20447746,0.2913646,0.14033091,0.54061216,0.82948524,,1.1616457562079765,0.3732010661468994,0.20650677474,0.21451281218466842,0.1431950517541816,0.9930030792159694,-0.40329649928553546,,-0.7947927764836896,-0.5272155278575589,0.17810765342,0.10442559185529314,1.27809781880593,-0.3570001201371493,0.7718007124844695,,-0.048616146314302056,-0.0721453662927506,0.0795457676,-0.07359428191455561,,2.9876828e-05,7.748604e-07,-3.5762787e-07,0.99999994,-3.9599836e-05,-3.4064054e-05,3.9599836e-05,0.99999994,-4.2915344e-06,3.406778e-05,4.351139e-06,1.0,493,1.506,0,0,0.0,False,-0.2555288621716292,0.9467264398992599
1.528949850006029,14:48:44.130716,14:48:30.129595,0,,0.12006971,0.0055446923,0.024435684,-0.6698905,-0.51040655,-0.5391955,-0.5574124,-0.13398385,0.8193532,-0.49044666,0.84943116,-0.19475248,,0.039269242,-0.060565487,0.03585595,0.4287521,-0.78358114,0.44963548,-0.36352938,0.30599037,0.87989557,-0.82705367,-0.5407129,-0.1536609,,0.106973596,1.344011,0.4434233,0.9956284,0.020186784,-0.09119484,-0.044020224,-0.75971484,-0.64876467,-0.082378544,0.64994293,-0.7555051,,-0.08804942,0.2626035,-0.08248143,0.6881021,0.41658053,0.59411794,-0.7227543,0.46610713,0.51026505,-0.064356126,-0.78051573,0.62181467,,-0.004369212,0.38833928,-0.40298638,-0.32712075,0.8160468,-0.47650775,-0.9345059,-0.20447786,0.29135472,0.14032379,0.5406075,0.82948947,,1.1618156563312094,0.3732010661468994,0.20631492382000002,0.2124159127498232,0.1466109642483176,0.9910344190249645,-0.403623187417804,,-0.7947850537508154,-0.5272232505904331,0.17810765342,0.10442559185529314,1.27809781880593,-0.3570001201371493,0.7718007124844695,,-0.048616146314302056,-0.0721453662927506,0.0795457676,-0.07359428191455561,,2.9876828e-05,7.748604e-07,-3.5762787e-07,0.99999994,-3.9599836e-05,-3.4064054e-05,3.9599836e-05,0.99999994,-4.2915344e-06,3.406778e-05,4.351139e-06,1.0,501,1.531,0,0,0.0,False,-0.2551118181419816,0.9462436378914652
1.5511138279980514,14:48:44.160863,14:48:30.129595,0,,0.12005889,0.005487278,0.024755448,-0.66396075,-0.5204284,-0.53694534,-0.55637014,-0.13594037,0.8197392,-0.4996081,0.8430151,-0.19929188,,0.039270252,-0.060565382,0.035856426,0.42875686,-0.78353983,0.44970286,-0.36352867,0.3060655,0.8798697,-0.8270516,-0.5407301,-0.1536116,,0.106973596,1.344011,0.4434233,0.9956284,0.020186784,-0.09119484,-0.044020224,-0.75971484,-0.64876467,-0.082378544,0.64994293,-0.7555051,,-0.088073134,0.26276842,-0.08276051,0.68316776,0.42708606,0.59235066,-0.7280992,0.4607354,0.5075376,-0.056154683,-0.7780234,0.62572056,,-0.0043702684,0.38833967,-0.40298653,-0.32712576,0.8160036,-0.4765782,-0.9345042,-0.20445678,0.2913749,0.14032333,0.5406806,0.8294419,,1.1621400111119269,0.37323195707839635,0.20601807341000003,0.2057058345583184,0.15549233673307122,0.9846907214262433,-0.40280646708713275,,-0.7947927764836896,-0.5272232505904331,0.17810765342,0.10442559185529314,1.27809781880593,-0.35708179887728986,0.7719640565506038,,-0.048616146314302056,-0.0721453662927506,0.0795457676,-0.07359428191455561,,2.9876828e-05,7.748604e-07,-3.5762787e-07,0.99999994,-3.9599836e-05,-3.4064054e-05,3.9599836e-05,0.99999994,-4.2915344e-06,3.406778e-05,4.351139e-06,1.0,509,1.556,0,0,0.0,False,-0.2552905512975445,0.9466781596984803
1.581322777987225,14:48:44.185049,14:48:30.129595,0,,0.12002427,0.0054600686,0.025078133,-0.65626127,-0.53203225,-0.53503513,-0.5554455,-0.13928977,0.8198041,-0.51068705,0.8351885,-0.20410454,,0.039270252,-0.060565382,0.035856426,0.42875686,-0.78353983,0.44970286,-0.36352867,0.3060655,0.8798697,-0.8270516,-0.5407301,-0.1536116,,0.106973596,1.344011,0.4434233,0.9956284,0.020186784,-0.09119484,-0.044020224,-0.75971484,-0.64876467,-0.082378544,0.64994293,-0.7555051,,-0.08807208,0.26295885,-0.08302472,0.67665935,0.43923792,0.59093326,-0.7348328,0.45343462,0.50439847,-0.046398677,-0.7755431,0.62958723,,-0.0043702684,0.38833967,-0.40298653,-0.32712576,0.8160036,-0.4765782,-0.9345042,-0.20445678,0.2913749,0.14032333,0.5406806,0.8294419,,1.1626497114816257,0.37323967981127054,0.20573548219,0.19689885693196837,0.16614998371477557,0.9777970572210148,-0.4024797789548643,,-0.7947927764836896,-0.5272232505904331,0.17810765342,0.10442559185529314,1.27809781880593,-0.35708179887728986,0.7719640565506038,,-0.048616146314302056,-0.0721453662927506,0.0795457676,-0.07359428191455561,,2.9876828e-05,7.748604e-07,-3.5762787e-07,0.99999994,-3.9599836e-05,-3.4064054e-05,3.9599836e-05,0.99999994,-4.2915344e-06,3.406778e-05,4.351139e-06,1.0,542,1.657,0,0,0.0,False,-0.25588632848275505,0.9466298794977013
1.605510747001972,14:48:44.279185,14:48:30.129595,0,,0.11980543,0.0055814087,0.026013985,-0.6262675,-0.57623494,-0.5251117,-0.5488096,-0.15253285,0.8219134,-0.55371195,0.8029239,-0.22071704,,0.039053373,-0.060571283,0.035763502,0.43715683,-0.7819212,0.44440174,-0.36156034,0.29964346,0.8828861,-0.8235094,-0.54663783,-0.15172064,,0.106973596,1.344011,0.4434233,0.9956284,0.020186784,-0.09119484,-0.044020224,-0.75971484,-0.64876467,-0.082378544,0.64994293,-0.7555051,,-0.087941766,0.26366648,-0.08367334,0.651436,0.48574877,0.5828202,-0.7586756,0.42366078,0.49489683,-0.0065225163,-0.764565,0.6445136,,-0.004145351,0.38828233,-0.4029438,-0.33591986,0.815296,-0.47164634,-0.9314027,-0.21301484,0.29515025,0.14016716,0.5384395,0.8309248,,1.165167322398623,0.3731547297496541,0.20503548559,0.16376784586141352,0.2093271176406548,0.9501034437458773,-0.4021530908225954,,-0.7950399039356648,-0.5272618642548041,0.17810765342,0.073181790276099,1.2798740933028807,-0.38278881744709015,0.7718007124844695,,-0.048616146314302056,-0.0721453662927506,0.0795457676,-0.07359428191455561,,2.9876828e-05,7.748604e-07,-3.5762787e-07,0.99999994,-3.9599836e-05,-3.4064054e-05,3.9599836e-05,0.99999994,-4.2915344e-06,3.406778e-05,4.351139e-06,1.0,550,1.682,0,0,0.0,False,-0.2550522404234603,0.9459056764860092
1.6996570579940453,14:48:44.305533,14:48:30.129595,0,,0.119654745,0.005617261,0.026249677,-0.6204052,-0.5855327,-0.52177465,-0.5467966,-0.1540043,0.8229799,-0.56223714,0.7958857,-0.2246224,,0.03911139,-0.060595676,0.03572303,0.43718463,-0.7778617,0.45144278,-0.3684964,0.302961,0.87887716,-0.82041436,-0.5505867,-0.15418953,,0.106973596,1.344011,0.4434233,0.9956284,0.020186784,-0.09119484,-0.044020224,-0.75971484,-0.64876467,-0.082378544,0.64994293,-0.7555051,,-0.087813705,0.26385146,-0.08384342,0.64655155,0.4956194,0.5799418,-0.7628681,0.418231,0.493067,0.0018238975,-0.76121235,0.64850014,,-0.0041978247,0.38822898,-0.40294212,-0.33589783,0.81147796,-0.478201,-0.9325105,-0.21500099,0.29017022,0.13265306,0.543395,0.8289301,,1.1662485050010143,0.37298482962642115,0.20485789386000003,0.15726745761339328,0.21848176312493928,0.9426384441982172,-0.4021530908225954,,-0.7954183178465019,-0.527292755186301,0.17810635713000003,0.07045582101080018,1.2723590858157814,-0.39046453982754215,0.7713106802860665,,-0.048616146314302056,-0.0721453662927506,0.0795457676,-0.07359428191455561,,2.9876828e-05,7.748604e-07,-3.5762787e-07,0.99999994,-3.9599836e-05,-3.4064054e-05,3.9599836e-05,0.99999994,-4.2915344e-06,3.406778e-05,4.351139e-06,1.0,558,1.706,0,0,0.0,False,-0.2549926627049395,0.9457125556828914
1.7260104260058142,14:48:44.330598,14:48:30.129595,0,,0.11953134,0.0056352764,0.026365742,-0.6179487,-0.5881174,-0.52178276,-0.54680264,-0.15538296,0.8227168,-0.5649301,0.793709,-0.22556555,,0.039151333,-0.060597435,0.03573805,0.43729043,-0.7776852,0.45164442,-0.36900544,0.30282456,0.8787105,-0.82012916,-0.55091107,-0.15454787,,0.106973596,1.344011,0.4434233,0.9956284,0.020186784,-0.09119484,-0.044020224,-0.75971484,-0.64876467,-0.082378544,0.64994293,-0.7555051,,-0.08770172,0.26394424,-0.08393215,0.64437723,0.49833918,0.5800311,-0.7646968,0.41584286,0.49225357,0.004107448,-0.76074487,0.649038,,-0.00423891,0.3882363,-0.4029513,-0.33600503,0.811341,-0.47835806,-0.9325544,-0.21536513,0.2897587,0.13207147,0.5434553,0.82898337,,1.166997610089814,0.3728535431675593,0.20476585727000002,0.1541221084611254,0.2212144931202481,0.9406551223447104,-0.4016630586241926,,-0.7957040589628481,-0.5273236461177979,0.17810635713000003,0.07045582101080018,1.2718125398167197,-0.39026390443317827,0.7711473362199324,,-0.048616146314302056,-0.0721453662927506,0.0795457676,-0.07359428191455561,,2.9876828e-05,7.748604e-07,-3.5762787e-07,0.99999994,-3.9599836e-05,-3.4064054e-05,3.9599836e-05,0.99999994,-4.2915344e-06,3.406778e-05,4.351139e-06,1.0,566,1.731,0,0,0.0,False,-0.2555288621716292,0.9455194348797735
1.7510685180022847,14:48:44.355942,14:48:30.129595,0,,0.1193725,0.0056810826,0.026540413,-0.61015505,-0.59687334,-0.5210114,-0.5468937,-0.15851292,0.8220589,-0.573252,0.7865213,-0.22970891,,0.03920396,-0.06059265,0.035775304,0.43766814,-0.77807474,0.45060638,-0.3681132,0.3021704,0.8793098,-0.82032865,-0.5507201,-0.15416935,,0.106973596,1.344011,0.4434233,0.9956284,0.020186784,-0.09119484,-0.044020224,-0.75971484,-0.64876467,-0.082378544,0.64994293,-0.7555051,,-0.08755903,0.2640973,-0.0840507,0.6374532,0.50760746,0.5796448,-0.7704086,0.40904218,0.48903492,0.011138583,-0.7583002,0.65181035,,-0.004295086,0.3882643,-0.4029667,-0.3364062,0.8117427,-0.47739354,-0.93228704,-0.21551135,0.2905095,0.13293526,0.54279697,0.82927656,,1.168024733562086,0.37261413844845837,0.20464530230000003,0.14489575094780632,0.22927604660640907,0.9341631447667622,-0.40182640269032677,,-0.7961365320038047,-0.5273622597821691,0.17810506084000002,0.07045582101080018,1.2727689953150778,-0.3891652187358201,0.7709839921537981,,-0.048616146314302056,-0.0721453662927506,0.0795457676,-0.07359428191455561,,2.9876828e-05,7.748604e-07,-3.5762787e-07,0.99999994,-3.9599836e-05,-3.4064054e-05,3.9599836e-05,0.99999994,-4.2915344e-06,3.406778e-05,4.351139e-06,1.0,574,1.757,0,0,0.0,False,-0.2549926627049395,0.945471154678994
1.7763851269846782,14:48:44.387230,14:48:30.451320,0,,0.11924361,0.005750954,0.026675522,-0.6020417,-0.6082206,-0.5173136,-0.54474205,-0.16081679,0.82303953,-0.5837822,0.77730656,-0.234505,,0.039263405,-0.06058806,0.035805225,0.4372739,-0.77724475,0.45241782,-0.36800689,0.3043726,0.87859446,-0.82058656,-0.5506794,-0.15293735,,0.106973596,1.344011,0.4434233,0.9956284,0.020186784,-0.09119484,-0.044020224,-0.75971484,-0.64876467,-0.082378544,0.64994293,-0.7555051,,-0.08744102,0.26424196,-0.08412066,0.6305371,0.51969177,0.57649237,-0.77586615,0.4016233,0.48654956,0.021323022,-0.75406843,0.6564496,,-0.004357326,0.38828537,-0.40297833,-0.33599457,0.8108023,-0.4792779,-0.93240345,-0.21439312,0.29096285,0.13315944,0.5446423,0.82802975,,1.1689437387741186,0.37232067459923784,0.20457919151,0.1360887733214563,0.24048023958717518,0.9252719128840773,-0.4016630586241928,,-0.7964531640516479,-0.5273777052479175,0.17810635713000003,0.07276241038912995,1.2729056318148433,-0.3890316004190947,0.7711473362199324,,-0.048616146314302056,-0.0721453662927506,0.0795457676,-0.07359428191455561,,2.9876828e-05,7.748604e-07,-3.5762787e-07,0.99999994,-3.9599836e-05,-3.4064054e-05,3.9599836e-05,0.99999994,-4.2915344e-06,3.406778e-05,4.351139e-06,1.0,586,1.794,0,0,0.0,False,-0.2549926627049395,0.9460022368875682
1.8077060229843482,14:48:44.417350,14:48:30.451320,0,,0.119135626,0.0058077127,0.026816145,-0.5882096,-0.621903,-0.51695853,-0.5458874,-0.16630265,0.82118833,-0.5966709,0.76523197,-0.24166834,,0.039272517,-0.06058854,0.035808563,0.43735844,-0.77732766,0.45219365,-0.3681305,0.30401838,0.8786653,-0.82048607,-0.550758,-0.15319315,,0.106973596,1.344011,0.4434233,0.9956284,0.020186784,-0.09119484,-0.044020224,-0.75971484,-0.64876467,-0.082378544,0.64994293,-0.7555051,,-0.087344974,0.26437968,-0.08420105,0.6180149,0.53423023,0.57676315,-0.78552514,0.38999638,0.48047167,0.031746954,-0.7500006,0.6606748,,-0.0043666856,0.38828692,-0.40298042,-0.33608213,0.8109103,-0.4790337,-0.9323944,-0.21463901,0.29081067,0.13300206,0.5443846,0.82822454,,1.1696465074656732,0.37200404255139463,0.20450530298000003,0.12015233761663245,0.25236761506676847,0.9154151977822076,-0.4019897467564614,,-0.7965303913803902,-0.5273854279807918,0.17810635713000003,0.07255272044564542,1.2727689953150778,-0.38883850377525786,0.7709839921537981,,-0.048616146314302056,-0.0721453662927506,0.0795457676,-0.07359428191455561,,2.9876828e-05,7.748604e-07,-3.5762787e-07,0.99999994,-3.9599836e-05,-3.4064054e-05,3.9599836e-05,0.99999994,-4.2915344e-06,3.406778e-05,4.351139e-06,1.0,619,1.895,0,0,0.0,False,-0.25403941920860307,0.9453263140766557
1.8378102069837041,14:48:44.523150,14:48:30.580799,0,,0.11880736,0.0058395118,0.027264804,-0.56537324,-0.64978075,-0.50807285,-0.54043627,-0.1735163,0.8232987,-0.6231224,0.7400521,-0.25306374,,0.039209664,-0.060623363,0.035783768,0.43725717,-0.7774776,0.4520337,-0.36826515,0.30376858,0.8786952,-0.8204795,-0.5506842,-0.15349305,,0.10693042,1.3440107,0.44341978,0.99563015,0.020216476,-0.09116948,-0.04398131,-0.75971407,-0.6487682,-0.082378544,0.64994293,-0.7555051,,-0.08702475,0.26470622,-0.08456102,0.59822524,0.56410545,0.5691323,-0.79925275,0.36895594,0.47441185,0.057633527,-0.7386857,0.67158157,,-0.0042585754,0.3882587,-0.4030028,-0.33595115,0.8110573,-0.47887668,-0.93246007,-0.2146717,0.2905758,0.13287236,0.5441527,0.82839775,,1.171878377266324,0.3708765235517579,0.20417604532000003,0.0956186142289431,0.281061280017511,0.8926708679270834,-0.4013363704919243,,-0.7963759367229056,-0.5274781007752825,0.17810635713000003,0.0723430305021609,1.2727689953150778,-0.38883850377525786,0.7709839921537981,,-0.048616146314302056,-0.0721453662927506,0.0795457676,-0.07359428191455561,,-1.2803823e-05,-2.3841858e-06,6.4373016e-06,0.99999994,-1.006946e-05,-8.6613e-06,1.006946e-05,0.99999994,-1.1026859e-06,8.665025e-06,1.1324883e-06,1.0,627,1.919,0,0,0.0,False,-0.2547543518308557,0.9453263140766557
1.9436054969846737,14:48:44.538409,14:48:30.580799,0,,0.11872584,0.005854547,0.027361408,-0.5613367,-0.6531593,-0.5082164,-0.54015493,-0.17609835,0.822935,-0.62700367,0.73645926,-0.2539569,,0.03922514,-0.060625598,0.035787582,0.4370358,-0.7772348,0.45266485,-0.36854073,0.3043437,0.8783806,-0.82047373,-0.5507093,-0.15343374,,0.10693042,1.3440107,0.44341978,0.99563015,0.020216476,-0.09116948,-0.04398131,-0.75971407,-0.6487682,-0.082378544,0.64994293,-0.7555051,,-0.0869526,0.26478288,-0.084632605,0.59461206,0.567698,0.5693465,-0.8016828,0.36475605,0.47355863,0.06116572,-0.73801893,0.6720021,,-0.0042742197,0.38825905,-0.40300658,-0.3357177,0.8107893,-0.47949383,-0.93257797,-0.21441256,0.2903886,0.13263449,0.544654,0.82810634,,1.1723726321702743,0.37074523709289603,0.20410604566,0.09100543547228357,0.2850237385107088,0.8905015723417147,-0.4011730264257899,,-0.7964299958530252,-0.527493546241031,0.17810765342,0.073181790276099,1.2724957223155469,-0.38861566796786506,0.7706573040215297,,-0.048616146314302056,-0.0721453662927506,0.0795457676,-0.07359428191455561,,-1.2803823e-05,-2.3841858e-06,6.4373016e-06,0.99999994,-1.006946e-05,-8.6613e-06,1.006946e-05,0.99999994,-1.1026859e-06,8.665025e-06,1.1324883e-06,1.0,635,1.944,0,0,0.0,False,-0.2547543518308557,0.9451331932735378
1.9588851949956734,14:48:44.568363,14:48:30.580799,0,,0.11860894,0.00589104,0.027559116,-0.55590886,-0.65897006,-0.5066792,-0.5383595,-0.1790109,0.8234829,-0.6333516,0.730557,-0.2552491,,0.03924005,-0.060623944,0.03579372,0.4369778,-0.77716357,0.45284313,-0.36853912,0.30455858,0.87830675,-0.8205053,-0.5506911,-0.15332994,,0.10693042,1.3440107,0.44341978,0.99563015,0.020216476,-0.09116948,-0.04398131,-0.75971407,-0.6487682,-0.082378544,0.64994293,-0.7555051,,-0.086854324,0.26494265,-0.08477009,0.5899328,0.5739217,0.5679729,-0.80461043,0.3588723,0.47308856,0.06768605,-0.7360873,0.67349386,,-0.004289716,0.3882634,-0.40300834,-0.3356571,0.8107058,-0.47967744,-0.9325973,-0.21429045,0.29041678,0.13265227,0.5448263,0.8279901,,1.1732066873206906,0.37068345522990226,0.20396475005000003,0.08513411705471688,0.29199219999874626,0.8861261190954459,-0.40149971455805833,,-0.7965149459146417,-0.527493546241031,0.17810894971000002,0.07360117016306805,1.2724957223155469,-0.38837063174744346,0.7708206480876637,,-0.048616146314302056,-0.0721453662927506,0.0795457676,-0.07359428191455561,,-1.2803823e-05,-2.3841858e-06,6.4373016e-06,0.99999994,-1.006946e-05,-8.6613e-06,1.006946e-05,0.99999994,-1.1026859e-06,8.665025e-06,1.1324883e-06,1.0,643,1.969,0,0,0.0,False,-0.254218152364166,0.9459056764860092
1.9887989340058994,14:48:44.594128,14:48:30.580799,0,,0.11853491,0.0059087723,0.027679607,-0.5542941,-0.6602224,-0.5068179,-0.5376998,-0.1807535,0.82353324,-0.6353241,0.72899556,-0.254811,,0.039244667,-0.06062351,0.035794616,0.43699667,-0.7772191,0.45272958,-0.36853623,0.30442816,0.87835324,-0.8204966,-0.55068475,-0.15339947,,0.10693042,1.3440107,0.44341978,0.99563015,0.020216476,-0.09116948,-0.04398131,-0.75971407,-0.6487682,-0.082378544,0.64994293,-0.7555051,,-0.08679187,0.2650367,-0.0848571,0.58855504,0.57523894,0.56806964,-0.80544084,0.35657018,0.473416,0.06977063,-0.73617786,0.67318213,,-0.004294412,0.38826388,-0.4030084,-0.33567682,0.810767,-0.47956014,-0.9325905,-0.21434863,0.29039568,0.1326502,0.5447123,0.82806545,,1.173731833156138,0.37071434616139914,0.20387141717,0.08324690756335616,0.2941783839949933,0.8855686137384118,-0.40133637049192405,,-0.7965458368461386,-0.527493546241031,0.17811024600000003,0.07360117016306805,1.2724957223155469,-0.3882072742671624,0.7708206480876638,,-0.048616146314302056,-0.0721453662927506,0.0795457676,-0.07359428191455561,,-1.2803823e-05,-2.3841858e-06,6.4373016e-06,0.99999994,-1.006946e-05,-8.6613e-06,1.006946e-05,0.99999994,-1.1026859e-06,8.665025e-06,1.1324883e-06,1.0,651,1.994,0,0,0.0,False,-0.2541585746456452,0.9457608358836709
2.014605678996304,14:48:44.620238,14:48:30.580799,0,,0.118435055,0.005944282,0.027843803,-0.5516022,-0.6623394,-0.50699264,-0.53756195,-0.1824719,0.8232442,-0.6377789,0.72664326,-0.25539678,,0.039245255,-0.060623646,0.035793424,0.43699667,-0.7772931,0.45260262,-0.36853623,0.3042847,0.87840295,-0.8204966,-0.5506597,-0.15348941,,0.10693042,1.3440107,0.44341978,0.99563015,0.020216476,-0.09116948,-0.04398131,-0.75971407,-0.6487682,-0.082378544,0.64994293,-0.7555051,,-0.08670724,0.2651734,-0.084968194,0.5861298,0.57749534,0.5682878,-0.80701226,0.3537965,0.47282046,0.071993396,-0.73574936,0.6734165,,-0.00429488,0.38826278,-0.40300786,-0.33567682,0.8108454,-0.4794277,-0.9325905,-0.21439606,0.29036066,0.1326502,0.54457706,0.82815444,,1.174457770046315,0.3708301871545125,0.20374826962000003,0.07989186846760378,0.29650120449100575,0.883756188115713,-0.4011730264257899,,-0.7965458368461386,-0.527493546241031,0.17811154229,0.07360117016306805,1.2724957223155469,-0.3880439167868812,0.7711473362199324,,-0.048616146314302056,-0.0721453662927506,0.0795457676,-0.07359428191455561,,-1.2803823e-05,-2.3841858e-06,6.4373016e-06,0.99999994,-1.006946e-05,-8.6613e-06,1.006946e-05,0.99999994,-1.1026859e-06,8.665025e-06,1.1324883e-06,1.0,684,2.096,0,0,0.0,False,-0.2544564632382502,0.9453263140766557
2.0406673759862315,14:48:44.715757,14:48:30.711464,0,,0.11831036,0.005972892,0.028432786,-0.54149526,-0.6745736,-0.5017304,-0.53322536,-0.18581536,0.82531404,-0.6499642,0.71443903,-0.25908172,,0.039248697,-0.06063637,0.03579265,0.4369966,-0.77734673,0.45251054,-0.36860672,0.3041333,0.8784258,-0.820465,-0.55066764,-0.15363014,,0.10693042,1.3440107,0.44341978,0.99563015,0.020216476,-0.09116948,-0.04398131,-0.75971407,-0.6487682,-0.082378544,0.64994293,-0.7555051,,-0.086640455,0.26558214,-0.085406065,0.57750005,0.590709,0.5635216,-0.8119479,0.34366882,0.4718394,0.08505495,-0.73003745,0.6780936,,-0.004297579,0.38825497,-0.40301818,-0.33567625,0.8109071,-0.4793236,-0.9326016,-0.21447755,0.2902649,0.13257372,0.54445297,0.82824826,,1.1757551891691846,0.3712703829283433,0.20327901264,0.06940737129337755,0.30975494496825345,0.8730303301973008,-0.4010096823596556,,-0.7965535595790129,-0.5275707735697731,0.17811413487000002,0.07360117016306805,1.2724957223155469,-0.38788055930660004,0.7708206480876638,,-0.048616146314302056,-0.0721453662927506,0.0795457676,-0.07359428191455561,,-1.2803823e-05,-2.3841858e-06,6.4373016e-06,0.99999994,-1.006946e-05,-8.6613e-06,1.006946e-05,0.99999994,-1.1026859e-06,8.665025e-06,1.1324883e-06,1.0,692,2.12,0,0,0.0,False,-0.2549926627049395,0.9451331932735378
2.1362192060041707,14:48:44.745356,14:48:30.711464,0,,0.11830418,0.005968213,0.028583258,-0.5373517,-0.6780587,-0.5014874,-0.5325806,-0.18823612,0.8251818,-0.65391964,0.71049535,-0.25997207,,0.039249115,-0.060639247,0.035790086,0.43699092,-0.77734816,0.4525135,-0.36862165,0.30412787,0.8784214,-0.8204613,-0.5506686,-0.15364644,,0.10693042,1.3440107,0.44341978,0.99563015,0.020216476,-0.09116948,-0.04398131,-0.75971407,-0.6487682,-0.082378544,0.64994293,-0.7555051,,-0.08664948,0.26567674,-0.085523,0.5738051,0.59444994,0.56336224,-0.8141537,0.33936593,0.4711524,0.08889057,-0.7290131,0.6787035,,-0.004297599,0.38825122,-0.4030192,-0.3356702,0.8109089,-0.47932473,-0.9326058,-0.21448113,0.29024857,0.13255906,0.54444885,0.8282533,,1.1759096438266692,0.37137850118858245,0.20315586509000003,0.06500388248020254,0.31371740346145127,0.8707793558717913,-0.40264312302099814,,-0.7965458368461386,-0.5275862190355216,0.17811672745,0.07360117016306805,1.2724957223155469,-0.38788055930660004,0.7708206480876638,,-0.048616146314302056,-0.0721453662927506,0.0795457676,-0.07359428191455561,,-1.2803823e-05,-2.3841858e-06,6.4373016e-06,0.99999994,-1.006946e-05,-8.6613e-06,1.006946e-05,0.99999994,-1.1026859e-06,8.665025e-06,1.1324883e-06,1.0,704,2.157,0,0,0.0,False,-0.25540970673458663,0.9451814734743171
2.1658304019947536,14:48:44.777320,14:48:30.711464,0,,0.118312195,0.0059716105,0.028725952,-0.53329843,-0.6819239,-0.50057226,-0.5316975,-0.19003367,0.8253393,-0.6579441,0.70630515,-0.26123276,,0.039247476,-0.060643345,0.03578937,0.43698004,-0.7773527,0.45251626,-0.3686445,0.30411792,0.8784152,-0.82045686,-0.55066764,-0.15367344,,0.10693042,1.3440107,0.44341978,0.99563015,0.020216476,-0.09116948,-0.04398131,-0.75971407,-0.6487682,-0.082378544,0.64994293,-0.7555051,,-0.08667146,0.26577199,-0.08562732,0.570218,0.5986227,0.56258535,-0.81622094,0.3353863,0.47042468,0.09292346,-0.72743857,0.6798517,,-0.004295697,0.38824862,-0.4030223,-0.3356587,0.8109138,-0.47932455,-0.9326131,-0.21448518,0.29022235,0.1325373,0.54444,0.8282626,,1.176010039354034,0.37153295584606694,0.20304438415,0.060810083610512065,0.31781649845441445,0.8678452124616015,-0.40182640269032677,,-0.7965303913803902,-0.5276093872341443,0.17811672745,0.07360117016306805,1.2724957223155469,-0.38788055930660004,0.7708206480876638,,-0.048616146314302056,-0.0721453662927506,0.0795457676,-0.07359428191455561,,-1.2803823e-05,-2.3841858e-06,6.4373016e-06,0.99999994,-1.006946e-05,-8.6613e-06,1.006946e-05,0.99999994,-1.1026859e-06,8.665025e-06,1.1324883e-06,1.0,712,2.182,0,0,0.0,False,-0.25535012901606535,0.9456642754821118
2.197794874984538,14:48:44.807498,14:48:30.874162,0,,0.11831857,0.005953327,0.028838009,-0.5328668,-0.68250304,-0.50024253,-0.53139937,-0.19016176,0.8255018,-0.6585344,0.70571107,-0.26135096,,0.039249327,-0.06065555,0.03578645,0.436954,-0.77737105,0.45250994,-0.3688361,0.30398774,0.87837994,-0.82038456,-0.5507137,-0.15389398,,0.10693042,1.3440107,0.44341978,0.99563015,0.020216476,-0.09116948,-0.04398131,-0.75971407,-0.6487682,-0.082378544,0.64994293,-0.7555051,,-0.08668979,0.26583087,-0.08572286,0.56986177,0.5992513,0.5622771,-0.8163916,0.3349191,0.47046143,0.09360729,-0.72713625,0.6800813,,-0.004296628,0.38823944,-0.40303102,-0.33563012,0.8109431,-0.479295,-0.9326518,-0.21459123,0.2900192,0.13233657,0.54435456,0.8283509,,1.1760718212170278,0.37170285596929986,0.20293679208,0.060390703723543014,0.3183630444534763,0.8673178621066753,-0.4016630586241926,,-0.796522668647516,-0.5276788918300123,0.17811932003000003,0.07360117016306805,1.2723590858157814,-0.3877691414029035,0.7708206480876638,,-0.048616146314302056,-0.0721453662927506,0.0795457676,-0.07359428191455561,,-1.2803823e-05,-2.3841858e-06,6.4373016e-06,0.99999994,-1.006946e-05,-8.6613e-06,1.006946e-05,0.99999994,-1.1026859e-06,8.665025e-06,1.1324883e-06,1.0,720,2.207,0,0,0.0,False,-0.25558843989015,0.9449400724704202
2.227952562010614,14:48:44.835225,14:48:30.874162,0,,0.11832361,0.005966425,0.028912276,-0.52879894,-0.6851487,-0.500942,-0.5319401,-0.19237751,0.8246396,-0.6613707,0.70253974,-0.26272923,,0.039250348,-0.060664788,0.035782874,0.43700558,-0.7774258,0.45236608,-0.36888283,0.30378282,0.8784312,-0.8203361,-0.5507495,-0.15402433,,0.10693042,1.3440107,0.44341978,0.99563015,0.020216476,-0.09116948,-0.04398131,-0.75971407,-0.6487682,-0.082378544,0.64994293,-0.7555051,,-0.08670155,0.26588902,-0.0857697,0.5660747,0.6020909,0.56306833,-0.8187658,0.3312503,0.46893042,0.09582218,-0.72647077,0.6804839,,-0.0042968257,0.38823143,-0.40303692,-0.33568373,0.81101143,-0.47914186,-0.93264174,-0.21472454,0.28995296,0.13227165,0.5442002,0.82846266,,1.176110434881399,0.371810974229539,0.20288753306,0.055777524966883485,0.32068586494948875,0.8655054364839767,-0.40149971455805833,,-0.796522668647516,-0.5277329509601318,0.17812320890000002,0.07339148021958353,1.2723590858157814,-0.3877691414029035,0.7708206480876638,,-0.048616146314302056,-0.0721453662927506,0.0795457676,-0.07359428191455561,,-1.2803823e-05,-2.3841858e-06,6.4373016e-06,0.99999994,-1.006946e-05,-8.6613e-06,1.006946e-05,0.99999994,-1.1026859e-06,8.665025e-06,1.1324883e-06,1.0,728,2.232,0,0,0.0,False,-0.25558843989015,0.9455194348797735
2.255654337001033,14:48:44.860180,14:48:30.874162,0,,0.11833233,0.0059636235,0.028953522,-0.52855206,-0.6860351,-0.49998856,-0.5310681,-0.19227341,0.8252258,-0.6622682,0.7017027,-0.262705,,0.039252486,-0.06067975,0.035782814,0.43701687,-0.7773422,0.45249876,-0.36884147,0.30395818,0.8783878,-0.82034874,-0.5507707,-0.15388131,,0.10693042,1.3440107,0.44341978,0.99563015,0.020216476,-0.09116948,-0.04398131,-0.75971407,-0.6487682,-0.082378544,0.64994293,-0.7555051,,-0.086714454,0.2659135,-0.08580164,0.5659598,0.60305995,0.56214607,-0.81869584,0.33080998,0.46936324,0.09709066,-0.7258674,0.68094784,,-0.0042981897,0.38822317,-0.4030495,-0.33569583,0.81092155,-0.4792855,-0.9326315,-0.21465798,0.2900353,0.13231342,0.5443604,0.8283507,,1.1761181576142732,0.37185731062678434,0.20285382952000003,0.055777524966883485,0.3219155934473777,0.8647477115711306,-0.4023164348887299,,-0.796522668647516,-0.5278256237546226,0.17812580148,0.07339148021958353,1.2724957223155469,-0.38796223804674057,0.7706573040215297,,-0.048616146314302056,-0.0721453662927506,0.0795457676,-0.07359428191455561,,-1.2803823e-05,-2.3841858e-06,6.4373016e-06,0.99999994,-1.006946e-05,-8.6613e-06,1.006946e-05,0.99999994,-1.1026859e-06,8.665025e-06,1.1324883e-06,1.0,753,2.309,0,0,0.0,False,-0.25546928445310746,0.9453263140766557
2.2806534789851867,14:48:44.929981,14:48:31.007745,0,,0.11838257,0.0060132593,0.029095173,-0.51985544,-0.69538873,-0.49617022,-0.5278242,-0.195214,0.8266154,-0.6716783,0.6916112,-0.2655601,,0.03925409,-0.0607097,0.03577876,0.43705133,-0.77738106,0.45239866,-0.36900353,0.30372894,0.8783991,-0.8202575,-0.5508423,-0.15411133,,0.10693042,1.3440107,0.44341978,0.99563015,0.020216476,-0.09116948,-0.04398131,-0.75971407,-0.6487682,-0.082378544,0.64994293,-0.7555051,,-0.08677611,0.2660419,-0.08587063,0.5584044,0.6132198,0.5587003,-0.8226128,0.32228,0.46844822,0.10720379,-0.7211776,0.684405,,-0.0042978674,0.3882036,-0.40307257,-0.33573076,0.8109788,-0.47916412,-0.9326452,-0.21483605,0.28985932,0.13212803,0.54420483,0.8284825,,1.176079543949902,0.3720194880171431,0.20278512615000002,0.04738992722750251,0.33229996742955115,0.8571784170317487,-0.4018264026903269,,-0.7965072231817675,-0.5280032466107297,0.17813098664000002,0.073181790276099,1.2724957223155469,-0.38796223804674057,0.7706573040215297,,-0.048616146314302056,-0.0721453662927506,0.0795457676,-0.07359428191455561,,-1.2803823e-05,-2.3841858e-06,6.4373016e-06,0.99999994,-1.006946e-05,-8.6613e-06,1.006946e-05,0.99999994,-1.1026859e-06,8.665025e-06,1.1324883e-06,1.0,761,2.333,0,0,0.0,False,-0.2559459062012759,0.9448917922696407
2.350458611996146,14:48:44.957214,14:48:31.007745,0,,0.11839782,0.006020561,0.029135346,-0.51822317,-0.69640577,-0.49645114,-0.5262411,-0.19793558,0.8269774,-0.6741771,0.689812,-0.26390272,,0.039255057,-0.060713574,0.035777926,0.43704987,-0.7773764,0.45240813,-0.3690249,0.30372557,0.87839127,-0.8202486,-0.55085075,-0.15412813,,0.10693042,1.3440107,0.44341978,0.99563015,0.020216476,-0.09116948,-0.04398131,-0.75971407,-0.6487682,-0.082378544,0.64994293,-0.7555051,,-0.0867949,0.26607317,-0.0858945,0.5571053,0.6142804,0.5588321,-0.823086,0.3190737,0.4698099,0.11028636,-0.7217005,0.68336326,,-0.0042985464,0.3882007,-0.4030754,-0.3357291,0.81097513,-0.4791715,-0.932649,-0.21484545,0.28984004,0.13210525,0.54420656,0.828485,,1.1760640984841537,0.3720349334828915,0.20276308922000003,0.046131787566595354,0.3354426069241563,0.8580463123326347,-0.40280646708713275,,-0.7965072231817675,-0.5280264148093524,0.17813228293000002,0.073181790276099,1.2724957223155469,-0.38796223804674057,0.7706573040215297,,-0.048616146314302056,-0.0721453662927506,0.0795457676,-0.07359428191455561,,-1.2803823e-05,-2.3841858e-06,6.4373016e-06,0.99999994,-1.006946e-05,-8.6613e-06,1.006946e-05,0.99999994,-1.1026859e-06,8.665025e-06,1.1324883e-06,1.0,769,2.358,0,0,0.0,False,-0.25672041654204936,0.9452780338758762
2.377687745989533,14:48:44.986290,14:48:31.007745,0,,0.118408814,0.0060168356,0.029226527,-0.5155745,-0.69727045,-0.49799275,-0.5257403,-0.2015005,0.82643485,-0.6765943,0.6879037,-0.26269475,,0.039253805,-0.06071748,0.03577745,0.43710336,-0.77736354,0.45237857,-0.36904308,0.3036686,0.8784033,-0.8202119,-0.55090034,-0.1541462,,0.10693042,1.3440107,0.44341978,0.99563015,0.020216476,-0.09116948,-0.04398131,-0.75971407,-0.6487682,-0.082378544,0.64994293,-0.7555051,,-0.08681507,0.26612937,-0.08596437,0.5547365,0.61516047,0.5602187,-0.8243563,0.31515235,0.47022936,0.11271228,-0.72267324,0.68193793,,-0.0042970576,0.38819835,-0.40307844,-0.33578488,0.81097007,-0.479141,-0.9326338,-0.2149188,0.28983456,0.13207074,0.54418516,0.82850456,,1.176079543949902,0.3721353290102564,0.20268920069000002,0.04340581830129654,0.3379020639199342,0.8591445821914404,-0.40215309082259554,,-0.7965072231817675,-0.5280495830079751,0.17813228293000002,0.07297210033261448,1.2724957223155469,-0.38812559552702175,0.7703306158892609,,-0.048616146314302056,-0.0721453662927506,0.0795457676,-0.07359428191455561,,-1.2803823e-05,-2.3841858e-06,6.4373016e-06,0.99999994,-1.006946e-05,-8.6613e-06,1.006946e-05,0.99999994,-1.1026859e-06,8.665025e-06,1.1324883e-06,1.0,777,2.383,0,0,0.0,False,-0.25683957197909146,0.9447952318680815
2.4067585349839646,14:48:45.009376,14:48:31.007745,0,,0.118430436,0.006010413,0.02935198,-0.51333666,-0.69913435,-0.49769127,-0.5253343,-0.20258313,0.8264283,-0.67860824,0.6856903,-0.26328602,,0.039254226,-0.060720384,0.035774827,0.43709767,-0.777365,0.45238155,-0.36905804,0.30366313,0.8783989,-0.8202082,-0.5509013,-0.1541625,,0.10693042,1.3440107,0.44341978,0.99563015,0.020216476,-0.09116948,-0.04398131,-0.75971407,-0.6487682,-0.082378544,0.64994293,-0.7555051,,-0.086849324,0.26620555,-0.08606066,0.5527315,0.6171816,0.5599774,-0.8254242,0.31294408,0.46983075,0.11472926,-0.72190917,0.68241066,,-0.0042970777,0.38819456,-0.40307948,-0.33577886,0.81097186,-0.47914213,-0.93263805,-0.2149224,0.28981823,0.13205607,0.54418105,0.8285096,,1.1760872666827764,0.37235156553073473,0.20258290491000003,0.041099228922966774,0.33981497491665036,0.8577480890199717,-0.4024797789548641,,-0.7964995004488933,-0.5280650284737235,0.17813487551,0.07297210033261448,1.2724957223155469,-0.38812559552702175,0.7703306158892609,,-0.048616146314302056,-0.0721453662927506,0.0795457676,-0.07359428191455561,,-1.2803823e-05,-2.3841858e-06,6.4373016e-06,0.99999994,-1.006946e-05,-8.6613e-06,1.006946e-05,0.99999994,-1.1026859e-06,8.665025e-06,1.1324883e-06,1.0,789,2.42,0,0,0.0,False,-0.25558843989015,0.9443607100610665
2.429834695009049,14:48:45.038046,14:48:31.007745,0,,0.11844756,0.0060124993,0.029414296,-0.51349646,-0.69901913,-0.49768823,-0.5251943,-0.20264769,0.82650155,-0.67859566,0.6857887,-0.26306218,,0.039255064,-0.060723007,0.035773873,0.43709671,-0.7773988,0.45232436,-0.36907226,0.3035891,0.87841856,-0.8202023,-0.5508944,-0.15421864,,0.10693042,1.3440107,0.44341978,0.99563015,0.020216476,-0.09116948,-0.04398131,-0.75971407,-0.6487682,-0.082378544,0.64994293,-0.7555051,,-0.08687242,0.2662472,-0.08610436,0.5528958,0.6170543,0.5599556,-0.82530516,0.31295586,0.47003192,0.11479384,-0.72201294,0.6822901,,-0.0042976863,0.38819227,-0.40308118,-0.33577776,0.8110086,-0.4790808,-0.9326406,-0.21495233,0.28978783,0.13204087,0.54411453,0.8285557,,1.1760949894156505,0.37254463385259035,0.20252975702,0.0413089188664513,0.339678338416885,0.8579411856638086,-0.40264312302099825,,-0.7964995004488933,-0.528080473939472,0.17813617180000002,0.07297210033261448,1.2724957223155469,-0.3880439167868812,0.7704939599553953,,-0.048616146314302056,-0.0721453662927506,0.0795457676,-0.07359428191455561,,-1.2803823e-05,-2.3841858e-06,6.4373016e-06,0.99999994,-1.006946e-05,-8.6613e-06,1.006946e-05,0.99999994,-1.1026859e-06,8.665025e-06,1.1324883e-06,1.0,818,2.509,0,0,0.0,False,-0.25558843989015,0.9450366328719788
2.458502678986406,14:48:45.128922,14:48:31.178774,0,,0.11859438,0.006096244,0.029861659,-0.50275534,-0.71227795,-0.4897929,-0.51898414,-0.20441127,0.82998276,-0.69129753,0.671473,-0.2668923,,0.03925909,-0.0607498,0.035770774,0.43709895,-0.7773058,0.4524821,-0.36909574,0.30375117,0.8783527,-0.82019055,-0.55093634,-0.15413103,,0.10693042,1.3440107,0.44341978,0.99563015,0.020216476,-0.09116948,-0.04398131,-0.75971407,-0.6487682,-0.082378544,0.64994293,-0.7555051,,-0.08705883,0.26659772,-0.086371,0.54377574,0.63157094,0.5526537,-0.82917434,0.30268154,0.4699508,0.1295292,-0.7137941,0.6882733,,-0.0043000286,0.38817495,-0.40310213,-0.33577994,0.81091195,-0.4792428,-0.93264353,-0.2149113,0.28980893,0.13201483,0.5442747,0.8284547,,1.1760486530184053,0.37358720279061064,0.20222772145,0.03166318146616318,0.3538885343924908,0.8457819724983968,-0.4018264026903269,,-0.796491777716019,-0.5282426513298307,0.17814265325,0.07297210033261448,1.2726323588153123,-0.38823701343071804,0.7703306158892609,,-0.048616146314302056,-0.0721453662927506,0.0795457676,-0.07359428191455561,,-1.2803823e-05,-2.3841858e-06,6.4373016e-06,0.99999994,-1.006946e-05,-8.6613e-06,1.006946e-05,0.99999994,-1.1026859e-06,8.665025e-06,1.1324883e-06,1.0,826,2.534,0,0,0.0,False,-0.2570778828531757,0.9442641496595077
2.549398884992115,14:48:45.157894,14:48:31.178774,0,,0.11860731,0.0060694665,0.029969737,-0.49959064,-0.7146814,-0.48953018,-0.5188424,-0.20566455,0.82976174,-0.6936941,0.6685302,-0.26805907,,0.03926231,-0.060763672,0.03576982,0.43705115,-0.7771995,0.4527108,-0.36905113,0.30404967,0.8782681,-0.82023615,-0.55092156,-0.15394118,,0.10693042,1.3440107,0.44341978,0.99563015,0.020216476,-0.09116948,-0.04398131,-0.75971407,-0.6487682,-0.082378544,0.64994293,-0.7555051,,-0.0870837,0.2666474,-0.086468354,0.540875,0.63419265,0.5524979,-0.8307185,0.29988453,0.46901596,0.13176087,-0.7126493,0.6890356,,-0.004302431,0.3881664,-0.40311328,-0.33573022,0.81078976,-0.47948432,-0.9326527,-0.21475132,0.28989798,0.13207643,0.54451984,0.8282837,,1.17600231662116,0.37364898465360447,0.20212790712000003,0.02830814237041079,0.35621135488850325,0.8437245106552766,-0.40247977895486386,,-0.7964840549831448,-0.5283276013914472,0.17814654212000003,0.073181790276099,1.2727689953150778,-0.38834843133441455,0.7703306158892609,,-0.048616146314302056,-0.0721453662927506,0.0795457676,-0.07359428191455561,,-1.2803823e-05,-2.3841858e-06,6.4373016e-06,0.99999994,-1.006946e-05,-8.6613e-06,1.006946e-05,0.99999994,-1.1026859e-06,8.665025e-06,1.1324883e-06,1.0,834,2.558,0,0,0.0,False,-0.25677999426057063,0.9444572704626255
2.5783552729990333,14:48:45.182105,14:48:31.178774,0,,0.11861697,0.0060598254,0.030118704,-0.49158928,-0.72151184,-0.48760703,-0.5173116,-0.20847476,0.83001626,-0.70052016,0.6602719,-0.27076253,,0.0392248,-0.060772255,0.035760045,0.4383904,-0.7779993,0.45003423,-0.36802062,0.30143237,0.8796017,-0.81998444,-0.5512309,-0.15417486,,0.10693042,1.3440107,0.44341978,0.99563015,0.020216476,-0.09116948,-0.04398131,-0.75971407,-0.6487682,-0.082378544,0.64994293,-0.7555051,,-0.08710854,0.2667368,-0.08658571,0.5336728,0.64166874,0.5508671,-0.8342325,0.292574,0.4673934,0.13874233,-0.7089864,0.6914397,,-0.0042637624,0.38815773,-0.40311563,-0.33713815,0.81174755,-0.47686878,-0.9320384,-0.2163195,0.29070652,0.13282429,0.54246825,0.82950944,,1.1759868711554113,0.373633539187856,0.20201642618,0.02013023457451434,0.363589725875837,0.8376262651155293,-0.40264312302099814,,-0.796491777716019,-0.528389383254441,0.17814783841,0.06856861151943947,1.2738620873132014,-0.39013824070553216,0.7695138955585895,,-0.048616146314302056,-0.0721453662927506,0.0795457676,-0.07359428191455561,,-1.2803823e-05,-2.3841858e-06,6.4373016e-06,0.99999994,-1.006946e-05,-8.6613e-06,1.006946e-05,0.99999994,-1.1026859e-06,8.665025e-06,1.1324883e-06,1.0,842,2.583,0,0,0.0,False,-0.25737577144578117,0.9440227486556103
2.6025674369884655,14:48:45.213583,14:48:31.178774,0,,0.118627116,0.006033987,0.030241698,-0.486279,-0.7262855,-0.48584157,-0.51579267,-0.21022326,0.8305203,-0.70533,0.65445817,-0.27238572,,0.03913557,-0.06078501,0.03572285,0.44157064,-0.7782356,0.4465025,-0.36697596,0.2974627,0.88138777,-0.8187452,-0.55305076,-0.15424311,,0.10693042,1.3440107,0.44341978,0.99563015,0.020216476,-0.09116948,-0.04398131,-0.75971407,-0.6487682,-0.082378544,0.64994293,-0.7555051,,-0.087132074,0.26679698,-0.086694,0.5289445,0.64690804,0.54929745,-0.8363652,0.28760082,0.46666795,0.14391287,-0.7062547,0.69317627,,-0.0041707987,0.38812947,-0.40310732,-0.3404729,0.8123611,-0.47344235,-0.93078995,-0.21993779,0.2919888,0.13307248,0.54008967,0.8310204,,1.1759405347581662,0.37358720279061064,0.20191401927000002,0.01488798598740123,0.36905518586645464,0.8333329064479535,-0.4029698111532669,,-0.796522668647516,-0.5284511651174347,0.17814913470000002,0.0568259746843061,1.2748185428115593,-0.39802421642363595,0.7693505514924552,,-0.048616146314302056,-0.0721453662927506,0.0795457676,-0.07359428191455561,,-1.2803823e-05,-2.3841858e-06,6.4373016e-06,0.99999994,-1.006946e-05,-8.6613e-06,1.006946e-05,0.99999994,-1.1026859e-06,8.665025e-06,1.1324883e-06,1.0,854,2.621,0,0,0.0,False,-0.25630337251240265,0.9439744684548308
2.634060217998922,14:48:45.242829,14:48:31.178774,0,,0.1186479,0.0060221553,0.030368418,-0.48071146,-0.73249036,-0.4820522,-0.5127616,-0.21113716,0.8321638,-0.71133095,0.6472087,-0.27409703,,0.039153825,-0.06080216,0.03570497,0.4414172,-0.7752112,0.4518829,-0.36954513,0.3018524,0.87881815,-0.8176717,-0.5549167,-0.15323281,,0.10693042,1.3440107,0.44341978,0.99563015,0.020216476,-0.09116948,-0.04398131,-0.75971407,-0.6487682,-0.082378544,0.64994293,-0.7555051,,-0.08716588,0.2668699,-0.08679483,0.5241505,0.6537519,0.54577893,-0.8381338,0.28236732,0.46669093,0.15098995,-0.70205206,0.6959346,,-0.0041863346,0.38810337,-0.40311205,-0.34029484,0.8093144,-0.4787584,-0.9312435,-0.21949185,0.29087618,0.13032672,0.5448243,0.8283607,,1.1758864756280465,0.37354858912623956,0.20182198268,0.009855427343772644,0.37643355685378843,0.8273163396483467,-0.4029698111532669,,-0.7965921732433839,-0.5285052242475543,0.17815043099000002,0.05640659479733705,1.2720858128162507,-0.4038820536236233,0.7695138955585894,,-0.048616146314302056,-0.0721453662927506,0.0795457676,-0.07359428191455561,,-1.2803823e-05,-2.3841858e-06,6.4373016e-06,0.99999994,-1.006946e-05,-8.6613e-06,1.006946e-05,0.99999994,-1.1026859e-06,8.665025e-06,1.1324883e-06,1.0,883,2.71,0,0,0.0,False,-0.2561246393568388,0.943877908053272
2.6632892710040323,14:48:45.329767,14:48:31.323903,0,,0.11865981,0.0059962124,0.030763894,-0.4583524,-0.75027215,-0.4764502,-0.5076469,-0.21902218,0.83326095,-0.72952557,0.6237957,-0.28048408,,0.03917506,-0.060824722,0.035715282,0.44133794,-0.77525604,0.45188352,-0.3699314,0.30160773,0.87873966,-0.8175398,-0.5549872,-0.15368074,,0.10693042,1.3440107,0.44341978,0.99563015,0.020216476,-0.09116948,-0.04398131,-0.75971407,-0.6487682,-0.082378544,0.64994293,-0.7555051,,-0.08721821,0.26710734,-0.08710802,0.50397676,0.67337763,0.54089737,-0.8467455,0.261658,0.46320313,0.1703805,-0.69144607,0.702049,,-0.0042073,0.38809764,-0.40313643,-0.34020934,0.8093782,-0.47871134,-0.93133026,-0.21967658,0.2904586,0.12992917,0.5446551,0.8285344,,1.175840139230801,0.3734481935988746,0.20153291001,-0.012791086552555985,0.3969290318186045,0.8103586178734619,-0.4028064670871324,,-0.7967080142364973,-0.5286519561721645,0.17814913470000002,0.0568259746843061,1.2718125398167197,-0.40316914537538706,0.7695138955585895,,-0.048616146314302056,-0.0721453662927506,0.0795457676,-0.07359428191455561,,-1.2803823e-05,-2.3841858e-06,6.4373016e-06,0.99999994,-1.006946e-05,-8.6613e-06,1.006946e-05,0.99999994,-1.1026859e-06,8.665025e-06,1.1324883e-06,1.0,887,2.722,0,0,0.0,False,-0.25642252794944387,0.9442158694587282
2.750242354988586,14:48:45.359589,14:48:31.323903,0,,0.11864652,0.00599505,0.030927911,-0.44587702,-0.7605866,-0.47191274,-0.5037337,-0.222588,0.8346896,-0.7398958,0.60988736,-0.28388637,,0.03917486,-0.060828134,0.035715163,0.44141138,-0.7753223,0.45169783,-0.36982125,0.30145636,0.87883794,-0.81755,-0.55497664,-0.15366456,,0.10693042,1.3440107,0.44341978,0.99563015,0.020216476,-0.09116948,-0.04398131,-0.75971407,-0.6487682,-0.082378544,0.64994293,-0.7555051,,-0.08722136,0.2672136,-0.08723363,0.4927926,0.684842,0.5367931,-0.85088915,0.25019678,0.46194074,0.1820525,-0.68439245,0.70601976,,-0.004206912,0.38809574,-0.40313926,-0.3402869,0.8094508,-0.47853336,-0.93128806,-0.21974123,0.2905449,0.1300283,0.54452103,0.82860696,,1.1758555846965497,0.37323195707839635,0.20143179939000003,-0.02516279321814292,0.40936295329725964,0.7996478374561036,-0.40329649928553557,,-0.7967157369693716,-0.5286751243707872,0.17815043099000002,0.05661628474082158,1.2719491763164852,-0.4031988845389427,0.7693505514924552,,-0.048616146314302056,-0.0721453662927506,0.0795457676,-0.07359428191455561,,-1.2803823e-05,-2.3841858e-06,6.4373016e-06,0.99999994,-1.006946e-05,-8.6613e-06,1.006946e-05,0.99999994,-1.1026859e-06,8.665025e-06,1.1324883e-06,1.0,899,2.759,0,0,0.0,False,-0.2564821056679656,0.9439744684548308
2.7800388030009344,14:48:45.388780,14:48:31.441606,0,,0.118627906,0.0059811175,0.031116202,-0.4316776,-0.77207196,-0.46643248,-0.49975452,-0.22576919,0.8362258,-0.7509325,0.5940818,-0.28838706,,0.03917322,-0.060832217,0.035714447,0.44140056,-0.77532697,0.45170063,-0.36984402,0.30144638,0.87883174,-0.8175455,-0.5549757,-0.15369153,,0.10693042,1.3440107,0.44341978,0.99563015,0.020216476,-0.09116948,-0.04398131,-0.75971407,-0.6487682,-0.082378544,0.64994293,-0.7555051,,-0.087222226,0.26732618,-0.08738635,0.47996426,0.6976768,0.53186595,-0.85546637,0.23782597,0.46001747,0.19445196,-0.6757854,0.710987,,-0.004205008,0.38809314,-0.40314233,-0.34027544,0.80945575,-0.47853318,-0.9312953,-0.21974528,0.29051867,0.13000661,0.54451203,0.82861626,,1.175840139230801,0.3729771068935469,0.20130735555,-0.039421709375090576,0.42261669377450733,0.7866349748137555,-0.40345984335166984,,-0.7967002915036231,-0.5286982925694099,0.17815043099000002,0.05661628474082158,1.2719491763164852,-0.4031988845389427,0.7693505514924552,,-0.048616146314302056,-0.0721453662927506,0.0795457676,-0.07359428191455561,,-1.2803823e-05,-2.3841858e-06,6.4373016e-06,0.99999994,-1.006946e-05,-8.6613e-06,1.006946e-05,0.99999994,-1.1026859e-06,8.665025e-06,1.1324883e-06,1.0,911,2.797,0,0,0.0,False,-0.2568991496976123,0.9431537050415801
