AlexandreBanks6/ExpertPlaybackApp/resources/Motions/Pilot_01/PC1/Data_PC1_2.csv
Task Time,PC1 Time,PC2 Time,Gaze Calib,s_T_psm1,Tx,Ty,Tz,R00,R01,R02,R10,R11,R12,R20,R21,R22,s_T_psm3,Tx,Ty,Tz,R00,R01,R02,R10,R11,R12,R20,R21,R22,cart_T_ecm,Tx,Ty,Tz,R00,R01,R02,R10,R11,R12,R20,R21,R22,ecm_T_psm1,Tx,Ty,Tz,R00,R01,R02,R10,R11,R12,R20,R21,R22,ecm_T_psm3,Tx,Ty,Tz,R00,R01,R02,R10,R11,R12,R20,R21,R22,psm1_joints,q1,q2,q3,q4,q5,q6,jaw,psm3_joints,q1,q2,q3,q4,q5,q6,jaw,ecm_joints,q1,q2,q3,q4,ecmi_T_ecm,Tx,Ty,Tz,R00,R01,R02,R10,R11,R12,R20,R21,R22,Sample #,Task Duration (s),Collisions (binary),Collisions (increments),Cumulative Collision Time (s),Clutch Press,MTMR Angle,MTML Angle
""
lci_T_si,,,,,-0.06275115,0.020269286,0.23277931,0.9922883,-0.04035988,0.11719676,0.048105527,-0.7459988,-0.6642075,0.11423598,0.66472316,-0.7383043
rci_T_si,,,,,-0.0725517,0.024538085,0.24269353,0.9888494,-0.06173267,0.13552107,0.047746018,-0.730564,-0.6811729,0.14105745,0.680048,-0.71947026
ecm_T_lc,,,,,-4.4061628e-05,-0.00034663224,-0.01840835,-0.99912,0.030754527,0.028518902,-0.031987965,-0.99852574,-0.043852776,0.027128186,-0.04472645,0.9986309
ecm_T_rc,,,,,-0.0043358393,0.01870579,-0.007592615,-0.99555075,-0.052743673,-0.078081585,0.04863213,-0.9973746,0.053654674,-0.08070653,0.04961868,0.9955021
cart_T_ecmi,,,,,0.1069438,1.3440125,0.4434251,0.99563074,0.020226603,-0.091160834,-0.043968037,-0.75971377,-0.64876944,-0.082378544,0.64994293,-0.7555051
ecmac_T_ecmrep_psm1,,,,,0.01038242,-0.2501324,-0.30762842,0.998145,0.0496832,0.035188068,-0.04731537,0.99675006,-0.06519635,-0.03831287,0.06341047,0.99725187
ecmac_T_ecmrep_psm3,,,,,-0.018947443,-0.4527795,-0.5580277,0.99342906,-0.031421527,0.110051684,0.0051236153,0.97282016,0.23150527,-0.11433475,-0.2294202,0.9665888
""
0,14:50:48.098092,14:50:34.124272,0,,0.12490285,0.0065823793,0.027993545,-0.55411726,-0.68729895,-0.46965343,-0.4207536,-0.2555714,0.87043077,-0.718276,0.6799291,-0.14756697,,0.026901186,-0.03101641,0.045271635,0.5888369,-0.4083919,0.69748634,-0.80766535,-0.26443928,0.52701855,-0.030787319,-0.8736635,-0.4855556,,0.107009314,1.344008,0.44342253,0.9956268,0.020158295,-0.091219164,-0.044057555,-0.7597156,-0.6487612,-0.082378544,0.64994293,-0.7555051,,-0.09318765,0.2655672,-0.08396889,0.60212547,0.60345775,0.5227654,-0.77077836,0.26861963,0.57770604,0.20819613,-0.75078773,0.62687486,,0.005475907,0.41335067,-0.38320258,-0.541389,0.5044628,-0.6726182,-0.52115226,-0.82912457,-0.20236802,-0.65977144,0.24097668,0.7117808,,1.1466404862333583,0.38558832967715556,0.20455585829000003,0.14657327049568253,0.41373532128975365,0.966627673951312,-0.3990495535660441,,-0.7832163999052271,-0.28756368130462384,0.16011125935,-0.4244124456126773,0.14469805325160143,-0.6193356669972813,0.7918920326189859,,-0.048616146314302056,-0.07213882130805563,0.0795457676,-0.07359428191455561,,6.5632164e-05,3.2186508e-06,-1.0728836e-06,1.0,-6.793067e-05,-5.843863e-05,6.792694e-05,1.0,-7.4207783e-06,5.8434904e-05,7.4505806e-06,1.0,36,0.108,0,0,0.0,False,-0.2561246393568388,0.966424761817279
0.1227938040101435,14:50:48.120764,14:50:34.124272,0,,0.124803305,0.006677121,0.02813311,-0.5454714,-0.6953926,-0.467857,-0.41841918,-0.2577378,0.8709171,-0.7262137,0.6708207,-0.1503771,,0.02687576,-0.031027883,0.045262575,0.5890617,-0.40841094,0.6972853,-0.80749965,-0.2645744,0.52720463,-0.030832231,-0.87361366,-0.48564234,,0.107009314,1.344008,0.44342253,0.9956268,0.020158295,-0.091219164,-0.044057555,-0.7597156,-0.6487612,-0.082378544,0.64994293,-0.7555051,,-0.09309807,0.26573282,-0.08402293,0.59443134,0.61230415,0.5212821,-0.7744247,0.26128006,0.5761937,0.2166052,-0.7462013,0.6294965,,0.0055026435,0.4133397,-0.38320762,-0.5416165,0.5044837,-0.67241937,-0.5211261,-0.8291528,-0.20231953,-0.6596053,0.24083565,0.7119825,,1.1473973140550322,0.3855806069442813,0.20450789556,0.1377662928693325,0.42316323977356907,0.9592665535568212,-0.39937624169831243,,-0.7830310543162458,-0.2876177404347434,0.16010737048,-0.4246221355561618,0.14483468975136687,-0.6194470849009778,0.7918920326189859,,-0.048616146314302056,-0.07213882130805563,0.0795457676,-0.07359428191455561,,6.5632164e-05,3.2186508e-06,-1.0728836e-06,1.0,-6.793067e-05,-5.843863e-05,6.792694e-05,1.0,-7.4207783e-06,5.8434904e-05,7.4505806e-06,1.0,40,0.12,0,0,0.0,False,-0.25540970673458663,0.9663764816164995
0.1454664100019727,14:50:48.147884,14:50:34.124272,0,,0.1247071,0.0067958385,0.028322503,-0.53790945,-0.7032487,-0.46486002,-0.41228932,-0.26152068,0.87271094,-0.7353033,0.6610963,-0.14926755,,0.026852097,-0.031042352,0.04524958,0.589321,-0.40839905,0.6970731,-0.8073049,-0.2646054,0.52748716,-0.030975908,-0.87360984,-0.48564008,,0.107009314,1.344008,0.44342253,0.9956268,0.020158295,-0.091219164,-0.044057555,-0.7597156,-0.6487612,-0.082378544,0.64994293,-0.7555051,,-0.09301563,0.26594892,-0.0840985,0.58810914,0.62089884,0.51827824,-0.77591074,0.25230646,0.5781902,0.2282327,-0.7421766,0.6301458,,0.005528166,0.41332367,-0.3832131,-0.5418701,0.5044731,-0.672223,-0.5211711,-0.8291674,-0.20214367,-0.6593614,0.24080758,0.7122178,,1.1483240419999392,0.3856655570058978,0.20444048848000002,0.1316852845082813,0.43559716125222414,0.9542732849493023,-0.39888620949990994,,-0.7828457087272643,-0.2877026904963599,0.16010737048,-0.4248318254996464,0.14510796275089774,-0.6196699207083706,0.7918920326189859,,-0.048616146314302056,-0.07213882130805563,0.0795457676,-0.07359428191455561,,6.5632164e-05,3.2186508e-06,-1.0728836e-06,1.0,-6.793067e-05,-5.843863e-05,6.792694e-05,1.0,-7.4207783e-06,5.8434904e-05,7.4505806e-06,1.0,55,0.165,0,0,0.0,False,-0.2555288621716292,0.9663282014157202
0.17258767402381636,14:50:48.179974,14:50:34.124272,0,,0.12469556,0.0068801343,0.028464004,-0.52948487,-0.7117026,-0.46165487,-0.40693098,-0.26441538,0.8743521,-0.74434733,0.6508179,-0.14961001,,0.026847012,-0.031054378,0.04524815,0.58965486,-0.40823814,0.696885,-0.8070651,-0.264849,0.5277318,-0.030870885,-0.87361115,-0.48564434,,0.107009314,1.344008,0.44342253,0.9956268,0.020158295,-0.091219164,-0.044057555,-0.7597156,-0.6487612,-0.082378544,0.64994293,-0.7555051,,-0.09301421,0.26610532,-0.084151424,0.58088833,0.63018495,0.5152045,-0.7779773,0.24366315,0.5791197,0.23941615,-0.73722124,0.63181067,,0.005533964,0.41331664,-0.38322255,-0.5422243,0.5043256,-0.672048,-0.5209916,-0.82931614,-0.20199612,-0.65921205,0.24060416,0.7124248,,1.1486792877121537,0.38575050706751424,0.20440289607,0.12476551637329199,0.4476211732315829,0.9481440527303424,-0.3990495535660443,,-0.7828070950628933,-0.28777991782510215,0.16010477790000002,-0.4252512053866154,0.14524459925066321,-0.619781338612067,0.7918920326189859,,-0.048616146314302056,-0.07213882130805563,0.0795457676,-0.07359428191455561,,6.5632164e-05,3.2186508e-06,-1.0728836e-06,1.0,-6.793067e-05,-5.843863e-05,6.792694e-05,1.0,-7.4207783e-06,5.8434904e-05,7.4505806e-06,1.0,59,0.178,0,0,0.0,False,-0.25546928445310746,0.9665696024196175
0.20467857702169567,14:50:48.209704,14:50:34.260541,0,,0.12471964,0.0069372356,0.02857636,-0.5181514,-0.72025937,-0.46124366,-0.4049496,-0.2684126,0.8740541,-0.7533492,0.6396727,-0.15259048,,0.026851077,-0.031063795,0.04525137,0.58982134,-0.4081645,0.6967872,-0.8069446,-0.26495135,0.5278647,-0.030840844,-0.87361455,-0.4856401,,0.107009314,1.344008,0.44342253,0.9956268,0.020158295,-0.091219164,-0.044057555,-0.7597156,-0.6487612,-0.082378544,0.64994293,-0.7555051,,-0.09304659,0.26622108,-0.084196314,0.5706119,0.639607,0.51507765,-0.7826617,0.23362227,0.5769414,0.24868216,-0.7323411,0.6339035,,0.0055300863,0.41331387,-0.38323218,-0.5423988,0.5042579,-0.6719579,-0.52092034,-0.82938164,-0.20191097,-0.6591248,0.24052028,0.71253383,,1.1486483967806567,0.38582001166338226,0.20437437769000003,0.11344225942512769,0.45800554721375636,0.9410648306318039,-0.39888620949990994,,-0.7828379859943901,-0.28784942242097017,0.16010218532,-0.4254608953300999,0.14538123575042863,-0.6198110777756228,0.7917286885528515,,-0.048616146314302056,-0.07213882130805563,0.0795457676,-0.07359428191455561,,6.5632164e-05,3.2186508e-06,-1.0728836e-06,1.0,-6.793067e-05,-5.843863e-05,6.792694e-05,1.0,-7.4207783e-06,5.8434904e-05,7.4505806e-06,1.0,71,0.214,0,0,0.0,False,-0.2552905512975445,0.966521322218838
0.2344041250180453,14:50:48.231904,14:50:34.260541,0,,0.124762185,0.006951362,0.028640106,-0.51348627,-0.7242193,-0.46025902,-0.40289277,-0.2700976,0.87448543,-0.75763404,0.63447124,-0.15309137,,0.026852157,-0.031069756,0.045252442,0.5898486,-0.40812838,0.69678533,-0.8069214,-0.2648534,0.5279493,-0.030925095,-0.87366116,-0.485551,,0.107009314,1.344008,0.44342253,0.9956268,0.020158295,-0.091219164,-0.044057555,-0.7597156,-0.6487612,-0.082378544,0.64994293,-0.7555051,,-0.09309454,0.26627207,-0.08423058,0.56649834,0.64397955,0.5141692,-0.7840256,0.2290721,0.5769141,0.25373903,-0.7299427,0.6346654,,0.0055292156,0.41331142,-0.38323778,-0.54241884,0.5042216,-0.671969,-0.5209816,-0.8293724,-0.20179091,-0.6590599,0.24062829,0.71255744,,1.1484939421231721,0.3858895162592503,0.20434974818,0.1094581504989217,0.463471007204374,0.9382416892867584,-0.39823283323537284,,-0.7828457087272643,-0.2878957588182155,0.16010088903000003,-0.4254608953300999,0.14551787225019408,-0.6199224956793192,0.7917286885528515,,-0.048616146314302056,-0.07213882130805563,0.0795457676,-0.07359428191455561,,6.5632164e-05,3.2186508e-06,-1.0728836e-06,1.0,-6.793067e-05,-5.843863e-05,6.792694e-05,1.0,-7.4207783e-06,5.8434904e-05,7.4505806e-06,1.0,78,0.236,0,0,0.0,False,-0.25558843989015,0.9662316410141611
0.256580853019841,14:50:48.261376,14:50:34.260541,0,,0.12482758,0.006995067,0.028797016,-0.4999691,-0.73397684,-0.4596835,-0.40015686,-0.27494526,0.87423086,-0.76805294,0.6210339,-0.1562418,,0.026850939,-0.031077757,0.045250595,0.5906412,-0.4077107,0.6963584,-0.8063553,-0.26552755,0.5284754,-0.030562669,-0.87365156,-0.4855912,,0.107009314,1.344008,0.44342253,0.9956268,0.020158295,-0.091219164,-0.044057555,-0.7597156,-0.6487612,-0.082378544,0.64994293,-0.7555051,,-0.09317306,0.2664055,-0.08431331,0.55422807,0.6547825,0.5138981,-0.78912324,0.21692851,0.5746534,0.26479384,-0.7240179,0.6369319,,0.005531009,0.41330576,-0.38324356,-0.54327065,0.5038396,-0.6715673,-0.52046233,-0.82976973,-0.20149723,-0.65876853,0.24005798,0.7130191,,1.1482313692054487,0.38603624818386056,0.20428752626000002,0.09624768405939668,0.47576829218326366,0.9300926889773136,-0.40002961796284975,,-0.7828379859943901,-0.2879498179483351,0.16010088903000003,-0.4265093450475225,0.14565450874995953,-0.6200339135830156,0.7917286885528515,,-0.048616146314302056,-0.07213882130805563,0.0795457676,-0.07359428191455561,,6.5632164e-05,3.2186508e-06,-1.0728836e-06,1.0,-6.793067e-05,-5.843863e-05,6.792694e-05,1.0,-7.4207783e-06,5.8434904e-05,7.4505806e-06,1.0,86,0.26,0,0,0.0,False,-0.25588632848275505,0.9663764816164995
0.2860516080108937,14:50:48.280670,14:50:34.260541,0,,0.124860734,0.007013172,0.028882086,-0.49548322,-0.7370486,-0.45962572,-0.398808,-0.27704418,0.8741846,-0.7716531,0.61644614,-0.15667021,,0.026850581,-0.031081378,0.04524982,0.59063506,-0.40765917,0.69639367,-0.80636036,-0.2655014,0.52848077,-0.030546486,-0.8736836,-0.48553467,,0.107009314,1.344008,0.44342253,0.9956268,0.020158295,-0.091219164,-0.044057555,-0.7597156,-0.6487612,-0.082378544,0.64994293,-0.7555051,,-0.093213595,0.26647365,-0.08436204,0.55019104,0.6581916,0.51388097,-0.7905733,0.2124383,0.5743377,0.2688563,-0.722256,0.63723034,,0.005531623,0.4133032,-0.38324618,-0.5432659,0.5037902,-0.6716082,-0.5204508,-0.82978827,-0.20145081,-0.6587815,0.24009767,0.7129937,,1.148138696410958,0.38619070284134505,0.20424215611000002,0.0920538851897062,0.48014066017575774,0.9279158546414175,-0.39823283323537284,,-0.7828302632615158,-0.28797298614695777,0.16010088903000003,-0.4265093450475225,0.14565450874995953,-0.6201155923231563,0.7918920326189859,,-0.048616146314302056,-0.07213882130805563,0.0795457676,-0.07359428191455561,,6.5632164e-05,3.2186508e-06,-1.0728836e-06,1.0,-6.793067e-05,-5.843863e-05,6.792694e-05,1.0,-7.4207783e-06,5.8434904e-05,7.4505806e-06,1.0,94,0.284,0,0,0.0,False,-0.25624379479388093,0.9661350806126023
0.30537364102201536,14:50:48.310130,14:50:34.260541,0,,0.124895535,0.007104337,0.029085174,-0.48110688,-0.74699765,-0.45883626,-0.39606813,-0.28171805,0.87393653,-0.7820909,0.6021873,-0.16032553,,0.026852973,-0.031085938,0.04525149,0.5906207,-0.40770537,0.6963788,-0.80637205,-0.26555714,0.52843493,-0.0305174,-0.87364507,-0.48560578,,0.107009314,1.344008,0.44342253,0.9956268,0.020158295,-0.091219164,-0.044057555,-0.7597156,-0.6487612,-0.082378544,0.64994293,-0.7555051,,-0.09326403,0.266674,-0.08445191,0.53706884,0.6692746,0.51344764,-0.79570496,0.19989721,0.57174706,0.28001904,-0.7156204,0.6399037,,0.005529313,0.41330194,-0.38325092,-0.54325384,0.5038352,-0.6715842,-0.52043104,-0.82978064,-0.20153327,-0.6588071,0.24002954,0.71299297,,1.148146419143832,0.3865459485535594,0.20416308242000003,0.07758527908927401,0.49243794515464734,0.9183783157495831,-0.3992128976321787,,-0.7828457087272643,-0.28800387707845465,0.16009959274000002,-0.4265093450475225,0.14565450874995953,-0.6200339135830156,0.7917286885528515,,-0.048616146314302056,-0.07213882130805563,0.0795457676,-0.07359428191455561,,6.5632164e-05,3.2186508e-06,-1.0728836e-06,1.0,-6.793067e-05,-5.843863e-05,6.792694e-05,1.0,-7.4207783e-06,5.8434904e-05,7.4505806e-06,1.0,113,0.342,0,0,0.0,False,-0.25588632848275505,0.9662316410141611
0.33480609601247124,14:50:48.352002,14:50:34.412086,0,,0.12491799,0.007242337,0.029401168,-0.46058577,-0.76081914,-0.45718172,-0.38989657,-0.28929818,0.8742352,-0.7973966,0.5809139,-0.16339427,,0.02685187,-0.031088889,0.04525137,0.5908254,-0.4074899,0.6963313,-0.80620015,-0.26492876,0.52901226,-0.031088859,-0.8739363,-0.48504514,,0.107009314,1.344008,0.44342253,0.9956268,0.020158295,-0.091219164,-0.044057555,-0.7597156,-0.6487612,-0.082378544,0.64994293,-0.7555051,,-0.09331118,0.26698375,-0.08459763,0.5184856,0.6847654,0.51212215,-0.8015801,0.1806968,0.5699281,0.2977282,-0.7060064,0.64258295,,0.005530567,0.4133004,-0.38325337,-0.5434103,0.50361764,-0.67162085,-0.52084106,-0.8297132,-0.20074989,-0.65835387,0.24071817,0.71317947,,1.1483317647328135,0.38700931252601284,0.20403993487000002,0.0576647344582442,0.5118403281213398,0.9054974080697513,-0.39888620949990994,,-0.7828534314601385,-0.28805793620857423,0.16009959274000002,-0.4265093450475225,0.14633769124878673,-0.6206726818416384,0.7918920326189859,,-0.048616146314302056,-0.07213882130805563,0.0795457676,-0.07359428191455561,,6.5632164e-05,3.2186508e-06,-1.0728836e-06,1.0,-6.793067e-05,-5.843863e-05,6.792694e-05,1.0,-7.4207783e-06,5.8434904e-05,7.4505806e-06,1.0,117,0.355,0,0,0.0,False,-0.25683957197909146,0.965797119207146
0.3767060620011762,14:50:48.376995,14:50:34.412086,0,,0.12492162,0.007331848,0.02967967,-0.44536972,-0.7713197,-0.45465583,-0.38327855,-0.29467562,0.87536496,-0.80916214,0.5641208,-0.16439083,,0.026860781,-0.031089291,0.045254827,0.5865789,-0.4104871,0.6981586,-0.8091687,-0.26061076,0.5266195,-0.03422281,-0.873832,-0.48502213,,0.107009314,1.344008,0.44342253,0.9956268,0.020158295,-0.091219164,-0.044057555,-0.7597156,-0.6487612,-0.082378544,0.64994293,-0.7555051,,-0.09333821,0.26723287,-0.08474866,0.5048447,0.6966149,0.50976413,-0.8046587,0.16598813,0.5700634,0.31249988,-0.6979796,0.6443355,,0.005521391,0.41330212,-0.38325548,-0.5387338,0.5063679,-0.6733182,-0.5245885,-0.82699406,-0.20220709,-0.65922135,0.2442792,0.7111645,,1.1485480012532918,0.3873104991081076,0.20391289845000002,0.04361550824478107,0.5279634350936618,0.8955355662990557,-0.3985595213676414,,-0.7828843223916354,-0.28812744080444225,0.16010088903000003,-0.42042833668647134,0.1470208737476139,-0.6199229115178714,0.7912386563544487,,-0.048616146314302056,-0.07213882130805563,0.0795457676,-0.07359428191455561,,6.5632164e-05,3.2186508e-06,-1.0728836e-06,1.0,-6.793067e-05,-5.843863e-05,6.792694e-05,1.0,-7.4207783e-06,5.8434904e-05,7.4505806e-06,1.0,125,0.378,0,0,0.0,False,-0.25719703829021734,0.9661833608133816
0.40164031900349073,14:50:48.401293,14:50:34.412086,0,,0.12491543,0.007382363,0.029831871,-0.43662807,-0.7776886,-0.45227918,-0.3790719,-0.29688752,0.8764487,-0.8158801,0.5541284,-0.16517052,,0.026867371,-0.03110139,0.04525423,0.58822745,-0.4102831,0.69689035,-0.808015,-0.26283574,0.5272847,-0.033168226,-0.87326115,-0.48612213,,0.107009314,1.344008,0.44342253,0.9956268,0.020158295,-0.091219164,-0.044057555,-0.7597156,-0.6487612,-0.082378544,0.64994293,-0.7555051,,-0.09334477,0.26737043,-0.084831014,0.49702317,0.7038327,0.5075308,-0.8060936,0.15798879,0.5703093,0.32121813,-0.69257426,0.6458791,,0.0055155195,0.4132944,-0.3832653,-0.54053354,0.5062221,-0.6719841,-0.52326894,-0.82772475,-0.20263599,-0.65879667,0.24209686,0.71230334,,1.148694733177902,0.3874340628340952,0.20384808395,0.035647290392369135,0.5375279900772427,0.8887981366621334,-0.40019296202898413,,-0.7829306587888808,-0.28820466813318446,0.16010218532,-0.42273492606480106,0.1470208737476139,-0.6189427666361846,0.7909119682221801,,-0.048616146314302056,-0.07213882130805563,0.0795457676,-0.07359428191455561,,6.5632164e-05,3.2186508e-06,-1.0728836e-06,1.0,-6.793067e-05,-5.843863e-05,6.792694e-05,1.0,-7.4207783e-06,5.8434904e-05,7.4505806e-06,1.0,133,0.403,0,0,0.0,False,-0.25642252794944387,0.9660385202110433
0.42594266001833603,14:50:48.416533,14:50:34.412086,0,,0.12491707,0.0074360967,0.02998449,-0.4263475,-0.78630507,-0.44716024,-0.37291577,-0.2975875,0.87884897,-0.82411253,0.5414482,-0.16634995,,0.026875768,-0.031116873,0.0452556,0.5881105,-0.4102669,0.69699854,-0.8080909,-0.2624935,0.5273387,-0.033392012,-0.87337166,-0.48590815,,0.107009314,1.344008,0.44342253,0.9956268,0.020158295,-0.091219164,-0.044057555,-0.7597156,-0.6487612,-0.082378544,0.64994293,-0.7555051,,-0.093359016,0.2675105,-0.084910765,0.48791495,0.71362305,0.50267404,-0.8070802,0.1494512,0.57121444,0.33250654,-0.6844023,0.64887047,,0.005507823,0.4132864,-0.38327903,-0.5403916,0.50619954,-0.67211527,-0.52348435,-0.8276366,-0.20243956,-0.658742,0.24244519,0.7122354,,1.1487874059723928,0.38748039923134053,0.20379882493,0.026840312766019118,0.5499619115558978,0.8788224649060401,-0.3998662738967156,,-0.7829769951861262,-0.28832823185917206,0.16010218532,-0.4225252361213166,0.1472941467471448,-0.6191656024435775,0.7909119682221801,,-0.048616146314302056,-0.07213882130805563,0.0795457676,-0.07359428191455561,,6.5632164e-05,3.2186508e-06,-1.0728836e-06,1.0,-6.793067e-05,-5.843863e-05,6.792694e-05,1.0,-7.4207783e-06,5.8434904e-05,7.4505806e-06,1.0,141,0.427,0,0,0.0,False,-0.25636295023092304,0.965797119207146
0.44123570702504367,14:50:48.444174,14:50:34.412086,0,,0.12489476,0.007468179,0.030128404,-0.41516167,-0.7923782,-0.44696486,-0.36995256,-0.30180258,0.87866396,-0.83112925,0.5301434,-0.16784558,,0.026879445,-0.031137899,0.04525405,0.58803445,-0.41018945,0.6971083,-0.80813265,-0.2620237,0.52750844,-0.03371945,-0.87354916,-0.4855665,,0.107009314,1.344008,0.44342253,0.9956268,0.020158295,-0.091219164,-0.044057555,-0.7597156,-0.6487612,-0.082378544,0.64994293,-0.7555051,,-0.09334962,0.26762918,-0.085000604,0.47763464,0.7205821,0.5026197,-0.8097232,0.1390695,0.57009476,0.34090105,-0.6792798,0.6498965,,0.0055053798,0.41327345,-0.38329592,-0.540282,0.50611603,-0.67226624,-0.5237729,-0.82754326,-0.20207444,-0.65860254,0.24293764,0.71219665,,1.1488491878353866,0.38748039923134053,0.20373271414000002,0.015517055817854803,0.5595264665394786,0.8719216777888369,-0.3997029298305814,,-0.7829847179190004,-0.2884904092495308,0.16010218532,-0.42231554617783207,0.14770405624644115,-0.6195815348948074,0.7910753122883143,,-0.048616146314302056,-0.07213882130805563,0.0795457676,-0.07359428191455561,,6.5632164e-05,3.2186508e-06,-1.0728836e-06,1.0,-6.793067e-05,-5.843863e-05,6.792694e-05,1.0,-7.4207783e-06,5.8434904e-05,7.4505806e-06,1.0,156,0.474,0,0,0.0,False,-0.25588632848275505,0.965797119207146
0.468870987999253,14:50:48.485407,14:50:34.542266,0,,0.12485968,0.0075097233,0.030448407,-0.3968925,-0.8034811,-0.4437281,-0.36309588,-0.3065607,0.8798761,-0.84299326,0.510332,-0.17006913,,0.026893586,-0.031232148,0.045243144,0.5888411,-0.40961504,0.6967651,-0.80755484,-0.26244962,0.5281811,-0.033485115,-0.8736908,-0.48532778,,0.107009314,1.344008,0.44342253,0.9956268,0.020158295,-0.091219164,-0.044057555,-0.7597156,-0.6487612,-0.082378544,0.64994293,-0.7555051,,-0.09334456,0.26787004,-0.08521813,0.46098033,0.7333595,0.4996809,-0.812773,0.12288304,0.56947327,0.35622633,-0.6686431,0.65270144,,0.005497161,0.41321248,-0.3833695,-0.54113585,0.5055805,-0.6719824,-0.5233564,-0.82795215,-0.20147783,-0.65823257,0.2426594,0.7126334,,1.1490113652257452,0.3875807947587055,0.20355512241,-0.002306589378329768,0.576742665509924,0.8581280581435095,-0.3997029298305814,,-0.7829847179190004,-0.2891545642767141,0.16010348161000001,-0.4233639958952547,0.14852387524503374,-0.6202500423169859,0.7914020004205831,,-0.048616146314302056,-0.07213882130805563,0.0795457676,-0.07359428191455561,,6.5632164e-05,3.2186508e-06,-1.0728836e-06,1.0,-6.793067e-05,-5.843863e-05,6.792694e-05,1.0,-7.4207783e-06,5.8434904e-05,7.4505806e-06,1.0,164,0.497,0,0,0.0,False,-0.2561842170753601,0.9660385202110433
0.5101030720106792,14:50:48.513882,14:50:34.542266,0,,0.12483904,0.0075303763,0.030661434,-0.3880048,-0.8078288,-0.4436947,-0.36067128,-0.30993265,0.87969196,-0.84815586,0.50135267,-0.17110533,,0.026899725,-0.03127551,0.045238495,0.58882904,-0.40955874,0.6968085,-0.80756325,-0.2623882,0.5281987,-0.033494025,-0.87373567,-0.48524642,,0.107009314,1.344008,0.44342253,0.9956268,0.020158295,-0.091219164,-0.044057555,-0.7597156,-0.6487612,-0.082378544,0.64994293,-0.7555051,,-0.09334422,0.26802498,-0.08536722,0.4527745,0.7384126,0.49974194,-0.81455123,0.11460496,0.56865805,0.36263138,-0.6645393,0.65336514,,0.0054937056,0.4131848,-0.38340357,-0.54112256,0.50552577,-0.6720343,-0.523367,-0.8279632,-0.20140493,-0.658235,0.24273585,0.71260506,,1.1491503744174814,0.387804754012058,0.20341382680000003,-0.011532946891648839,0.583847763497727,0.8524976846315766,-0.3998662738967156,,-0.7829769951861262,-0.28945575085880887,0.16010348161000001,-0.4233639958952547,0.14879714824456466,-0.6204728781243788,0.7914020004205831,,-0.048616146314302056,-0.07213882130805563,0.0795457676,-0.07359428191455561,,6.5632164e-05,3.2186508e-06,-1.0728836e-06,1.0,-6.793067e-05,-5.843863e-05,6.792694e-05,1.0,-7.4207783e-06,5.8434904e-05,7.4505806e-06,1.0,172,0.522,0,0,0.0,False,-0.25582675076423333,0.9659902400102638
0.5385605050250888,14:50:48.543074,14:50:34.542266,0,,0.12483572,0.0076004416,0.030828223,-0.38017228,-0.81185555,-0.44312492,-0.35798007,-0.31260228,0.8798467,-0.8528302,0.49312317,-0.17178541,,0.026908267,-0.03134373,0.045232236,0.586841,-0.41033158,0.6980299,-0.8089123,-0.25903124,0.5277914,-0.03575781,-0.8743745,-0.48393238,,0.107009314,1.344008,0.44342253,0.9956268,0.020158295,-0.091219164,-0.044057555,-0.7597156,-0.6487612,-0.082378544,0.64994293,-0.7555051,,-0.093354166,0.2681868,-0.08544754,0.4455816,0.74310565,0.4992505,-0.81577885,0.1073386,0.56831616,0.3687301,-0.6605092,0.65403795,,0.005489279,0.4131422,-0.38345772,-0.5388576,0.50618625,-0.6733558,-0.5257678,-0.8266234,-0.20065385,-0.6581799,0.24590495,0.7115687,,1.14931255180784,0.388183167922895,0.20333604940000002,-0.019501164744060762,0.5904063154864682,0.8471496252541485,-0.3998662738967156,,-0.7829615497203777,-0.2899963421600046,0.16010348161000001,-0.42021864674298676,0.1503001497419845,-0.6217801538051799,0.7912386563544487,,-0.048616146314302056,-0.07213882130805563,0.0795457676,-0.07359428191455561,,6.5632164e-05,3.2186508e-06,-1.0728836e-06,1.0,-6.793067e-05,-5.843863e-05,6.792694e-05,1.0,-7.4207783e-06,5.8434904e-05,7.4505806e-06,1.0,180,0.546,0,0,0.0,False,-0.256541683386486,0.9660385202110433
0.5677726740250364,14:50:48.564972,14:50:34.542266,0,,0.12483891,0.007665172,0.030918285,-0.37323427,-0.8145185,-0.44413498,-0.35685623,-0.31585157,0.87914246,-0.8563584,0.48661846,-0.17277944,,0.02691342,-0.03138165,0.045227706,0.5856682,-0.41137993,0.69839764,-0.80969775,-0.2574121,0.5273788,-0.037176996,-0.87436,-0.48385152,,0.107009314,1.344008,0.44342253,0.9956268,0.020158295,-0.091219164,-0.044057555,-0.7597156,-0.6487612,-0.082378544,0.64994293,-0.7555051,,-0.09336321,0.26829442,-0.085472904,0.43908954,0.7462443,0.5003197,-0.8174235,0.10071603,0.56716406,0.3728527,-0.65800893,0.654221,,0.00548652,0.4131176,-0.38348728,-0.53751385,0.5071449,-0.6737083,-0.5272488,-0.82563275,-0.20084639,-0.65809387,0.24725421,0.71118057,,1.149351165472211,0.3884689090392413,0.20331271618000002,-0.027050002709503643,0.5949153199787277,0.8434728344321665,-0.3998662738967156,,-0.7829538269875035,-0.29030525147497355,0.16010477790000002,-0.4183314372516261,0.1512566052403426,-0.6217432917296494,0.7912386563544487,,-0.048616146314302056,-0.07213882130805563,0.0795457676,-0.07359428191455561,,6.5632164e-05,3.2186508e-06,-1.0728836e-06,1.0,-6.793067e-05,-5.843863e-05,6.792694e-05,1.0,-7.4207783e-06,5.8434904e-05,7.4505806e-06,1.0,188,0.571,0,0,0.0,False,-0.2570183051346544,0.9663282014157202
0.5896743019984569,14:50:48.593628,14:50:34.542266,0,,0.12488976,0.0077634454,0.031037822,-0.36733755,-0.81839556,-0.44191846,-0.35328966,-0.3167493,0.8802592,-0.8603775,0.47947747,-0.17277688,,0.02691488,-0.031435877,0.045220613,0.5875091,-0.41121876,0.6969449,-0.8083625,-0.25865513,0.5288172,-0.037191123,-0.874069,-0.48437607,,0.107009314,1.344008,0.44342253,0.9956268,0.020158295,-0.091219164,-0.044057555,-0.7597156,-0.6487612,-0.082378544,0.64994293,-0.7555051,,-0.09342096,0.2684453,-0.08549357,0.43379712,0.7507645,0.49816942,-0.8175049,0.095497966,0.5679489,0.37882167,-0.6536305,0.65518034,,0.005488501,0.41308257,-0.38352925,-0.5394098,0.5070193,-0.67228603,-0.5267497,-0.8260694,-0.20035994,-0.6569413,0.24605033,0.71266216,,1.149343442739337,0.389009500340437,0.20329197554000003,-0.032292251296616746,0.6010639624681725,0.838377350025687,-0.3997029298305814,,-0.7829461042546293,-0.29072227905018166,0.16010477790000002,-0.42042833668647134,0.15262297023799698,-0.6215506109243646,0.7912386563544487,,-0.048616146314302056,-0.07213882130805563,0.0795457676,-0.07359428191455561,,6.5632164e-05,3.2186508e-06,-1.0728836e-06,1.0,-6.793067e-05,-5.843863e-05,6.792694e-05,1.0,-7.4207783e-06,5.8434904e-05,7.4505806e-06,1.0,199,0.605,0,0,0.0,False,-0.25588632848275505,0.965797119207146
0.6183201490202919,14:50:48.617825,14:50:34.674785,0,,0.124910325,0.007845581,0.031126186,-0.3597959,-0.8207391,-0.44377297,-0.3525052,-0.32080048,0.87910587,-0.86387897,0.472731,-0.17389214,,0.02692318,-0.031481132,0.0452165,0.5872939,-0.41132107,0.6970659,-0.8085204,-0.25860804,0.5285988,-0.03715694,-0.87403476,-0.48444042,,0.107009314,1.344008,0.44342253,0.9956268,0.020158295,-0.091219164,-0.044057555,-0.7597156,-0.6487612,-0.082378544,0.64994293,-0.7555051,,-0.093446285,0.26856458,-0.08550451,0.4266863,0.75357157,0.5000687,-0.8194069,0.088100575,0.5664014,0.38276765,-0.6514355,0.65507305,,0.0054829405,0.41305408,-0.38356516,-0.5391913,0.50711524,-0.672389,-0.5267817,-0.82600445,-0.20054366,-0.657095,0.24607079,0.7125134,,1.14931255180784,0.3894188051827709,0.20327901264,-0.04067984903599772,0.6052996939609011,0.8350050737512386,-0.3998662738967156,,-0.7829461042546293,-0.29103118836515063,0.16010477790000002,-0.42021864674298676,0.15275960673776243,-0.6215803500879203,0.7910753122883144,,-0.048616146314302056,-0.07213882130805563,0.0795457676,-0.07359428191455561,,6.5632164e-05,3.2186508e-06,-1.0728836e-06,1.0,-6.793067e-05,-5.843863e-05,6.792694e-05,1.0,-7.4207783e-06,5.8434904e-05,7.4505806e-06,1.0,207,0.628,0,0,0.0,False,-0.2564821056679656,0.9658936796087052
0.6424951380176935,14:50:48.644646,14:50:34.674785,0,,0.12493377,0.007883877,0.031189308,-0.35613263,-0.82423645,-0.44023165,-0.3485478,-0.3199467,0.88099295,-0.866997,0.46719208,-0.17334238,,0.02692759,-0.031504303,0.045214355,0.5872407,-0.41149157,0.69701,-0.80856466,-0.25883055,0.52842206,-0.037033707,-0.8738886,-0.48471344,,0.107009314,1.344008,0.44342253,0.9956268,0.020158295,-0.091219164,-0.044057555,-0.7597156,-0.6487612,-0.082378544,0.64994293,-0.7555051,,-0.09347404,0.26863402,-0.08552464,0.42354283,0.7576384,0.49658388,-0.81854075,0.08524309,0.5680886,0.38807535,-0.647084,0.656262,,0.0054799435,0.41303942,-0.38358355,-0.53914815,0.5072818,-0.6722979,-0.52669615,-0.8259819,-0.20086083,-0.65719897,0.245803,0.71250993,,1.1492893836092173,0.38955009164163273,0.20327382748000003,-0.043196128357812016,0.6110384269510497,0.8303255217959888,-0.3998662738967156,,-0.7829461042546293,-0.29118564302263517,0.16010477790000002,-0.42021864674298676,0.15275960673776243,-0.6213353138674987,0.7905852800899116,,-0.048616146314302056,-0.07213882130805563,0.0795457676,-0.07359428191455561,,6.5632164e-05,3.2186508e-06,-1.0728836e-06,1.0,-6.793067e-05,-5.843863e-05,6.792694e-05,1.0,-7.4207783e-06,5.8434904e-05,7.4505806e-06,1.0,215,0.653,0,0,0.0,False,-0.25683957197909146,0.9659902400102638
0.6693474060157314,14:50:48.674406,14:50:34.674785,0,,0.12492332,0.007898152,0.031222478,-0.35213926,-0.82552737,-0.4410245,-0.34794533,-0.32196912,0.8804941,-0.8688681,0.46350896,-0.17386049,,0.026924148,-0.03152451,0.045209646,0.587905,-0.41109255,0.6966855,-0.80809134,-0.2592522,0.5289392,-0.036825657,-0.87395144,-0.48461598,,0.107009314,1.344008,0.44342253,0.9956268,0.020158295,-0.091219164,-0.044057555,-0.7597156,-0.6487612,-0.082378544,0.64994293,-0.7555051,,-0.09346626,0.26866674,-0.08554141,0.41978818,0.7591913,0.49739972,-0.8194171,0.081348516,0.5673958,0.39029923,-0.6457639,0.6562435,,0.005484855,0.41302502,-0.3835981,-0.5398526,0.5069126,-0.672011,-0.5263418,-0.8263032,-0.2004677,-0.65690446,0.24548447,0.7128912,,1.149281660876343,0.3895578143745069,0.20326475345000003,-0.04759961717098703,0.6136345204465931,0.828371939106038,-0.39953958576444704,,-0.7829074905902581,-0.2913246522143712,0.16010477790000002,-0.4210574065169249,0.1530328797372933,-0.6216398284150322,0.7907486241560459,,-0.048616146314302056,-0.07213882130805563,0.0795457676,-0.07359428191455561,,6.5632164e-05,3.2186508e-06,-1.0728836e-06,1.0,-6.793067e-05,-5.843863e-05,6.792694e-05,1.0,-7.4207783e-06,5.8434904e-05,7.4505806e-06,1.0,223,0.677,0,0,0.0,False,-0.2555288621716292,0.965362597400131
0.6990389350103214,14:50:48.694366,14:50:34.674785,0,,0.12492673,0.00790377,0.03126107,-0.35071552,-0.82772636,-0.43802714,-0.34502873,-0.32062554,0.8821306,-0.87060535,0.46050888,-0.17314115,,0.026920736,-0.031530082,0.0452075,0.5881372,-0.41097018,0.69656163,-0.8079164,-0.2591958,0.5292338,-0.03695345,-0.8740257,-0.48447227,,0.107009314,1.344008,0.44342253,0.9956268,0.020158295,-0.091219164,-0.044057555,-0.7597156,-0.6487612,-0.082378544,0.64994293,-0.7555051,,-0.09347322,0.26869604,-0.085566446,0.41868407,0.7617387,0.49442676,-0.81837684,0.080477916,0.56901896,0.39365336,-0.6428666,0.65708417,,0.005488732,0.41302064,-0.38360167,-0.54007983,0.50679535,-0.67191684,-0.5263811,-0.8263488,-0.20017642,-0.6566861,0.24557307,0.7130618,,1.1493048290749657,0.3895346461758843,0.20325308684,-0.04801899705795608,0.61732370594026,0.8254453344463751,-0.3997029298305812,,-0.7828843223916354,-0.29137098861161653,0.16010477790000002,-0.4212670964604094,0.15330615273682416,-0.621862664222425,0.7907486241560459,,-0.048616146314302056,-0.07213882130805563,0.0795457676,-0.07359428191455561,,6.5632164e-05,3.2186508e-06,-1.0728836e-06,1.0,-6.793067e-05,-5.843863e-05,6.792694e-05,1.0,-7.4207783e-06,5.8434904e-05,7.4505806e-06,1.0,231,0.702,0,0,0.0,False,-0.25600548391979716,0.9649280755931158
0.7190673330042046,14:50:48.716962,14:50:34.674785,0,,0.12488988,0.00792554,0.03136532,-0.34091997,-0.8311318,-0.4393103,-0.34303606,-0.3251021,0.8812689,-0.87527126,0.45114148,-0.17427444,,0.026919447,-0.031539828,0.045205116,0.5881214,-0.41098619,0.6965655,-0.8079299,-0.25924215,0.52919066,-0.03691092,-0.8740045,-0.48451394,,0.107009314,1.344008,0.44342253,0.9956268,0.020158295,-0.091219164,-0.044057555,-0.7597156,-0.6487612,-0.082378544,0.64994293,-0.7555051,,-0.09344592,0.26878148,-0.08563467,0.40950605,0.7658414,0.49577382,-0.82018554,0.07108223,0.56766456,0.39950034,-0.6390886,0.6572407,,0.0054907324,0.41301364,-0.38360867,-0.5400677,0.50681156,-0.6719144,-0.52635086,-0.82635397,-0.20023479,-0.6567204,0.24552238,0.71304774,,1.1493279972735884,0.3895114779772616,0.20320642040000003,-0.058713184175666816,0.6241555309285319,0.8200377967418351,-0.3997029298305814,,-0.7828611541930127,-0.2914327704746103,0.16010477790000002,-0.4212670964604094,0.15330615273682416,-0.621862664222425,0.7907486241560459,,-0.048616146314302056,-0.07213882130805563,0.0795457676,-0.07359428191455561,,6.5632164e-05,3.2186508e-06,-1.0728836e-06,1.0,-6.793067e-05,-5.843863e-05,6.792694e-05,1.0,-7.4207783e-06,5.8434904e-05,7.4505806e-06,1.0,246,0.748,0,0,0.0,False,-0.25576717304571295,0.9652177567977926
0.7416166400071234,14:50:48.764483,14:50:34.818870,0,,0.12483703,0.007932872,0.0315298,-0.33210954,-0.83356535,-0.44144312,-0.34132877,-0.33008373,0.88007915,-0.8793167,0.44295993,-0.17489597,,0.026919119,-0.031535476,0.04520631,0.5848427,-0.41288605,0.6982006,-0.81009877,-0.25356957,0.52862316,-0.04121867,-0.8747729,-0.48277682,,0.107009314,1.344008,0.44342253,0.9956268,0.020158295,-0.091219164,-0.044057555,-0.7597156,-0.6487612,-0.082378544,0.64994293,-0.7555051,,-0.09340938,0.26889566,-0.08575931,0.401232,0.76883644,0.49789897,-0.82177836,0.06204743,0.566419,0.40459022,-0.636428,0.65670854,,0.0054907305,0.41301695,-0.3836056,-0.5362791,0.50848764,-0.67368025,-0.5307621,-0.8237641,-0.1992596,-0.6562746,0.25070518,0.7116534,,1.149482451931073,0.3895655371073812,0.20309493946,-0.06856861151943947,0.6300309004184459,0.8160636142842947,-0.3990495535660441,,-0.7828765996587612,-0.2915486114677237,0.16010737048,-0.41581515792981183,0.15562897323283667,-0.6231033386641396,0.7904219360237773,,-0.048616146314302056,-0.07213882130805563,0.0795457676,-0.07359428191455561,,6.5632164e-05,3.2186508e-06,-1.0728836e-06,1.0,-6.793067e-05,-5.843863e-05,6.792694e-05,1.0,-7.4207783e-06,5.8434904e-05,7.4505806e-06,1.0,254,0.772,0,0,0.0,False,-0.25582675076423333,0.9650246359946748
0.7891407950082794,14:50:48.783705,14:50:34.818870,0,,0.124781564,0.007957786,0.03162244,-0.32411784,-0.83496094,-0.44473338,-0.34132278,-0.33523285,0.87813306,-0.8822961,0.43641627,-0.17633638,,0.02692055,-0.03154476,0.04520279,0.5864416,-0.41290894,0.69684464,-0.8089775,-0.2555409,0.52939045,-0.040517688,-0.8741882,-0.48389387,,0.107009314,1.344008,0.44342253,0.9956268,0.020158295,-0.091219164,-0.044057555,-0.7597156,-0.6487612,-0.082378544,0.64994293,-0.7555051,,-0.093362264,0.26897645,-0.08581872,0.3935851,0.77062917,0.5012199,-0.8239439,0.053921964,0.5641,0.4076852,-0.6349985,0.6561781,,0.0054901135,0.41300893,-0.38361156,-0.5379934,0.5085532,-0.67226243,-0.5297509,-0.824323,-0.19963871,-0.6556883,0.24872732,0.7128868,,1.149621461122809,0.3896041507717523,0.20304308786000003,-0.07821434891972759,0.6337200859121127,0.8130553308844913,-0.3990495535660441,,-0.7828920451245097,-0.2916181160635917,0.16010996306000003,-0.41791205736465703,0.15590224623236756,-0.6221009933694239,0.7889518394285687,,-0.048616146314302056,-0.07213882130805563,0.0795457676,-0.07359428191455561,,6.5632164e-05,3.2186508e-06,-1.0728836e-06,1.0,-6.793067e-05,-5.843863e-05,6.792694e-05,1.0,-7.4207783e-06,5.8434904e-05,7.4505806e-06,1.0,258,0.784,0,0,0.0,False,-0.2564821056679656,0.9651211963962336
0.8084006680001039,14:50:48.809757,14:50:34.818870,0,,0.12471248,0.008000284,0.031775475,-0.3145539,-0.8392179,-0.44358683,-0.3368375,-0.33821452,0.8787215,-0.8874662,0.42582196,-0.17629343,,0.026924036,-0.031555235,0.04520148,0.5852689,-0.41430804,0.6970001,-0.80978155,-0.25476974,0.52853197,-0.041400433,-0.8737512,-0.48460785,,0.107009314,1.344008,0.44342253,0.9956268,0.020158295,-0.091219164,-0.044057555,-0.7597156,-0.6487612,-0.082378544,0.64994293,-0.7555051,,-0.093306795,0.26911032,-0.0859136,0.38480568,0.775771,0.50010395,-0.8241835,0.044885933,0.5645412,0.41550708,-0.6294161,0.65665,,0.005487314,0.41300184,-0.38361967,-0.5367011,0.5098622,-0.6723039,-0.53079194,-0.823392,-0.20071252,-0.65590537,0.24913087,0.7125461,,1.1499149249720295,0.38961959623750075,0.20297438449000002,-0.08806977626350022,0.6426014583968664,0.8058948458843644,-0.39921289763217827,,-0.7828920451245097,-0.2917107888580824,0.16011125935,-0.4162345378167809,0.15617551923189843,-0.6210986480747083,0.7900952478915088,,-0.048616146314302056,-0.07213882130805563,0.0795457676,-0.07359428191455561,,6.5632164e-05,3.2186508e-06,-1.0728836e-06,1.0,-6.793067e-05,-5.843863e-05,6.792694e-05,1.0,-7.4207783e-06,5.8434904e-05,7.4505806e-06,1.0,270,0.821,0,0,0.0,False,-0.2559459062012759,0.9653143171993515
0.8344556410156656,14:50:48.840802,14:50:34.818870,0,,0.12459638,0.008042052,0.031917885,-0.30405948,-0.8412808,-0.4469838,-0.33509466,-0.3447655,0.87684,-0.8917731,0.4163934,-0.17707956,,0.02692898,-0.031572238,0.045197427,0.5854528,-0.41473028,0.6965943,-0.8096742,-0.25577217,0.5282122,-0.040896088,-0.8732579,-0.48553905,,0.107009314,1.344008,0.44342253,0.9956268,0.020158295,-0.091219164,-0.044057555,-0.7597156,-0.6487612,-0.082378544,0.64994293,-0.7555051,,-0.09320355,0.26923805,-0.08600594,0.37488553,0.778447,0.5034691,-0.82596815,0.033838246,0.5627003,0.4209958,-0.6267977,0.6556579,,0.0054836543,0.4129888,-0.3836318,-0.5369385,0.51028454,-0.67179364,-0.5303318,-0.82346684,-0.20161971,-0.6560832,0.24801616,0.7127712,,1.1503473980129861,0.3895887053060038,0.20289919967000003,-0.10044148292908717,0.6490233738858422,0.8013933130718975,-0.39937624169831265,,-0.7828920451245097,-0.29181118438544734,0.16011385193000002,-0.4166539177037499,0.15590224623236756,-0.6201407036060504,0.7899319038253744,,-0.048616146314302056,-0.07213882130805563,0.0795457676,-0.07359428191455561,,6.5632164e-05,3.2186508e-06,-1.0728836e-06,1.0,-6.793067e-05,-5.843863e-05,6.792694e-05,1.0,-7.4207783e-06,5.8434904e-05,7.4505806e-06,1.0,278,0.845,0,0,0.0,False,-0.2555288621716292,0.9650246359946748
0.865461461013183,14:50:48.863479,14:50:34.818870,0,,0.12451313,0.008082747,0.032032117,-0.29496333,-0.8441722,-0.4476272,-0.3319775,-0.34874666,0.87645125,-0.89598405,0.40712312,-0.17737877,,0.026930928,-0.031579092,0.04519421,0.5857444,-0.4145212,0.6964737,-0.80947423,-0.2560642,0.52837735,-0.04068157,-0.8732716,-0.48553243,,0.107009314,1.344008,0.44342253,0.9956268,0.020158295,-0.091219164,-0.044057555,-0.7597156,-0.6487612,-0.082378544,0.64994293,-0.7555051,,-0.09313022,0.2693457,-0.0860743,0.36641088,0.7820526,0.5041199,-0.8266075,0.024866764,0.56222916,0.42715693,-0.6227161,0.65556204,,0.005482377,0.41298226,-0.38363585,-0.5372593,0.51009285,-0.6716828,-0.5300771,-0.823657,-0.20151286,-0.6560265,0.24777897,0.71290594,,1.150648584595081,0.38955009164163273,0.20285382952000003,-0.11050660021634434,0.656128471873645,0.7956812608198243,-0.39953958576444704,,-0.7828920451245097,-0.29185752078269267,0.16011644451,-0.4170732975907189,0.15590224623236756,-0.6202223823461911,0.7904219360237773,,-0.048616146314302056,-0.07213882130805563,0.0795457676,-0.07359428191455561,,6.5632164e-05,3.2186508e-06,-1.0728836e-06,1.0,-6.793067e-05,-5.843863e-05,6.792694e-05,1.0,-7.4207783e-06,5.8434904e-05,7.4505806e-06,1.0,289,0.879,0,0,0.0,False,-0.2552309735790237,0.964831515191557
0.8881797190115321,14:50:48.899017,14:50:34.957238,0,,0.12438797,0.008151859,0.032148436,-0.2838587,-0.8477001,-0.44813934,-0.32772705,-0.35344708,0.8761679,-0.901121,0.39557528,-0.17748529,,0.026932467,-0.031585902,0.045193672,0.5855747,-0.41465405,0.6965373,-0.8095944,-0.2559815,0.5282333,-0.040733337,-0.8732327,-0.48559788,,0.107009314,1.344008,0.44342253,0.9956268,0.020158295,-0.091219164,-0.044057555,-0.7597156,-0.6487612,-0.082378544,0.64994293,-0.7555051,,-0.0930141,0.26947746,-0.08613021,0.35608566,0.78648305,0.50462604,-0.82704806,0.013885223,0.5619597,0.43496493,-0.6174558,0.6554036,,0.0054812403,0.41297802,-0.3836413,-0.5370795,0.5102169,-0.6717323,-0.53016603,-0.8235658,-0.20165157,-0.6561018,0.24782674,0.71282,,1.1511428394990313,0.389457418847142,0.20282920001000002,-0.12287830688193127,0.6651464808581642,0.7883276791758604,-0.3992128976321785,,-0.7828920451245097,-0.291903857179938,0.16011644451,-0.4168636076472344,0.15590224623236756,-0.6201407036060504,0.790258591957643,,-0.048616146314302056,-0.07213882130805563,0.0795457676,-0.07359428191455561,,6.5632164e-05,3.2186508e-06,-1.0728836e-06,1.0,-6.793067e-05,-5.843863e-05,6.792694e-05,1.0,-7.4207783e-06,5.8434904e-05,7.4505806e-06,1.0,297,0.903,0,0,0.0,False,-0.25535012901606535,0.9651694765970131
0.9237198260088917,14:50:48.916709,14:50:34.957238,0,,0.1242876,0.00820747,0.032225177,-0.27398676,-0.8504849,-0.44900638,-0.32422546,-0.35785758,0.8756802,-0.90543306,0.38550404,-0.17770067,,0.026934244,-0.03158669,0.045192897,0.58557016,-0.41464862,0.6965443,-0.8095981,-0.25598308,0.5282269,-0.040724963,-0.87323487,-0.4855948,,0.107009314,1.344008,0.44342253,0.9956268,0.020158295,-0.091219164,-0.044057555,-0.7597156,-0.6487612,-0.082378544,0.64994293,-0.7555051,,-0.09291933,0.2695725,-0.08616248,0.34686822,0.790042,0.505486,-0.827484,0.0040635387,0.56147456,0.4415344,-0.61303926,0.6551566,,0.005479596,0.41297674,-0.38364154,-0.53707564,0.5102118,-0.6717392,-0.5301605,-0.823569,-0.20165318,-0.65610945,0.24782658,0.712813,,1.1514749170126228,0.3893415778540287,0.20282660743000003,-0.13399187388661107,0.6727981248450288,0.7820882765688609,-0.3992128976321785,,-0.7828997678573839,-0.29191157991281225,0.16011774080000002,-0.4168636076472344,0.15590224623236756,-0.6201407036060504,0.7899319038253744,,-0.048616146314302056,-0.07213882130805563,0.0795457676,-0.07359428191455561,,6.5632164e-05,3.2186508e-06,-1.0728836e-06,1.0,-6.793067e-05,-5.843863e-05,6.792694e-05,1.0,-7.4207783e-06,5.8434904e-05,7.4505806e-06,1.0,305,0.927,0,0,0.0,False,-0.2559459062012759,0.9652660369985722
0.9414104559982661,14:50:48.946373,14:50:34.957238,0,,0.1241331,0.00827755,0.032335177,-0.25870433,-0.8547076,-0.45005235,-0.3178287,-0.3646533,0.8752216,-0.9121715,0.36946318,-0.17731333,,0.026937898,-0.031587526,0.045192778,0.5859813,-0.4144354,0.6963255,-0.80932033,-0.256558,0.5283735,-0.04032877,-0.8731674,-0.4857492,,0.107009314,1.344008,0.44342253,0.9956268,0.020158295,-0.091219164,-0.044057555,-0.7597156,-0.6487612,-0.082378544,0.64994293,-0.7555051,,-0.09277337,0.26970172,-0.08621614,0.33265153,0.79550976,0.50646544,-0.82745975,-0.011412261,0.56140906,0.4523863,-0.60583335,0.65445596,,0.005476016,0.4129758,-0.38364214,-0.537537,0.5100224,-0.6715141,-0.529725,-0.82384247,-0.20168051,-0.65608335,0.24730706,0.7130174,,1.1519228355193278,0.3890635594705566,0.20282790372,-0.15097675930885754,0.6855053193232148,0.7723798414462182,-0.3988862094999097,,-0.7829229360560066,-0.29191157991281225,0.16011903709000003,-0.417492677477688,0.15576560973260212,-0.620029285702354,0.7899319038253744,,-0.048616146314302056,-0.07213882130805563,0.0795457676,-0.07359428191455561,,6.5632164e-05,3.2186508e-06,-1.0728836e-06,1.0,-6.793067e-05,-5.843863e-05,6.792694e-05,1.0,-7.4207783e-06,5.8434904e-05,7.4505806e-06,1.0,313,0.952,0,0,0.0,False,-0.25677999426057063,0.965362597400131
0.9710699360002764,14:50:48.969904,14:50:34.957238,0,,0.124021746,0.0083061755,0.03239201,-0.2468458,-0.8568885,-0.45255864,-0.31452787,-0.37088135,0.87379587,-0.9165911,0.35803515,-0.1779649,,0.026938211,-0.031588823,0.04519123,0.58628607,-0.41422614,0.69619346,-0.80910873,-0.2568267,0.52856684,-0.04014513,-0.87318766,-0.48572794,,0.107009314,1.344008,0.44342253,0.9956268,0.020158295,-0.091219164,-0.044057555,-0.7597156,-0.6487612,-0.082378544,0.64994293,-0.7555051,,-0.092666976,0.26976365,-0.08625212,0.32146072,0.7985169,0.5089535,-0.8281753,-0.023513282,0.5599757,0.45911726,-0.6015129,0.6537534,,0.005475915,0.4129738,-0.3836424,-0.53786844,0.50983,-0.67139477,-0.5294915,-0.8240257,-0.20154504,-0.65600026,0.24709307,0.713168,,1.1521081811083091,0.3887855410870845,0.20283179259000003,-0.16481629557883615,0.6935668728093758,0.7658878638682699,-0.3990495535660441,,-0.7829229360560066,-0.29191930264568644,0.16012033338,-0.41791205736465703,0.15576560973260212,-0.6201109644424946,0.7900952478915088,,-0.048616146314302056,-0.07213882130805563,0.0795457676,-0.07359428191455561,,6.5632164e-05,3.2186508e-06,-1.0728836e-06,1.0,-6.793067e-05,-5.843863e-05,6.792694e-05,1.0,-7.4207783e-06,5.8434904e-05,7.4505806e-06,1.0,321,0.976,0,0,0.0,False,-0.2561842170753601,0.9654108776009105
0.9946007750113495,14:50:48.992498,14:50:34.957238,0,,0.12386724,0.008314997,0.032465234,-0.23022696,-0.8615385,-0.45248985,-0.3080282,-0.3765554,0.8736846,-0.92310023,0.34052542,-0.17868495,,0.026939917,-0.03159079,0.045190454,0.58616704,-0.4142659,0.69627,-0.80918545,-0.2565608,0.52857864,-0.04033649,-0.87324697,-0.48560542,,0.107009314,1.344008,0.44342253,0.9956268,0.020158295,-0.091219164,-0.044057555,-0.7597156,-0.6487612,-0.082378544,0.64994293,-0.7555051,,-0.09252026,0.26982245,-0.086317904,0.30589792,0.8046086,0.50895137,-0.8279621,-0.03908225,0.5594205,0.4700055,-0.59251803,0.65423024,,0.0054744016,0.41297185,-0.3836436,-0.53772765,0.5098618,-0.67148334,-0.52967983,-0.82392925,-0.20144439,-0.6559636,0.24734896,0.71311307,,1.1522626357657937,0.38821405885439186,0.20283827404000002,-0.18368839049244332,0.706683976786858,0.7533131340901805,-0.39953958576444704,,-0.7829306587888808,-0.29194247084430913,0.16012162967000002,-0.41770236742117256,0.15590224623236756,-0.620222382346191,0.7900952478915088,,-0.048616146314302056,-0.07213882130805563,0.0795457676,-0.07359428191455561,,6.5632164e-05,3.2186508e-06,-1.0728836e-06,1.0,-6.793067e-05,-5.843863e-05,6.792694e-05,1.0,-7.4207783e-06,5.8434904e-05,7.4505806e-06,1.0,329,1.001,0,0,0.0,False,-0.2564821056679656,0.9654108776009105
1.0171700140053872,14:50:49.016597,14:50:34.957238,0,,0.12368769,0.008283719,0.032504663,-0.2132907,-0.86536443,-0.4534883,-0.3030117,-0.38268656,0.8727743,-0.92881155,0.3235669,-0.18059218,,0.026939917,-0.03159602,0.0451895,0.5867709,-0.4139042,0.69597644,-0.8087665,-0.25715047,0.52893317,-0.039956897,-0.87324506,-0.4856403,,0.107009314,1.344008,0.44342253,0.9956268,0.020158295,-0.091219164,-0.044057555,-0.7597156,-0.6487612,-0.082378544,0.64994293,-0.7555051,,-0.092347205,0.2698296,-0.086387,0.2898699,0.80980474,0.51009,-0.8283638,-0.054662827,0.55751723,0.47936302,-0.5841475,0.6549678,,0.005474757,0.41296828,-0.38364753,-0.53838605,0.509532,-0.6712061,-0.5292041,-0.8242818,-0.20125239,-0.6558075,0.24685355,0.7134282,,1.1523475858274101,0.38742634010122096,0.20284475549000003,-0.20381862506695766,0.7182980792669205,0.7405754626703622,-0.3997029298305812,,-0.7829306587888808,-0.291973361775806,0.16012162967000002,-0.4185411271951106,0.15590224623236756,-0.6203040610863316,0.790258591957643,,-0.048616146314302056,-0.07213882130805563,0.0795457676,-0.07359428191455561,,6.5632164e-05,3.2186508e-06,-1.0728836e-06,1.0,-6.793067e-05,-5.843863e-05,6.792694e-05,1.0,-7.4207783e-06,5.8434904e-05,7.4505806e-06,1.0,337,1.025,0,0,0.0,False,-0.2555288621716292,0.964831515191557
1.0412895280169323,14:50:49.046159,14:50:34.957238,0,,0.12355601,0.008251786,0.032518253,-0.20091456,-0.8670319,-0.45594874,-0.2999925,-0.388621,0.8711936,-0.9325437,0.3118167,-0.18202353,,0.026940674,-0.0315983,0.04518795,0.5869191,-0.41377106,0.6959306,-0.80866396,-0.25727004,0.5290319,-0.039855897,-0.8732729,-0.48559844,,0.107009314,1.344008,0.44342253,0.9956268,0.020158295,-0.091219164,-0.044057555,-0.7597156,-0.6487612,-0.082378544,0.64994293,-0.7555051,,-0.09221919,0.269818,-0.08643196,0.27808297,0.8123475,0.5126027,-0.82886034,-0.066765726,0.55545735,0.48544863,-0.57933927,0.6547562,,0.005474268,0.41296571,-0.38364863,-0.5385484,0.5094084,-0.67116964,-0.52908087,-0.82438356,-0.20115966,-0.65577364,0.24676877,0.7134887,,1.1523553085602845,0.38682396693703147,0.20285382952000003,-0.2189163009978434,0.725949723253785,0.7327841640006921,-0.3990495535660443,,-0.7829306587888808,-0.29198880724155446,0.16012292596000002,-0.4187508171385952,0.15590224623236756,-0.6203857398264722,0.7904219360237773,,-0.048616146314302056,-0.07213882130805563,0.0795457676,-0.07359428191455561,,6.5632164e-05,3.2186508e-06,-1.0728836e-06,1.0,-6.793067e-05,-5.843863e-05,6.792694e-05,1.0,-7.4207783e-06,5.8434904e-05,7.4505806e-06,1.0,345,1.05,1,1,0.012,False,-0.25600548391979716,0.965362597400131
1.07084826999926,14:50:49.075940,14:50:34.957238,0,,0.12337887,0.008199185,0.032561883,-0.18569814,-0.8715637,-0.45375437,-0.29174662,-0.39205715,0.8724535,-0.9382963,0.2943943,-0.18147153,,0.026942372,-0.03160028,0.045187175,0.5868003,-0.4138678,0.6959734,-0.80874074,-0.2570474,0.52902263,-0.040047288,-0.8732927,-0.48554727,,0.107009314,1.344008,0.44342253,0.9956268,0.020158295,-0.091219164,-0.044057555,-0.7597156,-0.6487612,-0.082378544,0.64994293,-0.7555051,,-0.092049964,0.26981163,-0.086517796,0.26392177,0.8184192,0.5104266,-0.82678974,-0.08058376,0.5567091,0.4967535,-0.5689431,0.65539277,,0.0054727555,0.4129638,-0.38364986,-0.53840774,0.5094952,-0.6712166,-0.52926934,-0.8242707,-0.20112629,-0.65573704,0.24696639,0.71345395,,1.1524248131561525,0.3859049617249988,0.20286160726000002,-0.23632056630705894,0.73988664622986,0.7187241393990186,-0.3992128976321785,,-0.782938381521755,-0.29201197544017715,0.16012422225,-0.4185411271951106,0.15603888273213298,-0.620415478990028,0.790258591957643,,-0.048616146314302056,-0.07213882130805563,0.0795457676,-0.07359428191455561,,6.5632164e-05,3.2186508e-06,-1.0728836e-06,1.0,-6.793067e-05,-5.843863e-05,6.792694e-05,1.0,-7.4207783e-06,5.8434904e-05,7.4505806e-06,1.0,358,1.091,1,1,0.053,False,-0.2559459062012759,0.964831515191557
1.100620802026242,14:50:49.108166,14:50:34.957238,0,,0.12318368,0.008155793,0.03264126,-0.16493058,-0.8746596,-0.45581633,-0.28280756,-0.40080178,0.8714229,-0.9448903,0.27263257,-0.18125594,,0.026950024,-0.031622007,0.045188546,0.58354014,-0.4153266,0.6978429,-0.81089437,-0.25150383,0.52838993,-0.04394409,-0.87421364,-0.48354867,,0.10696892,1.3440125,0.4434232,0.995628,0.020179013,-0.09120147,-0.044030406,-0.7597151,-0.6487637,-0.082378544,0.64994293,-0.7555051,,-0.09182945,0.26983812,-0.086627714,0.24436755,0.8232549,0.5123826,-0.8248973,-0.10127651,0.5561362,0.50973415,-0.55856466,0.654352,,0.0055048745,0.41295737,-0.38366807,-0.53465587,0.5107668,-0.67324615,-0.5333394,-0.82191604,-0.20000769,-0.6555091,0.2521334,0.71185434,,1.1526101587451338,0.3850091247115887,0.20286549613000002,-0.26148335952520185,0.755736480202651,0.7035943365864383,-0.4001929620289839,,-0.782938381521755,-0.2920505891045483,0.16012681483000002,-0.4132988786079975,0.15795179372884915,-0.6219753296417778,0.7899319038253745,,-0.048616146314302056,-0.07213882130805563,0.0795457676,-0.07359428191455561,,2.516061e-05,-5.9604645e-07,-8.34465e-07,1.0,-4.7322363e-05,-4.0713698e-05,4.7329813e-05,1.0,-5.155802e-06,4.0709972e-05,5.185604e-06,1.0,366,1.116,1,1,0.078,False,-0.25672041654204936,0.9647832349907774
1.1327311110217124,14:50:49.137498,14:50:35.207016,0,,0.12292276,0.008132279,0.032720536,-0.1449439,-0.8782852,-0.45563835,-0.27327824,-0.4070532,0.8715657,-0.9509523,0.25084418,-0.18101639,,0.026953183,-0.031628177,0.045186162,0.5846413,-0.41532147,0.69692373,-0.81013006,-0.25290814,0.5288919,-0.043402404,-0.8738109,-0.48432496,,0.10696892,1.3440125,0.4434232,0.995628,0.020179013,-0.09120147,-0.044030406,-0.7597151,-0.6487637,-0.082378544,0.64994293,-0.7555051,,-0.0915791,0.26987943,-0.08673037,0.22555642,0.8287261,0.5121888,-0.82219255,-0.120098375,0.55639535,0.5226124,-0.5466164,0.65428346,,0.005502283,0.41295174,-0.383672,-0.5358419,0.51079357,-0.6722823,-0.5325978,-0.82232803,-0.20029037,-0.65514356,0.25073206,0.7126853,,1.1529036225943543,0.38411328769817865,0.20286679242000002,-0.28622677285637577,0.7714496776756767,0.6860439107331973,-0.3980694891692387,,-0.7829615497203777,-0.2920969255017936,0.16012940741,-0.4147667082123892,0.1580884302286146,-0.6212699601440688,0.7899319038253744,,-0.048616146314302056,-0.07213882130805563,0.0795457676,-0.07359428191455561,,2.516061e-05,-5.9604645e-07,-8.34465e-07,1.0,-4.7322363e-05,-4.0713698e-05,4.7329813e-05,1.0,-5.155802e-06,4.0709972e-05,5.185604e-06,1.0,379,1.157,1,1,0.119,False,-0.25672041654204936,0.9650729161954543
1.1622004720265977,14:50:49.173245,14:50:35.207016,0,,0.12255032,0.0081615895,0.032880515,-0.11601329,-0.88187677,-0.45698392,-0.25877488,-0.41736495,0.87111545,-0.95894545,0.21931696,-0.1797877,,0.026956074,-0.03164503,0.045184493,0.58504444,-0.41540983,0.69653255,-0.80980444,-0.252589,0.52954257,-0.04404068,-0.87386113,-0.48417664,,0.10696892,1.3440125,0.4434232,0.995628,0.020179013,-0.09120147,-0.044030406,-0.7597151,-0.6487637,-0.082378544,0.64994293,-0.7555051,,-0.09122343,0.27001655,-0.086871274,0.19828346,0.8349382,0.51338273,-0.8172304,-0.14834124,0.5568926,0.5411267,-0.5299746,0.6529233,,0.005500424,0.41294104,-0.3836853,-0.5361969,0.51087016,-0.6719409,-0.5330035,-0.8221902,-0.19977601,-0.65452284,0.25102758,0.71315145,,1.1534596593612985,0.383263787082014,0.20286160726000002,-0.32313220290965206,0.7935847906376781,0.6612965536428509,-0.4003563060951183,,-0.7829847179190004,-0.29225910289215234,0.16013070370000002,-0.41497639815587367,0.15904488572697267,-0.6214781342889597,0.7897685597592401,,-0.048616146314302056,-0.07213882130805563,0.0795457676,-0.07359428191455561,,2.516061e-05,-5.9604645e-07,-8.34465e-07,1.0,-4.7322363e-05,-4.0713698e-05,4.7329813e-05,1.0,-5.155802e-06,4.0709972e-05,5.185604e-06,1.0,388,1.185,1,1,0.147,False,-0.2571374605716965,0.9649763557938953
1.1979002720036078,14:50:49.204283,14:50:35.207016,0,,0.12223132,0.0082056075,0.03303778,-0.0904274,-0.8843022,-0.45807487,-0.24663946,-0.42574573,0.87058,-0.96487916,0.19170359,-0.17960477,,0.026962318,-0.031676322,0.04518038,0.5851265,-0.41527677,0.6965429,-0.809759,-0.25282478,0.52949953,-0.043785453,-0.8738562,-0.4842087,,0.10696892,1.3440125,0.4434232,0.995628,0.020179013,-0.09120147,-0.044030406,-0.7597151,-0.6487637,-0.082378544,0.64994293,-0.7555051,,-0.09091989,0.27016154,-0.08699489,0.174018,0.83969414,0.5144235,-0.812627,-0.17260505,0.55663705,0.556197,-0.51489925,0.65232176,,0.0054962044,0.4129202,-0.38370943,-0.5363056,0.51074934,-0.6719459,-0.5327742,-0.8223265,-0.19982697,-0.65462047,0.25082713,0.7131324,,1.1539153006008778,0.38277725491093784,0.20284475549000003,-0.357101973754145,0.8113475356071853,0.6378275647468542,-0.3997029298305814,,-0.7829847179190004,-0.2924676166797564,0.16013199999000002,-0.4151860880993582,0.15904488572697267,-0.6215598130291002,0.7899319038253745,,-0.048616146314302056,-0.07213882130805563,0.0795457676,-0.07359428191455561,,2.516061e-05,-5.9604645e-07,-8.34465e-07,1.0,-4.7322363e-05,-4.0713698e-05,4.7329813e-05,1.0,-5.155802e-06,4.0709972e-05,5.185604e-06,1.0,401,1.226,1,1,0.188,False,-0.257435349164302,0.9650246359946748
1.2289379250141792,14:50:49.242721,14:50:35.207016,0,,0.12188771,0.008239821,0.033219695,-0.06295708,-0.8857384,-0.45989567,-0.23274922,-0.4350729,0.86979276,-0.9704969,0.1618,-0.17876402,,0.02696601,-0.031721473,0.045170724,0.58570063,-0.41491058,0.69627863,-0.8093388,-0.2528776,0.5301164,-0.043877542,-0.87401485,-0.48391393,,0.10696892,1.3440125,0.4434232,0.995628,0.020179013,-0.09120147,-0.044030406,-0.7597151,-0.6487637,-0.082378544,0.64994293,-0.7555051,,-0.09059482,0.27031586,-0.08714606,0.14793141,0.8436494,0.5161124,-0.80654126,-0.19910628,0.5566398,0.57237005,-0.49861047,0.650984,,0.005495764,0.4128876,-0.38374236,-0.5368886,0.5104035,-0.67174315,-0.5326901,-0.82252777,-0.19922177,-0.6542109,0.25087103,0.7134927,,1.154332328176086,0.38231389093848434,0.20281105195000002,-0.3946364736378748,0.8303400090745816,0.612212312355622,-0.40068299422738685,,-0.7829615497203777,-0.29279969419334806,0.16013588886000002,-0.41581515792981183,0.15972806822579988,-0.6221169025475823,0.7899319038253745,,-0.048616146314302056,-0.07213882130805563,0.0795457676,-0.07359428191455561,,2.516061e-05,-5.9604645e-07,-8.34465e-07,1.0,-4.7322363e-05,-4.0713698e-05,4.7329813e-05,1.0,-5.155802e-06,4.0709972e-05,5.185604e-06,1.0,410,1.255,1,1,0.217,False,-0.25719703829021734,0.9646383943884391
1.2674253180157393,14:50:49.274668,14:50:35.340744,0,,0.12164934,0.008260235,0.033371,-0.041889127,-0.88540953,-0.46292043,-0.21977797,-0.44381285,0.8687507,-0.97465014,0.13813092,-0.17600256,,0.026977222,-0.031765953,0.04516244,0.58563673,-0.41487306,0.69635475,-0.8093918,-0.2529366,0.5300073,-0.043752134,-0.8740156,-0.4839239,,0.10696892,1.3440125,0.4434232,0.995628,0.020179013,-0.09120147,-0.044030406,-0.7597151,-0.6487637,-0.082378544,0.64994293,-0.7555051,,-0.09037196,0.2704367,-0.087271966,0.12801924,0.845259,0.518795,-0.8000144,-0.22115426,0.5577345,0.5861638,-0.48644423,0.6479074,,0.0054876814,0.41285568,-0.38377535,-0.53683466,0.5103693,-0.6718123,-0.5326062,-0.822564,-0.19929665,-0.65432346,0.250822,0.7134067,,1.1544790601006962,0.38203587255501226,0.20278642244000003,-0.42378337578222375,0.8465997525466691,0.5939711786671735,-0.4011730264257898,,-0.7829692724532519,-0.29311632624119127,0.16014107402000002,-0.41581515792981183,0.15986470472556533,-0.6222283204512787,0.7899319038253745,,-0.048616146314302056,-0.07213882130805563,0.0795457676,-0.07359428191455561,,2.516061e-05,-5.9604645e-07,-8.34465e-07,1.0,-4.7322363e-05,-4.0713698e-05,4.7329813e-05,1.0,-5.155802e-06,4.0709972e-05,5.185604e-06,1.0,423,1.296,1,1,0.258,False,-0.25731619372725945,0.964831515191557
1.2993449780042283,14:50:49.312972,14:50:35.340744,0,,0.121396154,0.008267254,0.03351602,-0.016872153,-0.88502353,-0.46524045,-0.20624015,-0.45221987,0.86773396,-0.978356,0.11059183,-0.17489752,,0.026981257,-0.0318017,0.0451532,0.5865356,-0.4144035,0.6958776,-0.8087429,-0.25329667,0.5308254,-0.04371226,-0.87413406,-0.48371348,,0.10696892,1.3440125,0.4434232,0.995628,0.020179013,-0.09120147,-0.044030406,-0.7597151,-0.6487637,-0.082378544,0.64994293,-0.7555051,,-0.09013439,0.27054375,-0.08740343,0.10416447,0.847212,0.520943,-0.7928805,-0.24547079,0.5577496,0.6004085,-0.47114322,0.64616853,,0.00548638,0.41282845,-0.38380057,-0.5377647,0.50993234,-0.67140007,-0.5323249,-0.82290685,-0.19863153,-0.6537884,0.25058597,0.71398,,1.1544018327719539,0.3817964678359113,0.20276438551000003,-0.45964035611807735,0.8632694055180528,0.5695149219775154,-0.40084633829352123,,-0.7829615497203777,-0.2933788991589149,0.16014625918000003,-0.4168636076472344,0.16054788722439253,-0.6227037312296203,0.7900952478915088,,-0.048616146314302056,-0.07213882130805563,0.0795457676,-0.07359428191455561,,2.516061e-05,-5.9604645e-07,-8.34465e-07,1.0,-4.7322363e-05,-4.0713698e-05,4.7329813e-05,1.0,-5.155802e-06,4.0709972e-05,5.185604e-06,1.0,432,1.325,1,1,0.287,False,-0.25737577144578117,0.9643487131837623
1.3376731330063194,14:50:49.344238,14:50:35.340744,0,,0.12107232,0.008251205,0.03365591,0.016832322,-0.883662,-0.46782285,-0.19029441,-0.4621682,0.86613435,-0.98158276,0.07444501,-0.1759353,,0.02698768,-0.0318321,0.045145273,0.5858941,-0.41405767,0.6966235,-0.809191,-0.25221717,0.5306564,-0.044021845,-0.8746098,-0.48282441,,0.10696892,1.3440125,0.4434232,0.995628,0.020179013,-0.09120147,-0.044030406,-0.7597151,-0.6487637,-0.082378544,0.64994293,-0.7555051,,-0.08982717,0.270632,-0.08755353,0.071741626,0.8489772,0.52353686,-0.783859,-0.27658838,0.5559352,0.6167805,-0.45026276,0.64563555,,0.0054823076,0.41280484,-0.38382187,-0.53707427,0.5095804,-0.6722195,-0.5327534,-0.82276785,-0.19805764,-0.6540069,0.2517556,0.7133681,,1.154054309792614,0.3815338949181877,0.20274883003000002,-0.5099659425543632,0.8821252424856835,0.5338829237125499,-0.4003563060951185,,-0.7829461042546293,-0.29359513567939316,0.16015144434,-0.4160248478732963,0.16068452372415798,-0.623713615274863,0.7899319038253745,,-0.048616146314302056,-0.07213882130805563,0.0795457676,-0.07359428191455561,,2.516061e-05,-5.9604645e-07,-8.34465e-07,1.0,-4.7322363e-05,-4.0713698e-05,4.7329813e-05,1.0,-5.155802e-06,4.0709972e-05,5.185604e-06,1.0,445,1.365,1,1,0.327,False,-0.2566012611050077,0.9647349547899979
1.3688988240028266,14:50:49.381058,14:50:35.340744,0,,0.120835155,0.008217961,0.03376469,0.042562105,-0.88207227,-0.46918756,-0.17441157,-0.4689619,0.86582637,-0.9837525,0.044980377,-0.17380363,,0.026990544,-0.03184001,0.045143723,0.5860275,-0.41363555,0.696762,-0.8091017,-0.25214028,0.53082913,-0.043887913,-0.8748318,-0.48243448,,0.10696892,1.3440125,0.4434232,0.995628,0.020179013,-0.09120147,-0.044030406,-0.7597151,-0.6487637,-0.082378544,0.64994293,-0.7555051,,-0.089603834,0.27068445,-0.0876822,0.047137037,0.8500016,0.52466697,-0.77396697,-0.3009695,0.5571288,0.63146913,-0.4323363,0.6436863,,0.005480016,0.412799,-0.38382772,-0.5372244,0.5091785,-0.672404,-0.53260803,-0.8229591,-0.19765362,-0.654002,0.25194344,0.7133063,,1.1535986685530346,0.38131765839770937,0.20274623745000003,-0.5495973418729383,0.899341441456129,0.5045703434405157,-0.40149971455805855,,-0.7829538269875035,-0.29364919480951274,0.16015274063,-0.4162345378167809,0.16068452372415798,-0.6242036877157063,0.790258591957643,,-0.048616146314302056,-0.07213882130805563,0.0795457676,-0.07359428191455561,,2.516061e-05,-5.9604645e-07,-8.34465e-07,1.0,-4.7322363e-05,-4.0713698e-05,4.7329813e-05,1.0,-5.155802e-06,4.0709972e-05,5.185604e-06,1.0,454,1.394,1,1,0.356,False,-0.25683957197909146,0.9648797953923365
1.4057620330131613,14:50:49.409368,14:50:35.340744,0,,0.12056255,0.008143529,0.033776402,0.074260294,-0.87813264,-0.47261876,-0.16532576,-0.4782099,0.8625443,-0.9834392,0.014083266,-0.18068996,,0.02699067,-0.03184122,0.045139194,0.58648777,-0.41335878,0.69653904,-0.80878264,-0.25256562,0.531113,-0.04361829,-0.8748399,-0.48244417,,0.10696892,1.3440125,0.4434232,0.995628,0.020179013,-0.09120147,-0.044030406,-0.7597151,-0.6487637,-0.082378544,0.64994293,-0.7555051,,-0.08933758,0.2706435,-0.08776832,0.016031284,0.84871614,0.52860564,-0.7677862,-0.32821265,0.5502552,0.6405055,-0.4146774,0.6463709,,0.005480385,0.4127946,-0.38382632,-0.5377244,0.50892574,-0.67219573,-0.5322621,-0.8232232,-0.19748588,-0.6538727,0.2515913,0.7135491,,1.1528650089299832,0.381132312808728,0.20275142261,-0.6001326182527087,0.908632723440179,0.4693048330815084,-0.39610936037562694,,-0.7829461042546293,-0.293656917542387,0.1601566295,-0.4168636076472344,0.16068452372415798,-0.6242853664558469,0.7900952478915088,,-0.048616146314302056,-0.07213882130805563,0.0795457676,-0.07359428191455561,,2.516061e-05,-5.9604645e-07,-8.34465e-07,1.0,-4.7322363e-05,-4.0713698e-05,4.7329813e-05,1.0,-5.155802e-06,4.0709972e-05,5.185604e-06,1.0,467,1.435,1,1,0.397,False,-0.25719703829021734,0.9642038725814241
1.4340698180021718,14:50:49.451146,14:50:35.492162,0,,0.12025179,0.008030057,0.03378579,0.11555009,-0.8762954,-0.46771204,-0.15058666,-0.48087782,0.8637594,-0.9818206,-0.029376268,-0.18752384,,0.026991881,-0.03183736,0.045137584,0.5866476,-0.41316453,0.6965196,-0.80867064,-0.25261548,0.5312599,-0.04354596,-0.87491727,-0.4823104,,0.10696892,1.3440125,0.4434232,0.995628,0.020179013,-0.09120147,-0.044030406,-0.7597151,-0.6487637,-0.082378544,0.64994293,-0.7555051,,-0.08903501,0.2705725,-0.08788216,-0.024469312,0.8510802,0.5244652,-0.75674444,-0.3585825,0.54658616,0.65325266,-0.38351157,0.65282446,,0.0054791546,0.41279513,-0.38382217,-0.537896,0.50874275,-0.6721969,-0.53215915,-0.8233359,-0.19729324,-0.6538154,0.25159252,0.71360123,,1.1516293716701074,0.3811014218772311,0.20276308922000003,-0.6676527800547256,0.9214765544181305,0.41113116589195625,-0.39610936037562716,,-0.7829538269875035,-0.2936337493437643,0.16015922208000002,-0.4170732975907189,0.16068452372415798,-0.624448723936128,0.7900952478915088,,-0.048616146314302056,-0.07213882130805563,0.0795457676,-0.07359428191455561,,2.516061e-05,-5.9604645e-07,-8.34465e-07,1.0,-4.7322363e-05,-4.0713698e-05,4.7329813e-05,1.0,-5.155802e-06,4.0709972e-05,5.185604e-06,1.0,476,1.464,1,1,0.426,False,-0.2570778828531757,0.9650729161954543
1.475845364999259,14:50:49.480994,14:50:35.492162,0,,0.12006959,0.007920012,0.03377536,0.1439974,-0.87193656,-0.46796525,-0.13915741,-0.48603675,0.86278826,-0.9797448,-0.05911842,-0.19132444,,0.026994713,-0.031839103,0.045134187,0.5867942,-0.41302702,0.6964777,-0.80856985,-0.25273192,0.5313579,-0.043442905,-0.87494856,-0.48226297,,0.10696892,1.3440125,0.4434232,0.995628,0.020179013,-0.09120147,-0.044030406,-0.7597151,-0.6487637,-0.082378544,0.64994293,-0.7555051,,-0.08885811,0.2704875,-0.08796519,-0.05240786,0.8494573,0.52504826,-0.74754494,-0.3819842,0.5433826,0.6621404,-0.36401963,0.6550265,,0.00547675,0.41279107,-0.38382182,-0.5380568,0.508615,-0.67216486,-0.53203493,-0.8234393,-0.19719656,-0.6537841,0.25151226,0.7136581,,1.1505250208690931,0.38114003554160225,0.20277086696000002,-0.7154620871691971,0.9302212904031185,0.3739426436836585,-0.39806948916923846,,-0.7829615497203777,-0.29364919480951274,0.16016311095000002,-0.4172829875342035,0.16068452372415798,-0.6245304026762686,0.7899319038253745,,-0.048616146314302056,-0.07213882130805563,0.0795457676,-0.07359428191455561,,2.516061e-05,-5.9604645e-07,-8.34465e-07,1.0,-4.7322363e-05,-4.0713698e-05,4.7329813e-05,1.0,-5.155802e-06,4.0709972e-05,5.185604e-06,1.0,489,1.505,1,1,0.467,False,-0.25683957197909146,0.9647832349907774
1.5056928630219772,14:50:49.518666,14:50:35.492162,0,,0.119857445,0.007744238,0.0337542,0.17938693,-0.8653589,-0.4679469,-0.11930895,-0.49128848,0.86278677,-0.9765171,-0.09894234,-0.19137588,,0.026998065,-0.031844616,0.04512894,0.5873935,-0.4127206,0.69615406,-0.8081553,-0.25336647,0.5316863,-0.043055713,-0.8749097,-0.48236823,,0.10696892,1.3440125,0.4434232,0.995628,0.020179013,-0.09120147,-0.044030406,-0.7597151,-0.6487637,-0.082378544,0.64994293,-0.7555051,,-0.08865348,0.27034652,-0.08808604,-0.086961515,0.84662616,0.5250351,-0.73140985,-0.41208386,0.5433475,0.6763707,-0.33676553,0.6550662,,0.0054742075,0.41278338,-0.38382363,-0.53871125,0.5083388,-0.67184955,-0.53155464,-0.82377875,-0.19707422,-0.65363586,0.25095865,0.7139887,,1.1488569105682607,0.38117864920597333,0.20279808905000002,-0.7779496903275853,0.9451146688775516,0.3237357992752465,-0.39545598411108984,,-0.7829692724532519,-0.29368780847388387,0.16016829611000002,-0.41812174730814156,0.16068452372415798,-0.6245304026762686,0.7902585919576429,,-0.048616146314302056,-0.07213882130805563,0.0795457676,-0.07359428191455561,,2.516061e-05,-5.9604645e-07,-8.34465e-07,1.0,-4.7322363e-05,-4.0713698e-05,4.7329813e-05,1.0,-5.155802e-06,4.0709972e-05,5.185604e-06,1.0,498,1.533,1,1,0.495,False,-0.25773323775690704,0.9643969933845418
1.5433282190060709,14:50:49.549422,14:50:35.492162,0,,0.1197419,0.0076118857,0.033704698,0.20312777,-0.86248744,-0.463524,-0.108655185,-0.49032465,0.8647404,-0.97310483,-0.12528847,-0.19331232,,0.02699893,-0.031844318,0.045125365,0.58758855,-0.41267157,0.6960185,-0.80801195,-0.25344425,0.5318671,-0.043084383,-0.8749103,-0.4823646,,0.10696892,1.3440125,0.4434232,0.995628,0.020179013,-0.09120147,-0.044030406,-0.7597151,-0.6487637,-0.082378544,0.64994293,-0.7555051,,-0.08854001,0.27021724,-0.088147074,-0.11039171,0.8464347,0.5209241,-0.72179264,-0.4285876,0.54344094,0.6832489,-0.31600782,0.6582629,,0.005473688,0.41278037,-0.38382143,-0.5389096,0.50829405,-0.6717244,-0.5315236,-0.82382613,-0.19695987,-0.65349764,0.25089377,0.7141381,,1.1476444415070075,0.3813099356648352,0.20281364453000003,-0.8203070589114594,0.9512633113669964,0.28490699519071494,-0.39970292983058153,,-0.7829692724532519,-0.2936955312067581,0.16017218498000002,-0.4183314372516261,0.1608211602239234,-0.6245601418398244,0.7897685597592402,,-0.048616146314302056,-0.07213882130805563,0.0795457676,-0.07359428191455561,,2.516061e-05,-5.9604645e-07,-8.34465e-07,1.0,-4.7322363e-05,-4.0713698e-05,4.7329813e-05,1.0,-5.155802e-06,4.0709972e-05,5.185604e-06,1.0,511,1.574,1,1,0.536,False,-0.2570778828531757,0.9652177567977926
1.574125436018221,14:50:49.582664,14:50:35.630264,0,,0.11963467,0.007480815,0.033647448,0.22570068,-0.85968524,-0.45825806,-0.098924786,-0.48818913,0.86711323,-0.969161,-0.15037492,-0.19522884,,0.026996572,-0.03182441,0.045126557,0.58425,-0.414319,0.6978479,-0.81019795,-0.24771556,0.5312402,-0.047234952,-0.87577194,-0.48040828,,0.10696892,1.3440125,0.4434232,0.995628,0.020179013,-0.09120147,-0.044030406,-0.7597151,-0.6487637,-0.082378544,0.64994293,-0.7555051,,-0.088433966,0.27008364,-0.08820059,-0.13275768,0.84624267,0.515993,-0.71249604,-0.44338053,0.54384106,0.68900275,-0.2954439,0.6618067,,0.005474903,0.41279233,-0.3838053,-0.5350759,0.50972533,-0.6737016,-0.53580546,-0.8213122,-0.19585383,-0.65315104,0.25617635,0.712578,,1.1465091997744965,0.38149528125381654,0.20282531114000002,-0.8611965978909416,0.9557723158592559,0.2462717035885723,-0.40133637049192417,,-0.7829769951861262,-0.2936955312067581,0.16017607385000002,-0.41287949872102847,0.16287070772040502,-0.6259863741748491,0.790258591957643,,-0.048616146314302056,-0.07213882130805563,0.0795457676,-0.07359428191455561,,2.516061e-05,-5.9604645e-07,-8.34465e-07,1.0,-4.7322363e-05,-4.0713698e-05,4.7329813e-05,1.0,-5.155802e-06,4.0709972e-05,5.185604e-06,1.0,520,1.603,1,1,0.565,False,-0.25677999426057063,0.9643487131837623
1.607367859018268,14:50:49.616532,14:50:35.630264,0,,0.119522095,0.0073412657,0.03360942,0.24846044,-0.85745466,-0.4505984,-0.085781634,-0.4828356,0.8714994,-0.9648362,-0.17788005,-0.19351944,,0.02700179,-0.03182289,0.045120955,0.5855584,-0.41466004,0.69654745,-0.80928063,-0.24946983,0.5318172,-0.04675567,-0.87511235,-0.48165554,,0.10696892,1.3440125,0.4434232,0.995628,0.020179013,-0.09120147,-0.044030406,-0.7597151,-0.6487637,-0.082378544,0.64994293,-0.7555051,,-0.088324904,0.2699563,-0.08827461,-0.15518533,0.8470115,0.50841814,-0.70036817,-0.45729068,0.5480599,0.6967079,-0.27102906,0.6641847,,0.0054701827,0.41278785,-0.38380098,-0.5364696,0.51008886,-0.6723167,-0.5350573,-0.8216576,-0.19644971,-0.6526209,0.25433862,0.7137211,,1.1453276216447401,0.3817655769044144,0.20283308888,-0.9046024161922381,0.962604140847528,0.20190340683698405,-0.3992128976321786,,-0.7830156088504973,-0.2937032539396323,0.16018385159,-0.4145570182689046,0.1631439807199359,-0.6247389926597118,0.7892785275608373,,-0.048616146314302056,-0.07213882130805563,0.0795457676,-0.07359428191455561,,2.516061e-05,-5.9604645e-07,-8.34465e-07,1.0,-4.7322363e-05,-4.0713698e-05,4.7329813e-05,1.0,-5.155802e-06,4.0709972e-05,5.185604e-06,1.0,533,1.644,1,1,0.606,False,-0.2571374605716965,0.9652177567977926
1.6412327400175855,14:50:49.657145,14:50:35.630264,0,,0.11940873,0.0072215647,0.03358099,0.2676677,-0.8516834,-0.45054337,-0.0735136,-0.48429477,0.871811,-0.9607027,-0.20023455,-0.19224045,,0.027009197,-0.031818733,0.04511416,0.58567894,-0.41448373,0.6965511,-0.8091729,-0.24904379,0.53218067,-0.047108352,-0.8753172,-0.4812488,,0.10696892,1.3440125,0.4434232,0.995628,0.020179013,-0.09120147,-0.044030406,-0.7597151,-0.6487637,-0.082378544,0.64994293,-0.7555051,,-0.08821509,0.26985025,-0.08834306,-0.17410457,0.8434265,0.5082512,-0.68892616,-0.47311735,0.5491272,0.70361096,-0.25454196,0.6634305,,0.005463273,0.41278356,-0.38379374,-0.53656054,0.509912,-0.6723783,-0.53530884,-0.8216214,-0.19591509,-0.6523399,0.25480974,0.71381,,1.1444163391655817,0.38203587255501226,0.20283697775,-0.9427659859064216,0.9686161468372073,0.1702103923082372,-0.3998662738967157,,-0.7830542225148683,-0.29371097667250656,0.16019422191000002,-0.4145570182689046,0.1635538902192322,-0.6251549251109416,0.7900952478915088,,-0.048616146314302056,-0.07213882130805563,0.0795457676,-0.07359428191455561,,2.516061e-05,-5.9604645e-07,-8.34465e-07,1.0,-4.7322363e-05,-4.0713698e-05,4.7329813e-05,1.0,-5.155802e-06,4.0709972e-05,5.185604e-06,1.0,542,1.673,1,1,0.635,False,-0.25731619372725945,0.9643969933845418
1.6818418760085478,14:50:49.684131,14:50:35.630264,0,,0.119349465,0.007144943,0.033539623,0.27965358,-0.8481229,-0.44997934,-0.068657875,-0.48514518,0.871734,-0.9576429,-0.21288893,-0.19390294,,0.027012374,-0.031818286,0.045104384,0.58679503,-0.41489157,0.6953679,-0.8083932,-0.2507382,0.5325699,-0.04660335,-0.87464,-0.48252755,,0.10696892,1.3440125,0.4434232,0.995628,0.020179013,-0.09120147,-0.044030406,-0.7597151,-0.6487637,-0.082378544,0.64994293,-0.7555051,,-0.0881557,0.26976693,-0.08836803,-0.18609121,0.84110427,0.507852,-0.68359697,-0.48210344,0.5479703,0.70573735,-0.24519366,0.6646915,,0.005461049,0.41277522,-0.3837881,-0.5377586,0.51033723,-0.67109734,-0.53459144,-0.82191277,-0.19665037,-0.6519415,0.25301245,0.7148126,,1.1438834705972603,0.38220577267824524,0.20283697775,-0.9654124998027501,0.9692993293360345,0.1515206224785503,-0.4024797789548642,,-0.7830619452477426,-0.29371869940538076,0.16020459223000003,-0.4160248478732963,0.16369052671899764,-0.6238778044322485,0.7896052156931059,,-0.048616146314302056,-0.07213882130805563,0.0795457676,-0.07359428191455561,,2.516061e-05,-5.9604645e-07,-8.34465e-07,1.0,-4.7322363e-05,-4.0713698e-05,4.7329813e-05,1.0,-5.155802e-06,4.0709972e-05,5.185604e-06,1.0,555,1.714,1,1,0.676,False,-0.25683957197909146,0.9644452735853215
1.7088321460178122,14:50:49.732036,14:50:35.784831,0,,0.1192158,0.007030621,0.033458263,0.3001217,-0.84006554,-0.45190352,-0.062442333,-0.49002802,0.86946744,-0.951855,-0.23272806,-0.19952372,,0.027010847,-0.031808674,0.04509425,0.587188,-0.41546774,0.6946919,-0.80804336,-0.2502808,0.53331524,-0.04770711,-0.8744975,-0.48267797,,0.10696892,1.3440125,0.4434232,0.995628,0.020179013,-0.09120147,-0.044030406,-0.7597151,-0.6487637,-0.082378544,0.64994293,-0.7555051,,-0.088020205,0.2696311,-0.08839531,-0.20671503,0.8348348,0.51021534,-0.67570513,-0.49895543,0.5426473,0.7075956,-0.23258176,0.6672438,,0.005463059,0.4127721,-0.3837746,-0.53805923,0.51087284,-0.67044854,-0.5353735,-0.8214862,-0.1963049,-0.65105104,0.25331673,0.71551603,,1.1432888201659448,0.3824915137945915,0.20283308888,-1.003366379573449,0.9676596913388492,0.1243517570138511,-0.39937624169831276,,-0.7830619452477426,-0.293726422138255,0.16021625884000001,-0.4160248478732963,0.1649202552168866,-0.6236553844634078,0.7894418716269717,,-0.048616146314302056,-0.07213882130805563,0.0795457676,-0.07359428191455561,,2.516061e-05,-5.9604645e-07,-8.34465e-07,1.0,-4.7322363e-05,-4.0713698e-05,4.7329813e-05,1.0,-5.155802e-06,4.0709972e-05,5.185604e-06,1.0,564,1.742,1,1,0.704,False,-0.25642252794944387,0.9646383943884391
1.7567256220208947,14:50:49.760481,14:50:35.784831,0,,0.119125426,0.006959647,0.03341642,0.31290627,-0.83648324,-0.44987273,-0.056999654,-0.4893426,0.870227,-0.9480721,-0.2466568,-0.20079759,,0.027014978,-0.03180985,0.045088768,0.5871808,-0.41574597,0.6945314,-0.80804944,-0.2505048,0.533201,-0.047692597,-0.87430114,-0.483035,,0.10696892,1.3440125,0.4434232,0.995628,0.020179013,-0.09120147,-0.044030406,-0.7597151,-0.6487637,-0.082378544,0.64994293,-0.7555051,,-0.087929584,0.26955262,-0.08841952,-0.21953951,0.83269024,0.50835943,-0.66948307,-0.50760686,0.54233545,0.7096442,-0.22127397,0.66891176,,0.00545955,0.41276637,-0.3837726,-0.5380533,0.5111416,-0.67024845,-0.5353638,-0.82141054,-0.19664776,-0.651064,0.25301975,0.7156093,,1.1429412971866049,0.3827077503150698,0.20283049630000002,-1.028109792904623,0.9676596913388492,0.10229849717589923,-0.3970894247724327,,-0.7830696679806168,-0.29374186760400345,0.16022274029000003,-0.4160248478732963,0.1649202552168866,-0.6232469907627051,0.7899319038253745,,-0.048616146314302056,-0.07213882130805563,0.0795457676,-0.07359428191455561,,2.516061e-05,-5.9604645e-07,-8.34465e-07,1.0,-4.7322363e-05,-4.0713698e-05,4.7329813e-05,1.0,-5.155802e-06,4.0709972e-05,5.185604e-06,1.0,577,1.783,1,1,0.745,False,-0.2564821056679656,0.9642038725814241
1.785165635024896,14:50:49.802913,14:50:35.784831,0,,0.118860886,0.006802574,0.033295095,0.34323752,-0.82404274,-0.45071217,-0.046654344,-0.49423033,0.86807823,-0.93808913,-0.2769293,-0.20808363,,0.027018491,-0.03180851,0.04508668,0.5878734,-0.4153077,0.69420767,-0.80755293,-0.250822,0.53380364,-0.04757008,-0.87441844,-0.48283464,,0.10696892,1.3440125,0.4434232,0.995628,0.020179013,-0.09120147,-0.044030406,-0.7597151,-0.6487637,-0.082378544,0.64994293,-0.7555051,,-0.08766205,0.26936212,-0.08845843,-0.25018734,0.82310045,0.5098156,-0.65601236,-0.5313814,0.5359865,0.71207726,-0.2003483,0.672909,,0.0054561975,0.41276497,-0.3837703,-0.5387787,0.5107335,-0.6699767,-0.5350719,-0.82172614,-0.19612274,-0.65070385,0.252819,0.7160077,,1.142578328741516,0.3831402233560264,0.20281882969,-1.0857745273628672,0.9636972328456515,0.058727698282553364,-0.3946392637804186,,-0.7831005589121137,-0.2937495903368777,0.16022662916000002,-0.4168636076472344,0.1651935282164175,-0.6235515053102384,0.7894418716269715,,-0.048616146314302056,-0.07213882130805563,0.0795457676,-0.07359428191455561,,2.516061e-05,-5.9604645e-07,-8.34465e-07,1.0,-4.7322363e-05,-4.0713698e-05,4.7329813e-05,1.0,-5.155802e-06,4.0709972e-05,5.185604e-06,1.0,586,1.812,1,1,0.774,False,-0.25785239319394915,0.964831515191557
1.8275342210254166,14:50:49.831076,14:50:35.784831,0,,0.118754834,0.0067430288,0.033246547,0.35368535,-0.8206102,-0.44889367,-0.043186307,-0.4937278,0.8685435,-0.93436694,-0.28780496,-0.21006343,,0.027020052,-0.031806827,0.045086265,0.5877207,-0.41549054,0.69422764,-0.8076587,-0.2507475,0.53367877,-0.047662526,-0.874353,-0.4829441,,0.10696892,1.3440125,0.4434232,0.995628,0.020179013,-0.09120147,-0.044030406,-0.7597151,-0.6487637,-0.082378544,0.64994293,-0.7555051,,-0.08755463,0.2692884,-0.088471845,-0.2607769,0.8207928,0.5082269,-0.65126014,-0.53817964,0.53499806,0.7126399,-0.19147278,0.67489445,,0.0054545985,0.41276532,-0.38376865,-0.53861254,0.510905,-0.6699795,-0.53518915,-0.82161146,-0.19628336,-0.65074503,0.25284508,0.7159611,,1.1425474378100193,0.3832328961505171,0.20281364453000003,-1.105695071993897,0.9617843218489353,0.04125640248155232,-0.40264312302099825,,-0.7831082816449879,-0.29374186760400345,0.16022792545,-0.4166539177037499,0.1651935282164175,-0.6233881478299572,0.7900952478915088,,-0.048616146314302056,-0.07213882130805563,0.0795457676,-0.07359428191455561,,2.516061e-05,-5.9604645e-07,-8.34465e-07,1.0,-4.7322363e-05,-4.0713698e-05,4.7329813e-05,1.0,-5.155802e-06,4.0709972e-05,5.185604e-06,1.0,599,1.853,1,1,0.815,False,-0.2561246393568388,0.9649280755931158
1.8557276250212453,14:50:49.870673,14:50:35.928891,0,,0.11851823,0.0065987557,0.033122897,0.3750009,-0.81065595,-0.44967902,-0.036809325,-0.49771634,0.86655843,-0.9262933,-0.30840778,-0.21648383,,0.027014628,-0.03179787,0.045084417,0.5887274,-0.416555,0.6927351,-0.80688024,-0.25151134,0.5344961,-0.048416138,-0.8736268,-0.4841817,,0.10696892,1.3440125,0.4434232,0.995628,0.020179013,-0.09120147,-0.044030406,-0.7597151,-0.6487637,-0.082378544,0.64994293,-0.7555051,,-0.08731405,0.26910532,-0.088497706,-0.28246242,0.8127563,0.509551,-0.6417823,-0.5549052,0.5293352,0.712973,-0.1775035,0.6783524,,0.0054597217,0.41276914,-0.38376015,-0.53957915,0.51193094,-0.6684168,-0.5355161,-0.8212935,-0.19672191,-0.6496744,0.25180092,0.7173001,,1.1425860514743904,0.3832406188833913,0.20280327421000002,-1.1459555411429256,0.9565921348578486,0.01183864188410455,-0.40068299422738696,,-0.7831160043778622,-0.29374186760400345,0.16023051803000002,-0.417492677477688,0.16642325671430647,-0.6220222254991488,0.7905852800899116,,-0.048616146314302056,-0.07213882130805563,0.0795457676,-0.07359428191455561,,2.516061e-05,-5.9604645e-07,-8.34465e-07,1.0,-4.7322363e-05,-4.0713698e-05,4.7329813e-05,1.0,-5.155802e-06,4.0709972e-05,5.185604e-06,1.0,608,1.882,1,1,0.844,False,-0.2580311263495121,0.9652660369985722
1.8953755650145467,14:50:49.894426,14:50:35.928891,0,,0.1183797,0.006513849,0.033046514,0.3855654,-0.8064207,-0.44835824,-0.033589512,-0.4978756,0.8665978,-0.92206895,-0.31906998,-0.21905085,,0.027014717,-0.03179553,0.04508388,0.5888132,-0.41699815,0.6923956,-0.806803,-0.25165367,0.5345458,-0.048660576,-0.8733744,-0.4846124,,0.10696892,1.3440125,0.4434232,0.995628,0.020179013,-0.09120147,-0.044030406,-0.7597151,-0.6487637,-0.082378544,0.64994293,-0.7555051,,-0.08717279,0.2689952,-0.08851011,-0.2932296,0.8095982,0.50849503,-0.6368947,-0.56208956,0.52765566,0.7130088,-0.16913351,0.6804501,,0.005459568,0.4127699,-0.3837579,-0.5396445,0.512354,-0.66803986,-0.53568923,-0.82110924,-0.19701949,-0.6494774,0.2515413,0.7175696,,1.1426864470017553,0.3831170551574037,0.20280197792000001,-1.16608577571744,0.9537227683627743,-0.004934407331162072,-0.39349585531747866,,-0.7831237271107364,-0.29374186760400345,0.16023181432000003,-0.417492677477688,0.16669652971383736,-0.6215099526452766,0.7894418716269717,,-0.048616146314302056,-0.07213882130805563,0.0795457676,-0.07359428191455561,,2.516061e-05,-5.9604645e-07,-8.34465e-07,1.0,-4.7322363e-05,-4.0713698e-05,4.7329813e-05,1.0,-5.155802e-06,4.0709972e-05,5.185604e-06,1.0,621,1.923,1,1,0.885,False,-0.25672041654204936,0.9643487131837623
1.919129228015663,14:50:49.943416,14:50:35.928891,0,,0.11813581,0.0063811094,0.032955438,0.3994763,-0.79882574,-0.4497735,-0.026342928,-0.5004208,0.8653815,-0.91636497,-0.33385098,-0.22094965,,0.02701661,-0.031792864,0.04508376,0.5889684,-0.41702563,0.69224703,-0.80669457,-0.25187987,0.53460294,-0.0485799,-0.873296,-0.48476163,,0.10696892,1.3440125,0.4434232,0.995628,0.020179013,-0.09120147,-0.044030406,-0.7597151,-0.6487637,-0.082378544,0.64994293,-0.7555051,,-0.08692764,0.26884228,-0.088553764,-0.3072788,0.8033968,0.51003265,-0.6280862,-0.57386214,0.5255378,0.71490383,-0.15885782,0.6809381,,0.005457559,0.41277105,-0.38375556,-0.5398121,0.51238513,-0.66788054,-0.5355807,-0.8211612,-0.1970979,-0.6494276,0.25130808,0.71769637,,1.1429953563167243,0.38281586857530897,0.20279549647000003,-1.1954423678052735,0.952083130365589,-0.026630797206443624,-0.39823283323537273,,-0.7831391725764849,-0.293726422138255,0.16023311061,-0.41770236742117256,0.16669652971383736,-0.6213465951649955,0.7894418716269717,,-0.048616146314302056,-0.07213882130805563,0.0795457676,-0.07359428191455561,,2.516061e-05,-5.9604645e-07,-8.34465e-07,1.0,-4.7322363e-05,-4.0713698e-05,4.7329813e-05,1.0,-5.155802e-06,4.0709972e-05,5.185604e-06,1.0,630,1.951,1,1,0.913,False,-0.25725661600873906,0.9650729161954543
1.9680872410244774,14:50:49.974204,14:50:35.928891,0,,0.1179696,0.0062850714,0.032874554,0.4091048,-0.793741,-0.45012066,-0.023336709,-0.5022295,0.8644194,-0.9121889,-0.34313375,-0.22398788,,0.027017597,-0.031794846,0.045081973,0.5888827,-0.41703498,0.69231415,-0.80677176,-0.2520867,0.5343888,-0.048335493,-0.87323195,-0.48490167,,0.10696892,1.3440125,0.4434232,0.995628,0.020179013,-0.09120147,-0.044030406,-0.7597151,-0.6487637,-0.082378544,0.64994293,-0.7555051,,-0.08675895,0.26872155,-0.088572964,-0.31712103,0.7991792,0.5106338,-0.62336516,-0.5814241,0.52284014,0.7147378,-0.15250771,0.6825623,,0.005456854,0.4127684,-0.38375625,-0.5397468,0.5123987,-0.66792285,-0.53540754,-0.8212167,-0.19733693,-0.6496246,0.251099,0.7175912,,1.143265651967322,0.3825146819932142,0.20279031131000003,-1.2147338426058496,0.9489404908709839,-0.04056729092981953,-0.39676273664016437,,-0.7831314498436106,-0.293726422138255,0.16023440690000001,-0.41770236742117256,0.16642325671430647,-0.6212054380977432,0.7902585919576429,,-0.048616146314302056,-0.07213882130805563,0.0795457676,-0.07359428191455561,,2.516061e-05,-5.9604645e-07,-8.34465e-07,1.0,-4.7322363e-05,-4.0713698e-05,4.7329813e-05,1.0,-5.155802e-06,4.0709972e-05,5.185604e-06,1.0,643,1.992,1,1,0.954,False,-0.2575545046013441,0.9653143171993515
1.998861335014226,14:50:50.012452,14:50:36.059862,0,,0.11767675,0.006141618,0.03278795,0.4206369,-0.78691554,-0.4514738,-0.016978562,-0.5043813,0.8633141,-0.90707016,-0.35547635,-0.22552213,,0.027025167,-0.031802237,0.04508239,0.58807,-0.41857234,0.6920772,-0.8074074,-0.25343698,0.5327878,-0.04761219,-0.8721048,-0.48699713,,0.10696892,1.3440125,0.4434232,0.995628,0.020179013,-0.09120147,-0.044030406,-0.7597151,-0.6487637,-0.082378544,0.64994293,-0.7555051,,-0.08646608,0.26856482,-0.088632144,-0.32878992,0.79351914,0.5120787,-0.6155429,-0.59128857,0.521042,0.7162431,-0.14389303,0.6828548,,0.005449661,0.41276398,-0.38376266,-0.5389773,0.51388526,-0.66740197,-0.5350511,-0.82082355,-0.19992259,-0.6505565,0.24934042,0.71736014,,1.1439066387958827,0.3819277542947731,0.20277216325000003,-1.2394772559370233,0.9470275798742677,-0.05885537413222619,-0.3992128976321784,,-0.7831391725764849,-0.293726422138255,0.16023440690000001,-0.4170732975907189,0.16533016471618295,-0.6187621988055012,0.7897685597592402,,-0.048616146314302056,-0.07213882130805563,0.0795457676,-0.07359428191455561,,2.516061e-05,-5.9604645e-07,-8.34465e-07,1.0,-4.7322363e-05,-4.0713698e-05,4.7329813e-05,1.0,-5.155802e-06,4.0709972e-05,5.185604e-06,1.0,652,2.021,1,1,0.983,False,-0.25785239319394915,0.9650729161954543
2.0371556150203105,14:50:50.045468,14:50:36.059862,0,,0.117458925,0.0060460865,0.032732815,0.42794076,-0.78381586,-0.44999924,-0.014539272,-0.503799,0.86369854,-0.90368986,-0.36306912,-0.22699228,,0.027021095,-0.031796545,0.045082808,0.58879167,-0.41900602,0.69120073,-0.80685323,-0.2538104,0.5334491,-0.04808438,-0.87178785,-0.4875179,,0.10696892,1.3440125,0.4434232,0.995628,0.020179013,-0.09120147,-0.044030406,-0.7597151,-0.6487637,-0.082378544,0.64994293,-0.7555051,,-0.08624863,0.26846272,-0.08867586,-0.33626947,0.7912201,0.5107774,-0.6117028,-0.59587944,0.52033395,0.71606046,-0.13747157,0.6843676,,0.005453379,0.41276783,-0.38375813,-0.53967667,0.51430434,-0.66651344,-0.53523046,-0.8207095,-0.19991058,-0.6498288,0.24885122,0.7181891,,1.144532180158695,0.38141805392507433,0.20274623745000003,-1.2543652419244247,0.9441582133791935,-0.07195288004116765,-0.3987228654337757,,-0.7831468953093591,-0.293726422138255,0.16023440690000001,-0.41770236742117256,0.16614998371477557,-0.6182055251255711,0.7894418716269717,,-0.048616146314302056,-0.07213882130805563,0.0795457676,-0.07359428191455561,,2.516061e-05,-5.9604645e-07,-8.34465e-07,1.0,-4.7322363e-05,-4.0713698e-05,4.7329813e-05,1.0,-5.155802e-06,4.0709972e-05,5.185604e-06,1.0,661,2.049,1,1,1.011,False,-0.25767366003838577,0.965362597400131
2.070131389016751,14:50:50.076117,14:50:36.059862,0,,0.117083326,0.0059063137,0.032664835,0.43887153,-0.77651846,-0.45211813,-0.008624822,-0.5067816,0.86203134,-0.8985084,-0.3744216,-0.22910935,,0.027016796,-0.03179218,0.045081258,0.58977723,-0.4203946,0.6895152,-0.80612266,-0.2554489,0.53377146,-0.048258632,-0.87064004,-0.48954767,,0.10696892,1.3440125,0.4434232,0.995628,0.020179013,-0.09120147,-0.044030406,-0.7597151,-0.6487637,-0.082378544,0.64994293,-0.7555051,,-0.08587519,0.2683233,-0.088755436,-0.34736797,0.7849532,0.5130146,-0.6041589,-0.60574305,0.51775223,0.7171663,-0.1300918,0.68465215,,0.005457581,0.41276935,-0.38375363,-0.54067636,0.51565564,-0.6646566,-0.5350947,-0.8204691,-0.20125648,-0.6491092,0.24683955,0.71953285,,1.1456828673569546,0.3806380579047776,0.20270605246,-1.278898965312114,0.9412888468841193,-0.08880760799657483,-0.4014997145580585,,-0.7831468953093591,-0.293726422138255,0.16023570319000002,-0.4187508171385952,0.16683316621360278,-0.6159855374792743,0.790258591957643,,-0.048616146314302056,-0.07213882130805563,0.0795457676,-0.07359428191455561,,2.516061e-05,-5.9604645e-07,-8.34465e-07,1.0,-4.7322363e-05,-4.0713698e-05,4.7329813e-05,1.0,-5.155802e-06,4.0709972e-05,5.185604e-06,1.0,675,2.095,1,1,1.057,False,-0.25695872741613357,0.964831515191557
2.100790082011372,14:50:50.112657,14:50:36.059862,0,,0.116809964,0.0058370084,0.032608226,0.44798228,-0.7720802,-0.45078152,-0.007358849,-0.5073732,0.86169505,-0.8940121,-0.38270685,-0.23297584,,0.027015913,-0.031786516,0.045082808,0.58979785,-0.42067623,0.68932575,-0.8060725,-0.25505272,0.5340366,-0.048842072,-0.8706202,-0.48952514,,0.10696892,1.3440125,0.4434232,0.995628,0.020179013,-0.09120147,-0.044030406,-0.7597151,-0.6487637,-0.082378544,0.64994293,-0.7555051,,-0.08560115,0.26824176,-0.08878693,-0.35680988,0.7813368,0.5120542,-0.60053444,-0.6117138,0.5149414,0.7155733,-0.12377,0.68748516,,0.0054580304,0.41277367,-0.38374966,-0.5406425,0.51591355,-0.66448396,-0.5355595,-0.8202102,-0.2010754,-0.648754,0.24716075,0.71974283,,1.146733159027849,0.3801592484665757,0.20267364521000003,-1.2954644708473915,0.9355501138939708,-0.10168898517154604,-0.3974161129047014,,-0.7831623407751075,-0.29371869940538076,0.16023570319000002,-0.4185411271951106,0.16737971221266457,-0.6159411366532166,0.7899319038253746,,-0.048616146314302056,-0.07213882130805563,0.0795457676,-0.07359428191455561,,2.516061e-05,-5.9604645e-07,-8.34465e-07,1.0,-4.7322363e-05,-4.0713698e-05,4.7329813e-05,1.0,-5.155802e-06,4.0709972e-05,5.185604e-06,1.0,684,2.123,1,1,1.085,False,-0.2568991496976123,0.9648797953923365
2.1373586740228347,14:50:50.143484,14:50:36.192072,0,,0.11647101,0.005758047,0.032576934,0.45690858,-0.76496947,-0.45393413,0.00010898709,-0.5102691,0.8600148,-0.8895137,-0.39299753,-0.23306295,,0.027016718,-0.03178653,0.045081854,0.58999044,-0.4209029,0.6890225,-0.8059299,-0.25534755,0.5341109,-0.048868537,-0.87042415,-0.48987094,,0.10696892,1.3440125,0.4434232,0.995628,0.020179013,-0.09120147,-0.044030406,-0.7597151,-0.6487637,-0.082378544,0.64994293,-0.7555051,,-0.08526491,0.26817128,-0.08885071,-0.36577454,0.77515405,0.51511663,-0.592199,-0.6208151,0.5137012,0.7179898,-0.11715276,0.68612385,,0.005457314,0.41277286,-0.3837492,-0.54083854,0.5161347,-0.6641526,-0.5355267,-0.82017833,-0.20129262,-0.6486176,0.24680462,0.7199879,,1.1479147371576053,0.3797036072269965,0.20264771941,-1.3179012948002355,0.9345936583956126,-0.11650969921251844,-0.3975794569708357,,-0.7831700635079818,-0.293726422138255,0.16023699948,-0.4187508171385952,0.16751634871242999,-0.6155624821160697,0.7905852800899116,,-0.048616146314302056,-0.07213882130805563,0.0795457676,-0.07359428191455561,,2.516061e-05,-5.9604645e-07,-8.34465e-07,1.0,-4.7322363e-05,-4.0713698e-05,4.7329813e-05,1.0,-5.155802e-06,4.0709972e-05,5.185604e-06,1.0,698,2.168,1,1,1.13,False,-0.25725661600873906,0.9647349547899979
2.1681665330252144,14:50:50.183817,14:50:36.192072,0,,0.11598329,0.0057145655,0.032497868,0.4711256,-0.7566028,-0.4534235,0.0028032959,-0.5127602,0.8585273,-0.88206166,-0.4057452,-0.23945346,,0.027017612,-0.031785667,0.045081258,0.5906436,-0.42134708,0.6881909,-0.8054656,-0.25644818,0.53428394,-0.048633605,-0.86988556,-0.4908501,,0.10696892,1.3440125,0.4434232,0.995628,0.020179013,-0.09120147,-0.044030406,-0.7597151,-0.6487637,-0.082378544,0.64994293,-0.7555051,,-0.08477437,0.26810092,-0.08887126,-0.38051757,0.76798624,0.5151733,-0.58571434,-0.63124514,0.5083978,0.71564317,-0.108290076,0.6900204,,0.0054564495,0.41277266,-0.3837481,-0.5415342,0.5165794,-0.66323936,-0.5351534,-0.8202652,-0.20193048,-0.6483453,0.24558255,0.7206508,,1.1500925478281367,0.37907034313131005,0.20261790474000002,-1.344112537735801,0.9250291034120318,-0.13460260657832726,-0.3980694891692385,,-0.7831855089737302,-0.293726422138255,0.16023829577,-0.41958957691253324,0.16765298521219543,-0.6145303976577982,0.790258591957643,,-0.048616146314302056,-0.07213882130805563,0.0795457676,-0.07359428191455561,,2.516061e-05,-5.9604645e-07,-8.34465e-07,1.0,-4.7322363e-05,-4.0713698e-05,4.7329813e-05,1.0,-5.155802e-06,4.0709972e-05,5.185604e-06,1.0,707,2.197,1,1,1.159,False,-0.2585077480976805,0.9647349547899979
2.2085187020129524,14:50:50.209950,14:50:36.192072,0,,0.115728796,0.0056996197,0.032470375,0.4754873,-0.7552168,-0.4511756,0.0055218637,-0.51028895,0.8599853,-0.87970525,-0.41140342,-0.23846573,,0.027033508,-0.031771153,0.04506898,0.5910426,-0.4219067,0.6875052,-0.8051107,-0.25609177,0.5349893,-0.049650997,-0.86971927,-0.4910428,,0.10696892,1.3440125,0.4434232,0.995628,0.020179013,-0.09120147,-0.044030406,-0.7597151,-0.6487637,-0.082378544,0.64994293,-0.7555051,,-0.08451939,0.268079,-0.08888733,-0.3849579,0.76728785,0.51291007,-0.58224404,-0.6330943,0.5100819,0.71610004,-0.102278754,0.6904634,,0.005441112,0.41276836,-0.3837291,-0.54184955,0.51710135,-0.66257477,-0.535861,-0.81987435,-0.20164074,-0.64749676,0.24578904,0.721343,,1.1512123440948991,0.3786610382889762,0.20261660845,-1.3545970349100274,0.9231161924153157,-0.14586631812864564,-0.39921289763217843,,-0.7831855089737302,-0.293726422138255,0.16023959206000002,-0.41958957691253324,0.16874607721031895,-0.6142782385254016,0.7892785275608374,,-0.048616146314302056,-0.07213882130805563,0.0795457676,-0.07359428191455561,,2.516061e-05,-5.9604645e-07,-8.34465e-07,1.0,-4.7322363e-05,-4.0713698e-05,4.7329813e-05,1.0,-5.155802e-06,4.0709972e-05,5.185604e-06,1.0,721,2.242,1,1,1.204,False,-0.2566012611050077,0.9647349547899979
2.2346530000213534,14:50:50.253010,14:50:36.308890,0,,0.11512445,0.0056807995,0.032381445,0.48645806,-0.7489133,-0.44998604,0.0075825155,-0.5113944,0.85931265,-0.87367094,-0.42143142,-0.24309352,,0.02704687,-0.03176649,0.0450688,0.5911001,-0.4224179,0.68714166,-0.805061,-0.25640258,0.5349153,-0.0497728,-0.8693794,-0.49163193,,0.10695579,1.3440111,0.4434225,0.99562883,0.020193428,-0.09118916,-0.044011515,-0.75971466,-0.64876544,-0.082378544,0.64994293,-0.7555051,,-0.08390057,0.2680229,-0.088900074,-0.39636415,0.76197666,0.5121397,-0.5770761,-0.6406322,0.5065308,0.71405786,-0.0947729,0.6936422,,0.0054393723,0.4127696,-0.38372684,-0.54188174,0.51760083,-0.66215825,-0.53594965,-0.8196922,-0.20214511,-0.64739645,0.24534473,0.72158426,,1.1539075778680035,0.37757985568658475,0.20261920103000003,-1.3757757192019644,0.9145080929300929,-0.16147200121470684,-0.40002961796284986,,-0.7832009544394787,-0.29371869940538076,0.16024088835000003,-0.41958957691253324,0.1688827137100844,-0.6135728690276924,0.790258591957643,,-0.048616146314302056,-0.07213882130805563,0.0795457676,-0.07359428191455561,,1.2215227e-05,-2.3841858e-07,1.7881393e-06,1.0,-3.299117e-05,-2.8382987e-05,3.299117e-05,0.99999994,-3.5762787e-06,2.8379261e-05,3.606081e-06,1.0,735,2.287,1,1,1.249,False,-0.25624379479388093,0.9644452735853215
2.277709934016457,14:50:50.311865,14:50:36.308890,0,,0.11396882,0.005600363,0.03217277,0.5017584,-0.74005574,-0.44783476,0.009055197,-0.5132012,0.8582206,-0.8649603,-0.4346745,-0.25080177,,0.027043208,-0.03176284,0.045069396,0.5916127,-0.42216608,0.6868552,-0.8046918,-0.25673366,0.53531176,-0.049651563,-0.8694041,-0.49160063,,0.10695579,1.3440111,0.4434225,0.99562883,0.020193428,-0.09118916,-0.044011515,-0.75971466,-0.64876544,-0.082378544,0.64994293,-0.7555051,,-0.08273505,0.2678594,-0.088918045,-0.41236696,0.75440264,0.51071537,-0.57073003,-0.65088004,0.5006221,0.71008503,-0.0850406,0.6989616,,0.005442764,0.41277245,-0.38372412,-0.54242176,0.51736975,-0.66189665,-0.5357072,-0.819917,-0.20187601,-0.64714485,0.24508081,0.7218995,,1.1592439862840926,0.37483828551623505,0.20264642312000003,-1.405551691176767,0.8997513509554254,-0.18333554477382663,-0.3985595213676414,,-0.7831932317066044,-0.2936955312067581,0.16023959206000002,-0.42021864674298676,0.16901935020984984,-0.6136842869313888,0.790258591957643,,-0.048616146314302056,-0.07213882130805563,0.0795457676,-0.07359428191455561,,1.2215227e-05,-2.3841858e-07,1.7881393e-06,1.0,-3.299117e-05,-2.8382987e-05,3.299117e-05,0.99999994,-3.5762787e-06,2.8379261e-05,3.606081e-06,1.0,744,2.316,1,1,1.278,False,-0.25737577144578117,0.9644935537861006
2.336566310026683,14:50:50.331346,14:50:36.308890,0,,0.113566115,0.005581036,0.032115445,0.50450355,-0.7388982,-0.44666046,0.009385496,-0.5125978,0.8585775,-0.86335856,-0.43734738,-0.25167263,,0.027043208,-0.03176284,0.045069396,0.5916127,-0.42216608,0.6868552,-0.8046918,-0.25673366,0.53531176,-0.049651563,-0.8694041,-0.49160063,,0.10695579,1.3440111,0.4434225,0.99562883,0.020193428,-0.09118916,-0.044011515,-0.75971466,-0.64876544,-0.082378544,0.64994293,-0.7555051,,-0.08233002,0.26781905,-0.08893024,-0.4152388,0.75354624,0.5096516,-0.569516,-0.6521959,0.500292,0.7093859,-0.082514085,0.69997364,,0.005442764,0.41277245,-0.38372412,-0.54242176,0.51736975,-0.66189665,-0.5357072,-0.819917,-0.20187601,-0.64714485,0.24508081,0.7218995,,1.1611206103725293,0.3737957165782147,0.20266068231,-1.412052079424787,0.8963354384612893,-0.1893714011165968,-0.40051965016125274,,-0.7831932317066044,-0.2936955312067581,0.16023959206000002,-0.42021864674298676,0.16901935020984984,-0.6136842869313888,0.790258591957643,,-0.048616146314302056,-0.07213882130805563,0.0795457676,-0.07359428191455561,,1.2215227e-05,-2.3841858e-07,1.7881393e-06,1.0,-3.299117e-05,-2.8382987e-05,3.299117e-05,0.99999994,-3.5762787e-06,2.8379261e-05,3.606081e-06,1.0,758,2.361,1,1,1.323,False,-0.25731619372725945,0.9650729161954543
2.3560479230072815,14:50:50.375294,14:50:36.308890,0,,0.11249812,0.00551866,0.031965137,0.51069665,-0.73574317,-0.44482687,0.008925647,-0.5128194,0.85845006,-0.85971457,-0.44237787,-0.25532836,,0.027043313,-0.031760693,0.045069873,0.59192234,-0.4220093,0.6866847,-0.8044743,-0.25703108,0.53549594,-0.04948479,-0.86939234,-0.49163824,,0.10695579,1.3440111,0.4434225,0.99562883,0.020193428,-0.09118916,-0.044011515,-0.75971466,-0.64876544,-0.082378544,0.64994293,-0.7555051,,-0.08125654,0.26770473,-0.08897109,-0.42177805,0.7508995,0.5081862,-0.5676713,-0.65573,0.49776244,0.7070025,-0.078537464,0.70283663,,0.0054425118,0.41277394,-0.38372254,-0.54275686,0.51722777,-0.6617329,-0.53548515,-0.820083,-0.20179065,-0.64704764,0.24482489,0.7220735,,1.1660940503435298,0.3708765235517579,0.20269438585000002,-1.4263109955817348,0.8870441564772393,-0.2009894875982722,-0.39545598411109006,,-0.7832009544394787,-0.2936800857410097,0.16023959206000002,-0.4206380266299559,0.16901935020984984,-0.6136842869313888,0.790258591957643,,-0.048616146314302056,-0.07213882130805563,0.0795457676,-0.07359428191455561,,1.2215227e-05,-2.3841858e-07,1.7881393e-06,1.0,-3.299117e-05,-2.8382987e-05,3.299117e-05,0.99999994,-3.5762787e-06,2.8379261e-05,3.606081e-06,1.0,772,2.406,1,1,1.368,False,-0.25600548391979716,0.9651211963962336
2.3999685700109694,14:50:50.416953,14:50:36.457629,0,,0.111681074,0.0054523647,0.03186752,0.5139894,-0.73320186,-0.44523025,0.008721173,-0.51454604,0.8574184,-0.85775214,-0.44458675,-0.25807697,,0.027040876,-0.031757683,0.045069516,0.59212595,-0.42190892,0.68657094,-0.8043215,-0.25705683,0.53571314,-0.04953429,-0.86943334,-0.49156055,,0.10695579,1.3440111,0.4434225,0.99562883,0.020193428,-0.09118916,-0.044011515,-0.75971466,-0.64876544,-0.082378544,0.64994293,-0.7555051,,-0.0804379,0.26761448,-0.08902751,-0.4252554,0.74851114,0.5088113,-0.5666439,-0.6585511,0.49520215,0.70574254,-0.07772743,0.7041917,,0.0054448103,0.41277552,-0.38371983,-0.5429621,0.51713336,-0.6616383,-0.5354674,-0.8201422,-0.20159715,-0.64689016,0.24482612,0.72221416,,1.1698395757875286,0.3685288127579936,0.20270864504000002,-1.4353276631515692,0.8811687869873255,-0.20665339647731817,-0.394802607846553,,-0.7831932317066044,-0.2936646402752612,0.16023959206000002,-0.4208477165734404,0.16915598670961526,-0.6137957048350853,0.790258591957643,,-0.048616146314302056,-0.07213882130805563,0.0795457676,-0.07359428191455561,,1.2215227e-05,-2.3841858e-07,1.7881393e-06,1.0,-3.299117e-05,-2.8382987e-05,3.299117e-05,0.99999994,-3.5762787e-06,2.8379261e-05,3.606081e-06,1.0,781,2.435,1,1,1.397,False,-0.25624379479388093,0.9648797953923365
