AlexandreBanks6/ExpertPlaybackApp/resources/Motions/P_20/PC1/Data_PC1_10.csv
Task Time,PC1 Time,PC2 Time,Gaze Calib,s_T_psm1,Tx,Ty,Tz,R00,R01,R02,R10,R11,R12,R20,R21,R22,s_T_psm3,Tx,Ty,Tz,R00,R01,R02,R10,R11,R12,R20,R21,R22,cart_T_ecm,Tx,Ty,Tz,R00,R01,R02,R10,R11,R12,R20,R21,R22,ecm_T_psm1,Tx,Ty,Tz,R00,R01,R02,R10,R11,R12,R20,R21,R22,ecm_T_psm3,Tx,Ty,Tz,R00,R01,R02,R10,R11,R12,R20,R21,R22,psm1_joints,q1,q2,q3,q4,q5,q6,jaw,psm3_joints,q1,q2,q3,q4,q5,q6,jaw,ecm_joints,q1,q2,q3,q4,ecmi_T_ecm,Tx,Ty,Tz,R00,R01,R02,R10,R11,R12,R20,R21,R22,Sample #,Task Duration (s),Collisions (binary),Collisions (increments),Cumulative Collision Time (s),Clutch Press,MTMR Angle,MTML Angle
""
lci_T_si,,,,,-0.05902016,0.01094767,0.21071734,0.97957927,-0.09625928,0.1765179,0.03502312,-0.78282696,-0.621253,0.19798435,0.6147488,-0.76346976
rci_T_si,,,,,-0.06841282,0.015008298,0.21978137,0.97623444,-0.115598515,0.18331198,0.027944919,-0.77165043,-0.6354327,0.21490785,0.62545395,-0.7500813
ecm_T_lc,,,,,-4.4061628e-05,-0.00034663224,-0.01840835,-0.99912,0.030754527,0.028518902,-0.031987965,-0.99852574,-0.043852776,0.027128186,-0.04472645,0.9986309
ecm_T_rc,,,,,-0.0043358393,0.01870579,-0.007592615,-0.99555075,-0.052743673,-0.078081585,0.04863213,-0.9973746,0.053654674,-0.08070653,0.04961868,0.9955021
cart_T_ecmi,,,,,0.099593714,1.298613,0.43119854,0.9826991,0.0065364777,-0.18509394,-0.10523164,-0.8026885,-0.5870413,-0.15240996,0.5963627,-0.78811336
ecmac_T_ecmrep_psm1,,,,,0.044880565,-0.23049864,-0.32052848,0.99797076,0.0626086,0.011601057,-0.061749555,0.99606305,-0.0636032,-0.015537491,0.06275777,0.9979078
ecmac_T_ecmrep_psm3,,,,,0.047327206,-0.4153428,-0.56493527,0.997773,0.014750276,0.065049894,-0.025394045,0.985803,0.16597453,-0.061678212,-0.16725679,0.9839822
""
0,15:01:35.670925,15:00:19.668293,0,,0.11814201,0.006237477,0.015295967,-0.89632225,-0.43207225,0.09959906,0.041488893,0.14191371,0.9890092,-0.44145787,0.8906031,-0.10927406,,0.06465853,-0.014660668,0.01861471,-0.7094852,-0.2181746,0.67009723,-0.07629895,0.9690616,0.23472959,-0.7005776,0.11540958,-0.70418143,,0.09965286,1.2986166,0.43120992,0.9826922,0.006483612,-0.18513261,-0.105296366,-0.8026889,-0.58702916,-0.15240996,0.5963627,-0.78811336,,-0.1165848,0.24790734,-0.099894404,0.9558107,0.28991055,0.048761647,-0.23590916,0.65740186,0.71566033,0.17542148,-0.6955391,0.6967443,,-0.091507964,0.38252273,-0.37007144,0.80486447,0.26268983,-0.53215337,-0.5297524,0.7222053,-0.44472682,0.26749876,0.6398544,0.72043794,,1.1154947045516108,0.5256787040155881,0.22874203711000002,0.7439799194830924,0.2686273585388559,0.7322646877499639,-0.408850197534101,,-1.4351695091472603,0.09721376142073813,0.19449794418000002,1.5619803890162218,0.09441582133791936,-0.3247213903005524,0.4000296179628499,,-0.11663162726452107,-0.13000303099636262,0.09163300952,-0.11611542257629885,,5.5991113e-05,4.1127205e-06,-2.2172928e-05,1.0,-5.1908195e-05,-3.927946e-05,5.1915646e-05,1.0,-1.001358e-05,3.927201e-05,1.0043383e-05,0.99999994,33,0.099,0,0,0.0,False,-0.25630337251240265,0.5805211169870672
0.1275803749449551,15:01:35.695278,15:00:19.668293,0,,0.118224904,0.0062380135,0.015482798,-0.89509004,-0.4343009,0.10097778,0.04378128,0.13976637,0.9892161,-0.4437307,0.88985837,-0.106089145,,0.06453924,-0.014664512,0.018524528,-0.7113568,-0.21580279,0.6688799,-0.0753731,0.9696294,0.2326749,-0.6987776,0.1150994,-0.7060183,,0.09965286,1.2986166,0.43120992,0.9826922,0.006483612,-0.18513261,-0.105296366,-0.8026889,-0.58702916,-0.15240996,0.5963627,-0.78811336,,-0.11669732,0.24802189,-0.10002089,0.9552868,0.29193708,0.046902664,-0.2354865,0.65525025,0.71776956,0.17881057,-0.6967208,0.69469917,,-0.0913764,0.38246056,-0.3700367,0.80648524,0.26044175,-0.53080285,-0.52763265,0.7221392,-0.44734642,0.26680586,0.6408472,0.71981215,,1.1154869818187367,0.5262810771797777,0.22861629698000002,0.7439799194830924,0.2716333615336956,0.7341424670960925,-0.4070534128066239,,-1.4344204040584605,0.09730643421522882,0.19449794418000002,1.564077288451067,0.09345936583956126,-0.32655518465917555,0.4062366924759525,,-0.11663162726452107,-0.13000303099636262,0.09163300952,-0.11611542257629885,,5.5991113e-05,4.1127205e-06,-2.2172928e-05,1.0,-5.1908195e-05,-3.927946e-05,5.1915646e-05,1.0,-1.001358e-05,3.927201e-05,1.0043383e-05,0.99999994,44,0.132,0,0,0.0,False,-0.2566608388235285,0.5801348753808315
0.15193125093355775,15:01:35.721081,15:00:19.668293,0,,0.118306264,0.006225124,0.015678927,-0.8940375,-0.43634838,0.10147421,0.04572077,0.13645488,0.98959064,-0.4456529,0.88937056,-0.10204542,,0.06446152,-0.014664721,0.018468142,-0.7118261,-0.21582215,0.6683743,-0.075488135,0.9696147,0.23269883,-0.6982871,0.11518687,-0.7064891,,0.09965286,1.2986166,0.43120992,0.9826922,0.006483612,-0.18513261,-0.105296366,-0.8026889,-0.58702916,-0.15240996,0.5963627,-0.78811336,,-0.11681165,0.2481315,-0.100162886,0.95483357,0.29359296,0.04578219,-0.23512845,0.6523343,0.7205377,0.1816795,-0.6987583,0.6919027,,-0.09129091,0.38242337,-0.37001377,0.8068617,0.2604459,-0.53022844,-0.5272919,0.7221985,-0.4476523,0.26634097,0.6407786,0.7200453,,1.1154483681543654,0.5268834503439672,0.22847370508000003,0.7439799194830924,0.2740928185294736,0.7372010267182716,-0.4080334772034294,,-1.4339184264216358,0.09737593881109684,0.19449794418000002,1.5642869783945517,0.09332272933979582,-0.3265254454956196,0.40672672467435533,,-0.11663162726452107,-0.13000303099636262,0.09163300952,-0.11611542257629885,,5.5991113e-05,4.1127205e-06,-2.2172928e-05,1.0,-5.1908195e-05,-3.927946e-05,5.1915646e-05,1.0,-1.001358e-05,3.927201e-05,1.0043383e-05,0.99999994,52,0.156,0,0,0.0,False,-0.25695872741613357,0.5795555129714778
0.17773639899678528,15:01:35.749213,15:00:19.818439,0,,0.11844532,0.0062099993,0.015968204,-0.89326274,-0.4371815,0.10466151,0.049605608,0.13553822,0.9895295,-0.4467896,0.88910156,-0.09938452,,0.06435341,-0.014668386,0.018388212,-0.71266556,-0.21455559,0.6678873,-0.07411255,0.96977925,0.23245543,-0.69757783,0.1161643,-0.7070295,,0.09965286,1.2986166,0.43120992,0.9826922,0.006483612,-0.18513261,-0.105296366,-0.8026889,-0.58702916,-0.15240996,0.5963627,-0.78811336,,-0.11699839,0.24829623,-0.10036599,0.95476997,0.2943342,0.042210005,-0.23275039,0.65144557,0.7221121,0.18504478,-0.6992754,0.6904871,,-0.09117198,0.3823683,-0.36998352,0.80766976,0.2590544,-0.52967954,-0.5258058,0.7229524,-0.44818312,0.26682928,0.6404925,0.72011906,,1.1153093589626295,0.5278719601518679,0.22826629868000003,0.7460768189179376,0.27682554852478236,0.7381581395098251,-0.4081968212695638,,-1.4331770440657103,0.09746088887271331,0.19449794418000002,1.5659644979424279,0.09386927533885758,-0.3266444021498431,0.40607334840981824,,-0.11663162726452107,-0.13000303099636262,0.09163300952,-0.11611542257629885,,5.5991113e-05,4.1127205e-06,-2.2172928e-05,1.0,-5.1908195e-05,-3.927946e-05,5.1915646e-05,1.0,-1.001358e-05,3.927201e-05,1.0043383e-05,0.99999994,60,0.181,0,0,0.0,False,-0.2568991496976123,0.5798451941761549
0.2058526650071144,15:01:35.773758,15:00:19.818439,0,,0.118504524,0.0062034503,0.016028747,-0.89353794,-0.4362801,0.10606392,0.051242,0.13559413,0.9894385,-0.44605392,0.88953567,-0.09880257,,0.06428478,-0.014671411,0.018336713,-0.7130433,-0.21424319,0.6675843,-0.07389079,0.9698291,0.2323181,-0.6972153,0.11632469,-0.70736074,,0.09965286,1.2986166,0.43120992,0.9826922,0.006483612,-0.18513261,-0.105296366,-0.8026889,-0.58702916,-0.15240996,0.5963627,-0.78811336,,-0.11706732,0.24832799,-0.10040409,0.95512563,0.29338726,0.040729538,-0.23100534,0.6517541,0.72239405,0.18539555,-0.6993858,0.6902811,,-0.091096416,0.38233232,-0.36996442,0.8079993,0.25872466,-0.52933794,-0.52535635,0.7230823,-0.44850048,0.26671678,0.64047915,0.72017264,,1.1151394588393966,0.5281654240010885,0.22822352111000002,0.7479640284092984,0.2769621850245478,0.7384551153068315,-0.40705341280662377,,-1.4327136800932567,0.09750722526995866,0.19449794418000002,1.566383877829397,0.09400591183862303,-0.3267558200535395,0.40607334840981824,,-0.11663162726452107,-0.13000303099636262,0.09163300952,-0.11611542257629885,,5.5991113e-05,4.1127205e-06,-2.2172928e-05,1.0,-5.1908195e-05,-3.927946e-05,5.1915646e-05,1.0,-1.001358e-05,3.927201e-05,1.0043383e-05,0.99999994,68,0.205,0,0,0.0,False,-0.25695872741613357,0.5801831555816106
0.2304116350132972,15:01:35.795130,15:00:19.818439,0,,0.118552536,0.0061905608,0.01603055,-0.8936278,-0.43609107,0.10608409,0.05164434,0.13488224,0.9895148,-0.44582742,0.8897366,-0.098012835,,0.0641979,-0.01467545,0.018271327,-0.7133063,-0.21452183,0.6672137,-0.074321225,0.96978855,0.23234984,-0.69690037,0.11614853,-0.7076999,,0.09965286,1.2986166,0.43120992,0.9826922,0.006483612,-0.18513261,-0.105296366,-0.8026889,-0.58702916,-0.15240996,0.5963627,-0.78811336,,-0.117116205,0.24831882,-0.100402996,0.9552271,0.2930767,0.040586147,-0.23054834,0.65131336,0.7229373,0.18544178,-0.6999264,0.6897206,,-0.09100073,0.38228646,-0.36994022,0.808179,0.2590243,-0.52891684,-0.5253673,0.7229436,-0.44871116,0.26614997,0.6405146,0.7203508,,1.1149000541202956,0.5282580967955791,0.22821963224000003,0.748593098239752,0.27682554852478236,0.7393833206119336,-0.4075434450050267,,-1.4321344751276899,0.09756128440007823,0.19449794418000002,1.5661741878859123,0.09400591183862303,-0.3267558200535395,0.40607334840981824,,-0.11663162726452107,-0.13000303099636262,0.09163300952,-0.11611542257629885,,5.5991113e-05,4.1127205e-06,-2.2172928e-05,1.0,-5.1908195e-05,-3.927946e-05,5.1915646e-05,1.0,-1.001358e-05,3.927201e-05,1.0043383e-05,0.99999994,75,0.227,0,0,0.0,False,-0.2571374605716965,0.5801348753808315
0.2517834189347923,15:01:35.821029,15:00:19.818439,0,,0.11859751,0.006162986,0.015997782,-0.8939753,-0.4352793,0.10648903,0.052731924,0.13380134,0.98960423,-0.44500262,0.8902971,-0.096661896,,0.06415509,-0.014680978,0.018236756,-0.7134256,-0.21426466,0.6671689,-0.074137196,0.9698405,0.2321918,-0.696798,0.11618963,-0.70779395,,0.09965286,1.2986166,0.43120992,0.9826922,0.006483612,-0.18513261,-0.105296366,-0.8026889,-0.58702916,-0.15240996,0.5963627,-0.78811336,,-0.11715817,0.2482769,-0.10038458,0.95556754,0.29204932,0.039973587,-0.22918299,0.6507997,0.7238335,0.18538028,-0.7008331,0.6888158,,-0.09095345,0.3822598,-0.36992958,0.80829275,0.258768,-0.5288686,-0.52516216,0.72298765,-0.4488803,0.2662096,0.6405685,0.7202808,,1.1145988675382008,0.528219483131208,0.22823259514000002,0.7502706177876282,0.2766889120250169,0.7410466345783007,-0.40721675687275816,,-1.431825565812721,0.09756900713295245,0.19449794418000002,1.566383877829397,0.09427918483815391,-0.32689697712079174,0.4059100043436839,,-0.11663162726452107,-0.13000303099636262,0.09163300952,-0.11611542257629885,,5.5991113e-05,4.1127205e-06,-2.2172928e-05,1.0,-5.1908195e-05,-3.927946e-05,5.1915646e-05,1.0,-1.001358e-05,3.927201e-05,1.0043383e-05,0.99999994,83,0.25,0,0,0.0,False,-0.25731619372725945,0.5806659575894053
0.2776518079917878,15:01:35.844291,15:00:19.818439,0,,0.11867751,0.0061108544,0.015890405,-0.89443666,-0.4343542,0.10639265,0.053810462,0.1316464,0.98983514,-0.44394523,0.8910699,-0.094376445,,0.06412283,-0.014685329,0.018210292,-0.71390843,-0.2136333,0.66685474,-0.073531836,0.96993095,0.23200637,-0.6963674,0.11659643,-0.70815074,,0.09965286,1.2986166,0.43120992,0.9826922,0.006483612,-0.18513261,-0.105296366,-0.8026889,-0.58702916,-0.15240996,0.5963627,-0.78811336,,-0.11722491,0.2481699,-0.10031573,0.9559787,0.29073665,0.039711125,-0.22768243,0.6495657,0.72541374,0.18510938,-0.7025216,0.6871666,,-0.09091778,0.38223934,-0.36992148,0.8087413,0.25808775,-0.5285151,-0.52440816,0.7233071,-0.44924706,0.26633355,0.6404823,0.72031164,,1.1139733261753886,0.5280109693436039,0.22829092819000002,0.7523675172224734,0.2762790025257206,0.744157965454169,-0.40721675687275816,,-1.4316016065593684,0.09757672986582668,0.19449794418000002,1.567222637603335,0.09427918483815391,-0.32697865586093233,0.40607334840981824,,-0.11663162726452107,-0.13000303099636262,0.09163300952,-0.11611542257629885,,5.5991113e-05,4.1127205e-06,-2.2172928e-05,1.0,-5.1908195e-05,-3.927946e-05,5.1915646e-05,1.0,-1.001358e-05,3.927201e-05,1.0043383e-05,0.99999994,91,0.275,0,0,0.0,False,-0.25820985950507547,0.5809073585933029
0.3009141469374299,15:01:35.870286,15:00:19.818439,0,,0.11879668,0.0060802326,0.015688062,-0.8932011,-0.43646455,0.10812254,0.054961823,0.13267928,0.9896339,-0.44628572,0.8898847,-0.09452027,,0.06411892,-0.014684614,0.018208027,-0.71392274,-0.21364161,0.6668369,-0.07354155,0.96992886,0.23201206,-0.6963518,0.11659858,-0.70816576,,0.09965286,1.2986166,0.43120992,0.9826922,0.006483612,-0.18513261,-0.105296366,-0.8026889,-0.58702916,-0.15240996,0.5963627,-0.78811336,,-0.117311075,0.2480218,-0.10015227,0.95531565,0.29313236,0.03801917,-0.22820401,0.6496612,0.7251643,0.18786955,-0.70143694,0.68752545,,-0.09091353,0.38223836,-0.36992013,0.8087522,0.25809544,-0.5284948,-0.52440125,0.7233081,-0.44925353,0.2663142,0.6404781,0.72032255,,1.1131701619564693,0.5276016645012701,0.22844777928,0.7521578272789889,0.2788750960212639,0.7438379575670295,-0.40721675687275816,,-1.4315784383607457,0.09758445259870091,0.19449794418000002,1.567222637603335,0.09427918483815391,-0.3269786558609324,0.4064000365420868,,-0.11663162726452107,-0.13000303099636262,0.09163300952,-0.11611542257629885,,5.5991113e-05,4.1127205e-06,-2.2172928e-05,1.0,-5.1908195e-05,-3.927946e-05,5.1915646e-05,1.0,-1.001358e-05,3.927201e-05,1.0043383e-05,0.99999994,99,0.299,0,0,0.0,False,-0.25785239319394915,0.581052199195641
0.3268832459580153,15:01:35.893232,15:00:19.967722,0,,0.11887953,0.006075844,0.015476987,-0.8926895,-0.43709975,0.1097689,0.05573059,0.13463116,0.9893274,-0.447213,0.88927954,-0.095823854,,0.064127095,-0.014683466,0.018215239,-0.71366864,-0.213155,0.6672643,-0.073306546,0.97007334,0.23148155,-0.6966369,0.11628649,-0.70793664,,0.09965286,1.2986166,0.43120992,0.9826922,0.006483612,-0.18513261,-0.105296366,-0.8026889,-0.58702916,-0.15240996,0.5963627,-0.78811336,,-0.11735691,0.24788915,-0.09997409,0.95507175,0.2941072,0.03659136,-0.2281633,0.6508365,0.72412246,0.18915462,-0.6999377,0.6887001,,-0.09092264,0.38224396,-0.36992246,0.8085633,0.2576756,-0.52898836,-0.52449095,0.7231216,-0.44944906,0.26671085,0.6408576,0.7198381,,1.112544620593657,0.5272000823918104,0.22862018585000002,0.7525772071659579,0.2801048245191529,0.74259016021334,-0.4080334772034294,,-1.431617052025117,0.09758445259870091,0.19449794418000002,1.567222637603335,0.09468909433745022,-0.3275579457924433,0.4068900687404896,,-0.11663162726452107,-0.13000303099636262,0.09163300952,-0.11611542257629885,,5.5991113e-05,4.1127205e-06,-2.2172928e-05,1.0,-5.1908195e-05,-3.927946e-05,5.1915646e-05,1.0,-1.001358e-05,3.927201e-05,1.0043383e-05,0.99999994,110,0.332,0,0,0.0,False,-0.25761408231986493,0.5848180548564392
0.349872516002506,15:01:35.920520,15:00:19.967722,0,,0.11895135,0.0060825795,0.015235677,-0.89193934,-0.43898988,0.108314164,0.053504974,0.13539496,0.9893459,-0.44897804,0.8882319,-0.09727579,,0.06414507,-0.014683526,0.01822877,-0.7133044,-0.21194422,0.668039,-0.07297604,0.9704578,0.22996977,-0.6970445,0.11528772,-0.7076987,,0.09965286,1.2986166,0.43120992,0.9826922,0.006483612,-0.18513261,-0.105296366,-0.8026889,-0.58702916,-0.15240996,0.5963627,-0.78811336,,-0.11738541,0.24774686,-0.099768244,0.95435005,0.29622978,0.038260695,-0.23100463,0.65080285,0.72325134,0.18934843,-0.6990734,0.6895242,,-0.09094249,0.38225284,-0.36992812,0.8082918,0.25666788,-0.5298924,-0.52462274,0.7225028,-0.45028955,0.2672739,0.64195895,0.71864694,,1.111888188299348,0.5267367184193569,0.22881851822000002,0.7500609278441436,0.2801048245191529,0.7418550515520749,-0.4088501975341009,,-1.4317097248196076,0.09756900713295245,0.19449794418000002,1.567222637603335,0.09523564033651198,-0.32914711976919686,0.40787013313729525,,-0.11663162726452107,-0.13000303099636262,0.09163300952,-0.11611542257629885,,5.5991113e-05,4.1127205e-06,-2.2172928e-05,1.0,-5.1908195e-05,-3.927946e-05,5.1915646e-05,1.0,-1.001358e-05,3.927201e-05,1.0043383e-05,0.99999994,117,0.353,0,0,0.0,False,-0.2579715486309908,0.5878597075055447
0.37717383494600654,15:01:35.941173,15:00:19.967722,0,,0.11906831,0.006122574,0.014844641,-0.8907381,-0.44186497,0.1064935,0.049784698,0.13804108,0.9891744,-0.45178202,0.8863971,-0.100960195,,0.06415054,-0.014681067,0.018234015,-0.71341157,-0.21159261,0.6680361,-0.07334177,0.9706328,0.22911307,-0.69689643,0.11445719,-0.7079793,,0.09965286,1.2986166,0.43120992,0.9826922,0.006483612,-0.18513261,-0.105296366,-0.8026889,-0.58702916,-0.15240996,0.5963627,-0.78811336,,-0.11742843,0.24753925,-0.09941718,0.9531704,0.29969072,0.04064055,-0.23566447,0.6517787,0.7208653,0.189548,-0.696685,0.6918826,,-0.09094855,0.38225806,-0.3699287,0.8083489,0.2564654,-0.52990335,-0.52473307,0.7219485,-0.45104942,0.26688433,0.6426631,0.7181621,,1.110891955758573,0.5260725633921736,0.22915814620000002,0.7458671289744532,0.2799681880193875,0.7391077135508517,-0.40803347720342953,,-1.4317715066826013,0.09757672986582668,0.19449794418000002,1.5670129476598507,0.09482573083721568,-0.330038047160216,0.4126071110551894,,-0.11663162726452107,-0.13000303099636262,0.09163300952,-0.11611542257629885,,5.5991113e-05,4.1127205e-06,-2.2172928e-05,1.0,-5.1908195e-05,-3.927946e-05,5.1915646e-05,1.0,-1.001358e-05,3.927201e-05,1.0043383e-05,0.99999994,128,0.385,0,0,0.0,False,-0.25683957197909146,0.5882459491117804
0.3978046060074121,15:01:35.973999,15:00:19.967722,0,,0.11916174,0.006138079,0.014415592,-0.891138,-0.44142267,0.10497124,0.04738635,0.13954279,0.9890815,-0.45125103,0.88638234,-0.103434324,,0.06414847,-0.0146805905,0.018232584,-0.7139135,-0.21070169,0.6677814,-0.07278155,0.9708177,0.22850761,-0.6964411,0.11453262,-0.70841503,,0.09965286,1.2986166,0.43120992,0.9826922,0.006483612,-0.18513261,-0.105296366,-0.8026889,-0.58702916,-0.15240996,0.5963627,-0.78811336,,-0.11744517,0.24728906,-0.099056385,0.9531619,0.2994548,0.04253432,-0.2372371,0.6529574,0.7192811,0.18761908,-0.69568205,0.6934159,,-0.09094625,0.38225737,-0.36992773,0.80880916,0.2555885,-0.52962464,-0.52398723,0.722053,-0.45174864,0.26695532,0.642895,0.7179282,,1.1098648322863012,0.5252693991732542,0.22950425563000001,0.7452380591439995,0.2779186405229059,0.7384102986422216,-0.40787013313729525,,-1.4317715066826013,0.09758445259870091,0.19449794418000002,1.5678517074337885,0.09455245783768479,-0.33055032001408824,0.4140772076503979,,-0.11663162726452107,-0.13000303099636262,0.09163300952,-0.11611542257629885,,5.5991113e-05,4.1127205e-06,-2.2172928e-05,1.0,-5.1908195e-05,-3.927946e-05,5.1915646e-05,1.0,-1.001358e-05,3.927201e-05,1.0043383e-05,0.99999994,139,0.418,0,0,0.0,False,-0.25731619372725945,0.5875700263008681
0.4306216361001134,15:01:36.007265,15:00:19.967722,0,,0.11923413,0.0061469898,0.013968885,-0.89190793,-0.44044074,0.1025289,0.043607287,0.14190152,0.98891973,-0.45010954,0.8864963,-0.10735652,,0.064146265,-0.014680978,0.018230736,-0.71392274,-0.21075869,0.6677536,-0.07278845,0.97079885,0.22858572,-0.6964308,0.11458793,-0.7084162,,0.09965286,1.2986166,0.43120992,0.9826922,0.006483612,-0.18513261,-0.105296366,-0.8026889,-0.58702916,-0.15240996,0.5963627,-0.78811336,,-0.117439225,0.2470229,-0.098690346,0.9532336,0.29878038,0.045563087,-0.23952855,0.6548922,0.71675813,0.18431437,-0.6941516,0.6958317,,-0.090943806,0.3822559,-0.3699272,0.8088162,0.2556346,-0.5295917,-0.52398306,0.722088,-0.45169762,0.26694223,0.6428374,0.7179846,,1.1088454315469036,0.5243890076255927,0.22985425393000003,0.7439799194830924,0.27450272802876985,0.7367034155269013,-0.4077067890711611,,-1.431756061216853,0.09758445259870091,0.19449794418000002,1.5678517074337885,0.09455245783768479,-0.3304686412739477,0.4135871754519951,,-0.11663162726452107,-0.13000303099636262,0.09163300952,-0.11611542257629885,,5.5991113e-05,4.1127205e-06,-2.2172928e-05,1.0,-5.1908195e-05,-3.927946e-05,5.1915646e-05,1.0,-1.001358e-05,3.927201e-05,1.0043383e-05,0.99999994,150,0.451,0,0,0.0,False,-0.25719703829021734,0.5873286252969709
0.46387791191227734,15:01:36.040530,15:00:20.120460,0,,0.119319275,0.006137818,0.013621643,-0.8921771,-0.4399519,0.10228486,0.042526394,0.14362884,0.98871744,-0.44967917,0.8864609,-0.10943264,,0.06414355,-0.014682692,0.018227458,-0.7139364,-0.21064872,0.66777366,-0.072799444,0.9708375,0.22841793,-0.6964157,0.114462465,-0.7084514,,0.09965286,1.2986166,0.43120992,0.9826922,0.006483612,-0.18513261,-0.105296366,-0.8026889,-0.58702916,-0.15240996,0.5963627,-0.78811336,,-0.11746489,0.24680321,-0.098409295,0.95328444,0.2985316,0.046126474,-0.24012035,0.65623677,0.715329,0.18327841,-0.6929879,0.6972638,,-0.09094074,0.38225254,-0.36992693,0.80882645,0.25554883,-0.52961737,-0.52397734,0.72200745,-0.45183292,0.2669223,0.6429619,0.71788055,,1.1079495945334934,0.5236939616669124,0.23012388225000002,0.7441896094265769,0.27340963603064633,0.7358795052135209,-0.4075434450050268,,-1.4317328930182303,0.09757672986582668,0.19449794418000002,1.5678517074337885,0.09455245783768479,-0.33063199875422883,0.41326048731972653,,-0.11663162726452107,-0.13000303099636262,0.09163300952,-0.11611542257629885,,5.5991113e-05,4.1127205e-06,-2.2172928e-05,1.0,-5.1908195e-05,-3.927946e-05,5.1915646e-05,1.0,-1.001358e-05,3.927201e-05,1.0043383e-05,0.99999994,161,0.484,0,0,0.0,False,-0.25719703829021734,0.5876183065016476
0.4971581660211086,15:01:36.075109,15:00:20.120460,0,,0.11935505,0.006115325,0.013428256,-0.8922522,-0.43970758,0.10268035,0.042159043,0.14528337,0.9884914,-0.4495649,0.8863125,-0.111091614,,0.06414607,-0.01468296,0.018229067,-0.7142742,-0.21002935,0.6676074,-0.07208769,0.97091293,0.2283226,-0.69614327,0.11495885,-0.70863867,,0.09965286,1.2986166,0.43120992,0.9826922,0.006483612,-0.18513261,-0.105296366,-0.8026889,-0.58702916,-0.15240996,0.5963627,-0.78811336,,-0.117470056,0.24666713,-0.09826565,0.95329106,0.2985314,0.04599137,-0.24034108,0.6574549,0.7141353,0.18295456,-0.69183236,0.6984952,,-0.090943485,0.38225338,-0.36992773,0.8091645,0.25486514,-0.5294304,-0.52328867,0.72238714,-0.4520241,0.2672485,0.64280677,0.7178981,,1.1074707850952916,0.5232228749615847,0.23026258528000002,0.7443992993700614,0.2731363630311155,0.7347954811786647,-0.40787013313729525,,-1.4317483384839786,0.09757672986582668,0.19449794418000002,1.5686904672077266,0.09455245783768479,-0.33063199875422883,0.41326048731972653,,-0.11663162726452107,-0.13000303099636262,0.09163300952,-0.11611542257629885,,5.5991113e-05,4.1127205e-06,-2.2172928e-05,1.0,-5.1908195e-05,-3.927946e-05,5.1915646e-05,1.0,-1.001358e-05,3.927201e-05,1.0043383e-05,0.99999994,172,0.516,0,0,0.0,False,-0.25695872741613357,0.5888735917219132
0.5317616879474372,15:01:36.103505,15:00:20.120460,0,,0.11934993,0.0061295405,0.013396904,-0.8922703,-0.43962502,0.10287587,0.042128146,0.14579383,0.9884176,-0.44953173,0.8862696,-0.11156687,,0.06414887,-0.014683869,0.018230438,-0.71426463,-0.21013132,0.6675856,-0.07208139,0.97087765,0.22847494,-0.69615376,0.11507121,-0.7086102,,0.09965286,1.2986166,0.43120992,0.9826922,0.006483612,-0.18513261,-0.105296366,-0.8026889,-0.58702916,-0.15240996,0.5963627,-0.78811336,,-0.117457904,0.24665922,-0.09823398,0.95329916,0.29852387,0.045871157,-0.24034522,0.65783256,0.713786,0.18290661,-0.6914765,0.69886005,,-0.09094652,0.38225362,-0.36992884,0.8091572,0.25494528,-0.52940303,-0.52329344,0.7224591,-0.4519036,0.26726133,0.6426942,0.71799415,,1.10748623056104,0.5231688158314652,0.23029499253000002,0.7443992993700614,0.2731363630311155,0.7343054087378214,-0.40721675687275827,,-1.4317637839497273,0.09756900713295245,0.19449794418000002,1.5686904672077266,0.09455245783768479,-0.33046864127394765,0.4139138635842636,,-0.11663162726452107,-0.13000303099636262,0.09163300952,-0.11611542257629885,,5.5991113e-05,4.1127205e-06,-2.2172928e-05,1.0,-5.1908195e-05,-3.927946e-05,5.1915646e-05,1.0,-1.001358e-05,3.927201e-05,1.0043383e-05,0.99999994,183,0.549,0,0,0.0,False,-0.25737577144578117,0.590708239351533
0.5601551190484315,15:01:36.137882,15:00:20.120460,0,,0.11928795,0.006209895,0.013387606,-0.8924276,-0.44012797,0.09929833,0.039231695,0.14355183,0.9888649,-0.4494815,0.8863859,-0.110842556,,0.064149365,-0.014682468,0.018231869,-0.71426034,-0.2099711,0.6676406,-0.072077334,0.970932,0.22824505,-0.69615865,0.11490473,-0.70863235,,0.09965286,1.2986166,0.43120992,0.9826922,0.006483612,-0.18513261,-0.105296366,-0.8026889,-0.58702916,-0.15240996,0.5963627,-0.78811336,,-0.11738542,0.2467172,-0.098191954,0.9530707,0.29870635,0.04930209,-0.24260628,0.65613025,0.7145875,0.18110324,-0.6930134,0.6978066,,-0.090947144,0.38225555,-0.36992857,0.809154,0.25481763,-0.5294694,-0.523295,0.7223531,-0.45207122,0.26726815,0.64286387,0.71783966,,1.107864644471877,0.5232537658930817,0.23034036268000002,0.7418830200482471,0.2713600885341647,0.7356721627457342,-0.40738010093889254,,-1.4317715066826013,0.09757672986582668,0.19449794418000002,1.5686904672077266,0.09455245783768479,-0.33071367749436936,0.4157106483117407,,-0.11663162726452107,-0.13000303099636262,0.09163300952,-0.11611542257629885,,5.5991113e-05,4.1127205e-06,-2.2172928e-05,1.0,-5.1908195e-05,-3.927946e-05,5.1915646e-05,1.0,-1.001358e-05,3.927201e-05,1.0043383e-05,0.99999994,194,0.582,0,0,0.0,False,-0.2570778828531757,0.5906599591507535
0.5945311069954187,15:01:36.171576,15:00:20.120460,0,,0.11922735,0.006284684,0.013345465,-0.8932629,-0.43878752,0.09770766,0.038304687,0.14226755,0.98908675,-0.44789958,0.88725716,-0.11027458,,0.06414731,-0.014683094,0.018229842,-0.71444297,-0.20955601,0.6675756,-0.07173172,0.97100645,0.22803706,-0.6960069,0.11503324,-0.70876056,,0.09965286,1.2986166,0.43120992,0.9826922,0.006483612,-0.18513261,-0.105296366,-0.8026889,-0.58702916,-0.15240996,0.5963627,-0.78811336,,-0.11730943,0.24675068,-0.09812757,0.9534998,0.29708362,0.05078895,-0.24237148,0.6556449,0.71511245,0.17914867,-0.69416934,0.69716185,,-0.09094485,0.38225383,-0.36992815,0.8093333,0.2543935,-0.5293992,-0.52294415,0.722466,-0.4522967,0.2674116,0.642905,0.71774936,,1.108204444718343,0.5232614886259559,0.23040776976000002,0.7420927099917317,0.269583814037214,0.7367938805332255,-0.4083601653356982,,-1.431756061216853,0.09757672986582668,0.19449794418000002,1.5691098470946958,0.09455245783768479,-0.3308770349746505,0.41636402457627786,,-0.11663162726452107,-0.13000303099636262,0.09163300952,-0.11611542257629885,,5.5991113e-05,4.1127205e-06,-2.2172928e-05,1.0,-5.1908195e-05,-3.927946e-05,5.1915646e-05,1.0,-1.001358e-05,3.927201e-05,1.0043383e-05,0.99999994,205,0.615,0,0,0.0,False,-0.2580907040680329,0.5897426353359436
0.6282320849131793,15:01:36.204965,15:00:20.120460,0,,0.11916271,0.0063376576,0.013179764,-0.8960407,-0.43388367,0.094106734,0.035887234,0.14048877,0.9894316,-0.44251913,0.8899481,-0.11031261,,0.06414632,-0.01468588,0.0182271,-0.7144516,-0.20949468,0.6675856,-0.07173988,0.9710283,0.22794169,-0.6959971,0.11496094,-0.7087819,,0.09965286,1.2986166,0.43120992,0.9826922,0.006483612,-0.18513261,-0.105296366,-0.8026889,-0.58702916,-0.15240996,0.5963627,-0.78811336,,-0.11721142,0.24669138,-0.09798158,0.9549923,0.2916074,0.054358423,-0.24099103,0.6558762,0.71536684,0.17295386,-0.6962697,0.6966315,,-0.090943605,0.38224995,-0.3699287,0.80933976,0.25434604,-0.52941215,-0.5229412,0.72241944,-0.45237452,0.26739794,0.6429761,0.7176908,,1.1082276129169657,0.5230143611739807,0.23054647279,0.7441896094265769,0.26357180804753466,0.7390825486113699,-0.4086868534679666,,-1.4317406157511046,0.09756128440007823,0.19449794418000002,1.5691098470946958,0.09455245783768479,-0.330958713714791,0.415873992377875,,-0.11663162726452107,-0.13000303099636262,0.09163300952,-0.11611542257629885,,5.5991113e-05,4.1127205e-06,-2.2172928e-05,1.0,-5.1908195e-05,-3.927946e-05,5.1915646e-05,1.0,-1.001358e-05,3.927201e-05,1.0043383e-05,0.99999994,216,0.649,0,0,0.0,False,-0.2575545046013441,0.5893081135289284
0.6615937270689756,15:01:36.238655,15:00:20.120460,0,,0.11911166,0.006366834,0.012929991,-0.8991654,-0.42818186,0.0903427,0.032530554,0.14047363,0.9895499,-0.43639803,0.8927078,-0.11237997,,0.06414646,-0.014686208,0.018226922,-0.7146249,-0.2091316,0.66751397,-0.07138738,0.9710842,0.2278142,-0.69585556,0.11514971,-0.70889026,,0.09965286,1.2986166,0.43120992,0.9826922,0.006483612,-0.18513261,-0.105296366,-0.8026889,-0.58702916,-0.15240996,0.5963627,-0.78811336,,-0.11711554,0.24656181,-0.09778191,0.9565775,0.2855675,0.058401134,-0.23990045,0.65754414,0.71420133,0.16555135,-0.69719934,0.6974997,,-0.09094375,0.38224965,-0.36992884,0.80951196,0.25396225,-0.5293331,-0.5225945,0.72257096,-0.45253307,0.26755443,0.6429575,0.7176491,,1.1079804854649904,0.5225509972015272,0.23073443484000003,0.7462865088614222,0.2563300735599663,0.739841936878425,-0.408850197534101,,-1.4317406157511046,0.09756128440007823,0.19449794418000002,1.569529226981665,0.09455245783768479,-0.3310403924549316,0.4157106483117407,,-0.11663162726452107,-0.13000303099636262,0.09163300952,-0.11611542257629885,,5.5991113e-05,4.1127205e-06,-2.2172928e-05,1.0,-5.1908195e-05,-3.927946e-05,5.1915646e-05,1.0,-1.001358e-05,3.927201e-05,1.0043383e-05,0.99999994,227,0.681,0,0,0.0,False,-0.25761408231986493,0.5897909155367231
0.6952970789279789,15:01:36.270839,15:00:20.334574,0,,0.119050264,0.006359279,0.01263538,-0.903395,-0.4199568,0.08668174,0.029174611,0.14148203,0.98951083,-0.42781568,0.896448,-0.11556199,,0.06414807,-0.014684629,0.018229246,-0.71461594,-0.20924279,0.6674888,-0.071379855,0.9710455,0.22798145,-0.6958655,0.11527398,-0.7088603,,0.09965286,1.2986166,0.43120992,0.9826922,0.006483612,-0.18513261,-0.105296366,-0.8026889,-0.58702916,-0.15240996,0.5963627,-0.78811336,,-0.117006704,0.24637578,-0.09757174,0.9588262,0.27702832,0.06251133,-0.237303,0.66061807,0.71222967,0.15601169,-0.6977386,0.69915754,,-0.090945594,0.3822523,-0.36992884,0.8095052,0.2540494,-0.52930164,-0.5225981,0.72265065,-0.45240164,0.26756778,0.64283353,0.7177552,,1.1075789033555308,0.5219177331058408,0.23092887834000003,0.7502706177876282,0.24703879157591632,0.7401489464572715,-0.4080334772034294,,-1.431756061216853,0.09756900713295245,0.19449794418000002,1.569529226981665,0.09455245783768479,-0.3308770349746505,0.41538396017947216,,-0.11663162726452107,-0.13000303099636262,0.09163300952,-0.11611542257629885,,5.5991113e-05,4.1127205e-06,-2.2172928e-05,1.0,-5.1908195e-05,-3.927946e-05,5.1915646e-05,1.0,-1.001358e-05,3.927201e-05,1.0043383e-05,0.99999994,238,0.714,0,0,0.0,False,-0.25826943722359585,0.5901288769421797
0.7274679099209607,15:01:36.302675,15:00:20.334574,0,,0.119050935,0.006357223,0.012342662,-0.9058403,-0.4143463,0.088150136,0.029939495,0.14494854,0.9889861,-0.42255995,0.8985026,-0.118894786,,0.06414754,-0.014683586,0.018229723,-0.7147027,-0.2089296,0.6674938,-0.07120299,0.9711182,0.2277269,-0.69579446,0.11522958,-0.7089373,,0.09965286,1.2986166,0.43120992,0.9826922,0.006483612,-0.18513261,-0.105296366,-0.8026889,-0.58702916,-0.15240996,0.5963627,-0.78811336,,-0.11695813,0.24619517,-0.09734655,0.96042556,0.27164608,0.061572347,-0.23348106,0.66460997,0.70977473,0.15188594,-0.6960618,0.7017326,,-0.09094507,0.38225335,-0.36992836,0.80959153,0.25375292,-0.5293118,-0.52242416,0.72263783,-0.45262304,0.2676463,0.6429651,0.7176081,,1.1071000939173288,0.5212999144759028,0.23114535877000003,0.7550934864877722,0.243212969582484,0.738286244612197,-0.40721675687275805,,-1.431756061216853,0.09757672986582668,0.19449794418000002,1.5697389169251494,0.09455245783768479,-0.3311220711950722,0.4155473042456064,,-0.11663162726452107,-0.13000303099636262,0.09163300952,-0.11611542257629885,,5.5991113e-05,4.1127205e-06,-2.2172928e-05,1.0,-5.1908195e-05,-3.927946e-05,5.1915646e-05,1.0,-1.001358e-05,3.927201e-05,1.0043383e-05,0.99999994,249,0.747,0,0,0.0,False,-0.25761408231986493,0.5901288769421797
0.7593231899663806,15:01:36.328769,15:00:20.334574,0,,0.11902192,0.006337896,0.0120702535,-0.9081053,-0.4100554,0.08484792,0.028030522,0.14264393,0.989377,-0.41780245,0.90083694,-0.118041515,,0.06414868,-0.014685463,0.018230915,-0.7147843,-0.20871486,0.66747373,-0.0710239,0.9711571,0.2276167,-0.69572896,0.1152904,-0.70899165,,0.09965286,1.2986166,0.43120992,0.9826922,0.006483612,-0.18513261,-0.105296366,-0.8026889,-0.58702916,-0.15240996,0.5963627,-0.78811336,,-0.116886206,0.24601337,-0.097153686,0.9615881,0.26676133,0.064705186,-0.23207979,0.66420794,0.71061015,0.14658561,-0.69833106,0.7006043,,-0.090946525,0.38225305,-0.36993042,0.8096737,0.25353444,-0.5292908,-0.52225345,0.72269213,-0.4527333,0.2677308,0.6429902,0.71755403,,1.1066753436092465,0.5206357594487195,0.23132943195000003,0.757400075866102,0.2381574190911627,0.7416735983876995,-0.4090135416002353,,-1.4317637839497273,0.09756900713295245,0.19449664789,1.5699486068686337,0.09455245783768479,-0.33120374993521273,0.4157106483117407,,-0.11663162726452107,-0.13000303099636262,0.09163300952,-0.11611542257629885,,5.5991113e-05,4.1127205e-06,-2.2172928e-05,1.0,-5.1908195e-05,-3.927946e-05,5.1915646e-05,1.0,-1.001358e-05,3.927201e-05,1.0043383e-05,0.99999994,260,0.78,0,0,0.0,False,-0.2568991496976123,0.5899840363398408
0.7853647149167955,15:01:36.366526,15:00:20.334574,0,,0.11903854,0.006319493,0.0117466,-0.9086284,-0.40890616,0.08479468,0.02733948,0.1443679,0.98914623,-0.41670963,0.90108466,-0.11999747,,0.064104885,-0.014693078,0.018211722,-0.7151523,-0.2080959,0.6672728,-0.0702897,0.9712253,0.22755334,-0.6954252,0.115833044,-0.7092011,,0.09963595,1.2986146,0.43120286,0.98269534,0.006507718,-0.18511498,-0.105266854,-0.8026887,-0.5870347,-0.15240996,0.5963627,-0.78811336,,-0.11683887,0.24580127,-0.096921824,0.9618281,0.26581562,0.06502877,-0.23193564,0.66573155,0.70923007,0.14523274,-0.69723994,0.7019715,,-0.09088797,0.38223916,-0.36994082,0.8100456,0.25281462,-0.5290661,-0.5215062,0.7231057,-0.45293418,0.26806232,0.64280856,0.717593,,1.1063355433627806,0.5198171497640518,0.23157572705,0.7580291456965556,0.2372009635928046,0.7407382701706228,-0.4081968212695638,,-1.4317483384839786,0.09755356166720401,0.19449664789,1.570787366642572,0.09455245783768479,-0.33112207119507214,0.41587399237787503,,-0.11663162726452107,-0.13000303099636262,0.09163300952,-0.11611542257629885,,4.068017e-05,1.4305115e-06,-1.2278557e-05,1.0,-2.823025e-05,-2.1368265e-05,2.8245151e-05,1.0,-5.453825e-06,2.1368265e-05,5.453825e-06,0.99999994,271,0.812,0,0,0.0,False,-0.25695872741613357,0.5899840363398408
0.8231653980910778,15:01:36.403805,15:00:20.469397,0,,0.1189612,0.0063391626,0.01155211,-0.91327953,-0.39882952,0.08279822,0.027714722,0.14195624,0.98948485,-0.40638945,0.90597093,-0.11859214,,0.064104736,-0.014692318,0.018214107,-0.71514803,-0.20809932,0.6672764,-0.07028565,0.9712237,0.22756138,-0.69543016,0.11584023,-0.7091952,,0.09963595,1.2986146,0.43120286,0.98269534,0.006507718,-0.18511498,-0.105266854,-0.8026887,-0.5870347,-0.15240996,0.5963627,-0.78811336,,-0.11672787,0.245698,-0.09677617,0.96467626,0.2548322,0.066785626,-0.22532248,0.6667973,0.7103599,0.13649009,-0.7003156,0.7006629,,-0.09088815,0.38224143,-0.3699417,0.8100424,0.25281674,-0.52907,-0.52150774,0.72311056,-0.45292476,0.26806915,0.64280236,0.71759605,,1.1062583160340382,0.5194773495175858,0.23171183750000002,0.7657876736054829,0.22886613710711273,0.7449210426116064,-0.40787013313729525,,-1.431756061216853,0.09756128440007823,0.19449535160000003,1.570787366642572,0.09455245783768479,-0.33112207119507214,0.41587399237787503,,-0.11663162726452107,-0.13000303099636262,0.09163300952,-0.11611542257629885,,4.068017e-05,1.4305115e-06,-1.2278557e-05,1.0,-2.823025e-05,-2.1368265e-05,2.8245151e-05,1.0,-5.453825e-06,2.1368265e-05,5.453825e-06,0.99999994,282,0.845,0,0,0.0,False,-0.2575545046013441,0.5899357561390612
0.8604617589153349,15:01:36.434991,15:00:20.469397,0,,0.11893599,0.0064241886,0.011337742,-0.9153939,-0.39411697,0.0820116,0.026300758,0.14473829,0.98912024,-0.40169933,0.9075915,-0.12212691,,0.06410908,-0.014691483,0.018217802,-0.71504307,-0.20824875,0.66734225,-0.07044813,0.9712058,0.22758776,-0.6955216,0.11572218,-0.70912474,,0.09963595,1.2986146,0.43120286,0.98269534,0.006507718,-0.18511498,-0.105266854,-0.8026887,-0.5870347,-0.15240996,0.5963627,-0.78811336,,-0.116656035,0.24563424,-0.09656501,0.9657668,0.2503123,0.06810489,-0.22357084,0.6699833,0.70791125,0.13156976,-0.69890344,0.7030102,,-0.090892956,0.38224447,-0.36994272,0.8099424,0.25298145,-0.5291442,-0.52168965,0.72302043,-0.45285916,0.2680171,0.6428389,0.7175827,,1.1061579205066734,0.5192533902642333,0.23191794761000004,0.7680942629838127,0.22408385961532232,0.742694763730439,-0.40738010093889243,,-1.43178695214835,0.09756128440007823,0.19449535160000003,1.5705776766990873,0.09455245783768479,-0.33112207119507214,0.41587399237787503,,-0.11663162726452107,-0.13000303099636262,0.09163300952,-0.11611542257629885,,4.068017e-05,1.4305115e-06,-1.2278557e-05,1.0,-2.823025e-05,-2.1368265e-05,2.8245151e-05,1.0,-5.453825e-06,2.1368265e-05,5.453825e-06,0.99999994,293,0.878,0,0,0.0,False,-0.25719703829021734,0.589452954131267
0.8916420571040362,15:01:36.470035,15:00:20.469397,0,,0.11897141,0.0065901726,0.010925636,-0.9169741,-0.3905846,0.08125341,0.023587085,0.15023535,0.98836887,-0.39824876,0.9082251,-0.12854913,,0.06411417,-0.0146921985,0.018220961,-0.7151106,-0.20781225,0.6674059,-0.07025868,0.9713192,0.22716206,-0.6954714,0.11555502,-0.70920134,,0.09963595,1.2986146,0.43120286,0.98269534,0.006507718,-0.18511498,-0.105266854,-0.8026887,-0.5870347,-0.15240996,0.5963627,-0.78811336,,-0.116599545,0.24551357,-0.0961397,0.96637744,0.24746269,0.0698347,-0.2236063,0.6747158,0.7033909,0.12694444,-0.6953566,0.7073644,,-0.09089851,0.38224602,-0.36994442,0.8100139,0.2525858,-0.52922386,-0.5215252,0.7229294,-0.45319372,0.2681212,0.6430968,0.71731275,,1.1057254474657168,0.5188749763533964,0.23233535299000002,0.7687233328142663,0.21943821862329735,0.7376616685209366,-0.407706789071161,,-1.4318178430798467,0.09755356166720401,0.19449535160000003,1.570787366642572,0.09455245783768479,-0.331530464895775,0.4153839601794721,,-0.11663162726452107,-0.13000303099636262,0.09163300952,-0.11611542257629885,,4.068017e-05,1.4305115e-06,-1.2278557e-05,1.0,-2.823025e-05,-2.1368265e-05,2.8245151e-05,1.0,-5.453825e-06,2.1368265e-05,5.453825e-06,0.99999994,301,0.901,0,0,0.0,False,-0.25779281547542787,0.5894046739304875
0.9266871379222721,15:01:36.490662,15:00:20.469397,0,,0.119005054,0.0066755414,0.010672241,-0.91791385,-0.3884616,0.08081931,0.021674335,0.1542936,0.98778725,-0.3961873,0.9084552,-0.13320854,,0.064114235,-0.014692362,0.018220842,-0.71519697,-0.2076579,0.6673615,-0.07008238,0.97133756,0.22713804,-0.69540036,0.11567825,-0.7092508,,0.09963595,1.2986146,0.43120286,0.98269534,0.006507718,-0.18511498,-0.105266854,-0.8026887,-0.5870347,-0.15240996,0.5963627,-0.78811336,,-0.11657857,0.24542616,-0.09588565,0.9667004,0.24587284,0.070971675,-0.22385818,0.67806494,0.7000824,0.12400785,-0.69265753,0.7105263,,-0.09089858,0.38224587,-0.36994448,0.81009966,0.25241545,-0.52917385,-0.5213517,0.72302336,-0.45324346,0.26819938,0.64305806,0.71731824,,1.1053624790206282,0.5186278489014212,0.23258294438000002,0.7689330227577508,0.21643221562845769,0.7339052781515751,-0.4093402297325037,,-1.4318178430798467,0.09755356166720401,0.19449535160000003,1.5709970565860565,0.09455245783768479,-0.331530464895775,0.4153839601794721,,-0.11663162726452107,-0.13000303099636262,0.09163300952,-0.11611542257629885,,4.068017e-05,1.4305115e-06,-1.2278557e-05,1.0,-2.823025e-05,-2.1368265e-05,2.8245151e-05,1.0,-5.453825e-06,2.1368265e-05,5.453825e-06,0.99999994,308,0.922,0,0,0.0,False,-0.25767366003838577,0.5892598333281494
0.9473152440041304,15:01:36.516522,15:00:20.469397,0,,0.119053856,0.006778091,0.010165796,-0.9205495,-0.38268185,0.07837858,0.01717788,0.1607965,0.986838,-0.390248,0.90977955,-0.14144742,,0.064114735,-0.014690962,0.018222272,-0.71519256,-0.2076613,0.667365,-0.0700783,0.97133595,0.22714609,-0.6954052,0.11568552,-0.7092449,,0.09963595,1.2986146,0.43120286,0.98269534,0.006507718,-0.18511498,-0.105266854,-0.8026887,-0.5870347,-0.15240996,0.5963627,-0.78811336,,-0.11652739,0.2451976,-0.09542247,0.9676915,0.24084024,0.07462719,-0.22378127,0.6840127,0.69429713,0.116168745,-0.6885656,0.7158088,,-0.0908992,0.3822478,-0.3699442,0.81009644,0.25241753,-0.5291778,-0.5213532,0.7230282,-0.45323405,0.2682062,0.6430518,0.7173213,,1.1044975329387152,0.5179636938742379,0.23303016443000002,0.7701911624186579,0.20850729864206213,0.7283607417653051,-0.40787013313729514,,-1.431825565812721,0.09756128440007823,0.19449535160000003,1.5709970565860565,0.09455245783768479,-0.331530464895775,0.4153839601794721,,-0.11663162726452107,-0.13000303099636262,0.09163300952,-0.11611542257629885,,4.068017e-05,1.4305115e-06,-1.2278557e-05,1.0,-2.823025e-05,-2.1368265e-05,2.8245151e-05,1.0,-5.453825e-06,2.1368265e-05,5.453825e-06,0.99999994,319,0.955,0,0,0.0,False,-0.2570778828531757,0.5901771571429588
0.9731058969628066,15:01:36.542064,15:00:20.469397,0,,0.11908373,0.0068174303,0.009764805,-0.9222904,-0.3789397,0.07606101,0.014009535,0.16388938,0.9863792,-0.3862438,0.9107935,-0.14584473,,0.064114355,-0.014690604,0.018220365,-0.7152836,-0.20745364,0.6673321,-0.069905445,0.9713727,0.22704217,-0.695329,0.11574948,-0.7093091,,0.09963595,1.2986146,0.43120286,0.98269534,0.006507718,-0.18511498,-0.105266854,-0.8026887,-0.5870347,-0.15240996,0.5963627,-0.78811336,,-0.11648372,0.24498351,-0.09508265,0.9683067,0.23741119,0.07757606,-0.2238378,0.687075,0.69124854,0.11080956,-0.68670505,0.71844095,,-0.0908985,0.3822466,-0.36994284,0.81018573,0.25220534,-0.52914226,-0.52117753,0.7230841,-0.45334682,0.26827785,0.6430722,0.7172762,,1.1037793187814122,0.5172763706484319,0.23335942209000002,0.771029922192596,0.20317847515120993,0.7261717407982204,-0.4067267246743552,,-1.4318178430798467,0.09756128440007823,0.19449664789,1.5712067465295412,0.09455245783768479,-0.33161214363591557,0.4152206161133378,,-0.11663162726452107,-0.13000303099636262,0.09163300952,-0.11611542257629885,,4.068017e-05,1.4305115e-06,-1.2278557e-05,1.0,-2.823025e-05,-2.1368265e-05,2.8245151e-05,1.0,-5.453825e-06,2.1368265e-05,5.453825e-06,0.99999994,330,0.987,0,0,0.0,False,-0.25767366003838577,0.5903219977452974
0.998702998040244,15:01:36.577940,15:00:20.469397,0,,0.1191214,0.0068038553,0.008929953,-0.92747,-0.36709875,0.07097758,0.007625263,0.1712214,0.985203,-0.37381965,0.91428745,-0.15600333,,0.06411597,-0.014691498,0.018220901,-0.7158822,-0.20615333,0.66709316,-0.0686678,0.97157407,0.22655779,-0.69483614,0.11638093,-0.7096888,,0.09963595,1.2986146,0.43120286,0.98269534,0.006507718,-0.18511498,-0.105266854,-0.8026887,-0.5870347,-0.15240996,0.5963627,-0.78811336,,-0.116381116,0.24446225,-0.09443738,0.97044367,0.22619614,0.08410915,-0.22128631,0.6949973,0.6841134,0.096288174,-0.6825057,0.72450984,,-0.090900235,0.3822463,-0.3699436,0.81078154,0.25083804,-0.5288796,-0.5199644,0.72359324,-0.4539272,0.26883146,0.64303434,0.7171028,,1.102080317549083,0.5156391512790963,0.23397904871000003,0.7758527908927402,0.1888316426758387,0.7215348726582322,-0.40787013313729514,,-1.431825565812721,0.09756128440007823,0.19449664789,1.5726745761339325,0.09455245783768479,-0.33193885859647776,0.41620068051014353,,-0.11663162726452107,-0.13000303099636262,0.09163300952,-0.11611542257629885,,4.068017e-05,1.4305115e-06,-1.2278557e-05,1.0,-2.823025e-05,-2.1368265e-05,2.8245151e-05,1.0,-5.453825e-06,2.1368265e-05,5.453825e-06,0.99999994,338,1.012,0,0,0.0,False,-0.25779281547542787,0.5909496403554302
1.034559187013656,15:01:36.601232,15:00:20.469397,0,,0.119130075,0.0067822784,0.008508012,-0.9302873,-0.3606528,0.06704645,0.0033851974,0.17432359,0.98468256,-0.36681628,0.91626453,-0.16095003,,0.06411969,-0.014689844,0.018222928,-0.7156099,-0.20655853,0.6672599,-0.069186434,0.9715386,0.22655201,-0.6950651,0.11595759,-0.7095338,,0.09963595,1.2986146,0.43120286,0.98269534,0.006507718,-0.18511498,-0.105266854,-0.8026887,-0.5870347,-0.15240996,0.5963627,-0.78811336,,-0.11632103,0.24418719,-0.09412225,0.97146535,0.21996352,0.088719636,-0.22035567,0.69865227,0.6806823,0.08774109,-0.68080914,0.7271867,,-0.09090411,0.3822486,-0.369943,0.81051433,0.25130197,-0.5290688,-0.52049166,0.723278,-0.45382524,0.26861668,0.6432078,0.7170278,,1.101192203268547,0.5147819279300574,0.23428108428000002,0.7779496903275853,0.1803601796903814,0.7197848362325108,-0.4101569500631751,,-1.4318487340113437,0.09756128440007823,0.19449794418000002,1.572045506303479,0.09455245783768479,-0.33202053733661835,0.4163640245762778,,-0.11663162726452107,-0.13000303099636262,0.09163300952,-0.11611542257629885,,4.068017e-05,1.4305115e-06,-1.2278557e-05,1.0,-2.823025e-05,-2.1368265e-05,2.8245151e-05,1.0,-5.453825e-06,2.1368265e-05,5.453825e-06,0.99999994,346,1.037,0,0,0.0,False,-0.25773323775690704,0.591673843367122
1.0578858079388738,15:01:36.628122,15:00:20.469397,0,,0.11916226,0.006699905,0.008078292,-0.9312725,-0.3582085,0.06646904,0.001365222,0.17901284,0.9838457,-0.36432073,0.91631925,-0.16622058,,0.0641246,-0.014687803,0.018227994,-0.715587,-0.20639347,0.6673355,-0.06916857,0.9715929,0.22632432,-0.6950904,0.11579621,-0.7095353,,0.09963595,1.2986146,0.43120286,0.98269534,0.006507718,-0.18511498,-0.105266854,-0.8026887,-0.5870347,-0.15240996,0.5963627,-0.78811336,,-0.11629044,0.24385922,-0.09383247,0.97174555,0.21817079,0.09006705,-0.22042692,0.70239305,0.67679834,0.08439516,-0.677529,0.730638,,-0.090909615,0.38225344,-0.36994383,0.81049705,0.25116873,-0.5291586,-0.5205016,0.72317547,-0.4539772,0.26864964,0.64337504,0.7168653,,1.1002114161935206,0.5136389634646722,0.2345636755,0.7787884501015235,0.17721754019577626,0.716466578727408,-0.4081968212695637,,-1.4318873476757148,0.09756900713295245,0.19449794418000002,1.572045506303479,0.09455245783768479,-0.33226557355704,0.4168540567746806,,-0.11663162726452107,-0.13000303099636262,0.09163300952,-0.11611542257629885,,4.068017e-05,1.4305115e-06,-1.2278557e-05,1.0,-2.823025e-05,-2.1368265e-05,2.8245151e-05,1.0,-5.453825e-06,2.1368265e-05,5.453825e-06,0.99999994,354,1.061,0,0,0.0,False,-0.25856732581620134,0.5913358819616659
1.0847653560340405,15:01:36.651504,15:00:20.726986,0,,0.1191614,0.006676182,0.007913217,-0.9314601,-0.35783368,0.06585684,0.0006650053,0.17932868,0.98378897,-0.36384284,0.9164039,-0.16679943,,0.064125136,-0.014688414,0.018229783,-0.71566856,-0.20623782,0.6672962,-0.06898877,0.97161114,0.22630101,-0.6950244,0.11592066,-0.7095797,,0.09963595,1.2986146,0.43120286,0.98269534,0.006507718,-0.18511498,-0.105266854,-0.8026887,-0.5870347,-0.15240996,0.5963627,-0.78811336,,-0.116264746,0.24373952,-0.0937192,0.9717577,0.21783097,0.09075579,-0.22068855,0.70269424,0.6764003,0.083567366,-0.67732596,0.7309213,,-0.090910465,0.38225433,-0.36994532,0.8105791,0.25099692,-0.5291144,-0.5203301,0.7232702,-0.45402297,0.26873434,0.6433357,0.71686894,,1.0999256750771742,0.5131755994922187,0.23467645273,0.7787884501015235,0.17653435769694906,0.7166152745451873,-0.40901354160023506,,-1.431895070408589,0.09756900713295245,0.19449664789,1.5722551962469637,0.09455245783768479,-0.33226557355704,0.4168540567746806,,-0.11663162726452107,-0.13000303099636262,0.09163300952,-0.11611542257629885,,4.068017e-05,1.4305115e-06,-1.2278557e-05,1.0,-2.823025e-05,-2.1368265e-05,2.8245151e-05,1.0,-5.453825e-06,2.1368265e-05,5.453825e-06,0.99999994,362,1.086,0,0,0.0,False,-0.25683957197909146,0.5920118047725782
1.1081600161269307,15:01:36.675454,15:00:20.726986,0,,0.11914064,0.0066696703,0.007873461,-0.93167996,-0.3573888,0.06515892,0.0001594387,0.17896059,0.98385614,-0.36328006,0.9166494,-0.16667694,,0.064125136,-0.014688414,0.018229783,-0.71566856,-0.20618331,0.66731304,-0.06898877,0.9716296,0.22622165,-0.6950244,0.11586267,-0.7095892,,0.09963595,1.2986146,0.43120286,0.98269534,0.006507718,-0.18511498,-0.105266854,-0.8026887,-0.5870347,-0.15240996,0.5963627,-0.78811336,,-0.11623859,0.24371007,-0.09369679,0.9718122,0.21730727,0.0914257,-0.22074422,0.7025525,0.67652935,0.08278339,-0.67764115,0.7307184,,-0.090910465,0.38225433,-0.36994532,0.8105791,0.25095367,-0.5291349,-0.5203301,0.7232331,-0.45408204,0.26873434,0.64339423,0.71681637,,1.0999256750771742,0.5130288675676083,0.23469978595000002,0.7787884501015235,0.17585117519812185,0.7170906853235288,-0.40917688566636945,,-1.431895070408589,0.09756900713295245,0.19449664789,1.5722551962469637,0.09455245783768479,-0.3323472522971806,0.4170174008408149,,-0.11663162726452107,-0.13000303099636262,0.09163300952,-0.11611542257629885,,4.068017e-05,1.4305115e-06,-1.2278557e-05,1.0,-2.823025e-05,-2.1368265e-05,2.8245151e-05,1.0,-5.453825e-06,2.1368265e-05,5.453825e-06,0.99999994,395,1.188,0,0,0.0,False,-0.25630337251240265,0.591673843367122
1.132101794006303,15:01:36.776816,15:00:20.726986,0,,0.11871803,0.0069067255,0.009185508,-0.9304345,-0.36127177,0.061435983,-0.0006627776,0.16930676,0.98556316,-0.3664577,0.91696113,-0.15776822,,0.06412699,-0.014689814,0.018230021,-0.7158358,-0.20565054,0.6672981,-0.0686333,0.9717413,0.22584945,-0.6948873,0.11587238,-0.7097218,,0.09963595,1.2986146,0.43120286,0.98269534,0.006507718,-0.18511498,-0.105266854,-0.8026887,-0.5870347,-0.15240996,0.5963627,-0.78811336,,-0.1160169,0.24470045,-0.09465921,0.9710264,0.21980344,0.09377734,-0.2233394,0.6951092,0.6833321,0.08501324,-0.6844776,0.7240602,,-0.09091243,0.38225353,-0.36994627,0.8107463,0.25043502,-0.5291245,-0.51998544,0.7232691,-0.45441934,0.26889688,0.6435558,0.7166103,,1.1040341689662616,0.5159094469296941,0.23377812376,0.7731268216274413,0.17844726869366523,0.7217530805849635,-0.40868685346796674,,-1.4319027931414632,0.09756128440007823,0.19449664789,1.5726745761339325,0.09455245783768479,-0.33267396725774284,0.4163640245762778,,-0.11663162726452107,-0.13000303099636262,0.09163300952,-0.11611542257629885,,4.068017e-05,1.4305115e-06,-1.2278557e-05,1.0,-2.823025e-05,-2.1368265e-05,2.8245151e-05,1.0,-5.453825e-06,2.1368265e-05,5.453825e-06,0.99999994,403,1.213,0,0,0.0,False,-0.257435349164302,0.5902737175445179
1.233469306025654,15:01:36.805241,15:00:20.726986,0,,0.11854465,0.006889686,0.010039881,-0.92704433,-0.3696249,0.06297752,0.0013938993,0.16456321,0.98636556,-0.37494907,0.91449225,-0.15204209,,0.06412447,-0.014688965,0.01822871,-0.7160038,-0.20560822,0.6671308,-0.06853238,0.97172934,0.22593188,-0.6947242,0.11604819,-0.7098528,,0.09963595,1.2986146,0.43120286,0.98269534,0.006507718,-0.18511498,-0.105266854,-0.8026887,-0.5870347,-0.15240996,0.5963627,-0.78811336,,-0.115994155,0.24520959,-0.09536673,0.9694149,0.22777104,0.09140637,-0.22690831,0.6898573,0.687466,0.093527496,-0.68718064,0.7204411,,-0.090909675,0.38225323,-0.3699452,0.81089276,0.2503646,-0.52893335,-0.51978266,0.723393,-0.45445415,0.26884744,0.64344394,0.71672934,,1.1061270295751766,0.5173767661757968,0.23308460861000002,0.7672555032098747,0.18719200467865343,0.7235253174237137,-0.408196821269564,,-1.431895070408589,0.09756900713295245,0.19449664789,1.5728842660774174,0.09441582133791936,-0.33256254935404644,0.41603733644400925,,-0.11663162726452107,-0.13000303099636262,0.09163300952,-0.11611542257629885,,4.068017e-05,1.4305115e-06,-1.2278557e-05,1.0,-2.823025e-05,-2.1368265e-05,2.8245151e-05,1.0,-5.453825e-06,2.1368265e-05,5.453825e-06,0.99999994,411,1.237,0,0,0.0,False,-0.25731619372725945,0.5898391957375027
1.2618891131132841,15:01:36.827255,15:00:20.726986,0,,0.11842491,0.0068817884,0.010572344,-0.9241216,-0.37661976,0.06447343,0.002790019,0.16207963,0.9867737,-0.3820883,0.91207874,-0.14873046,,0.064120084,-0.014683839,0.018229127,-0.7138228,-0.21004473,0.6680854,-0.0734362,0.9711535,0.22686505,-0.6964653,0.11287993,-0.70865643,,0.09963595,1.2986146,0.43120286,0.98269534,0.006507718,-0.18511498,-0.105266854,-0.8026887,-0.5870347,-0.15240996,0.5963627,-0.78811336,,-0.115968205,0.24552906,-0.095808536,0.96794623,0.23469357,0.089437395,-0.23017257,0.6864257,0.6898118,0.10050227,-0.6882868,0.7184432,,-0.09090507,0.38225716,-0.36994216,0.8086866,0.25519827,-0.52999985,-0.5244115,0.7209486,-0.4530185,0.26649308,0.644288,0.71685034,,1.1074785078281657,0.5181799303947161,0.23267757355000002,0.7626423244532151,0.1941604661666909,0.7238055523654574,-0.4109736703938467,,-1.431895070408589,0.09757672986582668,0.19449664789,1.567222637603335,0.09414254833838846,-0.332258034806513,0.41620068051014353,,-0.11663162726452107,-0.13000303099636262,0.09163300952,-0.11611542257629885,,4.068017e-05,1.4305115e-06,-1.2278557e-05,1.0,-2.823025e-05,-2.1368265e-05,2.8245151e-05,1.0,-5.453825e-06,2.1368265e-05,5.453825e-06,0.99999994,419,1.262,0,0,0.0,False,-0.25779281547542787,0.590418558146856
1.2838865229859948,15:01:36.850725,15:00:20.726986,0,,0.118254945,0.006845027,0.011439428,-0.91852874,-0.38926005,0.06914866,0.0077247024,0.1571995,0.98753655,-0.3952787,0.9076148,-0.14138523,,0.06412039,-0.014685851,0.018227518,-0.71440595,-0.20942637,0.6676559,-0.072697416,0.9712112,0.226856,-0.69594467,0.11353052,-0.709064,,0.09963595,1.2986146,0.43120286,0.98269534,0.006507718,-0.18511498,-0.105266854,-0.8026887,-0.5870347,-0.15240996,0.5963627,-0.78811336,,-0.115953475,0.24603035,-0.096536934,0.9653481,0.24716999,0.08372557,-0.23434018,0.67985165,0.6949003,0.11483752,-0.69044095,0.7142154,,-0.09090525,0.38225463,-0.36994267,0.8092287,0.2544898,-0.52951276,-0.5234955,0.72143537,-0.45330283,0.2666483,0.64402324,0.7170305,,1.109687209430194,0.5194387358532148,0.23198924356000003,0.7557225563182257,0.208780571641593,0.7254425075332736,-0.40999360599704093,,-1.4319027931414632,0.09756900713295245,0.19449664789,1.5682710873207575,0.09386927533885758,-0.33211687773926074,0.4163640245762778,,-0.11663162726452107,-0.13000303099636262,0.09163300952,-0.11611542257629885,,4.068017e-05,1.4305115e-06,-1.2278557e-05,1.0,-2.823025e-05,-2.1368265e-05,2.8245151e-05,1.0,-5.453825e-06,2.1368265e-05,5.453825e-06,0.99999994,427,1.286,0,0,0.0,False,-0.2585077480976805,0.5913358819616659
1.3073590649291873,15:01:36.881930,15:00:20.726986,0,,0.1180851,0.0068166554,0.012171626,-0.9157121,-0.39551067,0.071011074,0.010422036,0.15328145,0.9881275,-0.40169966,0.90558046,-0.13623956,,0.064122684,-0.014688086,0.018227458,-0.7144008,-0.20897955,0.66780144,-0.07269521,0.97136277,0.22620702,-0.6959502,0.11305651,-0.7091342,,0.09963595,1.2986146,0.43120286,0.98269534,0.006507718,-0.18511498,-0.105266854,-0.8026887,-0.5870347,-0.15240996,0.5963627,-0.78811336,,-0.115914986,0.24645582,-0.09715602,0.9640296,0.2531162,0.08111194,-0.2361355,0.6755158,0.6985116,0.1220122,-0.6925393,0.7109869,,-0.090907656,0.38225296,-0.369944,0.80922467,0.2541353,-0.52968925,-0.5234988,0.7211323,-0.45378104,0.26665425,0.6445025,0.71659756,,1.111540665320008,0.5206048685172227,0.23139943161,0.7519481373355044,0.21615894262892676,0.7269403848265985,-0.40934022973250384,,-1.4319105158743375,0.09755356166720401,0.19449664789,1.5682710873207575,0.09386927533885758,-0.3327703076603853,0.4173440889730835,,-0.11663162726452107,-0.13000303099636262,0.09163300952,-0.11611542257629885,,4.068017e-05,1.4305115e-06,-1.2278557e-05,1.0,-2.823025e-05,-2.1368265e-05,2.8245151e-05,1.0,-5.453825e-06,2.1368265e-05,5.453825e-06,0.99999994,435,1.311,0,0,0.0,False,-0.2566012611050077,0.5935567711975209
1.338560150936246,15:01:36.903062,15:00:20.726986,0,,0.11799055,0.0067767203,0.0126298815,-0.91332364,-0.40084553,0.071853094,0.011233635,0.15157557,0.9883818,-0.40707958,0.9035196,-0.13393444,,0.0641229,-0.014688026,0.018227518,-0.714473,-0.20886639,0.6677596,-0.07276437,0.9714083,0.22598904,-0.69586885,0.11287415,-0.7092432,,0.09963595,1.2986146,0.43120286,0.98269534,0.006507718,-0.18511498,-0.105266854,-0.8026887,-0.5870347,-0.15240996,0.5963627,-0.78811336,,-0.11590523,0.24670453,-0.09755424,0.96271,0.25845742,0.07993222,-0.2387859,0.67291296,0.70012105,0.12716405,-0.6931002,0.709536,,-0.09090787,0.38225302,-0.36994395,0.8092782,0.25405598,-0.52964556,-0.5234745,0.7210122,-0.4539999,0.26653948,0.64466816,0.7164912,,1.1126064024566509,0.5212767462772802,0.23101961864000004,0.7479640284092984,0.22135112962001352,0.7268721202333033,-0.40917688566636945,,-1.4319182386072118,0.09755356166720401,0.19449664789,1.5682710873207575,0.09373263883909215,-0.3329856047172511,0.4186508415021577,,-0.11663162726452107,-0.13000303099636262,0.09163300952,-0.11611542257629885,,4.068017e-05,1.4305115e-06,-1.2278557e-05,1.0,-2.823025e-05,-2.1368265e-05,2.8245151e-05,1.0,-5.453825e-06,2.1368265e-05,5.453825e-06,0.99999994,443,1.336,0,0,0.0,False,-0.25731619372725945,0.5959225010357145
1.3596276070456952,15:01:36.925913,15:00:20.726986,0,,0.117938936,0.0067318454,0.013072997,-0.9097526,-0.40827537,0.07524204,0.013965927,0.1510399,0.98842895,-0.41491574,0.90027666,-0.13170695,,0.06412162,-0.014686819,0.01822716,-0.71462244,-0.20875524,0.6676344,-0.07290541,0.9714606,0.22571874,-0.6957006,0.11262965,-0.709447,,0.09963595,1.2986146,0.43120286,0.98269534,0.006507718,-0.18511498,-0.105266854,-0.8026887,-0.5870347,-0.15240996,0.5963627,-0.78811336,,-0.11593551,0.24694003,-0.097934574,0.96089816,0.26619655,0.07625024,-0.24141982,0.67051625,0.7015158,0.13561405,-0.69249356,0.70856297,,-0.09090648,0.38225365,-0.36994302,0.809389,0.25398886,-0.52950835,-0.52342314,0.72084886,-0.45431834,0.2663037,0.6448772,0.7163908,,1.1135562986001806,0.5219022876400924,0.23066054631000002,0.7437702295396078,0.22982259260547083,0.7256817220139644,-0.409503573798638,,-1.4319259613400859,0.09756128440007823,0.19449664789,1.5682710873207575,0.09345936583956126,-0.3332528413507016,0.42061097029576905,,-0.11663162726452107,-0.13000303099636262,0.09163300952,-0.11611542257629885,,4.068017e-05,1.4305115e-06,-1.2278557e-05,1.0,-2.823025e-05,-2.1368265e-05,2.8245151e-05,1.0,-5.453825e-06,2.1368265e-05,5.453825e-06,0.99999994,468,1.413,0,0,0.0,False,-0.25731619372725945,0.6000263181019685
1.3825323770288378,15:01:37.007310,15:00:20.726986,0,,0.11804378,0.0065961033,0.014426246,-0.8994328,-0.4292978,0.08200067,0.024182782,0.13844937,0.9900741,-0.43638963,0.8924881,-0.11414412,,0.064117715,-0.01468749,0.018223584,-0.71487224,-0.20805302,0.6675862,-0.07288118,0.97168,0.22478023,-0.6954465,0.1120348,-0.7097903,,0.09963595,1.2986146,0.43120286,0.98269534,0.006507718,-0.18511498,-0.105266854,-0.8026887,-0.5870347,-0.15240996,0.5963627,-0.78811336,,-0.11628427,0.24765989,-0.0990395,0.95576316,0.2864309,0.066888854,-0.24647869,0.65581936,0.71354693,0.16051488,-0.69846857,0.69740707,,-0.090902105,0.38225076,-0.3699419,0.8095963,0.25340667,-0.5294704,-0.52319276,0.72047573,-0.45517477,0.26612625,0.6455229,0.715875,,1.1152939134968811,0.5245280168173287,0.22959758851000003,0.7345438720262888,0.25373398006442294,0.7340360392550225,-0.40868685346796674,,-1.4319105158743375,0.09756128440007823,0.19449664789,1.5684807772642424,0.09318609284003039,-0.3341735079052766,0.4291048617347516,,-0.11663162726452107,-0.13000303099636262,0.09163300952,-0.11611542257629885,,4.068017e-05,1.4305115e-06,-1.2278557e-05,1.0,-2.823025e-05,-2.1368265e-05,2.8245151e-05,1.0,-5.453825e-06,2.1368265e-05,5.453825e-06,0.99999994,476,1.438,0,0,0.0,False,-0.25672041654204936,0.604178415369002
1.4639631561003625,15:01:37.029844,15:00:20.726986,0,,0.11816567,0.0065611154,0.014789671,-0.89715636,-0.43392777,0.082566224,0.02628883,0.13413772,0.99061394,-0.4409301,0.8909061,-0.108935,,0.06411992,-0.014687132,0.018225372,-0.71486294,-0.20805053,0.6675969,-0.07287429,0.9716802,0.22478145,-0.69545674,0.11203742,-0.7097798,,0.09963595,1.2986146,0.43120286,0.98269534,0.006507718,-0.18511498,-0.105266854,-0.8026887,-0.5870347,-0.15240996,0.5963627,-0.78811336,,-0.116469346,0.24785423,-0.099315435,0.9545782,0.29066622,0.06552508,-0.24759138,0.65144646,0.71715826,0.16576761,-0.70080715,0.6938231,,-0.09090454,0.38225222,-0.36994243,0.80958927,0.2534038,-0.5294825,-0.523197,0.7204777,-0.45516682,0.26613933,0.6455218,0.7158711,,1.1153016362297552,0.5255242493581037,0.22932147874000003,0.7326566625349281,0.2582429845566825,0.7373836200851288,-0.40770678907116087,,-1.4319259613400859,0.09756128440007823,0.19449664789,1.5684807772642424,0.09318609284003039,-0.3341735079052766,0.4297582379992887,,-0.11663162726452107,-0.13000303099636262,0.09163300952,-0.11611542257629885,,4.068017e-05,1.4305115e-06,-1.2278557e-05,1.0,-2.823025e-05,-2.1368265e-05,2.8245151e-05,1.0,-5.453825e-06,2.1368265e-05,5.453825e-06,0.99999994,484,1.463,0,0,0.0,False,-0.256065061638318,0.6052888599869295
1.4864962710998952,15:01:37.057107,15:00:20.726986,0,,0.11827995,0.006555982,0.015005052,-0.89557,-0.4366581,0.085347235,0.02949819,0.1331302,0.9906595,-0.44394177,0.88972235,-0.10634667,,0.064119354,-0.014687981,0.018226206,-0.7149497,-0.20789649,0.66755205,-0.07269804,0.971699,0.22475752,-0.69538605,0.11216074,-0.7098296,,0.09963595,1.2986146,0.43120286,0.98269534,0.006507718,-0.18511498,-0.105266854,-0.8026887,-0.5870347,-0.15240996,0.5963627,-0.78811336,,-0.11661808,0.24798171,-0.099460684,0.95395136,0.29340428,0.062375914,-0.24689533,0.64992917,0.7187731,0.17035119,-0.7010749,0.6924409,,-0.090904176,0.38225237,-0.36994368,0.8096755,0.2532338,-0.529432,-0.5230237,0.720572,-0.4552167,0.26621762,0.6454833,0.71587676,,1.1152166861681387,0.5262270180496581,0.22917629426000002,0.7328663524784126,0.2623420795496456,0.7381250199812642,-0.4064000365420868,,-1.4319259613400859,0.09756128440007823,0.19449535160000003,1.5686904672077266,0.09318609284003039,-0.3341735079052766,0.43041161426382585,,-0.11663162726452107,-0.13000303099636262,0.09163300952,-0.11611542257629885,,4.068017e-05,1.4305115e-06,-1.2278557e-05,1.0,-2.823025e-05,-2.1368265e-05,2.8245151e-05,1.0,-5.453825e-06,2.1368265e-05,5.453825e-06,0.99999994,492,1.487,0,0,0.0,False,-0.2561842170753601,0.6061096234001799
1.5137479570694268,15:01:37.084148,15:00:21.156107,0,,0.11841498,0.006524369,0.01533781,-0.8948178,-0.43792212,0.08674845,0.033755973,0.12738898,0.9912783,-0.44515342,0.8899417,-0.09920731,,0.06411885,-0.014689382,0.018224776,-0.7149541,-0.2078931,0.6675485,-0.07270208,0.9717005,0.22474942,-0.69538116,0.11215344,-0.7098355,,0.09963595,1.2986146,0.43120286,0.98269534,0.006507718,-0.18511498,-0.105266854,-0.8026887,-0.5870347,-0.15240996,0.5963627,-0.78811336,,-0.11681037,0.24815997,-0.099708095,0.9539705,0.2938617,0.059879422,-0.24426799,0.6455219,0.7236261,0.17399251,-0.70494455,0.6875898,,-0.09090355,0.38225043,-0.36994395,0.80967873,0.2532317,-0.52942806,-0.5230222,0.7205671,-0.4552261,0.2662108,0.6454895,0.71587366,,1.115124013373648,0.5272618642548041,0.22892481400000003,0.7351729418567423,0.2653480825444854,0.7439233788541397,-0.408196821269564,,-1.4319182386072118,0.09755356166720401,0.19449535160000003,1.5686904672077266,0.09318609284003039,-0.3341735079052766,0.4323717430574372,,-0.11663162726452107,-0.13000303099636262,0.09163300952,-0.11611542257629885,,4.068017e-05,1.4305115e-06,-1.2278557e-05,1.0,-2.823025e-05,-2.1368265e-05,2.8245151e-05,1.0,-5.453825e-06,2.1368265e-05,5.453825e-06,0.99999994,504,1.524,0,0,0.0,False,-0.25672041654204936,0.6059647827978418
1.5407786569558084,15:01:37.115697,15:00:21.156107,0,,0.1185357,0.006481126,0.01563488,-0.89269716,-0.44162196,0.08978767,0.03814525,0.124476045,0.991489,-0.44903982,0.88852435,-0.09427357,,0.06411776,-0.014689129,0.018226087,-0.7151277,-0.20731707,0.6675416,-0.07234895,0.9718279,0.22431222,-0.6952394,0.11211604,-0.7099803,,0.09963595,1.2986146,0.43120286,0.98269534,0.006507718,-0.18511498,-0.105266854,-0.8026887,-0.5870347,-0.15240996,0.5963627,-0.78811336,,-0.11698413,0.24830721,-0.09993789,0.95312166,0.29734084,0.056102708,-0.24317381,0.64235526,0.72680545,0.18007109,-0.70637673,0.68454826,,-0.090902664,0.38225168,-0.36994472,0.80985135,0.25267896,-0.5294282,-0.522675,0.7205735,-0.45561472,0.26636764,0.645699,0.71562636,,1.1150776769764028,0.5280495830079751,0.22869796325000002,0.7355923217437115,0.2709501790348684,0.7466246526750966,-0.4083601653356981,,-1.4319182386072118,0.09756128440007823,0.19449405531000002,1.5691098470946958,0.09318609284003039,-0.33458190160597945,0.43155502272676577,,-0.11663162726452107,-0.13000303099636262,0.09163300952,-0.11611542257629885,,4.068017e-05,1.4305115e-06,-1.2278557e-05,1.0,-2.823025e-05,-2.1368265e-05,2.8245151e-05,1.0,-5.453825e-06,2.1368265e-05,5.453825e-06,0.99999994,512,1.549,0,0,0.0,False,-0.25636295023092304,0.6063510244040775
1.5723147680982947,15:01:37.142314,15:00:21.156107,0,,0.11862372,0.006458275,0.01589699,-0.89056337,-0.4456731,0.09095189,0.03983038,0.12277955,0.99163437,-0.45311177,0.88673586,-0.0915916,,0.06411864,-0.01469041,0.01822561,-0.7152862,-0.2071,0.6674391,-0.07224238,0.9718751,0.22414222,-0.6950874,0.11210859,-0.71013033,,0.09963595,1.2986146,0.43120286,0.98269534,0.006507718,-0.18511498,-0.105266854,-0.8026887,-0.5870347,-0.15240996,0.5963627,-0.78811336,,-0.1171174,0.2484493,-0.100135475,0.9519426,0.30138287,0.054530382,-0.24433294,0.6399247,0.72855866,0.18467978,-0.70686966,0.6828094,,-0.09090354,0.3822504,-0.36994526,0.8099906,0.25246957,-0.52931494,-0.52247787,0.7205804,-0.4558298,0.26633084,0.6457732,0.71557313,,1.1151085679078996,0.5287523516995295,0.22850351975000002,0.7337051122523508,0.2750492740278316,0.7475294100515132,-0.40607334840981824,,-1.4319259613400859,0.09755356166720401,0.19449405531000002,1.5693195370381803,0.09304945634026494,-0.33471551992270465,0.43106499052836295,,-0.11663162726452107,-0.13000303099636262,0.09163300952,-0.11611542257629885,,4.068017e-05,1.4305115e-06,-1.2278557e-05,1.0,-2.823025e-05,-2.1368265e-05,2.8245151e-05,1.0,-5.453825e-06,2.1368265e-05,5.453825e-06,0.99999994,541,1.639,0,0,0.0,False,-0.25719703829021734,0.6062061838017394
1.5986836629454046,15:01:37.228009,15:00:21.156107,0,,0.11885393,0.006283611,0.016684398,-0.8767848,-0.4707925,0.09799412,0.052443095,0.108952075,0.9926626,-0.47801477,0.87549055,-0.07083759,,0.06411853,-0.014692169,0.018226087,-0.7151993,-0.20735845,0.66745204,-0.07241927,0.9718214,0.2243174,-0.6951584,0.112095386,-0.71006286,,0.09963595,1.2986146,0.43120286,0.98269534,0.006507718,-0.18511498,-0.105266854,-0.8026887,-0.5870347,-0.15240996,0.5963627,-0.78811336,,-0.11749802,0.2487922,-0.10079959,0.94431686,0.32604533,0.044272732,-0.2495972,0.622141,0.74205244,0.21439885,-0.711783,0.66887826,,-0.090903625,0.38224965,-0.36994693,0.8099042,0.25272256,-0.52932644,-0.5226518,0.7205568,-0.45566764,0.26625228,0.6457005,0.7156679,,1.1155564864146046,0.5299648207607828,0.22789296716000002,0.7240593748520626,0.30428948497763586,0.7589711944012019,-0.40607334840981824,,-1.4319259613400859,0.09754583893432978,0.19449275902000002,1.5691098470946958,0.09304945634026494,-0.33455216244242353,0.4320450549251686,,-0.11663162726452107,-0.13000303099636262,0.09163300952,-0.11611542257629885,,4.068017e-05,1.4305115e-06,-1.2278557e-05,1.0,-2.823025e-05,-2.1368265e-05,2.8245151e-05,1.0,-5.453825e-06,2.1368265e-05,5.453825e-06,0.99999994,549,1.663,0,0,0.0,False,-0.2570778828531757,0.6092478364508449
1.684665281092748,15:01:37.257571,15:00:21.156107,0,,0.11880967,0.006231189,0.01693736,-0.87588656,-0.47291738,0.09577091,0.051682264,0.1053907,0.99308693,-0.4797414,0.874781,-0.06786877,,0.06411812,-0.014693286,0.018226802,-0.7154591,-0.20673269,0.66736764,-0.07189046,0.9719322,0.2240076,-0.69494593,0.11229104,-0.7102399,,0.09963595,1.2986146,0.43120286,0.98269534,0.006507718,-0.18511498,-0.105266854,-0.8026887,-0.5870347,-0.15240996,0.5963627,-0.78811336,,-0.1175043,0.24890544,-0.10103587,0.9436329,0.3277822,0.04599783,-0.2512562,0.6188919,0.74420637,0.21546993,-0.71381485,0.6663641,,-0.09090341,0.3822495,-0.3699483,0.8101624,0.2520827,-0.5292364,-0.5221317,0.7207275,-0.4559938,0.26648706,0.6457601,0.7155267,,1.115981236722687,0.5303355119387455,0.22766352383000002,0.7217527854737329,0.30524594047599396,0.76154009742109,-0.4081968212695639,,-1.4319259613400859,0.09754583893432978,0.19449146273,1.5697389169251494,0.09304945634026494,-0.33479719866284524,0.43514859218171986,,-0.11663162726452107,-0.13000303099636262,0.09163300952,-0.11611542257629885,,4.068017e-05,1.4305115e-06,-1.2278557e-05,1.0,-2.823025e-05,-2.1368265e-05,2.8245151e-05,1.0,-5.453825e-06,2.1368265e-05,5.453825e-06,0.99999994,561,1.7,0,0,0.0,False,-0.2570183051346544,0.6082822324352559
1.7142108459956944,15:01:37.294205,15:00:21.156107,0,,0.11873622,0.006180674,0.017191604,-0.8758714,-0.47304273,0.095287286,0.05201082,0.1037716,0.99324024,-0.47973323,0.8749067,-0.06628713,,0.06411573,-0.014694821,0.018227637,-0.71546376,-0.20635235,0.6674804,-0.071893856,0.97205997,0.22345126,-0.6949408,0.11188361,-0.71030927,,0.09963595,1.2986146,0.43120286,0.98269534,0.006507718,-0.18511498,-0.105266854,-0.8026887,-0.5870347,-0.15240996,0.5963627,-0.78811336,,-0.117482044,0.24902104,-0.10127824,0.94365925,0.3276746,0.046222735,-0.25099123,0.61768776,0.7452954,0.21566316,-0.7149064,0.6651302,,-0.09090131,0.38224941,-0.36995038,0.81016594,0.25178152,-0.52937436,-0.52212954,0.7204657,-0.45640978,0.26648054,0.64616966,0.71515936,,1.1165449962225054,0.5306830349180857,0.22742889534000002,0.7215430955302483,0.30551921347552485,0.7626241214559462,-0.40721675687275816,,-1.4319182386072118,0.09754583893432978,0.19448887015000002,1.5697389169251494,0.09304945634026494,-0.3353689498438292,0.4333518074542428,,-0.11663162726452107,-0.13000303099636262,0.09163300952,-0.11611542257629885,,4.068017e-05,1.4305115e-06,-1.2278557e-05,1.0,-2.823025e-05,-2.1368265e-05,2.8245151e-05,1.0,-5.453825e-06,2.1368265e-05,5.453825e-06,0.99999994,569,1.725,0,0,0.0,False,-0.25719703829021734,0.6088615948446092
1.7508609041105956,15:01:37.323537,15:00:21.391989,0,,0.118642315,0.006124258,0.017608717,-0.873485,-0.47738698,0.09552758,0.054678388,0.09877953,0.993606,-0.48377073,0.87312317,-0.06017959,,0.06411587,-0.0146985315,0.01822853,-0.71553534,-0.20644835,0.66737396,-0.07196419,0.9720353,0.22353598,-0.69485974,0.11192095,-0.7103826,,0.09963595,1.2986146,0.43120286,0.98269534,0.006507718,-0.18511498,-0.105266854,-0.8026887,-0.5870347,-0.15240996,0.5963627,-0.78811336,,-0.1174681,0.24923156,-0.101654366,0.9423542,0.3315771,0.045002434,-0.2513522,0.6126528,0.7493188,0.22088608,-0.7174351,0.66067857,,-0.09090183,0.38224772,-0.36995375,0.8102188,0.25186846,-0.52925205,-0.52210635,0.72048634,-0.45640373,0.26636517,0.6461128,0.7152537,,1.1175566742290288,0.5312313489521556,0.22707760075000002,0.7196558860388875,0.31098467346614245,0.7664986368024267,-0.40721675687275816,,-1.4319259613400859,0.09753039346858133,0.19448627757000003,1.5697389169251494,0.0929128198404995,-0.33525753194013275,0.43482190404945137,,-0.11663162726452107,-0.13000303099636262,0.09163300952,-0.11611542257629885,,4.068017e-05,1.4305115e-06,-1.2278557e-05,1.0,-2.823025e-05,-2.1368265e-05,2.8245151e-05,1.0,-5.453825e-06,2.1368265e-05,5.453825e-06,0.99999994,581,1.762,0,0,0.0,False,-0.2570183051346544,0.6086684740414916
1.7801674520596862,15:01:37.346940,15:00:21.391989,0,,0.118621096,0.006098509,0.017857298,-0.86873037,-0.48609644,0.09496237,0.055601016,0.0948059,0.9939418,-0.49215454,0.86874735,-0.055333197,,0.06411349,-0.0147000365,0.018229365,-0.71554005,-0.20644958,0.66736865,-0.07196766,0.97203517,0.22353545,-0.6948547,0.11191961,-0.7103878,,0.09963595,1.2986146,0.43120286,0.98269534,0.006507718,-0.18511498,-0.105266854,-0.8026887,-0.5870347,-0.15240996,0.5963627,-0.78811336,,-0.1174927,0.24936318,-0.10186641,0.93924487,0.34031457,0.044778585,-0.25575453,0.60684466,0.75254846,0.22892955,-0.7182796,0.6570127,,-0.09089973,0.3822476,-0.36995584,0.8102223,0.2518699,-0.52924603,-0.52210426,0.7204853,-0.4564077,0.26635864,0.64611334,0.7152557,,1.118112710995973,0.5314784764041307,0.22689093499000001,0.7133651877343519,0.31904622695230345,0.7686646056793779,-0.40738010093889243,,-1.4319182386072118,0.09753039346858133,0.19448368499000002,1.5697389169251494,0.0929128198404995,-0.3352575319401328,0.43465855998331715,,-0.11663162726452107,-0.13000303099636262,0.09163300952,-0.11611542257629885,,4.068017e-05,1.4305115e-06,-1.2278557e-05,1.0,-2.823025e-05,-2.1368265e-05,2.8245151e-05,1.0,-5.453825e-06,2.1368265e-05,5.453825e-06,0.99999994,589,1.786,0,0,0.0,False,-0.25719703829021734,0.6090547156477273
1.8035820520017296,15:01:37.376729,15:00:21.391989,0,,0.1185803,0.0060111955,0.01830642,-0.86024565,-0.50052667,0.097213775,0.059752807,0.09038356,0.99411273,-0.5063665,0.86099,-0.04784414,,0.0641096,-0.014705371,0.018228233,-0.7157264,-0.20608145,0.6672826,-0.07162662,0.97209346,0.22339159,-0.694698,0.1120922,-0.71051383,,0.09963595,1.2986146,0.43120286,0.98269534,0.006507718,-0.18511498,-0.105266854,-0.8026887,-0.5870347,-0.15240996,0.5963627,-0.78811336,,-0.11754004,0.24956876,-0.10227447,0.9338928,0.35515592,0.04133446,-0.26117015,0.59862155,0.7572598,0.2442016,-0.7179948,0.65180445,,-0.090896085,0.38224366,-0.3699598,0.81040424,0.25148386,-0.5291511,-0.52175224,0.72062546,-0.45658904,0.26649496,0.64610744,0.7152102,,1.119078052605251,0.531795108451974,0.22653186266000003,0.7045582101080018,0.33462278792556366,0.7705834591431465,-0.40591000434368396,,-1.431895070408589,0.09751494800283289,0.19447979612000002,1.5701582968121184,0.0929128198404995,-0.33533921068027334,0.4344952159171829,,-0.11663162726452107,-0.13000303099636262,0.09163300952,-0.11611542257629885,,4.068017e-05,1.4305115e-06,-1.2278557e-05,1.0,-2.823025e-05,-2.1368265e-05,2.8245151e-05,1.0,-5.453825e-06,2.1368265e-05,5.453825e-06,0.99999994,618,1.876,0,0,0.0,False,-0.2571374605716965,0.6091995562500654
1.8333524600602686,15:01:37.461335,15:00:21.391989,0,,0.11842784,0.005755283,0.019594327,-0.8323414,-0.5454346,0.098534495,0.06314065,0.08330989,0.9945213,-0.5506552,0.8340027,-0.03490311,,0.06410986,-0.014727216,0.018234372,-0.7159777,-0.20562123,0.6671548,-0.071100876,0.9721489,0.22331813,-0.6944928,0.11245561,-0.7106569,,0.09963595,1.2986146,0.43120286,0.98269534,0.006507718,-0.18511498,-0.105266854,-0.8026887,-0.5870347,-0.15240996,0.5963627,-0.78811336,,-0.11764185,0.2501539,-0.10345542,0.91455233,0.40268716,0.037908528,-0.2856059,0.57658356,0.76549375,0.28639707,-0.710911,0.6423257,,-0.0908988,0.38223442,-0.36998037,0.8106551,0.25097662,-0.52900755,-0.5212405,0.72090304,-0.45673537,0.26673323,0.645995,0.7152229,,1.1217346727139843,0.5325442135407737,0.22550001582,0.6684915398286637,0.37725337585238106,0.7666956369629956,-0.40787013313729525,,-1.4319027931414632,0.09742999794121641,0.19446424064,1.570787366642572,0.0929128198404995,-0.33525753194013275,0.43433187185104855,,-0.11663162726452107,-0.13000303099636262,0.09163300952,-0.11611542257629885,,4.068017e-05,1.4305115e-06,-1.2278557e-05,1.0,-2.823025e-05,-2.1368265e-05,2.8245151e-05,1.0,-5.453825e-06,2.1368265e-05,5.453825e-06,0.99999994,622,1.889,0,0,0.0,False,-0.25761408231986493,0.6113238850843614
1.9179914370179176,15:01:37.485958,15:00:21.391989,0,,0.118359685,0.0057259575,0.019976616,-0.8214684,-0.5610574,0.102000095,0.06872956,0.080153614,0.99441016,-0.5660968,0.823887,-0.027282387,,0.06419945,-0.014705665,0.01825893,-0.71602774,-0.2054855,0.667143,-0.07098995,0.97217375,0.22324574,-0.6944527,0.11248982,-0.7106908,,0.0996664,1.2986121,0.4311942,0.98269135,0.0064773783,-0.18513717,-0.105303995,-0.80268896,-0.5870277,-0.15240996,0.5963627,-0.78811336,,-0.117670074,0.25037032,-0.10378436,0.90725833,0.4192568,0.03325664,-0.29066464,0.5679054,0.7700633,0.30396765,-0.70831287,0.6371001,,-0.0910179,0.38226327,-0.36996806,0.81069607,0.25087523,-0.52899295,-0.5211577,0.7209304,-0.4567866,0.26677066,0.64600384,0.715201,,1.122483777802784,0.5327836182598747,0.22521483202000003,0.6588458024283755,0.3952893938214192,0.7670173618609315,-0.40525662807914686,,-1.431895070408589,0.0974222752083422,0.19446164806000002,1.5709970565860565,0.0929128198404995,-0.33533921068027334,0.43514859218172,,-0.11663162726452107,-0.13000303099636262,0.09163300952,-0.11611542257629885,,7.2181225e-05,-1.4305115e-06,-9.655952e-06,1.0,-5.802512e-05,-4.3913722e-05,5.802512e-05,1.0,-1.1175871e-05,4.389882e-05,1.12354755e-05,0.99999994,630,1.913,0,0,0.0,False,-0.25731619372725945,0.6128688515093041
1.942608600948006,15:01:37.510865,15:00:21.586073,0,,0.11828932,0.005655229,0.02054143,-0.80877477,-0.5798537,0.09824934,0.07111883,0.06940356,0.9950503,-0.58380246,0.81175894,-0.014893293,,0.06418175,-0.014715441,0.01825738,-0.7161505,-0.20549098,0.6670094,-0.07109754,0.97218263,0.22317258,-0.6943151,0.11240256,-0.71083903,,0.0996664,1.2986121,0.4311942,0.98269135,0.0064773783,-0.18513717,-0.105303995,-0.80268896,-0.5870277,-0.15240996,0.5963627,-0.78811336,,-0.11770594,0.25065976,-0.10427822,0.8981571,0.43828663,0.034909394,-0.2996163,0.55200815,0.7781498,0.32178238,-0.7093602,0.62710786,,-0.09100089,0.38225728,-0.36997733,0.8107878,0.2508951,-0.52884287,-0.52111065,0.72086954,-0.4569363,0.26658362,0.64606404,0.71521634,,1.123750305994157,0.5332392594994539,0.22478576003000003,0.6435384365540052,0.4140085942892846,0.772581187790365,-0.4083601653356981,,-1.4318178430798467,0.09741455247546797,0.19444868516000002,1.5709970565860565,0.09277618334073406,-0.33539115025685806,0.43710872097533127,,-0.11663162726452107,-0.13000303099636262,0.09163300952,-0.11611542257629885,,7.2181225e-05,-1.4305115e-06,-9.655952e-06,1.0,-5.802512e-05,-4.3913722e-05,5.802512e-05,1.0,-1.1175871e-05,4.389882e-05,1.12354755e-05,0.99999994,642,1.95,0,0,0.0,False,-0.25731619372725945,0.615669103154513
1.9674515419173986,15:01:37.539578,15:00:21.586073,0,,0.1182539,0.005605705,0.02118522,-0.7925049,-0.6008871,0.104261674,0.07880525,0.06862733,0.994525,-0.6047524,0.7963823,-0.0070343614,,0.064159855,-0.014724456,0.018253624,-0.716129,-0.20533589,0.66708034,-0.07132213,0.9722719,0.2227115,-0.69431424,0.11191267,-0.7109171,,0.0996664,1.2986121,0.4311942,0.98269135,0.0064773783,-0.18513717,-0.105303995,-0.80268896,-0.5870277,-0.15240996,0.5963627,-0.78811336,,-0.11778657,0.25101426,-0.104813,0.8867936,0.46133852,0.027638026,-0.30636466,0.5420198,0.7825313,0.3460315,-0.7024111,0.6219975,,-0.090979345,0.3822504,-0.36998528,0.81075114,0.25082624,-0.52893174,-0.52125454,0.7205379,-0.45729512,0.26641375,0.6464606,0.71492124,,1.1251403979115173,0.533826187197895,0.22436187320000003,0.6294892103405422,0.43860316424706386,0.7685349981925594,-0.4077067890711611,,-1.4317097248196076,0.09741455247546797,0.19443572226000003,1.570787366642572,0.09277618334073406,-0.33588122269770143,0.44102897856255396,,-0.11663162726452107,-0.13000303099636262,0.09163300952,-0.11611542257629885,,7.2181225e-05,-1.4305115e-06,-9.655952e-06,1.0,-5.802512e-05,-4.3913722e-05,5.802512e-05,1.0,-1.1175871e-05,4.389882e-05,1.12354755e-05,0.99999994,650,1.975,0,0,0.0,False,-0.2566608388235285,0.6193866786145312
1.9962003950495273,15:01:37.561035,15:00:21.586073,0,,0.118229344,0.005595647,0.021625638,-0.77961963,-0.6180807,0.10084281,0.07987553,0.06157145,0.9949014,-0.62113833,0.78369963,0.001367271,,0.06414913,-0.014727868,0.018248975,-0.716166,-0.205237,0.667071,-0.07134971,0.9723074,0.22254783,-0.6942732,0.11178598,-0.71097714,,0.0996664,1.2986121,0.4311942,0.98269135,0.0064773783,-0.18513717,-0.105303995,-0.80268896,-0.5870277,-0.15240996,0.5963627,-0.78811336,,-0.11783834,0.25127563,-0.10516471,0.87711185,0.4793727,0.029606663,-0.3155534,0.5287044,0.78797066,0.36207846,-0.7004809,0.6150006,,-0.09096827,0.38224554,-0.36998665,0.8107792,0.25075138,-0.52892417,-0.5212376,0.7204553,-0.45744452,0.2663614,0.6465817,0.71483123,,1.1260362349249273,0.5342663829717258,0.22408057827000002,0.6139721545226874,0.4548629077191513,0.7699784408779864,-0.4064000365420867,,-1.4316479429566138,0.09741455247546797,0.19443183339000003,1.570787366642572,0.09277618334073406,-0.33604458017798255,0.44364248362070247,,-0.11663162726452107,-0.13000303099636262,0.09163300952,-0.11611542257629885,,7.2181225e-05,-1.4305115e-06,-9.655952e-06,1.0,-5.802512e-05,-4.3913722e-05,5.802512e-05,1.0,-1.1175871e-05,4.389882e-05,1.12354755e-05,0.99999994,658,1.999,0,0,0.0,False,-0.25683957197909146,0.6208833648386944
2.0176922830287367,15:01:37.588844,15:00:21.586073,0,,0.11825493,0.0056108534,0.022380888,-0.753188,-0.64988,0.10180265,0.08706881,0.054906517,0.99468803,-0.6520174,0.7580509,0.015229374,,0.064135745,-0.0147302225,0.018245101,-0.71655357,-0.20453212,0.6668713,-0.070674166,0.9724127,0.22230336,-0.69394237,0.112161815,-0.7112409,,0.0996664,1.2986121,0.4311942,0.98269135,0.0064773783,-0.18513717,-0.105303995,-0.80268896,-0.5870277,-0.15240996,0.5963627,-0.78811336,,-0.11798907,0.2517494,-0.105734006,0.8574342,0.5139212,0.026297407,-0.32877618,0.5077898,0.79627615,0.39586964,-0.6914004,0.6043614,,-0.09095464,0.38224208,-0.3699881,0.8111545,0.2500046,-0.5287023,-0.5205232,0.72075456,-0.4577865,0.26661587,0.6465374,0.71477646,,1.127472663239533,0.535061824457771,0.22366187660000003,0.5875512216436373,0.48970521515933857,0.7670506423592545,-0.40411321961620683,,-1.4315784383607457,0.09742999794121641,0.19442664823000003,1.57162612641651,0.09277618334073406,-0.3362079376582636,0.4459293005465823,,-0.11663162726452107,-0.13000303099636262,0.09163300952,-0.11611542257629885,,7.2181225e-05,-1.4305115e-06,-9.655952e-06,1.0,-5.802512e-05,-4.3913722e-05,5.802512e-05,1.0,-1.1175871e-05,4.389882e-05,1.12354755e-05,0.99999994,687,2.089,0,0,0.0,False,-0.256541683386486,0.6291392791719819
2.0454534869641066,15:01:37.677975,15:00:21.586073,0,,0.11806381,0.005668208,0.024289817,-0.6791965,-0.7290169,0.08500858,0.07471046,0.046549648,0.9961182,-0.7301441,0.6829109,0.022848934,,0.064118415,-0.014738418,0.018247068,-0.71685416,-0.20310503,0.6669845,-0.07017554,0.97279024,0.22080418,-0.69368255,0.11147851,-0.71160173,,0.0996664,1.2986121,0.4311942,0.98269135,0.0064773783,-0.18513717,-0.105303995,-0.80268896,-0.5870277,-0.15240996,0.5963627,-0.78811336,,-0.1181177,0.2529622,-0.10721602,0.79675096,0.602874,0.041603412,-0.38642082,0.45533815,0.8020886,0.46461475,-0.6551413,0.59575415,,-0.09093844,0.3822398,-0.3699983,0.81144327,0.2487333,-0.5288588,-0.5199827,0.72035635,-0.45902583,0.26679176,0.64747083,0.71386534,,1.1307779929097013,0.5367144892928549,0.22253928946,0.4871097387145501,0.5584333745413551,0.7319171942759384,-0.40803347720342975,,-1.4315089337648779,0.09743772067409064,0.19441238904000002,1.5722551962469637,0.09277618334073406,-0.3376781549807938,0.46357045968908456,,-0.11663162726452107,-0.13000303099636262,0.09163300952,-0.11611542257629885,,7.2181225e-05,-1.4305115e-06,-9.655952e-06,1.0,-5.802512e-05,-4.3913722e-05,5.802512e-05,1.0,-1.1175871e-05,4.389882e-05,1.12354755e-05,0.99999994,695,2.114,0,0,0.0,False,-0.259282258438454,0.6467132722557047
2.134631355991587,15:01:37.699356,15:00:21.586073,0,,0.118028685,0.0056397244,0.02464363,-0.6642401,-0.7423366,0.087871,0.075506866,0.050319225,0.99587476,-0.74369586,0.66813487,0.022627562,,0.06411511,-0.01473818,0.018250644,-0.7153993,-0.20491871,0.667991,-0.07292758,0.97270405,0.22029173,-0.69489944,0.10888171,-0.710816,,0.0996664,1.2986121,0.4311942,0.98269135,0.0064773783,-0.18513717,-0.105303995,-0.80268896,-0.5870277,-0.15240996,0.5963627,-0.78811336,,-0.118146874,0.25315604,-0.10751404,0.784531,0.6188737,0.038812503,-0.3940961,0.449304,0.8017569,0.47874767,-0.64429903,0.59638864,,-0.090935744,0.38224298,-0.37000084,0.8100158,0.2509262,-0.53000987,-0.52278286,0.7184527,-0.45882878,0.26565483,0.6487386,0.7131379,,1.1312954160122741,0.5368689439503395,0.22232021645000002,0.4701248532923036,0.5731901165160227,0.7202924543774276,-0.4081968212695639,,-1.4315012110320036,0.09743772067409064,0.19440850017000003,1.5689001571512111,0.0929128198404995,-0.3386063602858958,0.4678174054085758,,-0.11663162726452107,-0.13000303099636262,0.09163300952,-0.11611542257629885,,7.2181225e-05,-1.4305115e-06,-9.655952e-06,1.0,-5.802512e-05,-4.3913722e-05,5.802512e-05,1.0,-1.1175871e-05,4.389882e-05,1.12354755e-05,0.99999994,703,2.138,0,0,0.0,False,-0.259580147031059,0.648306518881427
2.1559964299667627,15:01:37.727567,15:00:21.807342,0,,0.11797398,0.0056415424,0.024986506,-0.6466652,-0.7581094,0.084226936,0.07252614,0.048811316,0.99617136,-0.75931805,0.650298,0.023418218,,0.06410213,-0.0147406235,0.018244028,-0.7154343,-0.20610398,0.6675887,-0.074506775,0.97255754,0.22041005,-0.6946959,0.10794908,-0.7111571,,0.0996664,1.2986121,0.4311942,0.98269135,0.0064773783,-0.18513717,-0.105303995,-0.80268896,-0.5870277,-0.15240996,0.5963627,-0.78811336,,-0.11815116,0.2533672,-0.10778961,0.76961505,0.63710696,0.042277765,-0.40602958,0.4372255,0.8024798,0.49278057,-0.6347665,0.5951796,,-0.090922065,0.38223734,-0.3700006,0.8099101,0.25223175,-0.52955145,-0.523628,0.7177381,-0.45898333,0.26430908,0.64902323,0.71337897,,1.1317742254504761,0.5369847849434528,0.22212577295000002,0.44684926956552135,0.5874003124916285,0.7105836034162327,-0.40934022973250395,,-1.4314703201005066,0.09743772067409064,0.19440461130000003,1.567642017490304,0.09195636434214143,-0.33856154362128593,0.4722276951942013,,-0.11663162726452107,-0.13000303099636262,0.09163300952,-0.11611542257629885,,7.2181225e-05,-1.4305115e-06,-9.655952e-06,1.0,-5.802512e-05,-4.3913722e-05,5.802512e-05,1.0,-1.1175871e-05,4.389882e-05,1.12354755e-05,0.99999994,711,2.163,0,0,0.0,False,-0.25975888018662197,0.6485962000861036
2.184219384100288,15:01:37.756313,15:00:21.807342,0,,0.11796956,0.005538143,0.025517046,-0.6252223,-0.77488554,0.09300199,0.08299625,0.05247411,0.9951674,-0.7760209,0.62991965,0.03150466,,0.064074434,-0.014743127,0.01824361,-0.71206844,-0.21338859,0.66889733,-0.08297175,0.97159517,0.221627,-0.69719017,0.102314115,-0.70954746,,0.0996664,1.2986121,0.4311942,0.98269135,0.0064773783,-0.18513717,-0.105303995,-0.80268896,-0.5870277,-0.15240996,0.5963627,-0.78811336,,-0.118249886,0.25360978,-0.108262494,0.75283796,0.6574175,0.032206673,-0.40798518,0.42768604,0.8066181,0.5165105,-0.62039256,0.5901949,,-0.0908949,0.38223767,-0.37000653,0.80641335,0.26023594,-0.53101295,-0.53119385,0.7133812,-0.45707813,0.25986648,0.65066475,0.7135158,,1.1324074895461624,0.5371392396009373,0.22179133013000002,0.43091283386069756,0.6137711569463585,0.6996981842210963,-0.4096669178647724,,-1.4314008155046387,0.09744544340696486,0.19438905582000002,1.5582059700335005,0.09099990884378334,-0.33835336947639494,0.47337110365714125,,-0.11663162726452107,-0.13000303099636262,0.09163300952,-0.11611542257629885,,7.2181225e-05,-1.4305115e-06,-9.655952e-06,1.0,-5.802512e-05,-4.3913722e-05,5.802512e-05,1.0,-1.1175871e-05,4.389882e-05,1.12354755e-05,0.99999994,719,2.188,0,0,0.0,False,-0.2590439475643693,0.6467132722557047
2.2129663780797273,15:01:37.785483,15:00:21.807342,0,,0.117899,0.0055075735,0.026035517,-0.6021353,-0.793762,0.08587715,0.08329356,0.044521272,0.99553,-0.7940372,0.6065967,0.039307505,,0.0640351,-0.014758743,0.018232584,-0.71225816,-0.21421434,0.6684313,-0.0844333,0.9715258,0.22137877,-0.69682074,0.10124105,-0.71006405,,0.0996664,1.2986121,0.4311942,0.98269135,0.0064773783,-0.18513717,-0.105303995,-0.80268896,-0.5870277,-0.15240996,0.5963627,-0.78811336,,-0.11827255,0.25390267,-0.10869655,0.73336375,0.6787794,0.037895948,-0.4187958,0.40715742,0.81168526,0.5355256,-0.6111312,0.58286446,,-0.09085547,0.38222235,-0.37001768,0.80644184,0.26121497,-0.5304887,-0.5318245,0.7125792,-0.4575954,0.25848445,0.651151,0.71357423,,1.1330716445733457,0.5373940897857867,0.22147762795000003,0.4038628311511939,0.6338567224118782,0.6940196673361363,-0.40983026193090644,,-1.4312386381142799,0.09743772067409064,0.19436831518000003,1.557157520316078,0.09004345334542525,-0.33863526777234726,0.4723910392603356,,-0.11663162726452107,-0.13000303099636262,0.09163300952,-0.11611542257629885,,7.2181225e-05,-1.4305115e-06,-9.655952e-06,1.0,-5.802512e-05,-4.3913722e-05,5.802512e-05,1.0,-1.1175871e-05,4.389882e-05,1.12354755e-05,0.99999994,727,2.212,0,0,0.0,False,-0.2602355019347904,0.6465201514525867
2.242133741034195,15:01:37.808517,15:00:21.807342,0,,0.11784908,0.005495243,0.026282191,-0.5940044,-0.7999678,0.08491266,0.084311426,0.043064088,0.99550843,-0.80003136,0.5984955,0.041866213,,0.06401177,-0.014767103,0.01822418,-0.7125688,-0.21424043,0.66809165,-0.08445425,0.9715053,0.22146097,-0.69650054,0.10138309,-0.7103579,,0.0996664,1.2986121,0.4311942,0.98269135,0.0064773783,-0.18513717,-0.105303995,-0.80268896,-0.5870277,-0.15240996,0.5963627,-0.78811336,,-0.118267074,0.2540438,-0.108905226,0.72656375,0.686025,0.038402952,-0.42166594,0.40105915,0.8132339,0.5424969,-0.6070595,0.58066845,,-0.090831734,0.38221252,-0.3700225,0.8066955,0.2612167,-0.530102,-0.5315673,0.71267724,-0.45774162,0.2582219,0.651043,0.71376777,,1.133527285812925,0.5375871581076423,0.22131818428000002,0.3948461635813594,0.6413717298989775,0.6907504385377528,-0.41097367039384647,,-1.4311227971211666,0.09743772067409064,0.19435794486000002,1.5573672102595624,0.08977018034589437,-0.338494110705095,0.4723910392603356,,-0.11663162726452107,-0.13000303099636262,0.09163300952,-0.11611542257629885,,7.2181225e-05,-1.4305115e-06,-9.655952e-06,1.0,-5.802512e-05,-4.3913722e-05,5.802512e-05,1.0,-1.1175871e-05,4.389882e-05,1.12354755e-05,0.99999994,735,2.237,0,0,0.0,False,-0.2593418361569748,0.6464718712518076
2.2651574260089546,15:01:37.827137,15:00:21.807342,0,,0.117762744,0.005540855,0.026527792,-0.58098954,-0.81022877,0.07733277,0.07921991,0.03826934,0.99612224,-0.8100464,0.58486295,0.041952252,,0.063994296,-0.014774732,0.018217146,-0.7127171,-0.21410015,0.6679785,-0.084323615,0.9715256,0.22142157,-0.69636464,0.10148466,-0.71047664,,0.0996664,1.2986121,0.4311942,0.98269135,0.0064773783,-0.18513717,-0.105303995,-0.80268896,-0.5870277,-0.15240996,0.5963627,-0.78811336,,-0.118218355,0.25423017,-0.10908619,0.71488315,0.6977375,0.04587407,-0.43183532,0.38894323,0.81378216,0.54996395,-0.6015692,0.5793567,,-0.09081392,0.38220364,-0.37002668,0.8068289,0.26106378,-0.52997434,-0.5313681,0.71275693,-0.4578488,0.25821516,0.65101707,0.7137939,,1.13397520431963,0.5377570582308753,0.22119114786000002,0.374715929006845,0.6484768278867804,0.6846299925849765,-0.4099936059970406,,-1.4310224015938016,0.09742999794121641,0.19435016712000003,1.557576900203047,0.08977018034589437,-0.338494110705095,0.4723910392603356,,-0.11663162726452107,-0.13000303099636262,0.09163300952,-0.11611542257629885,,7.2181225e-05,-1.4305115e-06,-9.655952e-06,1.0,-5.802512e-05,-4.3913722e-05,5.802512e-05,1.0,-1.1175871e-05,4.389882e-05,1.12354755e-05,0.99999994,756,2.302,0,0,0.0,False,-0.25815028178655464,0.6463753108502486
2.283792271045968,15:01:37.890750,15:00:21.807342,0,,0.11760157,0.005778864,0.027234077,-0.5350152,-0.8422305,0.06638035,0.071920395,0.032881647,0.99686813,-0.8417755,0.5381137,0.042981476,,0.063945204,-0.014789633,0.018185794,-0.7129059,-0.21398187,0.6678149,-0.084466204,0.97157645,0.22114402,-0.6961541,0.10124725,-0.71071684,,0.0996664,1.2986121,0.4311942,0.98269135,0.0064773783,-0.18513717,-0.105303995,-0.80268896,-0.5870277,-0.15240996,0.5963627,-0.78811336,,-0.118149586,0.25485057,-0.1095242,0.6743837,0.73621637,0.056498103,-0.4570716,0.3561382,0.81501603,0.579907,-0.5754572,0.5766774,,-0.09076161,0.38217402,-0.3700262,0.80697167,0.26098847,-0.52979404,-0.53128207,0.71259755,-0.45819664,0.25794587,0.65122175,0.7137045,,1.13507183238777,0.538467549655304,0.22096429711,0.3132767755658794,0.6788101308347082,0.6558929596974835,-0.4081968212695639,,-1.4307057695459584,0.09741455247546797,0.19433979680000002,1.557576900203047,0.08977018034589437,-0.3387391469255167,0.4725543833264698,,-0.11663162726452107,-0.13000303099636262,0.09163300952,-0.11611542257629885,,7.2181225e-05,-1.4305115e-06,-9.655952e-06,1.0,-5.802512e-05,-4.3913722e-05,5.802512e-05,1.0,-1.1175871e-05,4.389882e-05,1.12354755e-05,0.99999994,764,2.327,0,0,0.0,False,-0.25868648125324345,0.6471477940627199
2.3473720729816705,15:01:37.911237,15:00:21.807342,0,,0.117566705,0.005820915,0.027376682,-0.52238375,-0.85045487,0.06198164,0.069073826,0.030245095,0.997153,-0.8499081,0.5251778,0.04294473,,0.063938424,-0.014791854,0.018183053,-0.712929,-0.21398857,0.6677881,-0.08448343,0.9715756,0.22114101,-0.69612837,0.10124096,-0.7107429,,0.0996664,1.2986121,0.4311942,0.98269135,0.0064773783,-0.18513717,-0.105303995,-0.80268896,-0.5870277,-0.15240996,0.5963627,-0.78811336,,-0.11813419,0.2549711,-0.10961671,0.66304904,0.7460996,0.06083913,-0.46431315,0.3461533,0.81522465,0.58717906,-0.5687823,0.57594043,,-0.090754636,0.382171,-0.3700272,0.80698913,0.26099598,-0.5297637,-0.5312714,0.7125927,-0.45821643,0.2579131,0.651224,0.7137143,,1.1351258915178895,0.5385216087854235,0.22092151954000003,0.29587251025666383,0.6860518653222765,0.6485992722191836,-0.4099936059970408,,-1.4306671558815873,0.09741455247546797,0.19433720422000003,1.557576900203047,0.08977018034589437,-0.3387391469255167,0.4725543833264698,,-0.11663162726452107,-0.13000303099636262,0.09163300952,-0.11611542257629885,,7.2181225e-05,-1.4305115e-06,-9.655952e-06,1.0,-5.802512e-05,-4.3913722e-05,5.802512e-05,1.0,-1.1175871e-05,4.389882e-05,1.12354755e-05,0.99999994,772,2.351,0,0,0.0,False,-0.2587460589717643,0.6472926346650585
2.3678900559898466,15:01:37.941560,15:00:22.016026,0,,0.117542714,0.0058632717,0.02756375,-0.50276697,-0.86240256,0.059051536,0.0674243,0.028981328,0.99730337,-0.86178833,0.50539273,0.043576032,,0.06393735,-0.014794044,0.018182456,-0.7130219,-0.21383223,0.6677391,-0.084311485,0.97159785,0.2211088,-0.6960541,0.10135743,-0.710799,,0.0996664,1.2986121,0.4311942,0.98269135,0.0064773783,-0.18513717,-0.105303995,-0.80268896,-0.5870277,-0.15240996,0.5963627,-0.78811336,,-0.11813692,0.255119,-0.109741114,0.64567703,0.76095617,0.063614845,-0.472908,0.33307183,0.81573355,0.5995492,-0.5567844,0.5749191,,-0.090753645,0.38216928,-0.37002873,0.80708057,0.26082504,-0.5297087,-0.53109765,0.71268386,-0.45827606,0.25798494,0.6511927,0.71371686,,1.1350254959905246,0.5384984405868009,0.22088003826000002,0.27133878686897456,0.6990323327999933,0.6358092453842283,-0.410156950063175,,-1.430659433148713,0.09740682974259374,0.19433590793000002,1.5577865901465313,0.08977018034589437,-0.3387391469255167,0.4725543833264698,,-0.11663162726452107,-0.13000303099636262,0.09163300952,-0.11611542257629885,,7.2181225e-05,-1.4305115e-06,-9.655952e-06,1.0,-5.802512e-05,-4.3913722e-05,5.802512e-05,1.0,-1.1175871e-05,4.389882e-05,1.12354755e-05,0.99999994,780,2.376,0,0,0.0,False,-0.25826943722359585,0.6473891950666171
2.398178549017757,15:01:37.968763,15:00:22.016026,0,,0.11753824,0.005866654,0.02764538,-0.49311537,-0.86802936,0.057983503,0.06666714,0.028750062,0.99736094,-0.86740565,0.49567962,0.043692023,,0.06393783,-0.014794551,0.018184245,-0.71301717,-0.21377638,0.6677619,-0.08430804,0.97161615,0.22103009,-0.6960592,0.10130063,-0.7108021,,0.0996664,1.2986121,0.4311942,0.98269135,0.0064773783,-0.18513717,-0.105303995,-0.80268896,-0.5870277,-0.15240996,0.5963627,-0.78811336,,-0.11814592,0.2551716,-0.109803155,0.6370984,0.76806676,0.06464626,-0.47695428,0.32695735,0.8158514,0.60549176,-0.5506109,0.5746367,,-0.09075443,0.3821703,-0.37003016,0.80707705,0.26078027,-0.52973604,-0.5310998,0.7126474,-0.4583303,0.2579915,0.6512506,0.71366173,,1.13487104133304,0.5384366587238071,0.22085670504000002,0.25938646009035665,0.7053176117892036,0.6291321257515222,-0.40917688566636945,,-1.4306671558815873,0.09740682974259374,0.19433461164000002,1.5577865901465313,0.08977018034589437,-0.33882082566565724,0.4727177273926041,,-0.11663162726452107,-0.13000303099636262,0.09163300952,-0.11611542257629885,,7.2181225e-05,-1.4305115e-06,-9.655952e-06,1.0,-5.802512e-05,-4.3913722e-05,5.802512e-05,1.0,-1.1175871e-05,4.389882e-05,1.12354755e-05,0.99999994,788,2.401,0,0,0.0,False,-0.2586269035347226,0.6476305960705147
2.42532567307353,15:01:37.988209,15:00:22.016026,0,,0.11755243,0.005866803,0.027743906,-0.48208922,-0.8741195,0.059202515,0.06785101,0.030120492,0.9972406,-0.87349063,0.48477596,0.044789165,,0.06393778,-0.014796473,0.018184662,-0.713017,-0.21366262,0.6677985,-0.084308684,0.9716538,0.22086388,-0.69605935,0.10117859,-0.7108193,,0.0996664,1.2986121,0.4311942,0.98269135,0.0064773783,-0.18513717,-0.105303995,-0.80268896,-0.5870277,-0.15240996,0.5963627,-0.78811336,,-0.11817643,0.25523195,-0.10987623,0.62750614,0.776038,0.06325411,-0.47975248,0.32138297,0.81642544,0.61324835,-0.5426583,0.5739759,,-0.09075458,0.3821694,-0.3700319,0.8070768,0.2606902,-0.52978075,-0.53110033,0.71256864,-0.45845214,0.25799114,0.6513728,0.71355027,,1.134662527545436,0.5383903223265617,0.22083466811000002,0.24743413331173872,0.7139257112744264,0.6208876167165392,-0.410156950063175,,-1.4306671558815873,0.09739910700971952,0.19433331535,1.5577865901465313,0.08977018034589437,-0.3389841831459383,0.47304441552487275,,-0.11663162726452107,-0.13000303099636262,0.09163300952,-0.11611542257629885,,7.2181225e-05,-1.4305115e-06,-9.655952e-06,1.0,-5.802512e-05,-4.3913722e-05,5.802512e-05,1.0,-1.1175871e-05,4.389882e-05,1.12354755e-05,0.99999994,796,2.425,0,0,0.0,False,-0.25826943722359585,0.6483547990822065
2.444784068968147,15:01:38.011736,15:00:22.016026,0,,0.11757213,0.005875312,0.027837873,-0.46908945,-0.8811437,0.05950377,0.06699604,0.03167817,0.9972502,-0.8806057,0.47178608,0.04417327,,0.063938886,-0.014796309,0.018185616,-0.71301234,-0.21349765,0.6678562,-0.08430526,0.97170806,0.22062635,-0.6960646,0.10100567,-0.7108388,,0.0996664,1.2986121,0.4311942,0.98269135,0.0064773783,-0.18513717,-0.105303995,-0.80268896,-0.5870277,-0.15240996,0.5963627,-0.78811336,,-0.11821046,0.25529608,-0.10993956,0.6158965,0.7852988,0.06306513,-0.48479638,0.31468242,0.816056,0.6210024,-0.5331798,0.57452184,,-0.090755805,0.38217014,-0.37003216,0.8070733,0.2605589,-0.52985066,-0.5311025,0.71245724,-0.45862275,0.2579977,0.6515472,0.7133887,,1.1342995591003475,0.5383594313950648,0.22082040892000002,0.23149769760691488,0.7221239012603529,0.6099552480074448,-0.409503573798638,,-1.4306748786144616,0.09739910700971952,0.19433331535,1.5577865901465313,0.08977018034589437,-0.3392292193663601,0.473207759591007,,-0.11663162726452107,-0.13000303099636262,0.09163300952,-0.11611542257629885,,7.2181225e-05,-1.4305115e-06,-9.655952e-06,1.0,-5.802512e-05,-4.3913722e-05,5.802512e-05,1.0,-1.1175871e-05,4.389882e-05,1.12354755e-05,0.99999994,821,2.503,0,0,0.0,False,-0.2585077480976805,0.6496583645032521
2.4683923670090735,15:01:38.088839,15:00:22.016026,0,,0.1175473,0.005989462,0.028113246,-0.4261212,-0.9035645,0.044628777,0.058520466,0.021697313,0.99805045,-0.90277123,0.4279021,0.043631405,,0.06392778,-0.014800288,0.018181264,-0.7135725,-0.21306282,0.6673967,-0.08457515,0.97186387,0.21983555,-0.6954576,0.100423574,-0.7115152,,0.0996664,1.2986121,0.4311942,0.98269135,0.0064773783,-0.18513717,-0.105303995,-0.80268896,-0.5870277,-0.15240996,0.5963627,-0.78811336,,-0.118218035,0.25555483,-0.11008949,0.5765656,0.8133389,0.077794634,-0.5051119,0.27998215,0.81637734,0.6422103,-0.5099901,0.5722552,,-0.090744436,0.3821651,-0.37003422,0.8075102,0.26023367,-0.5293446,-0.5307635,0.71207476,-0.45960817,0.25732744,0.6520951,0.7131301,,1.1333728311554405,0.5383825995936875,0.22081263118000002,0.17320389331821712,0.743302558723996,0.5842725627000216,-0.40934022973250384,,-1.430651710415839,0.09739910700971952,0.19432813019000003,1.557996280090016,0.08895036134730173,-0.33994925052657105,0.4789248019057067,,-0.11663162726452107,-0.13000303099636262,0.09163300952,-0.11611542257629885,,7.2181225e-05,-1.4305115e-06,-9.655952e-06,1.0,-5.802512e-05,-4.3913722e-05,5.802512e-05,1.0,-1.1175871e-05,4.389882e-05,1.12354755e-05,0.99999994,829,2.528,0,0,0.0,False,-0.2575545046013441,0.6534242201640494
2.5454100840725005,15:01:38.112777,15:00:22.016026,0,,0.117583305,0.005984746,0.028175771,-0.4182995,-0.90692663,0.050094604,0.061779708,0.026615918,0.99773484,-0.9062056,0.4204468,0.044896245,,0.06392934,-0.014800586,0.018183947,-0.7135633,-0.2129511,0.66744226,-0.08456825,0.97190005,0.21967798,-0.6954678,0.10030979,-0.71152115,,0.0996664,1.2986121,0.4311942,0.98269135,0.0064773783,-0.18513717,-0.105303995,-0.80268896,-0.5870277,-0.15240996,0.5963627,-0.78811336,,-0.1182644,0.25558928,-0.110132985,0.5699241,0.81851923,0.07219929,-0.50464296,0.2793203,0.8168939,0.64847666,-0.5020024,0.5722514,,-0.09074643,0.3821669,-0.37003592,0.8075032,0.26014417,-0.5293993,-0.53076774,0.71200156,-0.4597166,0.25734052,0.65221065,0.7130197,,1.133110258237717,0.538367154127939,0.22081263118000002,0.16649381512671232,0.7508175662110952,0.5753675008319393,-0.4086868534679666,,-1.4306671558815873,0.09739910700971952,0.19432683390000002,1.557996280090016,0.08895036134730173,-0.34011260800685217,0.47859811377343814,,-0.11663162726452107,-0.13000303099636262,0.09163300952,-0.11611542257629885,,7.2181225e-05,-1.4305115e-06,-9.655952e-06,1.0,-5.802512e-05,-4.3913722e-05,5.802512e-05,1.0,-1.1175871e-05,4.389882e-05,1.12354755e-05,0.99999994,837,2.552,0,0,0.0,False,-0.2575545046013441,0.6528931379554752
