AlexandreBanks6/ExpertPlaybackApp/resources/Motions/P_20/PC1/Data_PC1_7.csv
Task Time,PC1 Time,PC2 Time,Gaze Calib,s_T_psm1,Tx,Ty,Tz,R00,R01,R02,R10,R11,R12,R20,R21,R22,s_T_psm3,Tx,Ty,Tz,R00,R01,R02,R10,R11,R12,R20,R21,R22,cart_T_ecm,Tx,Ty,Tz,R00,R01,R02,R10,R11,R12,R20,R21,R22,ecm_T_psm1,Tx,Ty,Tz,R00,R01,R02,R10,R11,R12,R20,R21,R22,ecm_T_psm3,Tx,Ty,Tz,R00,R01,R02,R10,R11,R12,R20,R21,R22,psm1_joints,q1,q2,q3,q4,q5,q6,jaw,psm3_joints,q1,q2,q3,q4,q5,q6,jaw,ecm_joints,q1,q2,q3,q4,ecmi_T_ecm,Tx,Ty,Tz,R00,R01,R02,R10,R11,R12,R20,R21,R22,Sample #,Task Duration (s),Collisions (binary),Collisions (increments),Cumulative Collision Time (s),Clutch Press,MTMR Angle,MTML Angle
""
lci_T_si,,,,,-0.05902216,0.010539636,0.21019456,0.9780104,-0.095470026,0.1854214,0.04162175,-0.7818391,-0.62208945,0.20436059,0.61612755,-0.7606731
rci_T_si,,,,,-0.06840233,0.014540867,0.21914718,0.97457415,-0.112241976,0.19392501,0.038261294,-0.76940894,-0.6376096,0.22077419,0.6288177,-0.7455515
ecm_T_lc,,,,,-4.4061628e-05,-0.00034663224,-0.01840835,-0.99912,0.030754527,0.028518902,-0.031987965,-0.99852574,-0.043852776,0.027128186,-0.04472645,0.9986309
ecm_T_rc,,,,,-0.0043358393,0.01870579,-0.007592615,-0.99555075,-0.052743673,-0.078081585,0.04863213,-0.9973746,0.053654674,-0.08070653,0.04961868,0.9955021
cart_T_ecmi,,,,,0.09962965,1.2986269,0.43119717,0.9826964,0.0064842543,-0.18511015,-0.10526184,-0.8027695,-0.5869251,-0.15240656,0.5962542,-0.78819615
ecmac_T_ecmrep_psm1,,,,,0.044880565,-0.23049864,-0.32052848,0.99797076,0.0626086,0.011601057,-0.061749555,0.99606305,-0.0636032,-0.015537491,0.06275777,0.9979078
ecmac_T_ecmrep_psm3,,,,,0.047327206,-0.4153428,-0.56493527,0.997773,0.014750276,0.065049894,-0.025394045,0.985803,0.16597453,-0.061678212,-0.16725679,0.9839822
""
0,14:52:44.190852,14:51:28.239693,0,,0.11517547,-0.0004196614,0.023493424,-0.71079326,-0.6214762,-0.32945457,-0.3590614,-0.082178324,0.929689,-0.6048534,0.7791111,-0.16473645,,0.07194221,-0.0102368,0.01693958,-0.02445528,-0.59551,0.8029754,-0.19841468,0.79012805,0.5799391,-0.97981286,-0.14513965,-0.13748083,,0.09964969,1.2986248,0.43119425,0.9826956,0.0064783,-0.1851145,-0.105269134,-0.80276954,-0.5869237,-0.15240656,0.5962542,-0.78819615,,-0.11593505,0.24732982,-0.11058122,0.7550878,0.45720237,0.46990258,-0.64871234,0.4172187,0.6364753,0.09494591,-0.7854264,0.61162955,,-0.09810981,0.38343698,-0.3645753,0.17512923,0.66327465,-0.72759634,-0.8761197,0.44213614,0.19217183,0.44915935,0.60380656,0.65853894,,1.1157263865378375,0.5220644650304511,0.21799708930000003,0.27679072539957217,0.15795179372884915,0.8221047960433624,-0.41718074490694923,,-1.4439579791581276,0.08291126013767433,0.20306382850000002,0.9547183126850394,0.5934123184813078,-0.24187384871707224,0.8753608504136026,,-0.11663162726452107,-0.13014047567495718,0.09162943763999999,-0.11611542257629885,,2.0362437e-05,5.9604645e-08,-1.1920929e-07,1.0,-5.8561563e-06,-4.4330955e-06,5.841255e-06,1.0,-1.1622906e-06,4.4330955e-06,1.1324883e-06,1.0,38,0.111,0,0,0.0,False,-0.25791197091247,1.0498529487641832
0.12635138002224267,14:52:44.211162,14:51:28.239693,0,,0.115113005,-0.00030270964,0.023745134,-0.68896794,-0.6477176,-0.32524633,-0.36091918,-0.08255336,0.928936,-0.62853825,0.7573947,-0.17689723,,0.07194157,-0.010235503,0.016940057,-0.024455175,-0.59551406,0.80297244,-0.19840902,0.79012597,0.57994395,-0.97981405,-0.14513457,-0.13747814,,0.09964969,1.2986248,0.43119425,0.9826956,0.0064783,-0.1851145,-0.105269134,-0.80276954,-0.5869237,-0.15240656,0.5962542,-0.78819615,,-0.11590391,0.24757694,-0.11071868,0.73776937,0.48662078,0.46786383,-0.6648617,0.40382594,0.6283976,0.11685579,-0.7746772,0.6214659,,-0.09810919,0.38343823,-0.36457473,0.17512968,0.6632777,-0.72759354,-0.876117,0.44213906,0.19217719,0.44916436,0.60380113,0.6585405,,1.1167226190786126,0.5220721877633253,0.21789986755000001,0.2503697925205221,0.17803735919436892,0.8049912555387233,-0.4173440889730835,,-1.4439579791581276,0.08291898287054857,0.20306382850000002,0.9547183126850394,0.5934123184813078,-0.24187384871707224,0.8753608504136026,,-0.11663162726452107,-0.13014047567495718,0.09162943763999999,-0.11611542257629885,,2.0362437e-05,5.9604645e-08,-1.1920929e-07,1.0,-5.8561563e-06,-4.4330955e-06,5.841255e-06,1.0,-1.1622906e-06,4.4330955e-06,1.1324883e-06,1.0,42,0.124,0,0,0.0,False,-0.25785239319394915,1.0497563883626244
0.14667747705243528,14:52:44.236067,14:51:28.239693,0,,0.1149656,-0.00015126914,0.024110213,-0.65843123,-0.6812116,-0.32002968,-0.36492604,-0.08293465,0.9273353,-0.65825295,0.72737366,-0.1939852,,0.07194272,-0.010235131,0.016942263,-0.024361812,-0.5954212,0.80304414,-0.19830352,0.7901987,0.57988095,-0.9798377,-0.14511962,-0.13732484,,0.09964969,1.2986248,0.43119425,0.9826956,0.0064783,-0.1851145,-0.105269134,-0.80276954,-0.5869237,-0.15240656,0.5962542,-0.78819615,,-0.11580563,0.24792142,-0.110941425,0.71274906,0.52459204,0.4656092,-0.686472,0.3853981,0.61662346,0.14403085,-0.7591255,0.6348099,,-0.09811066,0.38344008,-0.36457562,0.17504896,0.6631887,-0.72769403,-0.87607634,0.44218853,0.19224866,0.4492751,0.6038626,0.6584086,,1.1182594429205832,0.5220721877633253,0.21773912759000003,0.2134643624672458,0.2026319291521482,0.7808520958663394,-0.4173440889730834,,-1.443965701891002,0.08291898287054857,0.20306382850000002,0.9547183126850394,0.5935489549810733,-0.24198526662076864,0.8753608504136026,,-0.11663162726452107,-0.13014047567495718,0.09162943763999999,-0.11611542257629885,,2.0362437e-05,5.9604645e-08,-1.1920929e-07,1.0,-5.8561563e-06,-4.4330955e-06,5.841255e-06,1.0,-1.1622906e-06,4.4330955e-06,1.1324883e-06,1.0,53,0.156,0,0,0.0,False,-0.2586269035347226,1.049804668563404
0.17156974785029888,14:52:44.266228,14:51:28.347037,0,,0.11479835,1.1250377e-05,0.024498746,-0.6236639,-0.71565217,-0.31446034,-0.37160313,-0.082487404,0.9247199,-0.6877167,0.6935688,-0.21449429,,0.07193982,-0.010236084,0.01694119,-0.024374463,-0.59542644,0.8030399,-0.1983091,0.79019535,0.5798835,-0.9798363,-0.14511591,-0.13733917,,0.09964969,1.2986248,0.43119425,0.9826956,0.0064783,-0.1851145,-0.105269134,-0.80276954,-0.5869237,-0.15240656,0.5962542,-0.78819615,,-0.115690745,0.2482892,-0.111179926,0.68321407,0.5642662,0.46348912,-0.7100724,0.36531463,0.60194886,0.17034005,-0.74037075,0.65025795,,-0.098107696,0.3834389,-0.36457616,0.17506078,0.66319305,-0.72768724,-0.8760777,0.44218975,0.19223964,0.44926783,0.6038569,0.6584187,,1.1197962667625538,0.5221725832906903,0.21756801731000003,0.17152637377034094,0.22572349761250762,0.7525477362853389,-0.4166907127085463,,-1.4439502564252535,0.08291898287054857,0.20306253221,0.9547183126850394,0.5935489549810733,-0.24198526662076864,0.8753608504136026,,-0.11663162726452107,-0.13014047567495718,0.09162943763999999,-0.11611542257629885,,2.0362437e-05,5.9604645e-08,-1.1920929e-07,1.0,-5.8561563e-06,-4.4330955e-06,5.841255e-06,1.0,-1.1622906e-06,4.4330955e-06,1.1324883e-06,1.0,64,0.188,0,0,0.0,False,-0.2583885926606384,1.0498529487641832
0.2017020049970597,14:52:44.294315,14:51:28.347037,0,,0.11470285,9.5538795e-05,0.024764672,-0.60368854,-0.7346873,-0.30950716,-0.37350088,-0.08234313,0.92396784,-0.70431316,0.6733899,-0.22469687,,0.07193871,-0.010236248,0.016940176,-0.024380773,-0.59542906,0.8030377,-0.19831195,0.79019374,0.57988477,-0.9798355,-0.14511406,-0.13734633,,0.09964969,1.2986248,0.43119425,0.9826956,0.0064783,-0.1851145,-0.105269134,-0.80276954,-0.5869237,-0.15240656,0.5962542,-0.78819615,,-0.115634084,0.24851947,-0.11135514,0.6664344,0.58644676,0.46037528,-0.72189647,0.3532174,0.5950655,0.18636167,-0.7289154,0.65875006,,-0.09810645,0.3834381,-0.36457583,0.17506668,0.6631952,-0.72768384,-0.87607837,0.44219038,0.19223514,0.4492642,0.6038541,0.6584238,,1.1206921037759638,0.5222884242838036,0.21743579573000002,0.14846047998704323,0.23993369358811342,0.7360595498924773,-0.41767077710535205,,-1.4439425336923792,0.08291898287054857,0.20306253221,0.9547183126850394,0.5935489549810733,-0.24198526662076864,0.8753608504136026,,-0.11663162726452107,-0.13014047567495718,0.09162943763999999,-0.11611542257629885,,2.0362437e-05,5.9604645e-08,-1.1920929e-07,1.0,-5.8561563e-06,-4.4330955e-06,5.841255e-06,1.0,-1.1622906e-06,4.4330955e-06,1.1324883e-06,1.0,71,0.21,1,1,0.0,False,-0.2591631030014119,1.0499012289649627
0.22979051899164915,14:52:44.324560,14:51:28.347037,0,,0.11460778,0.00021725893,0.025259629,-0.5724839,-0.7647168,-0.29575405,-0.3722316,-0.07899457,0.9247721,-0.7305516,0.6395061,-0.2394287,,0.07193982,-0.010236084,0.01694119,-0.024374463,-0.59542644,0.8030399,-0.1983091,0.79019535,0.5798835,-0.9798363,-0.14511591,-0.13733917,,0.09964969,1.2986248,0.43119425,0.9826956,0.0064783,-0.1851145,-0.105269134,-0.80276954,-0.5869237,-0.15240656,0.5962542,-0.78819615,,-0.11561379,0.24891962,-0.111684225,0.6408201,0.62220305,0.44968098,-0.7372125,0.33534387,0.58656824,0.21416676,-0.70739514,0.6735909,,-0.098107696,0.3834389,-0.36457616,0.17506078,0.66319305,-0.72768724,-0.8760777,0.44218975,0.19223964,0.44926783,0.6038569,0.6584187,,1.1219122955700913,0.5226900063932632,0.21717913031000002,0.1144907091425503,0.264938173045189,0.7066037333604299,-0.41848749743602354,,-1.4439502564252535,0.08291898287054857,0.20306253221,0.9547183126850394,0.5935489549810733,-0.24198526662076864,0.8753608504136026,,-0.11663162726452107,-0.13014047567495718,0.09162943763999999,-0.11611542257629885,,2.0362437e-05,5.9604645e-08,-1.1920929e-07,1.0,-5.8561563e-06,-4.4330955e-06,5.841255e-06,1.0,-1.1622906e-06,4.4330955e-06,1.1324883e-06,1.0,82,0.242,1,1,0.032,False,-0.2599376133421849,1.0496115477602863
0.25992598687298596,14:52:44.353117,14:51:28.347037,0,,0.11455442,0.0003092587,0.025848255,-0.54734087,-0.78842175,-0.28072962,-0.3645777,-0.07731512,0.9279576,-0.75332654,0.6102569,-0.24512345,,0.07193982,-0.010236084,0.01694119,-0.024374463,-0.595492,0.8029913,-0.1983091,0.790148,0.57994807,-0.9798363,-0.14510474,-0.137351,,0.09964969,1.2986248,0.43119425,0.9826956,0.0064783,-0.1851145,-0.105269134,-0.80276954,-0.5869237,-0.15240656,0.5962542,-0.78819615,,-0.115654655,0.24935333,-0.11209412,0.621322,0.6507503,0.4364437,-0.7453128,0.31894046,0.5854791,0.24180113,-0.6890581,0.68317723,,-0.098107696,0.3834389,-0.36457616,0.17506078,0.6632525,-0.72763306,-0.8760777,0.44217405,0.19227576,0.44926783,0.60380316,0.658468,,1.1230552600354766,0.523369606886195,0.21684468749000002,0.08974729581137643,0.29048919850132643,0.6834815806452632,-0.4181608093037549,,-1.4439502564252535,0.08291898287054857,0.20306253221,0.9547183126850394,0.5935489549810733,-0.2419035878806281,0.8751975063474683,,-0.11663162726452107,-0.13014047567495718,0.09162943763999999,-0.11611542257629885,,2.0362437e-05,5.9604645e-08,-1.1920929e-07,1.0,-5.8561563e-06,-4.4330955e-06,5.841255e-06,1.0,-1.1622906e-06,4.4330955e-06,1.1324883e-06,1.0,90,0.267,1,1,0.057,False,-0.2586269035347226,1.050046069567301
0.28862568107433617,14:52:44.377568,14:51:28.347037,0,,0.11450666,0.00036274642,0.026413962,-0.52774745,-0.8050976,-0.27074075,-0.3586231,-0.07774374,0.9302393,-0.76998174,0.5880253,-0.24769765,,0.07194045,-0.010237351,0.016940713,-0.024374574,-0.5955536,0.8029456,-0.1983147,0.7901028,0.58000773,-0.9798351,-0.14509861,-0.13736552,,0.09964969,1.2986248,0.43119425,0.9826956,0.0064783,-0.1851145,-0.105269134,-0.80276954,-0.5869237,-0.15240656,0.5962542,-0.78819615,,-0.11570185,0.24974254,-0.11250821,0.6059318,0.67092067,0.42744836,-0.7509636,0.3051144,0.58562684,0.2624885,-0.6758481,0.6887155,,-0.09810832,0.38343763,-0.3645767,0.17506033,0.6633089,-0.72758174,-0.87608033,0.44215542,0.1923065,0.44926283,0.6037548,0.65851575,,1.1240437698433774,0.5241804938379886,0.21649209661000002,0.07045582101080018,0.3093450354689572,0.6673708012738921,-0.4186508415021577,,-1.4439502564252535,0.08291126013767433,0.20306253221,0.9547183126850394,0.5935489549810733,-0.24182190914048746,0.875034162281334,,-0.11663162726452107,-0.13014047567495718,0.09162943763999999,-0.11611542257629885,,2.0362437e-05,5.9604645e-08,-1.1920929e-07,1.0,-5.8561563e-06,-4.4330955e-06,5.841255e-06,1.0,-1.1622906e-06,4.4330955e-06,1.1324883e-06,1.0,101,0.3,1,1,0.09,False,-0.25856732581620134,1.0495632675595068
0.3130700618494302,14:52:44.416280,14:51:28.472942,0,,0.1144335,0.0004362464,0.026955381,-0.50608635,-0.8220769,-0.26089498,-0.35454696,-0.07745859,0.9318243,-0.7862397,0.5640831,-0.25226423,,0.07194093,-0.01023595,0.016942203,-0.02436813,-0.595555,0.8029447,-0.19830632,0.79010224,0.58001137,-0.97983694,-0.14509535,-0.13735572,,0.09964969,1.2986248,0.43119425,0.9826956,0.0064783,-0.1851145,-0.105269134,-0.80276954,-0.5869237,-0.15240656,0.5962542,-0.78819615,,-0.11571737,0.25013286,-0.112897165,0.5882129,0.691783,0.4188578,-0.75787205,0.29080692,0.5840045,0.28219765,-0.6609596,0.6953394,,-0.09810895,0.38343963,-0.36457646,0.17505486,0.66330975,-0.7275823,-0.876077,0.44215775,0.19231638,0.44927147,0.6037522,0.6585123,,1.1250863387813976,0.5249759353240337,0.21616802411000002,0.048228687001440604,0.326971143938699,0.6489139546900256,-0.41897752963442636,,-1.4439579791581276,0.08291898287054857,0.20306253221,0.9547183126850394,0.5935489549810733,-0.24182190914048746,0.875034162281334,,-0.11663162726452107,-0.13014047567495718,0.09162943763999999,-0.11611542257629885,,2.0362437e-05,5.9604645e-08,-1.1920929e-07,1.0,-5.8561563e-06,-4.4330955e-06,5.841255e-06,1.0,-1.1622906e-06,4.4330955e-06,1.1324883e-06,1.0,113,0.337,1,1,0.127,False,-0.259580147031059,1.0498529487641832
0.35177626297809184,14:52:44.445474,14:51:28.472942,0,,0.11432335,0.00048794597,0.027467892,-0.4861131,-0.8363479,-0.25340927,-0.3511889,-0.0785723,0.933002,-0.8002251,0.542539,-0.2555212,,0.07193982,-0.010236084,0.01694119,-0.024374463,-0.59555763,0.80294263,-0.1983091,0.7901007,0.58001256,-0.9798363,-0.14509352,-0.13736287,,0.09964969,1.2986248,0.43119425,0.9826956,0.0064783,-0.1851145,-0.105269134,-0.80276954,-0.5869237,-0.15240656,0.5962542,-0.78819615,,-0.11569446,0.25048855,-0.11328502,0.57164437,0.709397,0.41228464,-0.76394266,0.27684155,0.58288115,0.2993566,-0.64816254,0.7001935,,-0.098107696,0.3834389,-0.36457616,0.17506078,0.6633119,-0.7275789,-0.8760777,0.44215834,0.19231188,0.44926783,0.6037494,0.65851736,,1.1261906895824119,0.5256400903512171,0.21584395161000003,0.02746938259647269,0.3422744319124283,0.6332496786105446,-0.41783412117148633,,-1.4439502564252535,0.08291898287054857,0.20306253221,0.9547183126850394,0.5935489549810733,-0.24182190914048746,0.875034162281334,,-0.11663162726452107,-0.13014047567495718,0.09162943763999999,-0.11611542257629885,,2.0362437e-05,5.9604645e-08,-1.1920929e-07,1.0,-5.8561563e-06,-4.4330955e-06,5.841255e-06,1.0,-1.1622906e-06,4.4330955e-06,1.1324883e-06,1.0,121,0.36,1,1,0.15,False,-0.2599376133421849,1.049370146756389
0.380990426056087,14:52:44.468948,14:51:28.472942,0,,0.11421442,0.000541389,0.027880624,-0.47453552,-0.8456155,-0.24443917,-0.34475473,-0.0769645,0.93553233,-0.8099135,0.5282149,-0.25500765,,0.07193982,-0.010236084,0.01694119,-0.024374463,-0.59555763,0.80294263,-0.1983091,0.7901007,0.58001256,-0.9798363,-0.14509352,-0.13736287,,0.09964969,1.2986248,0.43119425,0.9826956,0.0064783,-0.1851145,-0.105269134,-0.80276954,-0.5869237,-0.15240656,0.5962542,-0.78819615,,-0.11565477,0.2507845,-0.11359473,0.56289697,0.72119355,0.40376583,-0.7648835,0.2694106,0.5851249,0.3132095,-0.63819885,0.7032795,,-0.098107696,0.3834389,-0.36457616,0.17506078,0.6633119,-0.7275789,-0.8760777,0.44215834,0.19231188,0.44926783,0.6037494,0.65851736,,1.1272950403834259,0.5261343452551674,0.21559247135,0.01677519547876195,0.3553915358899106,0.6214100574937202,-0.4197942499650975,,-1.4439502564252535,0.08291898287054857,0.20306253221,0.9547183126850394,0.5935489549810733,-0.24182190914048746,0.875034162281334,,-0.11663162726452107,-0.13014047567495718,0.09162943763999999,-0.11611542257629885,,2.0362437e-05,5.9604645e-08,-1.1920929e-07,1.0,-5.8561563e-06,-4.4330955e-06,5.841255e-06,1.0,-1.1622906e-06,4.4330955e-06,1.1324883e-06,1.0,129,0.385,1,1,0.175,False,-0.25880563669028556,1.0492253061540504
0.4044515108689666,14:52:44.488436,14:51:28.472942,0,,0.11414772,0.0005739778,0.027997002,-0.4674453,-0.8493997,-0.24497987,-0.34553325,-0.079521894,0.935031,-0.81369615,0.5217245,-0.25632384,,0.07193874,-0.01023598,0.016941428,-0.024293743,-0.59547,0.80301,-0.1982091,0.7901701,0.57995206,-0.9798584,-0.14507484,-0.1372239,,0.09964969,1.2986248,0.43119425,0.9826956,0.0064783,-0.1851145,-0.105269134,-0.80276954,-0.5869237,-0.15240656,0.5962542,-0.78819615,,-0.11560622,0.25088206,-0.11367946,0.55655247,0.72571266,0.40446326,-0.7678719,0.26344326,0.5839267,0.31720987,-0.6355618,0.70387435,,-0.09810667,0.3834392,-0.3645764,0.17499186,0.66322726,-0.7276726,-0.8760384,0.44220906,0.19237432,0.4493713,0.6038052,0.6583955,,1.1277275134243825,0.5262501862482808,0.21552765685000003,0.008597287682865499,0.3586708118842812,0.6180825978838816,-0.4191408737005605,,-1.4439425336923792,0.08291898287054857,0.20306253221,0.9547183126850394,0.5936855914808388,-0.24193332704418397,0.875034162281334,,-0.11663162726452107,-0.13014047567495718,0.09162943763999999,-0.11611542257629885,,2.0362437e-05,5.9604645e-08,-1.1920929e-07,1.0,-5.8561563e-06,-4.4330955e-06,5.841255e-06,1.0,-1.1622906e-06,4.4330955e-06,1.1324883e-06,1.0,180,0.541,1,1,0.331,False,-0.2596993024681016,1.049418426957168
0.4239558500703424,14:52:44.647876,14:51:28.587736,0,,0.11380786,0.0007750243,0.029111758,-0.41856903,-0.8848926,-0.20436534,-0.3236764,-0.064897835,0.94393957,-0.8485478,0.46125203,-0.25925472,,0.07193442,-0.010230988,0.016949952,-0.022961877,-0.5954498,0.8030642,-0.19824383,0.7900368,0.5801219,-0.97988355,-0.14588201,-0.13618508,,0.09964969,1.2986248,0.43119425,0.9826956,0.0064783,-0.1851145,-0.105269134,-0.80276954,-0.5869237,-0.15240656,0.5962542,-0.78819615,,-0.115447186,0.25172654,-0.11449199,0.5178677,0.77297515,0.3665004,-0.7723318,0.23823677,0.58885217,0.3678542,-0.5880074,0.7203684,,-0.09810351,0.3834493,-0.3645785,0.17368384,0.66333383,-0.7278888,-0.8761963,0.44150293,0.19327497,0.4495709,0.6042048,0.6578926,,1.1306544291837135,0.5271460232616908,0.21493525232000002,-0.03753449988372986,0.40717676930101254,0.5617034216026962,-0.4191408737005604,,-1.4439502564252535,0.08291898287054857,0.20306123592000003,0.9534601730241322,0.5945054104794314,-0.24268351320650305,0.8748708182151997,,-0.11663162726452107,-0.13014047567495718,0.09162943763999999,-0.11611542257629885,,2.0362437e-05,5.9604645e-08,-1.1920929e-07,1.0,-5.8561563e-06,-4.4330955e-06,5.841255e-06,1.0,-1.1622906e-06,4.4330955e-06,1.1324883e-06,1.0,188,0.566,1,1,0.356,False,-0.2587460589717643,1.049804668563404
0.5833959160372615,14:52:44.677472,14:51:28.733975,0,,0.11378506,0.0007619262,0.029252425,-0.4191827,-0.88650095,-0.19596428,-0.32473683,-0.05516553,0.9441942,-0.84783936,0.45942658,-0.2647552,,0.071934834,-0.010226384,0.016961992,-0.021818288,-0.595135,0.80332947,-0.19742972,0.7902624,0.58009213,-0.98007405,-0.14594468,-0.13473958,,0.09964969,1.2986248,0.43119425,0.9826956,0.0064783,-0.1851145,-0.105269134,-0.80276954,-0.5869237,-0.15240656,0.5962542,-0.78819615,,-0.11545165,0.25180253,-0.11461315,0.51820445,0.77611655,0.35931507,-0.7727311,0.24482328,0.5856178,0.36653894,-0.58112365,0.7265979,,-0.098105624,0.38346145,-0.3645823,0.1726459,0.6630499,-0.7283943,-0.875926,0.44157043,0.19434278,0.45049635,0.60446703,0.65701795,,1.1309478930329342,0.5275167144396535,0.21481210477,-0.03753449988372986,0.4054004948040618,0.5515534732507898,-0.4201209380973663,,-1.4439579791581276,0.08291898287054857,0.20306253221,0.9530407931371632,0.5958717754770858,-0.24330761980262394,0.8751975063474683,,-0.11663162726452107,-0.13014047567495718,0.09162943763999999,-0.11611542257629885,,2.0362437e-05,5.9604645e-08,-1.1920929e-07,1.0,-5.8561563e-06,-4.4330955e-06,5.841255e-06,1.0,-1.1622906e-06,4.4330955e-06,1.1324883e-06,1.0,196,0.59,1,1,0.381,False,-0.2589843698458485,1.049418426957168
0.6129776309244335,14:52:44.705997,14:51:28.733975,0,,0.113756925,0.0007890314,0.029415682,-0.419532,-0.88729584,-0.19156978,-0.32524407,-0.05009538,0.9443022,-0.8474721,0.45847192,-0.2675712,,0.07193768,-0.0102273375,0.016963482,-0.021805748,-0.59538794,0.8031423,-0.19742966,0.7900783,0.58034295,-0.98007435,-0.14590946,-0.13477558,,0.09964969,1.2986248,0.43119425,0.9826956,0.0064783,-0.1851145,-0.105269134,-0.80276954,-0.5869237,-0.15240656,0.5962542,-0.78819615,,-0.115449786,0.2519242,-0.11472882,0.5184149,0.77771175,0.35554236,-0.7729043,0.248252,0.5839434,0.36587557,-0.5775252,0.72979426,,-0.09810874,0.3834617,-0.36458352,0.17263363,0.6632804,-0.72818726,-0.8759273,0.44150278,0.19449069,0.45049858,0.6042635,0.6572037,,1.1314035342725133,0.5280341375422266,0.21469932754,-0.037744189827214385,0.4041707663061728,0.5460219351728126,-0.4197942499650975,,-1.4439734246238762,0.08291126013767433,0.20306253221,0.9530407931371632,0.5958717754770858,-0.24298090484206175,0.8748708182151997,,-0.11663162726452107,-0.13014047567495718,0.09162943763999999,-0.11611542257629885,,2.0362437e-05,5.9604645e-08,-1.1920929e-07,1.0,-5.8561563e-06,-4.4330955e-06,5.841255e-06,1.0,-1.1622906e-06,4.4330955e-06,1.1324883e-06,1.0,208,0.626,1,1,0.416,False,-0.2593418361569748,1.0494667071579475
0.6414902310352772,14:52:44.736059,14:51:28.733975,0,,0.11370918,0.00087537616,0.029606357,-0.41455832,-0.889767,-0.19093497,-0.3258425,-0.050769836,0.94405985,-0.84968686,0.45358258,-0.26887694,,0.07193661,-0.010227233,0.01696372,-0.021725148,-0.5953003,0.80320936,-0.19732955,0.7901478,0.5802824,-0.9800962,-0.14589034,-0.13463649,,0.09964969,1.2986248,0.43119425,0.9826956,0.0064783,-0.1851145,-0.105269134,-0.80276954,-0.5869237,-0.15240656,0.5962542,-0.78819615,,-0.11542605,0.2521096,-0.11483437,0.51387966,0.7809062,0.35512426,-0.7747732,0.24474329,0.582947,0.36831263,-0.57470536,0.7307938,,-0.0981077,0.38346204,-0.36458376,0.17256477,0.6631958,-0.72828066,-0.8758877,0.44155386,0.19455315,0.45060197,0.60431904,0.65708166,,1.1320290756353255,0.5286519561721645,0.21461117982000003,-0.04382519818826559,0.40553713130382724,0.5421306789710693,-0.4194675618328291,,-1.443965701891002,0.08291126013767433,0.20306253221,0.9530407931371632,0.5960084119768512,-0.24309232274575804,0.8748708182151997,,-0.11663162726452107,-0.13014047567495718,0.09162943763999999,-0.11611542257629885,,2.0362437e-05,5.9604645e-08,-1.1920929e-07,1.0,-5.8561563e-06,-4.4330955e-06,5.841255e-06,1.0,-1.1622906e-06,4.4330955e-06,1.1324883e-06,1.0,255,0.771,0,1,0.536,False,-0.25910352528289105,1.049804668563404
0.6715441718697548,14:52:44.878299,14:51:28.856466,0,,0.1135672,0.0013402551,0.030533,-0.39821994,-0.89951336,-0.17971228,-0.32739657,-0.043635577,0.9438789,-0.8568735,0.43470854,-0.27712116,,0.071936145,-0.010228425,0.016963422,-0.021644652,-0.59560233,0.8029877,-0.19723505,0.78993493,0.5806042,-0.9801171,-0.14581048,-0.13457158,,0.09964969,1.2986248,0.43119425,0.9826956,0.0064783,-0.1851145,-0.105269134,-0.80276954,-0.5869237,-0.15240656,0.5962542,-0.78819615,,-0.11539282,0.2530458,-0.11530063,0.4990183,0.7946878,0.34561828,-0.7805326,0.23889682,0.57766527,0.37649646,-0.55803186,0.73949367,,-0.09810729,0.38346112,-0.36458457,0.17249547,0.663465,-0.72805184,-0.87585074,0.4415066,0.19482665,0.45070034,0.604058,0.6572542,,1.1349637141275308,0.5321657996299367,0.21421321879000002,-0.06437481264974898,0.4086797707984324,0.5187399884502083,-0.4186508415021576,,-1.4439579791581276,0.08290353740480011,0.20306253221,0.9530407931371632,0.5961450484766166,-0.24271366820861118,0.8748708182151996,,-0.11663162726452107,-0.13014047567495718,0.09162943763999999,-0.11611542257629885,,2.0362437e-05,5.9604645e-08,-1.1920929e-07,1.0,-5.8561563e-06,-4.4330955e-06,5.841255e-06,1.0,-1.1622906e-06,4.4330955e-06,1.1324883e-06,1.0,263,0.795,0,1,0.536,False,-0.26017592421626956,1.0495632675595068
0.8138177678920329,14:52:44.901592,14:51:28.965047,0,,0.11361645,0.0014148057,0.030680224,-0.39794677,-0.89967287,-0.17951863,-0.32676962,-0.043842852,0.9440865,-0.8572396,0.4343574,-0.27653882,,0.07193726,-0.010228276,0.016964376,-0.021638326,-0.59559965,0.80298984,-0.19723219,0.7899366,0.5806029,-0.9801178,-0.14581233,-0.1345644,,0.09964969,1.2986248,0.43119425,0.9826956,0.0064783,-0.1851145,-0.105269134,-0.80276954,-0.5869237,-0.15240656,0.5962542,-0.78819615,,-0.115457505,0.2531945,-0.11535856,0.49889728,0.7948794,0.34535235,-0.78026354,0.23851915,0.5781846,0.37721387,-0.5579206,0.739212,,-0.09810854,0.38346186,-0.36458486,0.17248955,0.6634628,-0.72805524,-0.87585,0.441506,0.19483115,0.45070398,0.6040609,0.6572491,,1.1351567824493864,0.532930350184485,0.21415747832,-0.06458450259323349,0.4086797707984324,0.5186583097100677,-0.4197942499650976,,-1.443965701891002,0.08290353740480011,0.20306253221,0.9530407931371632,0.5961450484766166,-0.24271366820861112,0.8751975063474682,,-0.11663162726452107,-0.13014047567495718,0.09162943763999999,-0.11611542257629885,,2.0362437e-05,5.9604645e-08,-1.1920929e-07,1.0,-5.8561563e-06,-4.4330955e-06,5.841255e-06,1.0,-1.1622906e-06,4.4330955e-06,1.1324883e-06,1.0,271,0.819,0,1,0.536,False,-0.2599376133421849,1.0493218665556094
0.837109365966171,14:52:44.931649,14:51:28.965047,0,,0.11366871,0.00147596,0.030803218,-0.3944558,-0.9014722,-0.17819226,-0.32627904,-0.04387957,0.94425446,-0.8590381,0.430607,-0.27682304,,0.071936145,-0.010228425,0.016963422,-0.021644652,-0.59573346,0.80289036,-0.19723505,0.7898401,0.58073324,-0.9801171,-0.14578849,-0.1345954,,0.09964969,1.2986248,0.43119425,0.9826956,0.0064783,-0.1851145,-0.105269134,-0.80276954,-0.5869237,-0.15240656,0.5962542,-0.78819615,,-0.11552253,0.25331777,-0.11540517,0.4958741,0.7972974,0.34413037,-0.781005,0.23620686,0.57813275,0.3796578,-0.5554486,0.73982215,,-0.09810729,0.38346112,-0.36458457,0.17249547,0.66358393,-0.7279435,-0.87585074,0.44147477,0.19489877,0.45070034,0.6039507,0.65735286,,1.1351876733808834,0.5335327233486745,0.21411729333,-0.06814923163247041,0.4103194087956176,0.5159327562833211,-0.419957594031232,,-1.4439579791581276,0.08290353740480011,0.20306253221,0.9530407931371632,0.5961450484766166,-0.24255031072833,0.8751975063474682,,-0.11663162726452107,-0.13014047567495718,0.09162943763999999,-0.11611542257629885,,2.0362437e-05,5.9604645e-08,-1.1920929e-07,1.0,-5.8561563e-06,-4.4330955e-06,5.841255e-06,1.0,-1.1622906e-06,4.4330955e-06,1.1324883e-06,1.0,310,0.939,0,1,0.536,False,-0.2594609915940169,1.0497563883626244
0.8671344630420208,14:52:45.042414,14:51:29.094772,0,,0.11380997,0.0016827136,0.031148419,-0.37158984,-0.9130468,-0.16812696,-0.32391095,-0.042212933,0.94514537,-0.8700589,0.40566453,-0.28006005,,0.07195033,-0.010226652,0.016972065,-0.021575138,-0.59583145,0.8028196,-0.19720954,0.78976554,0.5808433,-0.98012376,-0.14579204,-0.13454303,,0.09964969,1.2986248,0.43119425,0.9826956,0.0064783,-0.1851145,-0.105269134,-0.80276954,-0.5869237,-0.15240656,0.5962542,-0.78819615,,-0.11569528,0.25369155,-0.11551623,0.47582895,0.81324154,0.3350001,-0.78606474,0.22233593,0.5767746,0.3945745,-0.5377778,0.74505436,,-0.09812257,0.38346764,-0.3645863,0.17242993,0.6636759,-0.7278752,-0.87584573,0.44143328,0.19501504,0.4507351,0.6038799,0.65739405,,1.1350795551206443,0.5350386562591483,0.21405377512,-0.09163450530273715,0.42234342077497644,0.4960814957207468,-0.4201209380973663,,-1.444042929219744,0.08289581467192589,0.20306512479000002,0.9530407931371632,0.5961450484766166,-0.24238695324804882,0.8748708182151996,,-0.11663162726452107,-0.13014047567495718,0.09162943763999999,-0.11611542257629885,,2.0362437e-05,5.9604645e-08,-1.1920929e-07,1.0,-5.8561563e-06,-4.4330955e-06,5.841255e-06,1.0,-1.1622906e-06,4.4330955e-06,1.1324883e-06,1.0,318,0.963,0,1,0.536,False,-0.25868648125324345,1.0499495091657423
0.9779178348835558,14:52:45.070137,14:51:29.094772,0,,0.11382252,0.0017100275,0.031191513,-0.3671445,-0.9151908,-0.16622494,-0.32238156,-0.042429894,0.9456583,-0.8725107,0.4007811,-0.27946287,,0.071954325,-0.01022552,0.01697421,-0.021556139,-0.5958235,0.8028259,-0.19720107,0.7897705,0.58083946,-0.9801259,-0.14579761,-0.13452154,,0.09964969,1.2986248,0.43119425,0.9826956,0.0064783,-0.1851145,-0.105269134,-0.80276954,-0.5869237,-0.15240656,0.5962542,-0.78819615,,-0.11571168,0.25373942,-0.11553029,0.472124,0.81617445,0.3331039,-0.7863929,0.21918985,0.5775309,0.398353,-0.53461677,0.7453186,,-0.09812678,0.38346964,-0.36458609,0.17241219,0.66366935,-0.7278853,-0.87584364,0.44143146,0.19502854,0.45074594,0.60388845,0.6573788,,1.1350563869220216,0.5351390517865132,0.21405377512,-0.09582830417242763,0.4258959697688779,0.4928579152640777,-0.4197942499650975,,-1.4440660974183668,0.08289581467192589,0.20306642108000003,0.9530407931371632,0.5961450484766166,-0.24238695324804882,0.8748708182151996,,-0.11663162726452107,-0.13014047567495718,0.09162943763999999,-0.11611542257629885,,2.0362437e-05,5.9604645e-08,-1.1920929e-07,1.0,-5.8561563e-06,-4.4330955e-06,5.841255e-06,1.0,-1.1622906e-06,4.4330955e-06,1.1324883e-06,1.0,326,0.987,0,1,0.536,False,-0.26017592421626956,1.049370146756389
1.0056572989560664,14:52:45.101100,14:51:29.094772,0,,0.11385071,0.0017388761,0.031259313,-0.35905063,-0.91923624,-0.16151564,-0.3183766,-0.042042613,0.9470315,-0.87733614,0.39145505,-0.277568,,0.07195718,-0.010226443,0.016975641,-0.021543615,-0.5958798,0.8027845,-0.19720098,0.78972846,0.58089656,-0.98012614,-0.14579546,-0.13452175,,0.09964969,1.2986248,0.43119425,0.9826956,0.0064783,-0.1851145,-0.105269134,-0.80276954,-0.5869237,-0.15240656,0.5962542,-0.78819615,,-0.115747556,0.25380355,-0.11555904,0.46559897,0.82183033,0.32834807,-0.7862474,0.21381481,0.57973987,0.40624213,-0.5280891,0.74571395,,-0.09812989,0.3834699,-0.36458728,0.17239991,0.66372144,-0.7278407,-0.87584496,0.44141138,0.19506824,0.45074815,0.6038459,0.65741634,,1.1349173777302854,0.5351931109166328,0.21405377512,-0.10295776225090146,0.433684250255508,0.4863437372731006,-0.41946756183282896,,-1.4440815428841154,0.08288809193905167,0.20306642108000003,0.9530407931371632,0.5961450484766166,-0.24230527450790829,0.8753608504136026,,-0.11663162726452107,-0.13014047567495718,0.09162943763999999,-0.11611542257629885,,2.0362437e-05,5.9604645e-08,-1.1920929e-07,1.0,-5.8561563e-06,-4.4330955e-06,5.841255e-06,1.0,-1.1622906e-06,4.4330955e-06,1.1324883e-06,1.0,334,1.011,0,1,0.536,False,-0.2589247921273281,1.049418426957168
1.0366124499123544,14:52:45.123602,14:51:29.094772,0,,0.11386965,0.0017528906,0.03130789,-0.35025603,-0.923164,-0.15839499,-0.31642514,-0.042544186,0.94766295,-0.8815869,0.3820448,-0.2772111,,0.07196229,-0.010225162,0.016978681,-0.021518297,-0.5960659,0.80264705,-0.19718969,0.78959274,0.5810849,-0.980129,-0.1457699,-0.13452879,,0.09964969,1.2986248,0.43119425,0.9826956,0.0064783,-0.1851145,-0.105269134,-0.80276954,-0.5869237,-0.15240656,0.5962542,-0.78819615,,-0.11577288,0.25384423,-0.115583904,0.4580248,0.8272724,0.32532078,-0.7873783,0.20768477,0.58043295,0.41261202,-0.52200323,0.74650115,,-0.098135345,0.38347265,-0.36458737,0.17237625,0.6638911,-0.7276916,-0.87584215,0.44136113,0.19519441,0.4507626,0.6036961,0.65754396,,1.1347243094084298,0.535200833649507,0.21405118254000002,-0.11155504993376697,0.4396962562451874,0.48005281092806845,-0.41963090589896335,,-1.4441124338156122,0.08288809193905167,0.20306771737,0.9530407931371632,0.5961450484766166,-0.24206023828748663,0.8751975063474682,,-0.11663162726452107,-0.13014047567495718,0.09162943763999999,-0.11611542257629885,,2.0362437e-05,5.9604645e-08,-1.1920929e-07,1.0,-5.8561563e-06,-4.4330955e-06,5.841255e-06,1.0,-1.1622906e-06,4.4330955e-06,1.1324883e-06,1.0,367,1.114,0,1,0.536,False,-0.2580907040680329,1.0496115477602863
1.0590265928767622,14:52:45.219284,14:51:29.231769,0,,0.11399007,0.0018007383,0.031484425,-0.32619008,-0.93416774,-0.14467409,-0.31434575,-0.037144065,0.9485816,-0.89150804,0.3548956,-0.2815357,,0.07199725,-0.010225661,0.017011106,-0.021515422,-0.5959731,0.8027161,-0.19703618,0.7896824,0.58101517,-0.98016,-0.14566347,-0.13441873,,0.099665076,1.2986232,0.4311938,0.9826936,0.006463007,-0.18512568,-0.10528785,-0.80276966,-0.5869202,-0.15240656,0.5962542,-0.78819615,,-0.115928486,0.2539896,-0.115662664,0.43656912,0.8435281,0.31283823,-0.79200727,0.19539423,0.5783992,0.42676917,-0.5002814,0.75338346,,-0.09818892,0.3834935,-0.36460066,0.17238092,0.6638015,-0.72777224,-0.87577003,0.44148344,0.19524147,0.45090097,0.6037052,0.6574408,,1.133967481586756,0.53571825675208,0.21401099755000003,-0.1360887733214563,0.45199354122407703,0.45556806259051086,-0.4193042177666949,,-1.4442359975415997,0.08288809193905167,0.20307549511000003,0.9532504830806477,0.5961450484766166,-0.2419785595473461,0.875034162281334,,-0.11663162726452107,-0.13014047567495718,0.09162943763999999,-0.11611542257629885,,3.5710633e-05,1.0728836e-06,-1.66893e-06,1.0,-2.0869076e-05,-1.578033e-05,2.0854175e-05,1.0,-4.053116e-06,1.578033e-05,4.0233135e-06,1.0,375,1.138,0,1,0.536,False,-0.25952056931253775,1.0499977893665218
1.1548047719988972,14:52:45.245895,14:51:29.231769,0,,0.114027284,0.0018533394,0.031587362,-0.31506222,-0.9379253,-0.14502397,-0.3145849,-0.040961593,0.94834507,-0.89541715,0.34441006,-0.28215182,,0.071995154,-0.010223813,0.01700896,-0.02125416,-0.5961719,0.80257535,-0.19725674,0.78947747,0.5812187,-0.9801214,-0.14596018,-0.1343787,,0.099665076,1.2986232,0.4311938,0.9826936,0.006463007,-0.18512568,-0.10528785,-0.80276966,-0.5869202,-0.15240656,0.5962542,-0.78819615,,-0.11597636,0.25409395,-0.11570227,0.42637694,0.84857035,0.31325886,-0.7946785,0.18598324,0.5778376,0.43207493,-0.49531668,0.7536396,,-0.09818638,0.38349324,-0.36459824,0.17210263,0.664033,-0.72762686,-0.8759032,0.44114298,0.19541371,0.45074862,0.60369945,0.6575505,,1.133797581463523,0.5361352843272882,0.21398896062000003,-0.14804110010007418,0.4560926362170402,0.45059195067680696,-0.4194675618328291,,-1.4442282748087256,0.08288809193905167,0.2030767914,0.9528311031936787,0.5961450484766166,-0.24197855954734615,0.8747074741490655,,-0.11663162726452107,-0.13014047567495718,0.09162943763999999,-0.11611542257629885,,3.5710633e-05,1.0728836e-06,-1.66893e-06,1.0,-2.0869076e-05,-1.578033e-05,2.0854175e-05,1.0,-4.053116e-06,1.578033e-05,4.0233135e-06,1.0,404,1.229,0,1,0.536,False,-0.2608908568385213,1.049708108161845
1.1813741240184754,14:52:45.333281,14:51:29.381898,0,,0.11414563,0.0020431727,0.031955272,-0.29190585,-0.9471556,-0.13299315,-0.31280342,-0.03686294,0.9491023,-0.90385,0.31864917,-0.28551307,,0.071996,-0.010223918,0.017005682,-0.02126062,-0.596236,0.8025275,-0.19726512,0.7894305,0.5812797,-0.9801195,-0.14595245,-0.13440046,,0.099665076,1.2986232,0.4311938,0.9826936,0.006463007,-0.18512568,-0.10528785,-0.80276966,-0.5869202,-0.15240656,0.5962542,-0.78819615,,-0.11613295,0.25446844,-0.11584595,0.40551287,0.86268467,0.3022159,-0.79861844,0.17351454,0.5762823,0.4447111,-0.47504508,0.75931823,,-0.09818668,0.3834906,-0.36459616,0.17210811,0.6640916,-0.7275721,-0.8759065,0.4411247,0.19543988,0.45074,0.60364836,0.6576033,,1.133697185936158,0.5377493354980011,0.21389173887000001,-0.17236513354427901,0.46579382770038646,0.42757071258835716,-0.41963090589896357,,-1.4442205520758513,0.08288036920617743,0.20307938398000003,0.9528311031936787,0.5961450484766166,-0.24189688080720556,0.8748708182151996,,-0.11663162726452107,-0.13014047567495718,0.09162943763999999,-0.11611542257629885,,3.5710633e-05,1.0728836e-06,-1.66893e-06,1.0,-2.0869076e-05,-1.578033e-05,2.0854175e-05,1.0,-4.053116e-06,1.578033e-05,4.0233135e-06,1.0,412,1.253,0,1,0.536,False,-0.25952056931253775,1.049080465551712
1.2687590660061687,14:52:45.364310,14:51:29.381898,0,,0.11415899,0.0021373779,0.03211379,-0.27617714,-0.95237756,-0.1292413,-0.31313863,-0.037969798,0.948948,-0.908664,0.30254817,-0.28773987,,0.071998864,-0.010224842,0.017007113,-0.021248087,-0.5962267,0.80253476,-0.19726503,0.7894359,0.58127224,-0.9801198,-0.14596128,-0.1343888,,0.099665076,1.2986232,0.4311938,0.9826936,0.006463007,-0.18512568,-0.10528785,-0.80276966,-0.5869202,-0.15240656,0.5962542,-0.78819615,,-0.116162114,0.2546399,-0.11590865,0.39098048,0.8705022,0.2989318,-0.80195606,0.16281757,0.5747669,0.45166445,-0.4644528,0.761763,,-0.09818979,0.38349086,-0.36459735,0.17209584,0.66408426,-0.7275817,-0.87590784,0.44112054,0.19544351,0.45074221,0.6036595,0.6575916,,1.133697185936158,0.5383748768608132,0.21385803533000003,-0.18955970891001003,0.4709860146914732,0.4156590306746803,-0.41963090589896335,,-1.4442359975415997,0.08287264647330321,0.20307938398000003,0.9528311031936787,0.5961450484766166,-0.2418968808072055,0.8751975063474682,,-0.11663162726452107,-0.13014047567495718,0.09162943763999999,-0.11611542257629885,,3.5710633e-05,1.0728836e-06,-1.66893e-06,1.0,-2.0869076e-05,-1.578033e-05,2.0854175e-05,1.0,-4.053116e-06,1.578033e-05,4.0233135e-06,1.0,445,1.356,0,1,0.536,False,-0.2590439475643693,1.0491287457524916
1.299822631990537,14:52:45.455043,14:51:29.523847,0,,0.11421724,0.0023455024,0.032520175,-0.24080846,-0.96430105,-0.110158324,-0.3034976,-0.032992452,0.9522608,-0.92190033,0.2627452,-0.28471828,,0.07200165,-0.010224082,0.01702714,-0.020416185,-0.59504735,0.8034312,-0.19466451,0.7905852,0.5805866,-0.9806572,-0.1445464,-0.13197547,,0.099665076,1.2986232,0.4311938,0.9826936,0.006463007,-0.18512568,-0.10528785,-0.80276966,-0.5869202,-0.15240656,0.5962542,-0.78819615,,-0.116264574,0.25505286,-0.11608419,0.36006346,0.8898551,0.28020036,-0.80272275,0.14246254,0.579086,0.47538456,-0.4334309,0.76560247,,-0.09819584,0.38350645,-0.36460868,0.17154306,0.6627644,-0.7289145,-0.874743,0.4428331,0.1967829,0.45320818,0.60385615,0.65571344,,1.1335813449430447,0.5396259595864377,0.21378803567000002,-0.22499730935889464,0.4925745816544128,0.3819642900829549,-0.41783412117148633,,-1.444212829342977,0.08287264647330321,0.20308068027,0.9540892428545859,0.5987411419721601,-0.24262528239504794,0.8707872165618427,,-0.11663162726452107,-0.13014047567495718,0.09162943763999999,-0.11611542257629885,,3.5710633e-05,1.0728836e-06,-1.66893e-06,1.0,-2.0869076e-05,-1.578033e-05,2.0854175e-05,1.0,-4.053116e-06,1.578033e-05,4.0233135e-06,1.0,453,1.38,0,1,0.536,False,-0.2593418361569748,1.0304925882516205
1.390562895918265,14:52:45.486466,14:51:29.523847,0,,0.11419163,0.0024121106,0.032664776,-0.22034928,-0.9703535,-0.09929918,-0.30265972,-0.028760597,0.9526646,-0.9272772,0.23997281,-0.28734967,,0.07189645,-0.010157101,0.016989172,-0.0040700883,-0.6048599,0.79632145,-0.21087405,0.77894014,0.59057975,-0.9775046,-0.16551998,-0.13071969,,0.099665076,1.2986232,0.4311938,0.9826936,0.006463007,-0.18512568,-0.10528785,-0.80276966,-0.5869202,-0.15240656,0.5962542,-0.78819615,,-0.11625678,0.2551943,-0.11616128,0.3411663,0.90035427,0.27012545,-0.8055152,0.13190483,0.5777078,0.48451084,-0.4146846,0.77025056,,-0.098081484,0.383529,-0.36455026,0.1538452,0.67515033,-0.72145945,-0.8840403,0.42019746,0.20471154,0.44136646,0.60630536,0.66150546,,1.1334963948814283,0.5399966507644004,0.21375303584000002,-0.24722444336825422,0.500089589141512,0.360317344752945,-0.41848749743602354,,-1.4442282748087256,0.08278769641168675,0.20307419882000002,0.926200480371144,0.5962816849763821,-0.2463372719383517,0.8645801420487401,,-0.11663162726452107,-0.13014047567495718,0.09162943763999999,-0.11611542257629885,,3.5710633e-05,1.0728836e-06,-1.66893e-06,1.0,-2.0869076e-05,-1.578033e-05,2.0854175e-05,1.0,-4.053116e-06,1.578033e-05,4.0233135e-06,1.0,482,1.47,0,1,0.536,False,-0.2589247921273281,1.0209331084972877
1.421986305853352,14:52:45.574079,14:51:29.523847,0,,0.11417335,0.002495207,0.032846034,-0.1987646,-0.97581804,-0.09094907,-0.30006453,-0.02775018,0.9535152,-0.93298113,0.21681564,-0.28729266,,0.071717605,-0.01014068,0.01675719,0.0049761757,-0.62398857,0.78141755,-0.25827035,0.7541129,0.60382956,-0.9660598,-0.20482187,-0.15740526,,0.099665076,1.2986232,0.4311938,0.9826936,0.006463007,-0.18512568,-0.10528785,-0.80276966,-0.5869202,-0.15240656,0.5962542,-0.78819615,,-0.11626053,0.25537115,-0.11625506,0.32145444,0.9099354,0.26207748,-0.80712795,0.11856064,0.5783493,0.49518842,-0.397443,0.7725461,,-0.09786556,0.38337696,-0.36442253,0.13983376,0.69888663,-0.70142996,-0.90612346,0.37593833,0.19393472,0.3992328,0.60846347,0.68584645,,1.1334268902855602,0.540498628401225,0.21371025827,-0.2702903371515519,0.5092442346257966,0.34117228536518424,-0.4199575940312319,,-1.444490847726449,0.08275680548018985,0.2029860511,0.8819559022959095,0.5632156520331455,-0.24616476600992215,0.8541261218161462,,-0.11663162726452107,-0.13014047567495718,0.09162943763999999,-0.11611542257629885,,3.5710633e-05,1.0728836e-06,-1.66893e-06,1.0,-2.0869076e-05,-1.578033e-05,2.0854175e-05,1.0,-4.053116e-06,1.578033e-05,4.0233135e-06,1.0,490,1.495,0,1,0.536,False,-0.25963972474957986,1.021995272914436
1.509585402905941,14:52:45.605420,14:51:29.674690,0,,0.11418778,0.0025112554,0.032867312,-0.19863749,-0.9757866,-0.0915613,-0.300351,-0.028320074,0.9534082,-0.9329159,0.21688312,-0.28745317,,0.0716531,-0.010300495,0.016645074,-0.019174464,-0.62594825,0.7796287,-0.27811292,0.75233656,0.5971959,-0.96035683,-0.205374,-0.18851,,0.099665076,1.2986232,0.4311938,0.9826936,0.006463007,-0.18512568,-0.10528785,-0.80276966,-0.5869202,-0.15240656,0.5962542,-0.78819615,,-0.11627634,0.25539678,-0.116258696,0.3212821,0.9098197,0.26268965,-0.80731547,0.118151315,0.57817125,0.49499446,-0.3978295,0.7724715,,-0.09779407,0.38319513,-0.36448646,0.1612921,0.700787,-0.6948974,-0.91222286,0.37455863,0.16599782,0.37660894,0.6071272,0.69968724,,1.1334346130184343,0.5406608057915837,0.21370507311000003,-0.2705000270950364,0.5088343251265002,0.3416698965565546,-0.41963090589896335,,-1.444622134185311,0.08294215106917123,0.20280068163,0.8897144302048369,0.5319258935868597,-0.23968121251619268,0.8521659930225349,,-0.11663162726452107,-0.13014047567495718,0.09162943763999999,-0.11611542257629885,,3.5710633e-05,1.0728836e-06,-1.66893e-06,1.0,-2.0869076e-05,-1.578033e-05,2.0854175e-05,1.0,-4.053116e-06,1.578033e-05,4.0233135e-06,1.0,523,1.597,0,1,0.536,False,-0.25922268071993226,1.0308305496570767
1.5409097119700164,14:52:45.702063,14:51:29.674690,0,,0.114204094,0.0025474653,0.03292042,-0.19269988,-0.97723,-0.088816285,-0.29747134,-0.028075576,0.9543178,-0.9350815,0.21031725,-0.28528783,,0.07115847,-0.010507412,0.016758025,-0.044985656,-0.6287991,0.7762653,-0.30729428,0.748086,0.5881646,-0.95055044,-0.21208316,-0.22687963,,0.099665076,1.2986232,0.4311938,0.9826936,0.006463007,-0.18512568,-0.10528785,-0.80276966,-0.5869202,-0.15240656,0.5962542,-0.78819615,,-0.11629707,0.2554578,-0.11627431,0.31624344,0.9124274,0.2597428,-0.8064127,0.11433374,0.58019507,0.4996885,-0.3929428,0.77195036,,-0.09734049,0.3831938,-0.36479384,0.18306568,0.70443034,-0.6857586,-0.9209528,0.36695907,0.13109897,0.34399545,0.60755163,0.7159247,,1.1333419402239437,0.5408229831819424,0.21371155456000002,-0.27616165556911854,0.5134799661185252,0.33673818546890844,-0.41767077710535205,,-1.4442359975415997,0.08433996571940587,0.20218364759000002,0.8909725698657439,0.4912082166567584,-0.23686316854694828,0.8647434861148744,,-0.11663162726452107,-0.13014047567495718,0.09162943763999999,-0.11611542257629885,,3.5710633e-05,1.0728836e-06,-1.66893e-06,1.0,-2.0869076e-05,-1.578033e-05,2.0854175e-05,1.0,-4.053116e-06,1.578033e-05,4.0233135e-06,1.0,531,1.622,0,1,0.536,False,-0.2585077480976805,1.0475837793275489
1.637582850875333,14:52:45.727252,14:51:29.674690,0,,0.11418483,0.002559431,0.032932132,-0.18504381,-0.97851163,-0.09095983,-0.29791048,-0.032348424,0.95404553,-0.93648696,0.20363808,-0.2855231,,0.07085925,-0.010584392,0.016716838,-0.04916057,-0.6325881,0.7729265,-0.33052498,0.7405642,0.5850793,-0.9425159,-0.2267088,-0.24549282,,0.099665076,1.2986232,0.4311938,0.9826936,0.006463007,-0.18512568,-0.10528785,-0.80276966,-0.5869202,-0.15240656,0.5962542,-0.78819615,,-0.11627881,0.25547457,-0.116280384,0.30896747,0.9143185,0.26184112,-0.807681,0.10687515,0.5798526,0.50218564,-0.3906397,0.7714987,,-0.09704448,0.38313955,-0.364875,0.18425804,0.7101047,-0.67955893,-0.92916083,0.3512871,0.11514124,0.3204826,0.6102038,0.7245289,,1.133249267429453,0.5408229831819424,0.21371673972000002,-0.2847589432519841,0.5153928771152414,0.33460658363617457,-0.418814185568292,,-1.4437880790348947,0.08492689341784693,0.20192568588,0.8775524134827344,0.4690731036947571,-0.23980490436425245,0.8676836793052913,,-0.11663162726452107,-0.13014047567495718,0.09162943763999999,-0.11611542257629885,,3.5710633e-05,1.0728836e-06,-1.66893e-06,1.0,-2.0869076e-05,-1.578033e-05,2.0854175e-05,1.0,-4.053116e-06,1.578033e-05,4.0233135e-06,1.0,560,1.712,0,1,0.536,False,-0.25815028178655464,1.0476320595283284
1.6627659159712493,14:52:45.823359,14:51:29.818437,0,,0.11416154,0.0026058555,0.03298542,-0.16194597,-0.9830156,-0.08633627,-0.29443312,-0.03537111,0.9550172,-0.94185054,0.18008143,-0.28370428,,0.06974726,-0.011326186,0.016475558,-0.09952411,-0.65406215,0.7498649,-0.40016532,0.71628773,0.5716639,-0.9110227,-0.24317572,-0.33302104,,0.099665076,1.2986232,0.4311938,0.9826936,0.006463007,-0.18512568,-0.10528785,-0.80276966,-0.5869202,-0.15240656,0.5962542,-0.78819615,,-0.116259634,0.2555441,-0.11629872,0.2878318,0.9225164,0.25713104,-0.8084,0.09009109,0.5816984,0.5134611,-0.37529603,0.7716933,,-0.09596032,0.38258088,-0.36547288,0.22381337,0.73235255,-0.643092,-0.9447656,0.32511652,0.041438434,0.23942736,0.5982967,0.764667,,1.1328245171213707,0.5408307059148166,0.21375044326000003,-0.3092926666396734,0.5257772510974149,0.3183793426418932,-0.4186508415021577,,-1.4412550226521492,0.08600807602023837,0.20079791358000001,0.8706326453477452,0.37889301384956636,-0.21911523279555806,0.8716039368925141,,-0.11663162726452107,-0.13014047567495718,0.09162943763999999,-0.11611542257629885,,3.5710633e-05,1.0728836e-06,-1.66893e-06,1.0,-2.0869076e-05,-1.578033e-05,2.0854175e-05,1.0,-4.053116e-06,1.578033e-05,4.0233135e-06,1.0,568,1.736,0,1,0.536,False,-0.2583290149421176,1.0482597021384612
1.758879581000656,14:52:45.844129,14:51:29.818437,0,,0.11414471,0.0026242435,0.032995224,-0.15515053,-0.98399866,-0.087607056,-0.29351154,-0.038761362,0.9551693,-0.94328105,0.17390871,-0.28280118,,0.06944455,-0.011548124,0.01639849,-0.11466379,-0.66667396,0.73647666,-0.4118466,0.7065551,0.575467,-0.9040101,-0.2373303,-0.3555838,,0.099665076,1.2986232,0.4311938,0.9826936,0.006463007,-0.18512568,-0.10528785,-0.80276966,-0.5869202,-0.15240656,0.5962542,-0.78819615,,-0.1162426,0.25556475,-0.11629893,0.28157443,0.9241392,0.25822976,-0.8086013,0.08363799,0.58238184,0.51660407,-0.37278876,0.7708105,,-0.09566462,0.38240734,-0.365644,0.23673944,0.74311954,-0.6258816,-0.9454689,0.3245324,0.027699426,0.22370283,0.58519405,0.77942604,,1.1327472897926285,0.5408152604490681,0.21376599874000002,-0.31663181466163176,0.5286466175924891,0.3161212454044089,-0.41848749743602354,,-1.4402819583099968,0.08614708521197441,0.20051661865000003,0.8748264442174356,0.3596272673826392,-0.20128166113070806,0.8719306250247826,,-0.11663162726452107,-0.13014047567495718,0.09162943763999999,-0.11611542257629885,,3.5710633e-05,1.0728836e-06,-1.66893e-06,1.0,-2.0869076e-05,-1.578033e-05,2.0854175e-05,1.0,-4.053116e-06,1.578033e-05,4.0233135e-06,1.0,601,1.839,0,1,0.536,False,-0.2591631030014119,1.0486459437446969
1.7796285948716104,14:52:45.946957,14:51:29.968912,0,,0.11392048,0.0027773753,0.032990783,-0.09768772,-0.9916704,-0.08394514,-0.29261494,-0.05200039,0.9548154,-0.9512273,0.117837355,-0.2850979,,0.06754689,-0.012363322,0.016367137,-0.16001524,-0.7066568,0.68922496,-0.45093286,0.6734396,0.58578044,-0.87809706,-0.21706057,-0.4264155,,0.099665076,1.2986232,0.4311938,0.9826936,0.006463007,-0.18512568,-0.10528785,-0.80276966,-0.5869202,-0.15240656,0.5962542,-0.78819615,,-0.116003394,0.25568482,-0.1162529,0.2270389,0.9399032,0.2550202,-0.8132124,0.03888614,0.58066636,0.53585345,-0.33921945,0.77316964,,-0.093847916,0.38203207,-0.36655253,0.27436057,0.77681,-0.5668267,-0.9464066,0.32258067,-0.016006278,0.17041351,0.5408401,0.82368153,,1.1323688758817914,0.5406144693943383,0.2139137758,-0.3814260071983498,0.5442231785657493,0.27916101856126985,-0.4179974652376206,,-1.4342427812023533,0.0884175686769964,0.19896495952,0.882584972126363,0.2982774789879565,-0.14815123024567345,0.8742174419506625,,-0.11663162726452107,-0.13014047567495718,0.09162943763999999,-0.11611542257629885,,3.5710633e-05,1.0728836e-06,-1.66893e-06,1.0,-2.0869076e-05,-1.578033e-05,2.0854175e-05,1.0,-4.053116e-06,1.578033e-05,4.0233135e-06,1.0,609,1.863,0,1,0.536,False,-0.25791197091247,1.0493218665556094
1.8824495610315353,14:52:45.972192,14:51:29.968912,0,,0.113802135,0.0028300136,0.03301257,-0.07163864,-0.9938606,-0.084315345,-0.2895253,-0.060172737,0.9552771,-0.9544856,0.09284614,-0.28343722,,0.06686346,-0.012470819,0.01652664,-0.16357,-0.71581954,0.6788572,-0.45933738,0.66424525,0.58973503,-0.8730715,-0.21536165,-0.43745336,,0.099665076,1.2986232,0.4311938,0.9826936,0.006463007,-0.18512568,-0.10528785,-0.80276966,-0.5869202,-0.15240656,0.5962542,-0.78819615,,-0.115885064,0.2557407,-0.116264075,0.20259957,0.94543874,0.2551451,-0.8129714,0.017134978,0.58205146,0.5459221,-0.32534903,0.7720862,,-0.09320976,0.38214612,-0.366842,0.27644697,0.784917,-0.55451095,-0.9475703,0.31885234,-0.02106421,0.16027346,0.53126127,0.8319098,,1.1322298666900554,0.5404754602026023,0.21395914595,-0.4105729093426987,0.5531045510505029,0.2644860894682112,-0.41718074490694923,,-1.4323661571139168,0.08993122432034442,0.19842829546000001,0.8788105531436415,0.28871292400437565,-0.139045117144675,0.8737274097522596,,-0.11663162726452107,-0.13014047567495718,0.09162943763999999,-0.11611542257629885,,3.5710633e-05,1.0728836e-06,-1.66893e-06,1.0,-2.0869076e-05,-1.578033e-05,2.0854175e-05,1.0,-4.053116e-06,1.578033e-05,4.0233135e-06,1.0,638,1.954,0,1,0.536,False,-0.25826943722359585,1.049514987358727
1.907701204996556,14:52:46.055509,14:51:29.968912,0,,0.11346198,0.0028977022,0.03294593,-0.010978743,-0.99750906,-0.06967868,-0.28737208,-0.063595735,0.9557054,-0.95775604,0.030516148,-0.2859581,,0.06507267,-0.012474038,0.017424703,-0.16045474,-0.73557055,0.6581718,-0.46793425,0.64380443,0.60543656,-0.8690752,-0.21083604,-0.44750023,,0.099665076,1.2986232,0.4311938,0.9826936,0.006463007,-0.18512568,-0.10528785,-0.80276966,-0.5869202,-0.15240656,0.5962542,-0.78819615,,-0.11553267,0.25575608,-0.116246775,0.14427397,0.95964915,0.2413681,-0.81375,-0.023724206,0.5807306,0.5630239,-0.28019762,0.7774917,,-0.09159944,0.38299045,-0.36768314,0.27213314,0.8022055,-0.53142256,-0.9502303,0.31108406,-0.017003099,0.1516771,0.5096009,0.8469362,,1.1319364028408347,0.5398576415726644,0.21407581205,-0.4806093504665298,0.5664949280275161,0.21240104987511874,-0.41750743303921783,,-1.4285434043411755,0.09547614652403762,0.1968934881,0.8681163660259308,0.2821543720156345,-0.12095517430531899,0.8745441300829311,,-0.11663162726452107,-0.13014047567495718,0.09162943763999999,-0.11611542257629885,,3.5710633e-05,1.0728836e-06,-1.66893e-06,1.0,-2.0869076e-05,-1.578033e-05,2.0854175e-05,1.0,-4.053116e-06,1.578033e-05,4.0233135e-06,1.0,642,1.966,0,1,0.536,False,-0.25815028178655464,1.0502874705711984
1.9910306900274009,14:52:46.079403,14:51:29.968912,0,,0.113333896,0.00289917,0.032886863,0.0048277974,-0.9980362,-0.062452048,-0.28843105,-0.061188295,0.9555435,-0.9574884,0.013399929,-0.28816018,,0.064626336,-0.01244805,0.017732024,-0.15746666,-0.7391525,0.65487224,-0.4700373,0.6393086,0.6085635,-0.86848664,-0.211986,-0.44809917,,0.099665076,1.2986232,0.4311938,0.9826936,0.006463007,-0.18512568,-0.10528785,-0.80276966,-0.5869202,-0.15240656,0.5962542,-0.78819615,,-0.11539699,0.25572205,-0.116228454,0.12866877,0.96351737,0.23468839,-0.8145474,-0.032302443,0.5791969,0.56564724,-0.26568937,0.7806743,,-0.0912103,0.383282,-0.36792377,0.2689539,0.80561846,-0.5278662,-0.95137465,0.3076615,-0.015189656,0.15016705,0.5062838,0.8491917,,1.1319672937723317,0.5395255640590727,0.21411210817,-0.49948144538013706,0.5678612930251705,0.1948694440699014,-0.41897752963442625,,-1.4278560811153695,0.09709019769475054,0.19647219385000003,0.8637128772127558,0.28160782601657275,-0.11920264284828436,0.8748708182151996,,-0.11663162726452107,-0.13014047567495718,0.09162943763999999,-0.11611542257629885,,3.5710633e-05,1.0728836e-06,-1.66893e-06,1.0,-2.0869076e-05,-1.578033e-05,2.0854175e-05,1.0,-4.053116e-06,1.578033e-05,4.0233135e-06,1.0,679,2.081,0,1,0.536,False,-0.2585077480976805,1.0505771517758753
2.0148927129339427,14:52:46.186509,14:51:30.202642,0,,0.112646244,0.0029977933,0.03271538,0.08749663,-0.994651,-0.054896653,-0.28908902,-0.07808956,0.9541119,-0.9532952,-0.06761156,-0.29437533,,0.062133115,-0.012309633,0.01975143,-0.12537174,-0.7502913,0.64911073,-0.47803816,0.61899775,0.62315434,-0.8693453,-0.23217383,-0.4362728,,0.099665076,1.2986232,0.4311938,0.9826936,0.006463007,-0.18512568,-0.10528785,-0.80276966,-0.5869202,-0.15240656,0.5962542,-0.78819615,,-0.11468293,0.25570035,-0.116188005,0.047181647,0.9724612,0.22823915,-0.813149,-0.09531371,0.5741986,0.5801402,-0.21268407,0.78625876,,-0.08908776,0.3851387,-0.36946028,0.23699315,0.8185931,-0.5232013,-0.95992136,0.28024575,0.0036552907,0.14961714,0.5013658,0.8522013,,1.1327163988611315,0.5385293315182977,0.21426247781000002,-0.5992938584787706,0.5752396640125043,0.1327395827937284,-0.4175074330392177,,-1.4246588697054408,0.10628797254795193,0.19394961351,0.8289043465943249,0.29062583500109185,-0.12671958197252936,0.8755241944797367,,-0.11663162726452107,-0.13014047567495718,0.09162943763999999,-0.11611542257629885,,3.5710633e-05,1.0728836e-06,-1.66893e-06,1.0,-2.0869076e-05,-1.578033e-05,2.0854175e-05,1.0,-4.053116e-06,1.578033e-05,4.0233135e-06,1.0,687,2.105,0,1,0.536,False,-0.25975888018662197,1.0506254319766548
2.1220289280172437,14:52:46.218202,14:51:30.202642,0,,0.112400874,0.0030520633,0.032654405,0.10998856,-0.99285,-0.04638365,-0.29003152,-0.0766957,0.95393884,-0.9506756,-0.09146966,-0.29639354,,0.061425015,-0.012324251,0.020276308,-0.11057096,-0.75065684,0.6513741,-0.47755274,0.61490434,0.6275636,-0.8716177,-0.24167527,-0.4264689,,0.099665076,1.2986232,0.4311938,0.9826936,0.006463007,-0.18512568,-0.10528785,-0.80276966,-0.5869202,-0.15240656,0.5962542,-0.78819615,,-0.11442573,0.25570783,-0.11616231,0.024650259,0.9751274,0.22027023,-0.8124661,-0.10884135,0.5727586,0.5824871,-0.19308074,0.7895749,,-0.088480406,0.3855944,-0.3699081,0.22285049,0.8202714,-0.5267756,-0.9626538,0.27038434,0.013783236,0.15373787,0.50403094,0.8498926,,1.1332956038266984,0.538266758600574,0.21431432941000003,-0.6263438611882743,0.5751030275127388,0.1095725597573646,-0.41914087370056047,,-1.4233460051168225,0.10837311042399254,0.19325739465000003,0.8159035700982842,0.2996438439856109,-0.13407316361649313,0.8755241944797367,,-0.11663162726452107,-0.13014047567495718,0.09162943763999999,-0.11611542257629885,,3.5710633e-05,1.0728836e-06,-1.66893e-06,1.0,-2.0869076e-05,-1.578033e-05,2.0854175e-05,1.0,-4.053116e-06,1.578033e-05,4.0233135e-06,1.0,716,2.195,0,1,0.536,False,-0.25910352528289105,1.0507702725789931
2.153686841018498,14:52:46.300727,14:51:30.331153,0,,0.11157911,0.0032401308,0.032506004,0.17179118,-0.98447907,-0.035898834,-0.2868575,-0.08485152,0.954208,-0.94244385,-0.15362665,-0.29698196,,0.059218664,-0.012536075,0.021408916,-0.050688203,-0.7511028,0.6582363,-0.4741305,0.5981741,0.6460558,-0.8789942,-0.27934256,-0.3864412,,0.099642366,1.2986239,0.4312008,0.9826935,0.0064622136,-0.18512626,-0.105288826,-0.80276966,-0.58692,-0.15240656,0.5962542,-0.78819615,,-0.11354987,0.25576854,-0.11611364,-0.036706075,0.97697324,0.21018071,-0.8054008,-0.15343052,0.5725283,0.59159297,-0.14826445,0.79248685,,-0.08649126,0.38651922,-0.37111878,0.16542304,0.8259048,-0.5389958,-0.97138864,0.23088272,0.05565365,0.17040944,0.514368,0.8404678,,1.1360526194627965,0.5372241896625538,0.21448673598,-0.7037194503340638,0.5776991210082822,0.05567129833801612,-0.41734408897308345,,-1.4166735639134924,0.11276734542942629,0.19134147803,0.7630617043401842,0.33913179241782315,-0.16227067951787139,0.8756875385458711,,-0.11663162726452107,-0.13014047567495718,0.09162943763999999,-0.11611542257629885,,1.2256205e-05,4.6491623e-06,-3.4570694e-06,1.0,-2.1643937e-05,-1.6368926e-05,2.1636486e-05,1.0,-4.2021275e-06,1.6376376e-05,4.142523e-06,1.0,724,2.22,0,1,0.536,False,-0.2590439475643693,1.0499977893665218
2.2362439818680286,14:52:46.330647,14:51:30.331153,0,,0.11123784,0.0033333972,0.032443807,0.19054303,-0.98119426,-0.030841649,-0.2855738,-0.08546077,0.95453864,-0.9392235,-0.17307313,-0.29648727,,0.05789863,-0.012753259,0.021731615,-0.012353264,-0.75084543,0.66036224,-0.47447544,0.58572936,0.6571105,-0.88018197,-0.30520827,-0.3634935,,0.099642366,1.2986239,0.4312008,0.9826935,0.0064622136,-0.18512626,-0.105288826,-0.80276966,-0.58692,-0.15240656,0.5962542,-0.78819615,,-0.113193884,0.25580683,-0.116084665,-0.055409916,0.9771501,0.20520099,-0.8025609,-0.16585052,0.5730529,0.59399134,-0.13293348,0.7934122,,-0.08526178,0.38674477,-0.3716944,0.1278963,0.8291541,-0.54419297,-0.9758756,0.20310165,0.08010339,0.17694455,0.5208197,0.8351272,,1.137311424921295,0.5367994393544715,0.21455932822,-0.7278337938347841,0.5778357575080477,0.03685544894213097,-0.4201209380973663,,-1.4118236876684795,0.11425783287415162,0.19043148245000002,0.7261562742869078,0.3615401783793554,-0.18078825194450615,0.8761775707442739,,-0.11663162726452107,-0.13014047567495718,0.09162943763999999,-0.11611542257629885,,1.2256205e-05,4.6491623e-06,-3.4570694e-06,1.0,-2.1643937e-05,-1.6368926e-05,2.1636486e-05,1.0,-4.2021275e-06,1.6376376e-05,4.142523e-06,1.0,753,2.31,0,1,0.536,False,-0.25975888018662197,1.0509151131813312
2.2661233209073544,14:52:46.409663,14:51:30.331153,0,,0.110346146,0.003591366,0.032302424,0.24829999,-0.96755326,-0.04677421,-0.27874583,-0.11761085,0.9531361,-0.927711,-0.22362554,-0.2989042,,0.055433005,-0.013083901,0.022214472,0.06783828,-0.7413954,0.6676307,-0.46387225,0.56900704,0.6790094,-0.88330084,-0.3557582,-0.3053124,,0.099642366,1.2986239,0.4312008,0.9826935,0.0064622136,-0.18512626,-0.105288826,-0.80276966,-0.58692,-0.15240656,0.5962542,-0.78819615,,-0.112265676,0.2559311,-0.11601663,-0.11293411,0.96871394,0.22099598,-0.7905662,-0.2223358,0.57058907,0.60187286,-0.11027299,0.7909418,,-0.08294014,0.3871216,-0.3726377,0.05026489,0.8272166,-0.55963033,-0.9785617,0.15284742,0.13803868,0.19972594,0.5406943,0.8171654,,1.1404777453997272,0.5360117206013005,0.21474858656,-0.8018543438848211,0.5787922130064057,0.0113268653536657,-0.418814185568292,,-1.4022243307058184,0.11662871186653855,0.1889213046,0.6521357242368707,0.41523832278717354,-0.22865942510422793,0.8761775707442738,,-0.11663162726452107,-0.13014047567495718,0.09162943763999999,-0.11611542257629885,,1.2256205e-05,4.6491623e-06,-3.4570694e-06,1.0,-2.1643937e-05,-1.6368926e-05,2.1636486e-05,1.0,-4.2021275e-06,1.6376376e-05,4.142523e-06,1.0,757,2.322,0,1,0.536,False,-0.25975888018662197,1.0505288715750958
2.345150305889547,14:52:46.432112,14:51:30.331153,0,,0.110013634,0.0037049577,0.03223534,0.27367008,-0.96064466,-0.04760772,-0.27629295,-0.1259291,0.95278746,-0.92128533,-0.24759573,-0.2998824,,0.054314695,-0.013158675,0.022437632,0.10536413,-0.736979,0.6676527,-0.45331138,0.56198025,0.6918722,-0.8851028,-0.3755532,-0.27486852,,0.099642366,1.2986239,0.4312008,0.9826935,0.0064622136,-0.18512626,-0.105288826,-0.80276966,-0.58692,-0.15240656,0.5962542,-0.78819615,,-0.11191476,0.25598243,-0.11596979,-0.13851547,0.9651719,0.22193855,-0.78489083,-0.24364837,0.56972086,0.60395354,-0.09528237,0.7913036,,-0.08188275,0.38734335,-0.3730102,0.014371811,0.8257217,-0.5638946,-0.97652835,0.13280195,0.16957596,0.21490885,0.548222,0.80824924,,1.1416670462623577,0.5358804341424387,0.2148341417,-0.8343562851249224,0.5774258480087513,-0.005691635920574867,-0.4186508415021577,,-1.3978996002962527,0.11788751732503715,0.18830427056000001,0.6185853332793468,0.44365871473838514,-0.25011909553013173,0.8763409148104082,,-0.11663162726452107,-0.13014047567495718,0.09162943763999999,-0.11611542257629885,,1.2256205e-05,4.6491623e-06,-3.4570694e-06,1.0,-2.1643937e-05,-1.6368926e-05,2.1636486e-05,1.0,-4.2021275e-06,1.6376376e-05,4.142523e-06,1.0,765,2.347,0,1,0.536,False,-0.2590439475643693,1.050963393382111
2.3676173619460315,14:52:46.457785,14:51:30.331153,0,,0.1097881,0.003779009,0.032194033,0.29418215,-0.9543522,-0.051659435,-0.27347356,-0.13584411,0.95223874,-0.91578865,-0.26600415,-0.300953,,0.053607292,-0.01318359,0.02255708,0.12973192,-0.7346555,0.66592103,-0.44756973,0.5558983,0.70047027,-0.8847885,-0.38891947,-0.25669193,,0.099642366,1.2986239,0.4312008,0.9826935,0.0064622136,-0.18512626,-0.105288826,-0.80276966,-0.58692,-0.15240656,0.5962542,-0.78819615,,-0.11167787,0.25601742,-0.11594304,-0.15914485,0.96103674,0.22601178,-0.77945656,-0.26281106,0.5686632,0.6059046,-0.08566655,0.79091144,,-0.081208736,0.38748118,-0.37321517,-0.009260034,0.8252699,-0.5646626,-0.9747765,0.118475564,0.18914089,0.222991,0.5521713,0.80335665,,1.142400705885409,0.5358727114095645,0.21488858588,-0.8605675280604879,0.576742665509924,-0.01591614010064696,-0.4179974652376206,,-1.3952120892560227,0.11876790887269874,0.18794130936000003,0.5953097495525647,0.4601917312100034,-0.26343730439711754,0.8756875385458711,,-0.11663162726452107,-0.13014047567495718,0.09162943763999999,-0.11611542257629885,,1.2256205e-05,4.6491623e-06,-3.4570694e-06,1.0,-2.1643937e-05,-1.6368926e-05,2.1636486e-05,1.0,-4.2021275e-06,1.6376376e-05,4.142523e-06,1.0,794,2.437,0,1,0.536,False,-0.2594609915940169,1.0506737121774343
2.3932986150030047,14:52:46.541067,14:51:30.331153,0,,0.10897959,0.004035175,0.031995043,0.36958852,-0.92777234,-0.05140695,-0.26078895,-0.15667067,0.9525982,-0.89184827,-0.33866295,-0.2998565,,0.05095535,-0.013191175,0.023187518,0.21374165,-0.7037565,0.6775258,-0.41412446,0.5628754,0.7153128,-0.88476855,-0.43347216,-0.17113298,,0.099642366,1.2986239,0.4312008,0.9826935,0.0064622136,-0.18512626,-0.105288826,-0.80276966,-0.58692,-0.15240656,0.5962542,-0.78819615,,-0.11082081,0.25610435,-0.11581352,-0.23534925,0.94536126,0.22561644,-0.7553586,-0.32399046,0.56961703,0.6115915,-0.03636236,0.7903377,,-0.07870684,0.38819262,-0.37403044,-0.089634314,0.8028276,-0.5894349,-0.9608905,0.0859889,0.26324028,0.26202142,0.58997774,0.7637218,,1.145049603261268,0.5358572659438161,0.21510895518000003,-0.9582830417242763,0.5725069340171954,-0.07012737562529484,-0.41930421776669485,,-1.3857980778823429,0.12279917543304393,0.18655298277000001,0.5162566408588989,0.5257772510974149,-0.3445253123389099,0.8760142266781397,,-0.11663162726452107,-0.13014047567495718,0.09162943763999999,-0.11611542257629885,,1.2256205e-05,4.6491623e-06,-3.4570694e-06,1.0,-2.1643937e-05,-1.6368926e-05,2.1636486e-05,1.0,-4.2021275e-06,1.6376376e-05,4.142523e-06,1.0,802,2.461,0,1,0.536,False,-0.26017592421626956,1.05105995378367
2.4765855718869716,14:52:46.571871,14:51:30.641191,0,,0.108688064,0.004119657,0.03193213,0.39195466,-0.9188287,-0.046100557,-0.25762406,-0.1577268,0.95328486,-0.88317674,-0.36176783,-0.29853418,,0.05003337,-0.013220262,0.023424268,0.23809549,-0.6905248,0.6829978,-0.4071969,0.56746197,0.71566594,-0.8817602,-0.44851148,-0.1460695,,0.099642366,1.2986239,0.4312008,0.9826935,0.0064622136,-0.18512626,-0.105288826,-0.80276966,-0.58692,-0.15240656,0.5962542,-0.78819615,,-0.11051434,0.25613487,-0.11577832,-0.25830814,0.94061065,0.22029197,-0.7477211,-0.33904922,0.57092804,0.6117108,-0.017241586,0.79089355,,-0.07784176,0.38843668,-0.37434512,-0.11362468,0.79264706,-0.59899926,-0.95631623,0.076193474,0.28223017,0.26934874,0.604901,0.7493638,,1.1462080131924017,0.5358032068136965,0.21516858452,-0.9878493237555942,0.5690910215230595,-0.0917638713349125,-0.41914087370056063,,-1.3827939347942695,0.12445184026812797,0.18602020758,0.48962601803636435,0.5403973565723169,-0.375478174487178,0.8755241944797368,,-0.11663162726452107,-0.13014047567495718,0.09162943763999999,-0.11611542257629885,,1.2256205e-05,4.6491623e-06,-3.4570694e-06,1.0,-2.1643937e-05,-1.6368926e-05,2.1636486e-05,1.0,-4.2021275e-06,1.6376376e-05,4.142523e-06,1.0,831,2.552,0,1,0.536,False,-0.2593418361569748,1.0507702725789931
2.507392883999273,14:52:46.657513,14:51:30.641191,0,,0.107576124,0.0044716373,0.031744584,0.45653778,-0.8885583,-0.045137197,-0.24622318,-0.17493418,0.95329547,-0.8549545,-0.42410153,-0.2986477,,0.04765295,-0.013388719,0.024204314,0.31459066,-0.66839224,0.6740063,-0.38855898,0.557167,0.73388493,-0.86605686,-0.49276456,-0.08443034,,0.099642366,1.2986239,0.4312008,0.9826935,0.0064622136,-0.18512626,-0.105288826,-0.80276966,-0.58692,-0.15240656,0.5962542,-0.78819615,,-0.10935098,0.25630692,-0.11566671,-0.32487905,0.91996133,0.2193736,-0.72192955,-0.39107212,0.57085925,0.61095935,0.027087927,0.79119843,,-0.07564284,0.3891371,-0.37533376,-0.1902381,0.77761257,-0.599273,-0.93912715,0.033742953,0.34190878,0.2860938,0.62783766,0.7238579,,1.1512895714236415,0.535339842841243,0.21538506495,-1.0759191000190946,0.5567937365441699,-0.14046327416329882,-0.4173440889730835,,-1.376136939056688,0.1284599386298505,0.18449836312,0.40113686188589515,0.5786555765066402,-0.44122529460163373,0.8756875385458711,,-0.11663162726452107,-0.13014047567495718,0.09162943763999999,-0.11611542257629885,,1.2256205e-05,4.6491623e-06,-3.4570694e-06,1.0,-2.1643937e-05,-1.6368926e-05,2.1636486e-05,1.0,-4.2021275e-06,1.6376376e-05,4.142523e-06,1.0,839,2.576,0,1,0.536,False,-0.2607121236829584,1.050963393382111
2.5930300939362496,14:52:46.683191,14:51:30.641191,0,,0.10731716,0.00455527,0.03171839,0.4679128,-0.88252974,-0.0468923,-0.24340314,-0.17969489,0.95313406,-0.84959537,-0.43456987,-0.2988921,,0.047000427,-0.013506588,0.024412036,0.3345192,-0.6587588,0.6738944,-0.38742554,0.5557338,0.7355689,-0.8590682,-0.5071458,-0.06931645,,0.099642366,1.2986239,0.4312008,0.9826935,0.0064622136,-0.18512626,-0.105288826,-0.80276966,-0.58692,-0.15240656,0.5962542,-0.78819615,,-0.10908294,0.256359,-0.11565319,-0.3365692,0.91533166,0.2211088,-0.71650726,-0.401295,0.57059586,0.6110143,0.033618923,0.79090536,,-0.07504389,0.38927895,-0.3756562,-0.21093455,0.770455,-0.601586,-0.9347863,0.020947477,0.35459238,0.28579918,0.63715017,0.71579224,,1.1525638223478885,0.5351853881837585,0.21542784252000002,-1.0920652256674028,0.5546075525479227,-0.14750189163933675,-0.4197942499650976,,-1.3744070468928618,0.129440725704877,0.18402392098,0.3751353088938141,0.5837111269979616,-0.46356211608974673,0.8758508826120053,,-0.11663162726452107,-0.13014047567495718,0.09162943763999999,-0.11611542257629885,,1.2256205e-05,4.6491623e-06,-3.4570694e-06,1.0,-2.1643937e-05,-1.6368926e-05,2.1636486e-05,1.0,-4.2021275e-06,1.6376376e-05,4.142523e-06,1.0,872,2.679,0,1,0.536,False,-0.25975888018662197,1.0508668329805522
2.6186830210499465,14:52:46.782402,14:51:30.798756,0,,0.10612467,0.0049159825,0.0315025,0.52597886,-0.84904057,-0.049762487,-0.23125425,-0.19907644,0.9523077,-0.81845444,-0.4893859,-0.3010543,,0.04526644,-0.014008384,0.025156975,0.37028152,-0.63943404,0.6738067,-0.36783433,0.56514305,0.738452,-0.8529884,-0.52128446,-0.025943875,,0.099642366,1.2986239,0.4312008,0.9826935,0.0064622136,-0.18512626,-0.105288826,-0.80276966,-0.58692,-0.15240656,0.5962542,-0.78819615,,-0.10783482,0.25652122,-0.11553216,-0.39720508,0.8899258,0.22418787,-0.68828535,-0.4504564,0.56864077,0.607035,0.07156179,0.79144645,,-0.073497325,0.3896843,-0.3767775,-0.24580748,0.75445575,-0.6085846,-0.9208157,0.014370822,0.3897331,0.30278224,0.65619355,0.69118226,,1.1584485447980475,0.534374501231965,0.21565728585000002,-1.1740539935698517,0.5386210820753663,-0.18739382051793985,-0.417670777105352,,-1.3694104387232384,0.13137140892343313,0.18259281682000003,0.3327779403099402,0.610218607952457,-0.5120494949130975,0.8756875385458711,,-0.11663162726452107,-0.13014047567495718,0.09162943763999999,-0.11611542257629885,,1.2256205e-05,4.6491623e-06,-3.4570694e-06,1.0,-2.1643937e-05,-1.6368926e-05,2.1636486e-05,1.0,-4.2021275e-06,1.6376376e-05,4.142523e-06,1.0,880,2.703,0,1,0.536,False,-0.2602950796533112,1.0505771517758753
2.717913890024647,14:52:46.811640,14:51:30.798756,0,,0.105859146,0.0049967393,0.031408623,0.53954667,-0.84072393,-0.04552658,-0.23063275,-0.19958335,0.95235234,-0.80975163,-0.5033386,-0.30158302,,0.04473361,-0.01419742,0.025374591,0.38202417,-0.63352966,0.6728281,-0.3609644,0.56792593,0.73970604,-0.8507421,-0.5254526,-0.0117203,,0.099642366,1.2986239,0.4312008,0.9826935,0.0064622136,-0.18512626,-0.105288826,-0.80276966,-0.58692,-0.15240656,0.5962542,-0.78819615,,-0.107548706,0.25652963,-0.11546968,-0.41191137,0.88422894,0.22015487,-0.6825697,-0.45946965,0.5683188,0.6036784,0.08382594,0.79280865,,-0.07302254,0.38977805,-0.3771419,-0.2572706,0.74953574,-0.6099246,-0.91575897,0.012419522,0.40153608,0.3085406,0.6618474,0.68319887,,1.1598309139825338,0.5341119283142414,0.21572987809000002,-1.1927163985399747,0.5319258935868597,-0.2004754172487228,-0.4191408737005605,,-1.3678350012168967,0.13174210010139592,0.18214818935000002,0.3185190241529925,0.6192366169369762,-0.5275709505711176,0.8756875385458711,,-0.11663162726452107,-0.13014047567495718,0.09162943763999999,-0.11611542257629885,,1.2256205e-05,4.6491623e-06,-3.4570694e-06,1.0,-2.1643937e-05,-1.6368926e-05,2.1636486e-05,1.0,-4.2021275e-06,1.6376376e-05,4.142523e-06,1.0,909,2.793,0,1,0.536,False,-0.26112916771260597,1.0506254319766548
2.7471138529945165,14:52:46.895134,14:51:30.917299,0,,0.10516773,0.0050860047,0.031059489,0.5805247,-0.8127995,-0.048456505,-0.2199853,-0.21386139,0.9517719,-0.7839626,-0.5418673,-0.30295578,,0.043217495,-0.014793199,0.025710583,0.43078026,-0.60069233,0.673496,-0.35883358,0.5707493,0.7385688,-0.8280499,-0.5598339,0.030318797,,0.099642366,1.2986239,0.4312008,0.9826935,0.0064622136,-0.18512626,-0.105288826,-0.80276966,-0.58692,-0.15240656,0.5962542,-0.78819615,,-0.10680056,0.25639176,-0.11529884,-0.45511538,0.8620088,0.2231833,-0.6586786,-0.49457628,0.5670422,0.5991765,0.111063525,0.79287606,,-0.07162796,0.38979068,-0.3780482,-0.3088875,0.7232002,-0.61771345,-0.9012511,-0.015062881,0.43303528,0.30386668,0.69047415,0.65643775,,1.1626806024131227,0.5329071819858623,0.21594246965000002,-1.2514295827156414,0.5199018816075008,-0.22767111100711235,-0.418814185568292,,-1.3634253207457145,0.13244486879295034,0.18096467658,0.24911165285961492,0.6271615339233717,-0.595210565350791,0.8750341622813339,,-0.11663162726452107,-0.13014047567495718,0.09162943763999999,-0.11611542257629885,,1.2256205e-05,4.6491623e-06,-3.4570694e-06,1.0,-2.1643937e-05,-1.6368926e-05,2.1636486e-05,1.0,-4.2021275e-06,1.6376376e-05,4.142523e-06,1.0,917,2.818,0,1,0.536,False,-0.2599376133421849,1.0503840309727575
2.830641729058698,14:52:46.924865,14:51:30.917299,0,,0.104989275,0.005082153,0.030817613,0.59533393,-0.8025209,-0.039213985,-0.22525749,-0.21355274,0.9506073,-0.77125645,-0.55709547,-0.3079091,,0.042918064,-0.014933016,0.025788188,0.4428706,-0.59064615,0.67453885,-0.3592271,0.57242215,0.73708135,-0.82147515,-0.5687443,0.04133275,,0.099642366,1.2986239,0.4312008,0.9826935,0.0064622136,-0.18512626,-0.105288826,-0.80276966,-0.58692,-0.15240656,0.5962542,-0.78819615,,-0.106583916,0.25624195,-0.11515399,-0.47250065,0.85472924,0.21489772,-0.65517837,-0.50374174,0.5630147,0.5894781,0.12522848,0.7980184,,-0.07135591,0.38978773,-0.37825122,-0.3219084,0.71492773,-0.6206878,-0.8975109,-0.02172249,0.44045702,0.30141205,0.6988608,0.6486481,,1.1635378257621616,0.5322739178901759,0.21604617285000002,-1.269672607798795,0.505964958631426,-0.24162689427365164,-0.4193042177666949,,-1.3627071065884115,0.13253754158744105,0.18070541858000003,0.23149769760691488,0.6275714434226679,-0.6137591781132258,0.8753608504136025,,-0.11663162726452107,-0.13014047567495718,0.09162943763999999,-0.11611542257629885,,1.2256205e-05,4.6491623e-06,-3.4570694e-06,1.0,-2.1643937e-05,-1.6368926e-05,2.1636486e-05,1.0,-4.2021275e-06,1.6376376e-05,4.142523e-06,1.0,946,2.908,0,1,0.536,False,-0.2607717014014801,1.050432311173537
2.8603813720401376,14:52:47.021538,14:51:31.076233,0,,0.104375154,0.0052395836,0.029873654,0.62021375,-0.7840658,-0.023994833,-0.24734855,-0.22450346,0.94255865,-0.7444149,-0.5786527,-0.33317772,,0.041686695,-0.015624564,0.026372373,0.4755766,-0.56188494,0.6768398,-0.35056496,0.58462524,0.7316541,-0.8068029,-0.5852339,0.08105686,,0.099642366,1.2986239,0.4312008,0.9826935,0.0064622136,-0.18512626,-0.105288826,-0.80276966,-0.58692,-0.15240656,0.5962542,-0.78819615,,-0.10579661,0.25579295,-0.1144673,-0.50438225,0.83915496,0.20351294,-0.6563913,-0.5257476,0.5410544,0.56102496,0.13931414,0.81599176,,-0.07028948,0.3899052,-0.37933964,-0.35595387,0.6902304,-0.6299832,-0.8836109,-0.029157368,0.46731314,0.3041851,0.72300196,0.6202738,,1.1666423643775998,0.5294165067267128,0.21665024399000002,-1.2977710602257213,0.46743346569757177,-0.253088384005056,-0.418814185568292,,-1.359695240767464,0.13279239177229044,0.17943375809,0.1849465301533505,0.6380924539046069,-0.6708555283413442,0.8750341622813339,,-0.11663162726452107,-0.13014047567495718,0.09162943763999999,-0.11611542257629885,,1.2256205e-05,4.6491623e-06,-3.4570694e-06,1.0,-2.1643937e-05,-1.6368926e-05,2.1636486e-05,1.0,-4.2021275e-06,1.6376376e-05,4.142523e-06,1.0,954,2.932,0,1,0.536,False,-0.26095043455704303,1.050046069567301
2.9570585570763797,14:52:47.046756,14:51:31.076233,0,,0.10423594,0.0053180233,0.029551253,0.62534225,-0.7800903,-0.020155951,-0.25618482,-0.22962567,0.9389576,-0.7370999,-0.58200616,-0.3434419,,0.041345835,-0.015807282,0.026466012,0.47784328,-0.56153387,0.6755334,-0.3489371,0.5844055,0.73260725,-0.8061691,-0.5857901,0.08331409,,0.099642366,1.2986239,0.4312008,0.9826935,0.0064622136,-0.18512626,-0.105288826,-0.80276966,-0.58692,-0.15240656,0.5962542,-0.78819615,,-0.10559337,0.25565854,-0.11420253,-0.5118201,0.8352162,0.20113204,-0.6589345,-0.5318816,0.5318904,0.5512219,0.13969934,0.8225804,,-0.06998226,0.38989097,-0.37959212,-0.35817984,0.6899637,-0.62901294,-0.8822896,-0.029754724,0.4697656,0.3054051,0.72323215,0.6194053,,1.1674532513293934,0.5285901743091708,0.21688357619,-1.3023842389823808,0.4548629077191513,-0.25206763450086883,-0.4189775296344263,,-1.3583592079802231,0.13286189636815846,0.17913042623000003,0.1809624212271445,0.640005364901323,-0.6742123112761864,0.875034162281334,,-0.11663162726452107,-0.13014047567495718,0.09162943763999999,-0.11611542257629885,,1.2256205e-05,4.6491623e-06,-3.4570694e-06,1.0,-2.1643937e-05,-1.6368926e-05,2.1636486e-05,1.0,-4.2021275e-06,1.6376376e-05,4.142523e-06,1.0,987,3.035,0,1,0.536,False,-0.26190367805337944,1.0506254319766548
2.9822667338885367,14:52:47.143939,14:51:31.210600,0,,0.10408347,0.005523801,0.028474078,0.6579451,-0.7530614,-0.0026141256,-0.27783093,-0.24596265,0.9286077,-0.6999415,-0.6102466,-0.37105364,,0.04025553,-0.016282316,0.026373267,0.4789189,-0.5605193,0.6756143,-0.34564352,0.58704823,0.73205537,-0.80694926,-0.5841169,0.08740854,,0.099642366,1.2986239,0.4312008,0.9826935,0.0064622136,-0.18512626,-0.105288826,-0.80276966,-0.58692,-0.15240656,0.5962542,-0.78819615,,-0.105226584,0.2551625,-0.11328311,-0.55301523,0.8117754,0.187603,-0.6535365,-0.562306,0.5066577,0.5167825,0.15758404,0.8414886,,-0.06892638,0.38961375,-0.38007304,-0.35888487,0.6888631,-0.62981683,-0.88089263,-0.026881581,0.47255218,0.3085933,0.72439283,0.6164618,,1.1685884930619044,0.5268680048782187,0.21765097987,-1.3390799790921726,0.41086595479467947,-0.2634830600520066,-0.418814185568292,,-1.3525826037903033,0.13287734183390693,0.17849524413,0.17530079275306237,0.6445143693935826,-0.6844234013094133,0.8750341622813339,,-0.11663162726452107,-0.13014047567495718,0.09162943763999999,-0.11611542257629885,,1.2256205e-05,4.6491623e-06,-3.4570694e-06,1.0,-2.1643937e-05,-1.6368926e-05,2.1636486e-05,1.0,-4.2021275e-06,1.6376376e-05,4.142523e-06,1.0,995,3.059,0,1,0.536,False,-0.2603546573718325,1.0496115477602863
3.079454477876425,14:52:47.165859,14:51:31.210600,0,,0.10409355,0.005604595,0.028152213,0.66094375,-0.75042796,0.0033625811,-0.28361407,-0.24564117,0.92694306,-0.69477785,-0.61361086,-0.37518692,,0.03989647,-0.016436558,0.026299238,0.4785598,-0.5616787,0.67490554,-0.3447681,0.5867055,0.73274267,-0.8075366,-0.5833471,0.087124676,,0.099642366,1.2986239,0.4312008,0.9826935,0.0064622136,-0.18512626,-0.105288826,-0.80276966,-0.58692,-0.15240656,0.5962542,-0.78819615,,-0.1051688,0.2550291,-0.11298462,-0.5576009,0.8098458,0.18229374,-0.6549677,-0.5641335,0.50276303,0.5099985,0.1609446,0.84498423,,-0.06857121,0.38949046,-0.38020286,-0.35837415,0.6898511,-0.6290258,-0.88075656,-0.026406515,0.47283247,0.30957362,0.72346956,0.6170543,,1.168542156664659,0.5263505817756456,0.21791801561000002,-1.3413865684705022,0.4029410378082839,-0.2664138767537788,-0.4186508415021577,,-1.3504974659142628,0.1328078372380389,0.17831894869,0.17425234303563975,0.645880734391237,-0.6855375803463775,0.8750341622813339,,-0.11663162726452107,-0.13014047567495718,0.09162943763999999,-0.11611542257629885,,1.2256205e-05,4.6491623e-06,-3.4570694e-06,1.0,-2.1643937e-05,-1.6368926e-05,2.1636486e-05,1.0,-4.2021275e-06,1.6376376e-05,4.142523e-06,1.0,1012,3.113,0,1,0.536,False,-0.2596993024681016,1.050335750771978
3.1013673790730536,14:52:47.220544,14:51:31.210600,0,,0.10407076,0.0056056157,0.027599975,0.67657423,-0.73626655,0.012599781,-0.29055014,-0.25119355,0.9232998,-0.6766297,-0.6283417,-0.38387355,,0.03938001,-0.016666483,0.026156843,0.48326162,-0.5631312,0.6703292,-0.34346855,0.582336,0.73682714,-0.8052872,-0.58631736,0.08800268,,0.099642366,1.2986239,0.4312008,0.9826935,0.0064622136,-0.18512626,-0.105288826,-0.80276966,-0.58692,-0.15240656,0.5962542,-0.78819615,,-0.10504818,0.2546918,-0.1125637,-0.57696897,0.7979382,0.17435983,-0.6494554,-0.57765716,0.49448952,0.4952923,0.17206618,0.8515156,,-0.06805486,0.38928044,-0.38037357,-0.3632884,0.6914838,-0.6243971,-0.8786163,-0.03133301,0.47649938,0.30992734,0.7217122,0.61893183,,1.1684417611372941,0.5252385082417573,0.2182693102,-1.3600489734406251,0.38490501983924574,-0.2751485118861926,-0.4184874974360234,,-1.3476014410864285,0.13254526432031527,0.17808820907000003,0.1652356754658052,0.6479302818877185,-0.6885157087440728,0.8753608504136023,,-0.11663162726452107,-0.13014047567495718,0.09162943763999999,-0.11611542257629885,,1.2256205e-05,4.6491623e-06,-3.4570694e-06,1.0,-2.1643937e-05,-1.6368926e-05,2.1636486e-05,1.0,-4.2021275e-06,1.6376376e-05,4.142523e-06,1.0,1033,3.178,0,1,0.536,False,-0.2607121236829584,1.0499012289649627
3.1560476620215923,14:52:47.278085,14:51:31.210600,0,,0.1041388,0.0054538995,0.026932523,0.68775606,-0.7240644,0.052175283,-0.32079294,-0.2386584,0.91658825,-0.6512168,-0.64712656,-0.3964136,,0.039003365,-0.016917925,0.026049018,0.4978851,-0.5516263,0.6691926,-0.35072893,0.57763994,0.73710334,-0.79315794,-0.60169804,0.09412688,,0.099642366,1.2986239,0.4312008,0.9826935,0.0064622136,-0.18512626,-0.105288826,-0.80276966,-0.58692,-0.15240656,0.5962542,-0.78819615,,-0.10501527,0.2541625,-0.11212569,-0.59627676,0.79098207,0.1371183,-0.65787864,-0.57935315,0.4811919,0.46005407,0.19671634,0.865825,,-0.06768328,0.38907108,-0.3805601,-0.38019556,0.6824334,-0.6242884,-0.8751908,-0.047130458,0.48147663,0.29915276,0.72942674,0.6151782,,1.1684263156715455,0.5235935661395476,0.21854801255000003,-1.3667590516321297,0.3445972524084408,-0.298311846032174,-0.4181608093037549,,-1.346033726312961,0.1322440777382205,0.17782765478,0.14070195207811584,0.6401420014010885,-0.7071585827163889,0.875034162281334,,-0.11663162726452107,-0.13014047567495718,0.09162943763999999,-0.11611542257629885,,1.2256205e-05,4.6491623e-06,-3.4570694e-06,1.0,-2.1643937e-05,-1.6368926e-05,2.1636486e-05,1.0,-4.2021275e-06,1.6376376e-05,4.142523e-06,1.0,1054,3.244,0,1,0.536,False,-0.2607121236829584,1.0502391903704191
3.2135851490311325,14:52:47.347177,14:51:31.210600,0,,0.104047835,0.005212605,0.02639179,0.71075743,-0.7003814,0.06549621,-0.32929575,-0.24900031,0.91080356,-0.6216012,-0.6689279,-0.4076115,,0.038637668,-0.017261874,0.026144862,0.50498545,-0.54141986,0.672201,-0.36074242,0.5751227,0.73423356,-0.7841266,-0.6132687,0.09511539,,0.099642366,1.2986239,0.4312008,0.9826935,0.0064622136,-0.18512626,-0.105288826,-0.80276966,-0.58692,-0.15240656,0.5962542,-0.78819615,,-0.10486124,0.25364125,-0.111873746,-0.62507725,0.7704286,0.12537235,-0.6466378,-0.6010685,0.46965542,0.43719336,0.21250041,0.8739025,,-0.067362875,0.3889584,-0.38094202,-0.38936925,0.67416745,-0.62760645,-0.8752326,-0.05850591,0.48015103,0.28698352,0.7362576,0.61283374,,1.1684880975345395,0.5218018921127274,0.21871134509,-1.3956962638329942,0.3172699524553527,-0.3100882999315041,-0.41701740084081496,,-1.3447903663202108,0.13210506854648446,0.1773583978,0.12686241580813723,0.6292110814198533,-0.7201350527783459,0.8750341622813339,,-0.11663162726452107,-0.13014047567495718,0.09162943763999999,-0.11611542257629885,,1.2256205e-05,4.6491623e-06,-3.4570694e-06,1.0,-2.1643937e-05,-1.6368926e-05,2.1636486e-05,1.0,-4.2021275e-06,1.6376376e-05,4.142523e-06,1.0,1075,3.309,0,1,0.536,False,-0.2607717014014801,1.0500943497680806
3.2826830139383674,14:52:47.416411,14:51:31.432629,0,,0.1042916,0.005117327,0.025885463,0.7424083,-0.65826017,0.124593094,-0.3650424,-0.24152587,0.89911586,-0.5617597,-0.7129927,-0.41960374,,0.03797657,-0.017605163,0.026170313,0.50404793,-0.54262316,0.67193425,-0.36020684,0.5750262,0.73457193,-0.7849755,-0.6122949,0.094384104,,0.09963425,1.2986246,0.43119344,0.9826935,0.006462344,-0.18512617,-0.10528866,-0.80276966,-0.58692,-0.15240656,0.5962542,-0.78819615,,-0.10501431,0.2532589,-0.11149438,-0.67118675,0.73813057,0.06834906,-0.6384816,-0.6224856,0.45260686,0.3766293,0.2601441,0.88908684,,-0.06673317,0.38882297,-0.38133356,-0.38826856,0.675181,-0.6271987,-0.87546253,-0.057713993,0.47982752,0.28777227,0.7353909,0.6135042,,1.169399380013698,0.5216242692566203,0.21886430731000003,-1.4313435542253632,0.24772197407474353,-0.34918574913490513,-0.4197942499650976,,-1.3418711732937538,0.1320819003478618,0.17692802952000003,0.12581396609071463,0.6303041734179768,-0.7220065408896039,0.875034162281334,,-0.11663162726452107,-0.13014047567495718,0.09162943763999999,-0.11611542257629885,,5.3346157e-06,-4.172325e-07,3.4570694e-06,1.0,-2.1517277e-05,-1.6279519e-05,2.1502376e-05,1.0,-4.2021275e-06,1.628697e-05,4.142523e-06,1.0,1096,3.375,0,1,0.536,False,-0.260652545964438,1.049514987358727
3.3519279200118035,14:52:47.478738,14:51:31.432629,0,,0.104212135,0.005268395,0.025592804,0.76699555,-0.6258166,0.1416736,-0.3764186,-0.2600348,0.8892081,-0.51964104,-0.73534715,-0.43501458,,0.037270106,-0.017939977,0.026037991,0.5036218,-0.54328215,0.67172116,-0.35963994,0.57511044,0.73478377,-0.78550875,-0.611631,0.09425208,,0.09963425,1.2986246,0.43119344,0.9826935,0.006462344,-0.18512617,-0.10528866,-0.80276966,-0.58692,-0.15240656,0.5962542,-0.78819615,,-0.10486534,0.25319967,-0.11119592,-0.7041275,0.7080812,0.053156067,-0.62186503,-0.65106356,0.43520132,0.34276584,0.2733813,0.89876264,,-0.06603871,0.38857076,-0.3816213,-0.38772178,0.6757234,-0.6269527,-0.87547493,-0.05709304,0.4798792,0.28847098,0.734941,0.6137151,,1.1715154088212354,0.5215779328593749,0.21909893580000003,-1.4655230150133407,0.20755084314370403,-0.3542461421332376,-0.41832415336988915,,-1.3377549566717923,0.13186566382738352,0.17655599429000002,0.12308799682541581,0.6316705384156313,-0.7262245120519095,0.875034162281334,,-0.11663162726452107,-0.13014047567495718,0.09162943763999999,-0.11611542257629885,,5.3346157e-06,-4.172325e-07,3.4570694e-06,1.0,-2.1517277e-05,-1.6279519e-05,2.1502376e-05,1.0,-4.2021275e-06,1.628697e-05,4.142523e-06,1.0,1117,3.44,0,1,0.536,False,-0.26101001227556386,1.0496115477602863
3.4142548870295286,14:52:47.549596,14:51:31.621127,0,,0.1040398,0.0053921416,0.025028586,0.7829986,-0.5925152,0.1893116,-0.40967965,-0.26222396,0.87372833,-0.46805525,-0.76168513,-0.4480624,,0.03647214,-0.018270306,0.025896907,0.510282,-0.5363529,0.67226315,-0.35438183,0.5811057,0.73261845,-0.7835979,-0.61207986,0.106453985,,0.09963425,1.2986246,0.43119344,0.9826935,0.006462344,-0.18512617,-0.10528866,-0.80276966,-0.58692,-0.15240656,0.5962542,-0.78819615,,-0.10458095,0.25295317,-0.11072503,-0.73318255,0.67999566,0.007014656,-0.6166786,-0.66918993,0.4145991,0.28661972,0.29965103,0.90997714,,-0.06525247,0.3883226,-0.38191465,-0.3942385,0.66938764,-0.62967944,-0.8712538,-0.054239616,0.48782673,0.29239163,0.7409307,0.6045899,,1.174666283833919,0.5203577410652475,0.21949689683,-1.4871210791922467,0.144561416751836,-0.3744330648923198,-0.4193042177666948,,-1.3334379489951007,0.1316494273069052,0.17618266277000003,0.11071629015982887,0.6375459079055451,-0.7456359763960162,0.8745441300829311,,-0.11663162726452107,-0.13014047567495718,0.09162943763999999,-0.11611542257629885,,5.3346157e-06,-4.172325e-07,3.4570694e-06,1.0,-2.1517277e-05,-1.6279519e-05,2.1502376e-05,1.0,-4.2021275e-06,1.628697e-05,4.142523e-06,1.0,1138,3.506,0,1,0.536,False,-0.26041423509035333,1.049708108161845
3.485109261935577,14:52:47.608392,14:51:31.621127,0,,0.10356757,0.0054095164,0.024471462,0.7922654,-0.57992643,0.1897388,-0.4110483,-0.27744216,0.8683692,-0.45094866,-0.7659707,-0.45818564,,0.035966482,-0.018497847,0.02588743,0.5160782,-0.5325481,0.67086184,-0.35015267,0.5836175,0.7326553,-0.78170085,-0.61301154,0.11471906,,0.09963425,1.2986246,0.43119344,0.9826935,0.006462344,-0.18512617,-0.10528866,-0.80276966,-0.58692,-0.15240656,0.5962542,-0.78819615,,-0.10401887,0.25262934,-0.11038906,-0.74544287,0.66652495,0.007711963,-0.6073539,-0.6839422,0.40415874,0.27465641,0.29659334,0.91465634,,-0.06476889,0.38821518,-0.38216397,-0.39997253,0.6659712,-0.6296859,-0.86762065,-0.053694043,0.49431908,0.2953919,0.7440425,0.5992865,,1.1765815215867268,0.5178169619496276,0.21987930238000003,-1.502847824953586,0.12980467477716842,-0.3701594116064597,-0.41783412117148633,,-1.3310130108725942,0.13156447724528875,0.17588321978000002,0.10086086281605622,0.6419182758980392,-0.7575325808086391,0.8745441300829311,,-0.11663162726452107,-0.13014047567495718,0.09162943763999999,-0.11611542257629885,,5.3346157e-06,-4.172325e-07,3.4570694e-06,1.0,-2.1517277e-05,-1.6279519e-05,2.1502376e-05,1.0,-4.2021275e-06,1.628697e-05,4.142523e-06,1.0,1159,3.571,0,1,0.536,False,-0.26112916771260597,1.0482114219376817
3.543914115987718,14:52:47.680051,14:51:31.621127,0,,0.10311815,0.005097583,0.023792684,0.7934691,-0.5721959,0.20736113,-0.4283751,-0.28305137,0.8581239,-0.432321,-0.7697231,-0.46970704,,0.035466313,-0.018745683,0.0259099,0.5226116,-0.53148454,0.6666342,-0.35036132,0.5789534,0.7362473,-0.7772541,-0.6183343,0.116356105,,0.09963425,1.2986246,0.43119344,0.9826935,0.006462344,-0.18512617,-0.10528866,-0.80276966,-0.58692,-0.15240656,0.5962542,-0.78819615,,-0.103499606,0.25197053,-0.11015168,-0.75215244,0.65893114,-0.008744962,-0.6096469,-0.690735,0.38886476,0.25019464,0.2978169,0.9212533,,-0.064297445,0.38811895,-0.38244784,-0.4071586,0.66550416,-0.62556064,-0.8649106,-0.060834136,0.49822575,0.29351586,0.7439109,0.6003707,,1.1779561680383386,0.513978763711138,0.22013596780000003,-1.5049447243884313,0.10316055732290753,-0.37244646998698283,-0.4186508415021577,,-1.3287811410719435,0.13165715003977943,0.17552544374,0.08911822598092285,0.6410984568994466,-0.7628266214167215,0.8740540978845281,,-0.11663162726452107,-0.13014047567495718,0.09162943763999999,-0.11611542257629885,,5.3346157e-06,-4.172325e-07,3.4570694e-06,1.0,-2.1517277e-05,-1.6279519e-05,2.1502376e-05,1.0,-4.2021275e-06,1.628697e-05,4.142523e-06,1.0,1180,3.637,0,1,0.536,False,-0.26112916771260597,1.0485011031423586
3.6155557760503143,14:52:47.749464,14:51:31.802018,0,,0.10276261,0.0048816726,0.02346921,0.79283774,-0.5709108,0.21323463,-0.43997622,-0.29409707,0.8484856,-0.4216979,-0.7665295,-0.4843585,,0.03500892,-0.018855594,0.025826752,0.5300707,-0.52651024,0.6646893,-0.35578173,0.573443,0.73795843,-0.76970404,-0.62765455,0.116642535,,0.09963425,1.2986246,0.43119344,0.9826935,0.006462344,-0.18512617,-0.10528866,-0.80276966,-0.58692,-0.15240656,0.5962542,-0.78819615,,-0.10312286,0.25160453,-0.110109836,-0.7549136,0.6556933,-0.0131042795,-0.6123035,-0.6975189,0.3722255,0.23492528,0.28902188,0.9280498,,-0.06384104,0.38802537,-0.3825534,-0.416127,0.6618048,-0.6235806,-0.8632063,-0.071923144,0.49970186,0.2858552,0.74621814,0.6012032,,1.17923814169546,0.5116773893146191,0.22020207859000002,-1.5045253445014621,0.08676417735105468,-0.3642220821722677,-0.41799746523762055,,-1.3266264986000347,0.13237536419708232,0.17530637073000002,0.07506899976745972,0.6337200859121127,-0.7709404766614321,0.8742174419506625,,-0.11663162726452107,-0.13014047567495718,0.09162943763999999,-0.11611542257629885,,5.3346157e-06,-4.172325e-07,3.4570694e-06,1.0,-2.1517277e-05,-1.6279519e-05,2.1502376e-05,1.0,-4.2021275e-06,1.628697e-05,4.142523e-06,1.0,1201,3.703,0,1,0.536,False,-0.2604738128088746,1.0497563883626244
3.6849747728556395,14:52:47.808794,14:51:31.802018,0,,0.10256626,0.004815303,0.02341789,0.7927849,-0.5700327,0.21576531,-0.4438365,-0.2972966,0.84535426,-0.41773322,-0.76594865,-0.48869362,,0.03472302,-0.018761598,0.025793135,0.5294631,-0.5252451,0.66617286,-0.35732427,0.57413566,0.7366735,-0.76940763,-0.6280812,0.11630079,,0.09963425,1.2986246,0.43119344,0.9826935,0.006462344,-0.18512617,-0.10528866,-0.80276966,-0.58692,-0.15240656,0.5962542,-0.78819615,,-0.10293066,0.25152215,-0.11015309,-0.7560623,0.65432304,-0.015203474,-0.6129254,-0.69969875,0.36707503,0.22954778,0.28685018,0.93006706,,-0.06354788,0.38808426,-0.3825055,-0.41568315,0.66067874,-0.6250689,-0.8639044,-0.07192199,0.49849412,0.28438827,0.7472154,0.60066,,1.1801648696403668,0.5108587796299513,0.22018133795000003,-1.5049447243884313,0.08047889836184442,-0.3622823294677142,-0.4184874974360234,,-1.3252286839498,0.13361100145695826,0.175258408,0.07443992993700614,0.630987355916804,-0.773694521736078,0.8743807860167968,,-0.11663162726452107,-0.13014047567495718,0.09162943763999999,-0.11611542257629885,,5.3346157e-06,-4.172325e-07,3.4570694e-06,1.0,-2.1517277e-05,-1.6279519e-05,2.1502376e-05,1.0,-4.2021275e-06,1.628697e-05,4.142523e-06,1.0,1222,3.768,0,1,0.536,False,-0.26041423509035333,1.049708108161845
3.7443115720525384,14:52:47.874614,14:51:31.937415,0,,0.102301255,0.00449574,0.023354232,0.79468846,-0.570932,0.20617217,-0.4396851,-0.30723393,0.84396946,-0.4185059,-0.7613434,-0.49518555,,0.03451312,-0.018580638,0.025807142,0.53296095,-0.5271504,0.6618648,-0.35631785,0.56965375,0.7406297,-0.76745695,-0.63056093,0.11577001,,0.09963425,1.2986246,0.43119344,0.9826935,0.006462344,-0.18512617,-0.10528866,-0.80276966,-0.58692,-0.15240656,0.5962542,-0.78819615,,-0.10270174,0.25123268,-0.11035358,-0.75724983,0.6531072,-0.0048663397,-0.6101326,-0.7047247,0.36207908,0.23304702,0.27715343,0.9321347,,-0.063331604,0.38822827,-0.38240808,-0.41938284,0.66266686,-0.6204762,-0.86207414,-0.07650357,0.5009745,0.28451052,0.74499655,0.60335225,,1.1802807106334803,0.5090902738017539,0.22000893138000002,-1.5082997634841837,0.08389481085598044,-0.3534693959601649,-0.41881418556829203,,-1.324610865319862,0.13509376616880936,0.17526488945000002,0.06877830146292399,0.6301675369182114,-0.7726992993533374,0.8750341622813339,,-0.11663162726452107,-0.13014047567495718,0.09162943763999999,-0.11611542257629885,,5.3346157e-06,-4.172325e-07,3.4570694e-06,1.0,-2.1517277e-05,-1.6279519e-05,2.1502376e-05,1.0,-4.2021275e-06,1.628697e-05,4.142523e-06,1.0,1239,3.821,0,1,0.536,False,-0.26095043455704303,1.048549383343138
3.810119283851236,14:52:47.930924,14:51:31.937415,0,,0.10204444,0.004111223,0.023152351,0.7956205,-0.5714567,0.2010604,-0.43979096,-0.3166066,0.8404429,-0.4166195,-0.757098,-0.5032202,,0.034588944,-0.018475242,0.025899708,0.5176343,-0.5333527,0.6690213,-0.35026246,0.5813116,0.7344339,-0.78062207,-0.61450124,0.1140933,,0.09963425,1.2986246,0.43119344,0.9826935,0.006462344,-0.18512617,-0.10528866,-0.80276966,-0.58692,-0.15240656,0.5962542,-0.78819615,,-0.10246455,0.25080714,-0.11048475,-0.7585084,0.65166235,0.0010984422,-0.60906804,-0.70952773,0.35441008,0.23173508,0.268154,0.93508947,,-0.06341461,0.3883596,-0.38237217,-0.40169144,0.6668571,-0.6276508,-0.8669982,-0.056230854,0.49512848,0.29488662,0.743061,0.6007514,,1.1801880378389895,0.5067966221381093,0.21989745044000003,-1.50997728303206,0.08266508235809147,-0.34576897813537105,-0.4194675618328291,,-1.3245954198541137,0.13532544815503608,0.17532970395000003,0.09268295502015976,0.6385023634039032,-0.7648752969936584,0.8751975063474682,,-0.11663162726452107,-0.13014047567495718,0.09162943763999999,-0.11611542257629885,,5.3346157e-06,-4.172325e-07,3.4570694e-06,1.0,-2.1517277e-05,-1.6279519e-05,2.1502376e-05,1.0,-4.2021275e-06,1.628697e-05,4.142523e-06,1.0,1260,3.887,0,1,0.536,False,-0.26041423509035333,1.0502391903704191
3.866437826072797,14:52:47.991895,14:51:31.937415,0,,0.101713255,0.0037412718,0.02290219,0.7977288,-0.57219666,0.19031462,-0.4376881,-0.33232778,0.8354564,-0.41479844,-0.74976605,-0.5155512,,0.034625106,-0.01828722,0.025996625,0.5076538,-0.5637325,0.6515314,-0.3227686,0.57670903,0.7504847,-0.79881656,-0.5912803,0.11081332,,0.09963425,1.2986246,0.43119344,0.9826935,0.006462344,-0.18512617,-0.10528866,-0.80276966,-0.58692,-0.15240656,0.5962542,-0.78819615,,-0.10214434,0.2503641,-0.11058631,-0.7606198,0.6490646,0.013137337,-0.606307,-0.7174559,0.3429997,0.23205443,0.25292712,0.9392436,,-0.06345377,0.38855016,-0.3822816,-0.38696942,0.69252884,-0.6088173,-0.8626466,-0.038662087,0.5043274,0.3257231,0.7203534,0.6123687,,1.180311601564977,0.5042249520909925,0.21983004336000003,-1.5137517020147813,0.0828017188578569,-0.3315866165144691,-0.42093765842803765,,-1.3244950243267488,0.13511693436743202,0.1755435918,0.11239380970770506,0.6693822123508928,-0.7320638377292504,0.8755241944797367,,-0.11663162726452107,-0.13014047567495718,0.09162943763999999,-0.11611542257629885,,5.3346157e-06,-4.172325e-07,3.4570694e-06,1.0,-2.1517277e-05,-1.6279519e-05,2.1502376e-05,1.0,-4.2021275e-06,1.628697e-05,4.142523e-06,1.0,1281,3.952,0,1,0.536,False,-0.261427056305211,1.05014262996886
3.9274168049450964,14:52:48.060122,14:51:32.073227,0,,0.10148917,0.0035836846,0.022757232,0.7952865,-0.5790334,0.17955449,-0.438905,-0.34563327,0.82939744,-0.41818875,-0.73841584,-0.5290181,,0.034546718,-0.018087052,0.025930345,0.5068002,-0.58852446,0.6299145,-0.29719564,0.5666302,0.7685083,-0.80921453,-0.57668805,0.112261295,,0.09963425,1.2986246,0.43119344,0.9826935,0.006462344,-0.18512617,-0.10528866,-0.80276966,-0.58692,-0.15240656,0.5962542,-0.78819615,,-0.10192013,0.2501525,-0.11061819,-0.75778973,0.6520099,0.02525487,-0.6093264,-0.7209653,0.3300459,0.2334011,0.23471695,0.943627,,-0.06335206,0.38863316,-0.38209894,-0.3826617,0.7137839,-0.58658546,-0.85432655,-0.03168342,0.51877,0.35170466,0.6996489,0.62192863,,1.1805973426813234,0.5027885237763867,0.21982745078000002,-1.50997728303206,0.08430472035527677,-0.3144344969235032,-0.4204476262296348,,-1.3237845329023201,0.13502426157294134,0.17582618302000003,0.11721667840784912,0.6968461488037463,-0.7075752395315483,0.8761775707442738,,-0.11663162726452107,-0.13014047567495718,0.09162943763999999,-0.11611542257629885,,5.3346157e-06,-4.172325e-07,3.4570694e-06,1.0,-2.1517277e-05,-1.6279519e-05,2.1502376e-05,1.0,-4.2021275e-06,1.628697e-05,4.142523e-06,1.0,1302,4.018,0,1,0.536,False,-0.2613079008681689,1.0505771517758753
3.9955835519358516,14:52:48.121222,14:51:32.073227,0,,0.101344034,0.0036013797,0.022653222,0.77256715,-0.61615866,0.15325896,-0.45180163,-0.3638883,0.8145309,-0.44611108,-0.6985224,-0.55950975,,0.034358867,-0.018025808,0.025831342,0.5187287,-0.5877601,0.62085307,-0.2855694,0.56536746,0.773828,-0.8058353,-0.57870346,0.1254259,,0.09963425,1.2986246,0.43119344,0.9826935,0.006462344,-0.18512617,-0.10528866,-0.80276966,-0.58692,-0.15240656,0.5962542,-0.78819615,,-0.10175774,0.25010392,-0.11055929,-0.7323088,0.6787939,0.05442962,-0.6364456,-0.71066344,0.29982403,0.24219987,0.1849223,0.95244056,,-0.06314657,0.38861248,-0.3820203,-0.39417726,0.7132853,-0.5795242,-0.8453978,-0.03409925,0.53304774,0.3604538,0.70004374,0.61645097,,1.180543283551204,0.5020085277560901,0.21991948737000003,-1.4734912328657526,0.09619209583487008,-0.2689947049502123,-0.4186508415021577,,-1.3231512688066336,0.13505515250443823,0.17592340477,0.0998124130986336,0.7080503417845123,-0.7185084399177473,0.8761775707442739,,-0.11663162726452107,-0.13014047567495718,0.09162943763999999,-0.11611542257629885,,5.3346157e-06,-4.172325e-07,3.4570694e-06,1.0,-2.1517277e-05,-1.6279519e-05,2.1502376e-05,1.0,-4.2021275e-06,1.628697e-05,4.142523e-06,1.0,1323,4.083,0,1,0.536,False,-0.2602950796533112,1.0509151131813312
4.056730760959908,14:52:48.187478,14:51:32.215241,0,,0.100897506,0.0036235526,0.022263348,0.7354807,-0.6685352,0.110130675,-0.45964795,-0.37289655,0.8060223,-0.49778682,-0.6434352,-0.58154905,,0.034091014,-0.017970301,0.025801003,0.5301365,-0.58689034,0.61197627,-0.26608706,0.5701347,0.77726716,-0.8050794,-0.5748967,0.14608523,,0.09963425,1.2986246,0.43119344,0.9826935,0.006462344,-0.18512617,-0.10528866,-0.80276966,-0.58692,-0.15240656,0.5962542,-0.78819615,,-0.10124987,0.24988613,-0.11034361,-0.6879369,0.71893996,0.09933864,-0.67401123,-0.68362564,0.2799373,0.26916856,0.12562384,0.95486486,,-0.0628743,0.38864782,-0.3820012,-0.4042111,0.7121122,-0.57402927,-0.833452,-0.028226927,0.5518705,0.37679064,0.701498,0.604921,,1.1803579379622224,0.4994523031747217,0.22023967100000003,-1.4181330877858382,0.12925812877810666,-0.21958821561332065,-0.4197942499650977,,-1.3223094909233433,0.13510148890168358,0.17598433040000003,0.08324690756335616,0.7273160882514395,-0.734708436779786,0.8761775707442739,,-0.11663162726452107,-0.13014047567495718,0.09162943763999999,-0.11611542257629885,,5.3346157e-06,-4.172325e-07,3.4570694e-06,1.0,-2.1517277e-05,-1.6279519e-05,2.1502376e-05,1.0,-4.2021275e-06,1.628697e-05,4.142523e-06,1.0,1344,4.149,0,1,0.536,False,-0.2608908568385213,1.0501909101696396
4.122995560988784,14:52:48.253091,14:51:32.215241,0,,0.10029678,0.003609106,0.021800518,0.705338,-0.7078947,0.0371933,-0.44276685,-0.3989787,0.8029779,-0.5535844,-0.5828387,-0.5948472,,0.033780206,-0.017941974,0.025721252,0.5441122,-0.5852239,0.6012111,-0.2535847,0.5683481,0.7827358,-0.7997728,-0.5783541,0.1608412,,0.09963425,1.2986246,0.43119344,0.9826935,0.006462344,-0.18512617,-0.10528866,-0.80276966,-0.58692,-0.15240656,0.5962542,-0.78819615,,-0.10058328,0.24959591,-0.11012748,-0.6464366,0.74321705,0.17247649,-0.6946127,-0.66681,0.26995856,0.31564683,0.054706722,0.9472984,,-0.062553324,0.3886318,-0.38197926,-0.4180045,0.71093315,-0.56554955,-0.8226665,-0.03216141,0.5676138,0.3853466,0.7025238,0.5983045,,1.1797015056679134,0.4960002415799434,0.22062596542000001,-1.3785016884672632,0.18295627318592475,-0.15711141084314278,-0.41897752963442625,,-1.3213287038483168,0.13534861635365875,0.17600377475,0.060810083610512065,0.7383836447324401,-0.7494507987890355,0.8755241944797367,,-0.11663162726452107,-0.13014047567495718,0.09162943763999999,-0.11611542257629885,,5.3346157e-06,-4.172325e-07,3.4570694e-06,1.0,-2.1517277e-05,-1.6279519e-05,2.1502376e-05,1.0,-4.2021275e-06,1.628697e-05,4.142523e-06,1.0,1365,4.215,0,1,0.536,False,-0.26148663402373185,1.050432311173537
4.188598600914702,14:52:48.317237,14:51:32.366903,0,,0.10006609,0.0034431964,0.02116102,0.6459363,-0.763385,0.0030786395,-0.4674772,-0.3923599,0.79216075,-0.60351574,-0.5131246,-0.61030465,,0.03340386,-0.017899685,0.025603592,0.5492281,-0.5848808,0.5968775,-0.24620748,0.5692928,0.7844028,-0.7985802,-0.5777718,0.16866946,,0.09963425,1.2986246,0.43119344,0.9826935,0.006462344,-0.18512617,-0.10528866,-0.80276966,-0.58692,-0.15240656,0.5962542,-0.78819615,,-0.10026569,0.24907485,-0.10978492,-0.5827647,0.785802,0.20712431,-0.74426293,-0.61843646,0.25220835,0.32627907,-0.0071768104,0.9452462,,-0.062160585,0.3886012,-0.3819335,-0.42273906,0.71056163,-0.562489,-0.81751686,-0.031144803,0.5750619,0.39109835,0.70294535,0.5940622,,1.1783963638121695,0.49242461625917744,0.22103429677000003,-1.2979807501692058,0.20468147664862982,-0.1069518244740666,-0.42044762622963483,,-1.3194675252256287,0.13597415771647095,0.17600766362,0.050954656266739416,0.7448055602214159,-0.7583629835690926,0.8763409148104081,,-0.11663162726452107,-0.13014047567495718,0.09162943763999999,-0.11611542257629885,,5.3346157e-06,-4.172325e-07,3.4570694e-06,1.0,-2.1517277e-05,-1.6279519e-05,2.1502376e-05,1.0,-4.2021275e-06,1.628697e-05,4.142523e-06,1.0,1386,4.28,0,1,0.536,False,-0.26148663402373185,1.050335750771978
