AlexandreBanks6/ExpertPlaybackApp/resources/Motions/P_20/PC1/Data_PC1_8.csv
Task Time,PC1 Time,PC2 Time,Gaze Calib,s_T_psm1,Tx,Ty,Tz,R00,R01,R02,R10,R11,R12,R20,R21,R22,s_T_psm3,Tx,Ty,Tz,R00,R01,R02,R10,R11,R12,R20,R21,R22,cart_T_ecm,Tx,Ty,Tz,R00,R01,R02,R10,R11,R12,R20,R21,R22,ecm_T_psm1,Tx,Ty,Tz,R00,R01,R02,R10,R11,R12,R20,R21,R22,ecm_T_psm3,Tx,Ty,Tz,R00,R01,R02,R10,R11,R12,R20,R21,R22,psm1_joints,q1,q2,q3,q4,q5,q6,jaw,psm3_joints,q1,q2,q3,q4,q5,q6,jaw,ecm_joints,q1,q2,q3,q4,ecmi_T_ecm,Tx,Ty,Tz,R00,R01,R02,R10,R11,R12,R20,R21,R22,Sample #,Task Duration (s),Collisions (binary),Collisions (increments),Cumulative Collision Time (s),Clutch Press,MTMR Angle,MTML Angle
""
lci_T_si,,,,,-0.05902216,0.010539636,0.21019456,0.9780104,-0.095470026,0.1854214,0.04162175,-0.7818391,-0.62208945,0.20436059,0.61612755,-0.7606731
rci_T_si,,,,,-0.06840233,0.014540867,0.21914718,0.97457415,-0.112241976,0.19392501,0.038261294,-0.76940894,-0.6376096,0.22077419,0.6288177,-0.7455515
ecm_T_lc,,,,,-4.4061628e-05,-0.00034663224,-0.01840835,-0.99912,0.030754527,0.028518902,-0.031987965,-0.99852574,-0.043852776,0.027128186,-0.04472645,0.9986309
ecm_T_rc,,,,,-0.0043358393,0.01870579,-0.007592615,-0.99555075,-0.052743673,-0.078081585,0.04863213,-0.9973746,0.053654674,-0.08070653,0.04961868,0.9955021
cart_T_ecmi,,,,,0.09962965,1.2986269,0.43119717,0.9826964,0.0064842543,-0.18511015,-0.10526184,-0.8027695,-0.5869251,-0.15240656,0.5962542,-0.78819615
ecmac_T_ecmrep_psm1,,,,,0.044880565,-0.23049864,-0.32052848,0.99797076,0.0626086,0.011601057,-0.061749555,0.99606305,-0.0636032,-0.015537491,0.06275777,0.9979078
ecmac_T_ecmrep_psm3,,,,,0.047327206,-0.4153428,-0.56493527,0.997773,0.014750276,0.065049894,-0.025394045,0.985803,0.16597453,-0.061678212,-0.16725679,0.9839822
""
0,14:54:44.412726,14:53:28.466592,0,,0.10891207,0.002421245,0.015929237,-0.848808,-0.2770148,-0.45031962,-0.48737347,0.07984242,0.86953557,-0.20491962,0.95754266,-0.20278054,,0.053730357,-0.027737759,0.018089712,0.6722168,-0.019446656,0.7400988,-0.40890688,0.82359743,0.3930425,-0.6171868,-0.5668414,0.5456841,,0.09964447,1.2986232,0.43118992,0.9826937,0.0064635486,-0.18512529,-0.10528719,-0.80276966,-0.5869203,-0.15240656,0.5962542,-0.78819615,,-0.10810748,0.24499348,-0.1044312,0.80213267,0.1101454,0.58689964,-0.5040571,0.6518604,0.56657255,-0.3201713,-0.7502973,0.57839805,,-0.08156462,0.37480968,-0.38164708,-0.5851045,0.16975075,-0.79299265,-0.7922568,0.08913568,0.6036423,0.17315267,0.98144764,0.08233249,,1.1332260992308303,0.509507301376962,0.22507094383,0.4520915181526345,-0.231735503602187,0.8276108338281867,-0.41407720765039785,,-1.3858984734097077,0.028913911881096564,0.18449965941000002,-0.11889419795572531,0.6431480043959281,-1.3951394425974488,0.875524194479737,,-0.11663162726452107,-0.13014047567495718,0.09162943763999999,-0.11611542257629885,,1.6056001e-05,-1.3709068e-06,5.1259995e-06,1.0,-2.0332634e-05,-1.5385449e-05,2.0317733e-05,1.0,-3.963709e-06,1.5377998e-05,3.9041042e-06,1.0,34,0.102,1,1,0.079,False,-0.2533840643048717,1.050335750771978
0.12390311807394028,14:54:44.440418,14:53:28.466592,0,,0.108916566,0.002424769,0.01593189,-0.8491528,-0.27688196,-0.44975087,-0.48679733,0.080007285,0.8698432,-0.20486051,0.95756733,-0.20272386,,0.053732507,-0.02773989,0.018089652,0.6722177,-0.019432113,0.7400983,-0.40892023,0.82359236,0.39303914,-0.6171769,-0.56684923,0.5456872,,0.09964447,1.2986232,0.43118992,0.9826937,0.0064635486,-0.18512529,-0.10528719,-0.80276966,-0.5869203,-0.15240656,0.5962542,-0.78819615,,-0.10811187,0.24499786,-0.10443014,0.80253243,0.11003254,0.58637404,-0.5035628,0.6520048,0.5668459,-0.3199472,-0.75018835,0.5786633,,-0.08156687,0.3748081,-0.38164836,-0.585108,0.16973741,-0.79299295,-0.7922578,0.08912523,0.6036425,0.1731364,0.9814509,0.08232791,,1.1332183764979562,0.5095227468427105,0.22507094383,0.45272058798308806,-0.23146223060265614,0.8273879980207939,-0.41407720765039785,,-1.385906196142582,0.028898466415348115,0.18449965941000002,-0.11889419795572531,0.6431480043959281,-1.3951394425974488,0.875524194479737,,-0.11663162726452107,-0.13014047567495718,0.09162943763999999,-0.11611542257629885,,1.6056001e-05,-1.3709068e-06,5.1259995e-06,1.0,-2.0332634e-05,-1.5385449e-05,2.0317733e-05,1.0,-3.963709e-06,1.5377998e-05,3.9041042e-06,1.0,51,0.154,1,1,0.131,False,-0.25302659799374494,1.0495632675595068
0.1516011420171708,14:54:44.489153,14:53:28.557366,0,,0.10893284,0.0024343953,0.01594001,-0.84990907,-0.27730212,-0.44806027,-0.48527873,0.080576956,0.8706387,-0.2053266,0.95739794,-0.20305198,,0.05373465,-0.027742065,0.018089652,0.6722186,-0.01941754,0.74009794,-0.40893364,0.8235874,0.39303568,-0.61716706,-0.5668571,0.54569024,,0.09964447,1.2986232,0.43118992,0.9826937,0.0064635486,-0.18512529,-0.10528719,-0.80276966,-0.5869203,-0.15240656,0.5962542,-0.78819615,,-0.10812796,0.24501033,-0.10442705,0.80354786,0.11054563,0.584885,-0.50264215,0.6523546,0.5672604,-0.31884426,-0.7498087,0.57976305,,-0.08156912,0.37480652,-0.38164967,-0.58511144,0.16972408,-0.7929933,-0.7922588,0.08911478,0.6036427,0.17312013,0.9814542,0.08232333,,1.1331952082993335,0.5095613605070816,0.22506964754000003,0.4539787276439952,-0.23023250210476714,0.8263852368875262,-0.4144038957826664,,-1.3859139188754563,0.028883020949599665,0.18449965941000002,-0.11889419795572531,0.6431480043959281,-1.3951394425974488,0.875524194479737,,-0.11663162726452107,-0.13014047567495718,0.09162943763999999,-0.11611542257629885,,1.6056001e-05,-1.3709068e-06,5.1259995e-06,1.0,-2.0332634e-05,-1.5385449e-05,2.0317733e-05,1.0,-3.963709e-06,1.5377998e-05,3.9041042e-06,1.0,59,0.18,1,1,0.157,False,-0.252847864838182,1.049418426957168
0.2003112689126283,14:54:44.504114,14:53:28.557366,0,,0.108935684,0.0024348572,0.015942022,-0.8500277,-0.27727136,-0.44785428,-0.4850613,0.08057809,0.87075984,-0.20534955,0.95740676,-0.20298716,,0.05373571,-0.027741887,0.018090487,0.67222196,-0.019351497,0.7400966,-0.4089333,0.82362115,0.39296532,-0.6171636,-0.5668103,0.54574275,,0.09964447,1.2986232,0.43118992,0.9826937,0.0064635486,-0.18512529,-0.10528719,-0.80276966,-0.5869203,-0.15240656,0.5962542,-0.78819615,,-0.108131036,0.2450119,-0.104427695,0.80369556,0.11051418,0.584688,-0.50248337,0.6523606,0.5673942,-0.3187223,-0.74980813,0.5798309,,-0.0815703,0.37480718,-0.38164988,-0.5851153,0.16965353,-0.7930055,-0.79225624,0.08916633,0.60363847,0.1731188,0.9814617,0.08223648,,1.1331874855664592,0.5095690832399559,0.22506835125000002,0.45418841758747974,-0.2300958656050017,0.8263554977239702,-0.4142405517165321,,-1.3859216416083304,0.028883020949599665,0.18449965941000002,-0.11889419795572531,0.6431480043959281,-1.3952211213375896,0.8756875385458711,,-0.11663162726452107,-0.13014047567495718,0.09162943763999999,-0.11611542257629885,,1.6056001e-05,-1.3709068e-06,5.1259995e-06,1.0,-2.0332634e-05,-1.5385449e-05,2.0317733e-05,1.0,-3.963709e-06,1.5377998e-05,3.9041042e-06,1.0,67,0.204,1,1,0.181,False,-0.2524903985270561,1.0499495091657423
0.21530137187801301,14:54:44.533217,14:53:28.557366,0,,0.10894038,0.0024339706,0.015942201,-0.8499064,-0.2773002,-0.44806653,-0.4852694,0.08050531,0.8706506,-0.20535983,0.9574045,-0.20298733,,0.053736687,-0.027743451,0.018091798,0.67222416,-0.019341424,0.74009496,-0.40893984,0.8236195,0.3929621,-0.6171569,-0.5668131,0.54574734,,0.09964447,1.2986232,0.43118992,0.9826937,0.0064635486,-0.18512529,-0.10528719,-0.80276966,-0.5869203,-0.15240656,0.5962542,-0.78819615,,-0.10813577,0.24501127,-0.10442734,0.8035524,0.110533416,0.5848811,-0.50265515,0.65230197,0.5673094,-0.3188125,-0.7498563,0.579719,,-0.08157158,0.37480712,-0.38165176,-0.585119,0.16964398,-0.7930049,-0.79225546,0.08916223,0.60364014,0.17311,0.98146373,0.08223086,,1.1331643173678365,0.5095845287057043,0.22506835125000002,0.4539787276439952,-0.23023250210476714,0.8264669156276667,-0.4142405517165321,,-1.3859293643412047,0.02887529821672544,0.18449836312,-0.11889419795572531,0.6431480043959281,-1.3952211213375896,0.8756875385458711,,-0.11663162726452107,-0.13014047567495718,0.09162943763999999,-0.11611542257629885,,1.6056001e-05,-1.3709068e-06,5.1259995e-06,1.0,-2.0332634e-05,-1.5385449e-05,2.0317733e-05,1.0,-3.963709e-06,1.5377998e-05,3.9041042e-06,1.0,84,0.257,1,1,0.234,False,-0.2524903985270561,1.0499012289649627
0.24439871101640165,14:54:44.596371,14:53:28.660716,0,,0.10895277,0.0024383515,0.015947476,-0.84989065,-0.27722228,-0.44814458,-0.4853168,0.08043265,0.87063086,-0.20531277,0.9574331,-0.20289963,,0.053737223,-0.027744614,0.01809138,0.6722229,-0.019336954,0.74009615,-0.40894675,0.8236161,0.39296192,-0.61715376,-0.56681806,0.54574573,,0.09964447,1.2986232,0.43118992,0.9826937,0.0064635486,-0.18512529,-0.10528719,-0.80276966,-0.5869203,-0.15240656,0.5962542,-0.78819615,,-0.10814823,0.24501787,-0.10442607,0.8035226,0.110442966,0.5849391,-0.5026639,0.6522615,0.5673481,-0.3188737,-0.7499048,0.57962257,,-0.08157212,0.37480602,-0.38165233,-0.5851188,0.1696402,-0.7930058,-0.79225725,0.08915588,0.6036387,0.17310253,0.9814649,0.0822319,,1.1331257037034654,0.509646310568698,0.22506835125000002,0.4539787276439952,-0.23036913860453262,0.8265783335313632,-0.4142405517165321,,-1.3859293643412047,0.028867575483851216,0.18449836312,-0.11889419795572531,0.6431480043959281,-1.3952211213375896,0.8756875385458711,,-0.11663162726452107,-0.13014047567495718,0.09162943763999999,-0.11611542257629885,,1.6056001e-05,-1.3709068e-06,5.1259995e-06,1.0,-2.0332634e-05,-1.5385449e-05,2.0317733e-05,1.0,-3.963709e-06,1.5377998e-05,3.9041042e-06,1.0,92,0.282,1,1,0.259,False,-0.25254997624557696,1.0499012289649627
0.3075581300072372,14:54:44.616123,14:53:28.660716,0,,0.10895706,0.0024390817,0.015948549,-0.8498895,-0.27724126,-0.44813514,-0.48531058,0.08042964,0.8706347,-0.2053325,0.957428,-0.2029045,,0.053737223,-0.027744614,0.01809138,0.6722229,-0.019336954,0.74009615,-0.40894675,0.8236161,0.39296192,-0.61715376,-0.56681806,0.54574573,,0.09964447,1.2986232,0.43118992,0.9826937,0.0064635486,-0.18512529,-0.10528719,-0.80276966,-0.5869203,-0.15240656,0.5962542,-0.78819615,,-0.108152516,0.24501906,-0.10442553,0.80352575,0.11046204,0.58493125,-0.50267106,0.6522561,0.56734806,-0.3188545,-0.7499068,0.5796306,,-0.08157212,0.37480602,-0.38165233,-0.5851188,0.1696402,-0.7930058,-0.79225725,0.08915588,0.6036387,0.17310253,0.9814649,0.0822319,,1.133110258237717,0.5096617560344465,0.22506835125000002,0.4539787276439952,-0.23036913860453262,0.8265783335313632,-0.4142405517165321,,-1.3859293643412047,0.028867575483851216,0.18449836312,-0.11889419795572531,0.6431480043959281,-1.3952211213375896,0.8756875385458711,,-0.11663162726452107,-0.13014047567495718,0.09162943763999999,-0.11611542257629885,,1.6056001e-05,-1.3709068e-06,5.1259995e-06,1.0,-2.0332634e-05,-1.5385449e-05,2.0317733e-05,1.0,-3.963709e-06,1.5377998e-05,3.9041042e-06,1.0,109,0.334,1,1,0.311,False,-0.25260955396409823,1.049708108161845
0.32728161104023457,14:54:44.664053,14:53:28.660716,0,,0.108960435,0.002438739,0.015948683,-0.84988797,-0.27725697,-0.44812822,-0.48530748,0.08043218,0.8706361,-0.205346,0.9574232,-0.20291325,,0.053738832,-0.027745627,0.018091738,0.6722251,-0.019387335,0.74009275,-0.40895322,0.8235823,0.39302593,-0.6171471,-0.56686544,0.5457041,,0.09964447,1.2986232,0.43118992,0.9826937,0.0064635486,-0.18512529,-0.10528719,-0.80276966,-0.5869203,-0.15240656,0.5962542,-0.78819615,,-0.10815588,0.24501884,-0.10442507,0.80352706,0.11047853,0.58492625,-0.5026769,0.6522553,0.56734383,-0.31884193,-0.74990505,0.5796398,,-0.08157383,0.37480554,-0.38165307,-0.58512247,0.16969542,-0.7929913,-0.7922565,0.08910248,0.60364765,0.17309372,0.9814603,0.08230644,,1.1330948127719684,0.5096694787673207,0.22506835125000002,0.4539787276439952,-0.23036913860453262,0.8265783335313632,-0.4142405517165321,,-1.385937087074079,0.028859852750976994,0.18449836312,-0.11889419795572531,0.6431480043959281,-1.3951394425974488,0.875524194479737,,-0.11663162726452107,-0.13014047567495718,0.09162943763999999,-0.11611542257629885,,1.6056001e-05,-1.3709068e-06,5.1259995e-06,1.0,-2.0332634e-05,-1.5385449e-05,2.0317733e-05,1.0,-3.963709e-06,1.5377998e-05,3.9041042e-06,1.0,117,0.36,0,1,0.311,False,-0.2523116653714932,1.0497563883626244
0.37524013104848564,14:54:44.694021,14:53:28.660716,0,,0.10895941,0.0024368837,0.015948728,-0.8498877,-0.27725366,-0.44813085,-0.48531064,0.08043775,0.87063384,-0.20533977,0.9574236,-0.20291728,,0.053737763,-0.027745776,0.018090904,0.6722216,-0.019392937,0.7400958,-0.4089536,0.8235807,0.39302897,-0.61715055,-0.5668676,0.54569787,,0.09964447,1.2986232,0.43118992,0.9826937,0.0064635486,-0.18512529,-0.10528719,-0.80276966,-0.5869203,-0.15240656,0.5962542,-0.78819615,,-0.10815512,0.24501741,-0.10442646,0.80352527,0.110475935,0.5849292,-0.5026756,0.65225995,0.5673396,-0.31884855,-0.7499013,0.5796409,,-0.08157266,0.37480488,-0.38165286,-0.58511853,0.16970119,-0.79299295,-0.79225904,0.08910023,0.60364455,0.17309505,0.98145944,0.08231311,,1.1330948127719684,0.5096617560344465,0.22506705496,0.4539787276439952,-0.23036913860453262,0.8265783335313632,-0.4142405517165321,,-1.3859293643412047,0.028859852750976994,0.18449836312,-0.11889419795572531,0.6431480043959281,-1.3951394425974488,0.875524194479737,,-0.11663162726452107,-0.13014047567495718,0.09162943763999999,-0.11611542257629885,,1.6056001e-05,-1.3709068e-06,5.1259995e-06,1.0,-2.0332634e-05,-1.5385449e-05,2.0317733e-05,1.0,-3.963709e-06,1.5377998e-05,3.9041042e-06,1.0,134,0.412,0,1,0.311,False,-0.25260955396409823,1.0500943497680806
0.40520741790533066,14:54:44.743550,14:53:28.796806,0,,0.10895895,0.0024378076,0.015951097,-0.84988886,-0.27721417,-0.448153,-0.48530746,0.080356926,0.8706431,-0.20534237,0.95744187,-0.20282862,,0.053737763,-0.027745776,0.018090904,0.6722216,-0.019453391,0.7400942,-0.4089536,0.82354856,0.39309627,-0.61715055,-0.5669122,0.5456516,,0.09964447,1.2986232,0.43118992,0.9826937,0.0064635486,-0.18512529,-0.10528719,-0.80276966,-0.5869203,-0.15240656,0.5962542,-0.78819615,,-0.108154975,0.2450196,-0.10442782,0.8035273,0.1104238,0.58493626,-0.50267464,0.65220696,0.56740135,-0.3188449,-0.7499551,0.57957333,,-0.08157266,0.37480488,-0.38165286,-0.58511853,0.16976596,-0.79297906,-0.79225904,0.089050926,0.6036518,0.17309505,0.9814527,0.08239327,,1.1331025355048427,0.5096694787673207,0.22506575867000003,0.4539787276439952,-0.23036913860453262,0.8266600122715038,-0.41407720765039785,,-1.3859293643412047,0.028859852750976994,0.18449836312,-0.11889419795572531,0.6431480043959281,-1.3950577638573085,0.8753608504136026,,-0.11663162726452107,-0.13014047567495718,0.09162943763999999,-0.11611542257629885,,1.6056001e-05,-1.3709068e-06,5.1259995e-06,1.0,-2.0332634e-05,-1.5385449e-05,2.0317733e-05,1.0,-3.963709e-06,1.5377998e-05,3.9041042e-06,1.0,142,0.438,0,1,0.311,False,-0.2524308208085344,1.0497563883626244
0.4547379419673234,14:54:44.771282,14:53:28.796806,0,,0.10896167,0.002440974,0.015953958,-0.8498897,-0.27722406,-0.44814527,-0.48529804,0.08034021,0.8706498,-0.20536105,0.9574404,-0.20281664,,0.053737763,-0.027745776,0.018090904,0.6722216,-0.019453391,0.7400942,-0.4089536,0.82354856,0.39309627,-0.61715055,-0.5669122,0.5456516,,0.09964447,1.2986232,0.43118992,0.9826937,0.0064635486,-0.18512529,-0.10528719,-0.80276966,-0.5869203,-0.15240656,0.5962542,-0.78819615,,-0.10815773,0.24502383,-0.10442753,0.80353266,0.11043159,0.58492744,-0.50267863,0.6521929,0.567414,-0.31882507,-0.7499662,0.5795699,,-0.08157266,0.37480488,-0.38165286,-0.58511853,0.16976596,-0.79297906,-0.79225904,0.089050926,0.6036518,0.17309505,0.9814527,0.08239327,,1.1331025355048427,0.5096926469659434,0.22506575867000003,0.4539787276439952,-0.23036913860453262,0.8266600122715038,-0.41407720765039785,,-1.3859293643412047,0.028859852750976994,0.18449836312,-0.11889419795572531,0.6431480043959281,-1.3950577638573085,0.8753608504136026,,-0.11663162726452107,-0.13014047567495718,0.09162943763999999,-0.11611542257629885,,1.6056001e-05,-1.3709068e-06,5.1259995e-06,1.0,-2.0332634e-05,-1.5385449e-05,2.0317733e-05,1.0,-3.963709e-06,1.5377998e-05,3.9041042e-06,1.0,159,0.49,0,1,0.311,False,-0.2521925099344511,1.0499012289649627
0.4824683510232717,14:54:44.825363,14:53:28.796806,0,,0.10896312,0.0024377257,0.015953168,-0.8498877,-0.27723315,-0.44814348,-0.4853012,0.080353886,0.87064683,-0.20536207,0.9574367,-0.20283343,,0.053740982,-0.027747773,0.018091738,0.67222595,-0.019433245,0.74009085,-0.40896663,0.8235452,0.39308977,-0.61713725,-0.5669178,0.5456608,,0.09964447,1.2986232,0.43118992,0.9826937,0.0064635486,-0.18512529,-0.10528719,-0.80276966,-0.5869203,-0.15240656,0.5962542,-0.78819615,,-0.10815942,0.24502076,-0.10442856,0.80353045,0.110442884,0.58492833,-0.5026818,0.6522015,0.5674013,-0.31882572,-0.749957,0.5795814,,-0.08157609,0.37480396,-0.38165438,-0.58512586,0.16974686,-0.79297775,-0.7922575,0.08904272,0.6036551,0.17307745,0.98145676,0.082382016,,1.1330870900390944,0.5096849242330692,0.22506446238000002,0.4539787276439952,-0.23036913860453262,0.8266600122715038,-0.41407720765039785,,-1.3859448098069531,0.028844407285228545,0.18449836312,-0.11889419795572531,0.6431480043959281,-1.3950577638573085,0.8753608504136026,,-0.11663162726452107,-0.13014047567495718,0.09162943763999999,-0.11611542257629885,,1.6056001e-05,-1.3709068e-06,5.1259995e-06,1.0,-2.0332634e-05,-1.5385449e-05,2.0317733e-05,1.0,-3.963709e-06,1.5377998e-05,3.9041042e-06,1.0,167,0.516,0,1,0.311,False,-0.25254997624557696,1.0499495091657423
0.5365513369906694,14:54:44.844639,14:53:28.796806,0,,0.10896175,0.0024376065,0.015954584,-0.8498886,-0.27722698,-0.4481457,-0.48530117,0.0803498,0.8706472,-0.20535843,0.9574387,-0.20282702,,0.05373991,-0.027747951,0.018090904,0.67222255,-0.019438848,0.74009377,-0.40896696,0.82354355,0.39309287,-0.6171407,-0.56692,0.54565465,,0.09964447,1.2986232,0.43118992,0.9826937,0.0064635486,-0.18512529,-0.10528719,-0.80276966,-0.5869203,-0.15240656,0.5962542,-0.78819615,,-0.10815836,0.24502155,-0.10443003,0.8035307,0.11043594,0.58492935,-0.5026795,0.6521995,0.5674055,-0.3188287,-0.74995977,0.5795762,,-0.08157491,0.3748033,-0.38165417,-0.585122,0.16975263,-0.79297936,-0.79226005,0.08904047,0.60365206,0.17307879,0.981456,0.08238869,,1.1330948127719684,0.5096849242330692,0.22506316609000002,0.4539787276439952,-0.23036913860453262,0.8266600122715038,-0.41407720765039785,,-1.385937087074079,0.028844407285228545,0.18449836312,-0.11889419795572531,0.6431480043959281,-1.3950577638573085,0.8753608504136026,,-0.11663162726452107,-0.13014047567495718,0.09162943763999999,-0.11611542257629885,,1.6056001e-05,-1.3709068e-06,5.1259995e-06,1.0,-2.0332634e-05,-1.5385449e-05,2.0317733e-05,1.0,-3.963709e-06,1.5377998e-05,3.9041042e-06,1.0,180,0.556,0,1,0.311,False,-0.2523116653714932,1.0499012289649627
0.5558178089559078,14:54:44.894053,14:53:28.796806,0,,0.10896041,0.0024397373,0.015956163,-0.84978503,-0.27735686,-0.44826168,-0.48543984,0.08031067,0.8705735,-0.20545934,0.9574045,-0.20288697,,0.05373939,-0.027749322,0.018089652,0.6722179,-0.019439995,0.74009794,-0.40897423,0.82353854,0.39309576,-0.6171409,-0.5669272,0.54564685,,0.09964447,1.2986232,0.43118992,0.9826937,0.0064635486,-0.18512529,-0.10528719,-0.80276966,-0.5869203,-0.15240656,0.5962542,-0.78819615,,-0.10815705,0.24502422,-0.10443024,0.8034298,0.11056376,0.5850438,-0.5028518,0.65214854,0.5673115,-0.31881136,-0.7499853,0.57955277,,-0.081574276,0.37480152,-0.38165453,-0.5851179,0.16975462,-0.792982,-0.79226446,0.08903188,0.60364753,0.17307264,0.9814564,0.08239641,,1.133110258237717,0.5096926469659434,0.22506316609000002,0.45376903770051075,-0.23036913860453262,0.8266600122715038,-0.41407720765039785,,-1.3859293643412047,0.02883668455235432,0.18449836312,-0.11889419795572531,0.6431480043959281,-1.3950577638573085,0.8753608504136026,,-0.11663162726452107,-0.13014047567495718,0.09162943763999999,-0.11611542257629885,,1.6056001e-05,-1.3709068e-06,5.1259995e-06,1.0,-2.0332634e-05,-1.5385449e-05,2.0317733e-05,1.0,-3.963709e-06,1.5377998e-05,3.9041042e-06,1.0,188,0.581,0,1,0.311,False,-0.25254997624557696,1.049804668563404
0.6052001828793436,14:54:44.908046,14:53:28.796806,0,,0.108961314,0.0024407804,0.015957117,-0.8497852,-0.27736017,-0.44825915,-0.48543668,0.08030507,0.8705758,-0.20546557,0.95740396,-0.20288292,,0.05373939,-0.027749322,0.018089652,0.6722179,-0.019439995,0.74009794,-0.40897423,0.82353854,0.39309576,-0.6171409,-0.5669272,0.54564685,,0.09964447,1.2986232,0.43118992,0.9826937,0.0064635486,-0.18512529,-0.10528719,-0.80276966,-0.5869203,-0.15240656,0.5962542,-0.78819615,,-0.10815797,0.24502562,-0.10443015,0.8034316,0.110566355,0.58504087,-0.5028531,0.65214384,0.56731576,-0.31880474,-0.749989,0.5795516,,-0.081574276,0.37480152,-0.38165453,-0.5851179,0.16975462,-0.792982,-0.79226446,0.08903188,0.60364753,0.17307264,0.9814564,0.08239641,,1.133110258237717,0.5097003696988176,0.22506316609000002,0.45376903770051075,-0.23036913860453262,0.8266600122715038,-0.41407720765039785,,-1.3859293643412047,0.02883668455235432,0.18449836312,-0.11889419795572531,0.6431480043959281,-1.3950577638573085,0.8753608504136026,,-0.11663162726452107,-0.13014047567495718,0.09162943763999999,-0.11611542257629885,,1.6056001e-05,-1.3709068e-06,5.1259995e-06,1.0,-2.0332634e-05,-1.5385449e-05,2.0317733e-05,1.0,-3.963709e-06,1.5377998e-05,3.9041042e-06,1.0,205,0.633,0,1,0.311,False,-0.2518946213418456,1.0499012289649627
0.6192015239503235,14:54:44.963661,14:53:29.020600,0,,0.10896356,0.0024400502,0.015958443,-0.849679,-0.27750865,-0.4483688,-0.48557538,0.0802781,0.8705009,-0.20557731,0.95736325,-0.20296204,,0.053741515,-0.02774892,0.018091321,0.6722247,-0.01942876,0.7400921,-0.40897352,0.8235419,0.3930896,-0.6171341,-0.5669228,0.5456593,,0.09964447,1.2986232,0.43118992,0.9826937,0.0064635486,-0.18512529,-0.10528719,-0.80276966,-0.5869203,-0.15240656,0.5962542,-0.78819615,,-0.10816049,0.24502581,-0.10443112,0.80332994,0.110715,0.58515227,-0.503032,0.6520987,0.56720895,-0.31877849,-0.7500063,0.57954365,,-0.08157662,0.37480286,-0.38165492,-0.5851256,0.16974308,-0.7929787,-0.7922593,0.089036375,0.60365367,0.17306998,0.981458,0.08238306,,1.1331025355048427,0.5097080924316919,0.2250618698,0.45355934775702617,-0.23036913860453262,0.8266600122715038,-0.41407720765039785,,-1.3859448098069531,0.02883668455235432,0.18449836312,-0.11889419795572531,0.6431480043959281,-1.3950577638573085,0.8753608504136026,,-0.11663162726452107,-0.13014047567495718,0.09162943763999999,-0.11611542257629885,,1.6056001e-05,-1.3709068e-06,5.1259995e-06,1.0,-2.0332634e-05,-1.5385449e-05,2.0317733e-05,1.0,-3.963709e-06,1.5377998e-05,3.9041042e-06,1.0,209,0.647,0,1,0.311,False,-0.25254997624557696,1.049370146756389
0.6748479418456554,14:54:44.983590,14:53:29.020600,0,,0.1089648,0.00243935,0.015958026,-0.8496781,-0.27747822,-0.44838917,-0.48557544,0.0802111,0.8705071,-0.20558098,0.9573777,-0.20289025,,0.05374045,-0.027749158,0.018090546,0.67222124,-0.019434363,0.740095,-0.40897387,0.8235402,0.39309272,-0.61713755,-0.566925,0.54565305,,0.09964447,1.2986232,0.43118992,0.9826937,0.0064635486,-0.18512529,-0.10528719,-0.80276966,-0.5869203,-0.15240656,0.5962542,-0.78819615,,-0.10816171,0.24502501,-0.104430944,0.80332977,0.11067415,0.58516026,-0.5030343,0.65205437,0.567258,-0.3187755,-0.7500509,0.57948756,,-0.081575446,0.37480217,-0.38165474,-0.58512175,0.16974884,-0.7929804,-0.79226184,0.089034125,0.6036506,0.17307131,0.98145723,0.082389735,,1.1330948127719684,0.5097080924316919,0.2250618698,0.45355934775702617,-0.23036913860453262,0.8267416910116443,-0.4139138635842636,,-1.385937087074079,0.02883668455235432,0.18449836312,-0.11889419795572531,0.6431480043959281,-1.3950577638573085,0.8753608504136026,,-0.11663162726452107,-0.13014047567495718,0.09162943763999999,-0.11611542257629885,,1.6056001e-05,-1.3709068e-06,5.1259995e-06,1.0,-2.0332634e-05,-1.5385449e-05,2.0317733e-05,1.0,-3.963709e-06,1.5377998e-05,3.9041042e-06,1.0,230,0.711,0,1,0.311,False,-0.252847864838182,1.05014262996886
0.694762279978022,14:54:45.037704,14:53:29.020600,0,,0.10896448,0.002444692,0.015966937,-0.8508541,-0.27612478,-0.4469925,-0.48393232,0.0805884,0.87138677,-0.20458905,0.95773715,-0.20219466,,0.053739917,-0.0277505,0.018089235,0.67221665,-0.01943551,0.74009925,-0.40898108,0.8235352,0.3930956,-0.61713773,-0.5669322,0.5456453,,0.09964447,1.2986232,0.43118992,0.9826937,0.0064635486,-0.18512529,-0.10528719,-0.80276966,-0.5869203,-0.15240656,0.5962542,-0.78819615,,-0.108162306,0.24503471,-0.104434684,0.8045113,0.10933805,0.58378655,-0.5011187,0.6525622,0.5683684,-0.31881276,-0.74980515,0.579785,,-0.08157481,0.3748004,-0.3816551,-0.58511764,0.16975084,-0.792983,-0.79226625,0.089025535,0.60364616,0.17306517,0.98145765,0.08239745,,1.1331025355048427,0.5097312606303145,0.22505798093,0.4558659371353559,-0.23023250210476714,0.8265485943678074,-0.41407720765039785,,-1.3859293643412047,0.028828961819480095,0.18449836312,-0.11889419795572531,0.6431480043959281,-1.3950577638573085,0.8753608504136026,,-0.11663162726452107,-0.13014047567495718,0.09162943763999999,-0.11611542257629885,,1.6056001e-05,-1.3709068e-06,5.1259995e-06,1.0,-2.0332634e-05,-1.5385449e-05,2.0317733e-05,1.0,-3.963709e-06,1.5377998e-05,3.9041042e-06,1.0,238,0.737,0,1,0.311,False,-0.25356279746043464,1.0499012289649627
0.7488923480268568,14:54:45.067256,14:53:29.020600,0,,0.10896993,0.0024444833,0.015969321,-0.85080224,-0.27684766,-0.44664395,-0.48378408,0.08083227,0.8714465,-0.20515467,0.95750797,-0.20270675,,0.053739917,-0.0277505,0.018089235,0.67221665,-0.01943551,0.74009925,-0.40898108,0.8235352,0.3930956,-0.61713773,-0.5669322,0.5456453,,0.09964447,1.2986232,0.43118992,0.9826937,0.0064635486,-0.18512529,-0.10528719,-0.80276966,-0.5869203,-0.15240656,0.5962542,-0.78819615,,-0.10816807,0.24503596,-0.10443546,0.80458033,0.11011538,0.58354527,-0.50134844,0.6526202,0.56809914,-0.31827697,-0.74964094,0.5802915,,-0.08157481,0.3748004,-0.3816551,-0.58511764,0.16975084,-0.792983,-0.79226625,0.089025535,0.60364616,0.17306517,0.98145765,0.08239745,,1.1330948127719684,0.5097312606303145,0.22505538835000002,0.4556562471918714,-0.22968595610570539,0.826021244012881,-0.4139138635842636,,-1.3859293643412047,0.028828961819480095,0.18449836312,-0.11889419795572531,0.6431480043959281,-1.3950577638573085,0.8753608504136026,,-0.11663162726452107,-0.13014047567495718,0.09162943763999999,-0.11611542257629885,,1.6056001e-05,-1.3709068e-06,5.1259995e-06,1.0,-2.0332634e-05,-1.5385449e-05,2.0317733e-05,1.0,-3.963709e-06,1.5377998e-05,3.9041042e-06,1.0,255,0.789,0,1,0.311,False,-0.2529670202752241,1.0499977893665218
0.7784424619749188,14:54:45.119281,14:53:29.157114,0,,0.10899705,0.0024521276,0.015984342,-0.8534374,-0.2759415,-0.44215477,-0.47926748,0.08212596,0.87381804,-0.20481023,0.9576594,-0.20233925,,0.053739917,-0.0277505,0.018089235,0.67221665,-0.01943551,0.74009925,-0.40898108,0.8235352,0.3930956,-0.61713773,-0.5669322,0.5456453,,0.09964447,1.2986232,0.43118992,0.9826937,0.0064635486,-0.18512529,-0.10528719,-0.80276966,-0.5869203,-0.15240656,0.5962542,-0.78819615,,-0.10819622,0.24505098,-0.10443651,0.807669,0.10937017,0.57940394,-0.49754697,0.65372837,0.5701633,-0.31641394,-0.74878395,0.58241296,,-0.08157481,0.3748004,-0.3816551,-0.58511764,0.16975084,-0.792983,-0.79226625,0.089025535,0.60364616,0.17306517,0.98145765,0.08239745,,1.1330175854432263,0.5097544288289372,0.22504631432000002,0.4604791158920155,-0.2273631356096929,0.8242904971303231,-0.4145672398488008,,-1.3859293643412047,0.028828961819480095,0.18449836312,-0.11889419795572531,0.6431480043959281,-1.3950577638573085,0.8753608504136026,,-0.11663162726452107,-0.13014047567495718,0.09162943763999999,-0.11611542257629885,,1.6056001e-05,-1.3709068e-06,5.1259995e-06,1.0,-2.0332634e-05,-1.5385449e-05,2.0317733e-05,1.0,-3.963709e-06,1.5377998e-05,3.9041042e-06,1.0,263,0.815,0,1,0.311,False,-0.25308617571226666,1.0501909101696396
0.8304116539657116,14:54:45.138325,14:53:29.157114,0,,0.10901161,0.0024521053,0.01598896,-0.853826,-0.27634007,-0.44115436,-0.4783966,0.08243972,0.87426555,-0.20522597,0.9575175,-0.2025894,,0.053739917,-0.0277505,0.018089235,0.67221665,-0.01943551,0.74009925,-0.40898108,0.8235352,0.3930956,-0.61713773,-0.5669322,0.5456453,,0.09964447,1.2986232,0.43118992,0.9826937,0.0064635486,-0.18512529,-0.10528719,-0.80276966,-0.5869203,-0.15240656,0.5962542,-0.78819615,,-0.10821126,0.24505366,-0.10443687,0.8082338,0.1098245,0.5785298,-0.49711028,0.6538925,0.57035595,-0.31565723,-0.7485741,0.5830929,,-0.08157481,0.3748004,-0.3816551,-0.58511764,0.16975084,-0.792983,-0.79226625,0.089025535,0.60364616,0.17306517,0.98145765,0.08239745,,1.132971249045981,0.5097698742946857,0.22504242545000003,0.46110818572246903,-0.22654331661110025,0.8237036684482851,-0.4144038957826665,,-1.3859293643412047,0.02882123908660587,0.18449836312,-0.11889419795572531,0.6431480043959281,-1.3950577638573085,0.8753608504136026,,-0.11663162726452107,-0.13014047567495718,0.09162943763999999,-0.11611542257629885,,1.6056001e-05,-1.3709068e-06,5.1259995e-06,1.0,-2.0332634e-05,-1.5385449e-05,2.0317733e-05,1.0,-3.963709e-06,1.5377998e-05,3.9041042e-06,1.0,276,0.855,0,1,0.311,False,-0.2524903985270561,1.049804668563404
0.8495134820695966,14:54:45.186834,14:53:29.157114,0,,0.10908896,0.002443418,0.016047463,-0.8563559,-0.27625877,-0.43627453,-0.4737143,0.083984554,0.8766649,-0.20554599,0.95740676,-0.20278846,,0.053740457,-0.027751707,0.018088818,0.6722154,-0.01943104,0.7401005,-0.40898797,0.8235319,0.39309546,-0.6171346,-0.5669372,0.5456437,,0.09964447,1.2986232,0.43118992,0.9826937,0.0064635486,-0.18512529,-0.10528719,-0.80276966,-0.5869203,-0.15240656,0.5962542,-0.78819615,,-0.10829824,0.24508204,-0.10447019,0.8113593,0.10996292,0.5741117,-0.49358568,0.65504503,0.57209194,-0.31316012,-0.7475454,0.585753,,-0.08157535,0.37479928,-0.38165566,-0.5851174,0.16974707,-0.79298395,-0.79226804,0.08901918,0.6036447,0.1730577,0.9814589,0.0823985,,1.1327086761282572,0.5099706653494155,0.22499316643000003,0.46572136447912865,-0.22381058661579145,0.8214753103743566,-0.4144038957826665,,-1.3859293643412047,0.02882123908660587,0.18449836312,-0.11889419795572531,0.6431480043959281,-1.3950577638573085,0.8753608504136026,,-0.11663162726452107,-0.13014047567495718,0.09162943763999999,-0.11611542257629885,,1.6056001e-05,-1.3709068e-06,5.1259995e-06,1.0,-2.0332634e-05,-1.5385449e-05,2.0317733e-05,1.0,-3.963709e-06,1.5377998e-05,3.9041042e-06,1.0,284,0.88,0,1,0.311,False,-0.25332448658635043,1.0499012289649627
0.8980198998469859,14:54:45.207753,14:53:29.278335,0,,0.10913484,0.002440296,0.016107306,-0.85911053,-0.2748216,-0.43174314,-0.46904007,0.085265875,0.8790512,-0.20476927,0.95770705,-0.20215526,,0.053740457,-0.027751707,0.018088818,0.6722154,-0.01943104,0.7401005,-0.40898797,0.8235319,0.39309546,-0.6171346,-0.5669372,0.5456437,,0.09964447,1.2986232,0.43118992,0.9826937,0.0064635486,-0.18512529,-0.10528719,-0.80276966,-0.5869203,-0.15240656,0.5962542,-0.78819615,,-0.108354054,0.24511588,-0.104508094,0.8145078,0.10867157,0.5698838,-0.4893939,0.6562304,0.5743303,-0.31156173,-0.74669415,0.58768797,,-0.08157535,0.37479928,-0.38165566,-0.5851174,0.16974707,-0.79298395,-0.79226804,0.08901918,0.6036447,0.1730577,0.9814589,0.0823985,,1.1325773896693954,0.5101405654726484,0.2249452037,0.47096361306624174,-0.22189767561907528,0.8199154597226067,-0.41407720765039796,,-1.3859293643412047,0.02882123908660587,0.18449836312,-0.11889419795572531,0.6431480043959281,-1.3950577638573085,0.8753608504136026,,-0.11663162726452107,-0.13014047567495718,0.09162943763999999,-0.11611542257629885,,1.6056001e-05,-1.3709068e-06,5.1259995e-06,1.0,-2.0332634e-05,-1.5385449e-05,2.0317733e-05,1.0,-3.963709e-06,1.5377998e-05,3.9041042e-06,1.0,301,0.932,1,2,0.326,False,-0.25254997624557696,1.049708108161845
0.9189185290597379,14:54:45.267853,14:53:29.278335,0,,0.10937128,0.002347976,0.016490832,-0.8592299,-0.2814249,-0.4272281,-0.46483696,0.08069649,0.8817111,-0.21365969,0.9561841,-0.20015353,,0.053742595,-0.02775129,0.018090427,0.6722222,-0.019419849,0.74009454,-0.40898722,0.8235352,0.39308923,-0.61712766,-0.5669328,0.5456561,,0.09964447,1.2986232,0.43118992,0.9826937,0.0064635486,-0.18512529,-0.10528719,-0.80276966,-0.5869203,-0.15240656,0.5962542,-0.78819615,,-0.10866481,0.24527599,-0.10480694,0.8167448,0.11479937,0.56546354,-0.4915171,0.6517379,0.5776233,-0.30222324,-0.7497058,0.5887294,,-0.081577696,0.3748006,-0.38165602,-0.5851252,0.16973552,-0.7929807,-0.79226285,0.08902368,0.6036508,0.17305504,0.98146045,0.08238515,,1.1320599665668225,0.5111599662120461,0.22459520540000003,0.46970547340533453,-0.21328957613385255,0.8210640058037884,-0.4144038957826665,,-1.3859448098069531,0.02882123908660587,0.18449836312,-0.11889419795572531,0.6431480043959281,-1.3950577638573085,0.8753608504136026,,-0.11663162726452107,-0.13014047567495718,0.09162943763999999,-0.11611542257629885,,1.6056001e-05,-1.3709068e-06,5.1259995e-06,1.0,-2.0332634e-05,-1.5385449e-05,2.0317733e-05,1.0,-3.963709e-06,1.5377998e-05,3.9041042e-06,1.0,309,0.958,1,2,0.352,False,-0.252847864838182,1.0498529487641832
0.9790408809203655,14:54:45.288726,14:53:29.278335,0,,0.10955651,0.002309829,0.01677917,-0.86030847,-0.2835089,-0.42366493,-0.46041328,0.075362146,0.8844999,-0.21883532,0.9560038,-0.19536597,,0.053741008,-0.027752824,0.0180884,0.6722141,-0.01942657,0.7401017,-0.40899485,0.8235285,0.3930953,-0.61713135,-0.5669422,0.5456422,,0.09964447,1.2986232,0.43118992,0.9826937,0.0064635486,-0.18512529,-0.10528719,-0.80276966,-0.5869203,-0.15240656,0.5962542,-0.78819615,,-0.10890172,0.245421,-0.10501125,0.819285,0.11618093,0.56149274,-0.49118277,0.64742774,0.5827322,-0.2958236,-0.7532193,0.5874939,,-0.08157589,0.37479818,-0.3816562,-0.58511716,0.16974328,-0.7929849,-0.7922698,0.08901283,0.6036433,0.17305022,0.9814601,0.08239955,,1.1316815526559854,0.5120480804925819,0.22435409546,0.47096361306624174,-0.20741420664393861,0.8245225886990389,-0.4132604873197264,,-1.3859293643412047,0.028813516353731645,0.18449836312,-0.11889419795572531,0.6431480043959281,-1.3950577638573085,0.8753608504136026,,-0.11663162726452107,-0.13014047567495718,0.09162943763999999,-0.11611542257629885,,1.6056001e-05,-1.3709068e-06,5.1259995e-06,1.0,-2.0332634e-05,-1.5385449e-05,2.0317733e-05,1.0,-3.963709e-06,1.5377998e-05,3.9041042e-06,1.0,322,0.998,0,2,0.364,False,-0.2529074425567037,1.0499012289649627
0.9998822729103267,14:54:45.330238,14:53:29.278335,0,,0.10979458,0.0022742972,0.017167911,-0.861879,-0.28562886,-0.41902328,-0.45551538,0.072913855,0.88723683,-0.22286788,0.9555625,-0.19295132,,0.053741008,-0.027752824,0.0180884,0.6722141,-0.01942657,0.7401017,-0.40899485,0.8235285,0.3930953,-0.61713135,-0.5669422,0.5456422,,0.09964447,1.2986232,0.43118992,0.9826937,0.0064635486,-0.18512529,-0.10528719,-0.80276966,-0.5869203,-0.15240656,0.5962542,-0.78819615,,-0.10920772,0.2456292,-0.105279766,0.8221626,0.11801397,0.5568853,-0.4897696,0.64523906,0.58633804,-0.29012805,-0.75481075,0.5882911,,-0.08157589,0.37479818,-0.3816562,-0.58511716,0.16974328,-0.7929849,-0.7922698,0.08901283,0.6036433,0.17305022,0.9814601,0.08239955,,1.131187297752035,0.5133763905469485,0.22404428215000002,0.473479892388056,-0.2026319291521482,0.8250336140372547,-0.41391386358426363,,-1.3859293643412047,0.028813516353731645,0.18449836312,-0.11889419795572531,0.6431480043959281,-1.3950577638573085,0.8753608504136026,,-0.11663162726452107,-0.13014047567495718,0.09162943763999999,-0.11611542257629885,,1.6056001e-05,-1.3709068e-06,5.1259995e-06,1.0,-2.0332634e-05,-1.5385449e-05,2.0317733e-05,1.0,-3.963709e-06,1.5377998e-05,3.9041042e-06,1.0,335,1.039,0,2,0.364,False,-0.25302659799374494,1.0499977893665218
1.0414237580262125,14:54:45.369694,14:53:29.418923,0,,0.11004393,0.0022554994,0.017477557,-0.8632436,-0.29257715,-0.4113503,-0.44791746,0.06820625,0.8914694,-0.23276687,0.9538063,-0.1899291,,0.053743046,-0.027754225,0.018090546,0.67221963,-0.019410893,0.7400971,-0.40900105,0.82352847,0.39308897,-0.6171212,-0.5669428,0.545653,,0.09964447,1.2986232,0.43118992,0.9826937,0.0064635486,-0.18512529,-0.10528719,-0.80276966,-0.5869203,-0.15240656,0.5962542,-0.78819615,,-0.10950849,0.24580207,-0.105474845,0.8262291,0.12450213,0.54940397,-0.4898177,0.6404972,0.59147435,-0.27825192,-0.7578011,0.59018075,,-0.08157835,0.37479877,-0.3816583,-0.58512473,0.16972795,-0.79298264,-0.7922665,0.089010976,0.603648,0.17304009,0.9814629,0.08238724,,1.1307239337795816,0.5143340094233524,0.22379669076000003,0.47473803204896314,-0.1911544631718512,0.8257209951640444,-0.41440389578266645,,-1.3859448098069531,0.02880579362085742,0.18449706683000003,-0.11889419795572531,0.6431480043959281,-1.3950577638573085,0.8753608504136026,,-0.11663162726452107,-0.13014047567495718,0.09162943763999999,-0.11611542257629885,,1.6056001e-05,-1.3709068e-06,5.1259995e-06,1.0,-2.0332634e-05,-1.5385449e-05,2.0317733e-05,1.0,-3.963709e-06,1.5377998e-05,3.9041042e-06,1.0,344,1.068,0,2,0.364,False,-0.2532649088678296,1.0498529487641832
1.080880613066256,14:54:45.397164,14:53:29.418923,0,,0.11032608,0.0022181198,0.017843708,-0.8626657,-0.30316085,-0.40484712,-0.44029948,0.056250483,0.8960871,-0.24888563,0.95127773,-0.18200698,,0.053743575,-0.027755402,0.018090189,0.67221844,-0.019406423,0.74009836,-0.40900794,0.82352513,0.3930888,-0.6171181,-0.5669478,0.5456514,,0.09964447,1.2986232,0.43118992,0.9826937,0.0064635486,-0.18512529,-0.10528719,-0.80276966,-0.5869203,-0.15240656,0.5962542,-0.78819615,,-0.109853715,0.24599458,-0.10571737,0.8295096,0.13374555,0.5422415,-0.4936754,0.62958205,0.5999258,-0.26114815,-0.76533556,0.58827126,,-0.08157889,0.37479767,-0.38165885,-0.5851245,0.16972418,-0.7929836,-0.7922683,0.08900463,0.6036466,0.17303263,0.98146415,0.08238828,,1.130291460738625,0.5152993510326304,0.22349076632000003,0.47180237284017984,-0.1746214467002329,0.832087362670934,-0.4139138635842637,,-1.3859448098069531,0.028798070887983196,0.18449706683000003,-0.11889419795572531,0.6431480043959281,-1.3950577638573085,0.8753608504136026,,-0.11663162726452107,-0.13014047567495718,0.09162943763999999,-0.11611542257629885,,1.6056001e-05,-1.3709068e-06,5.1259995e-06,1.0,-2.0332634e-05,-1.5385449e-05,2.0317733e-05,1.0,-3.963709e-06,1.5377998e-05,3.9041042e-06,1.0,348,1.081,0,2,0.364,False,-0.252847864838182,1.049418426957168
1.1083503100089729,14:54:45.418787,14:53:29.418923,0,,0.110452875,0.0021721125,0.018062577,-0.86347544,-0.30471045,-0.40194744,-0.436409,0.051774114,0.8982575,-0.25289798,0.9510367,-0.17768413,,0.053742103,-0.027755477,0.018091857,0.67223346,-0.019414395,0.7400844,-0.40888774,0.82362396,0.39300683,-0.6171813,-0.56680393,0.5457293,,0.09964447,1.2986232,0.43118992,0.9826937,0.0064635486,-0.18512529,-0.10528719,-0.80276966,-0.5869203,-0.15240656,0.5962542,-0.78819615,,-0.11002226,0.2460913,-0.10588571,0.83151215,0.13472651,0.5389215,-0.49305198,0.6259087,0.6042665,-0.2559049,-0.76817125,0.5868778,,-0.08157773,0.37479907,-0.38166022,-0.5851206,0.16971454,-0.79298854,-0.7922419,0.08917847,0.6036556,0.17316663,0.98145,0.0822748,,1.1300288878209013,0.5158785559981972,0.22329761911,0.47306051250108694,-0.16970253270867705,0.8351823685300918,-0.4147305839149349,,-1.3859448098069531,0.028798070887983196,0.18449577054000002,-0.11889419795572531,0.6432846408956936,-1.3951691817610048,0.8753608504136026,,-0.11663162726452107,-0.13014047567495718,0.09162943763999999,-0.11611542257629885,,1.6056001e-05,-1.3709068e-06,5.1259995e-06,1.0,-2.0332634e-05,-1.5385449e-05,2.0317733e-05,1.0,-3.963709e-06,1.5377998e-05,3.9041042e-06,1.0,357,1.109,0,2,0.364,False,-0.2537415306159976,1.0502391903704191
1.129976084921509,14:54:45.447678,14:53:29.418923,0,,0.11058292,0.002111137,0.018261716,-0.8638815,-0.30672097,-0.39953828,-0.43478757,0.053618312,0.8989353,-0.25429976,0.950288,-0.17967838,,0.05374212,-0.02775804,0.018090189,0.6722276,-0.019411087,0.7400899,-0.4089018,0.8236156,0.3930095,-0.6171783,-0.5668162,0.5457199,,0.09964447,1.2986232,0.43118992,0.9826937,0.0064635486,-0.18512529,-0.10528719,-0.80276966,-0.5869203,-0.15240656,0.5962542,-0.78819615,,-0.11019238,0.24616408,-0.10604709,0.83236563,0.13705769,0.5370127,-0.492626,0.6269234,0.6035617,-0.25394303,-0.7669304,0.58934766,,-0.08157764,0.37479615,-0.38166115,-0.58511627,0.16971275,-0.7929921,-0.7922481,0.089163534,0.6036496,0.17315303,0.9814517,0.082283564,,1.1296118602456933,0.5165040973610094,0.22311613851000003,0.473899272275025,-0.1683361677110226,0.8325162934304569,-0.4148939279810692,,-1.385937087074079,0.028782625422234746,0.18449577054000002,-0.11889419795572531,0.6432846408956936,-1.3951691817610048,0.8753608504136026,,-0.11663162726452107,-0.13014047567495718,0.09162943763999999,-0.11611542257629885,,1.6056001e-05,-1.3709068e-06,5.1259995e-06,1.0,-2.0332634e-05,-1.5385449e-05,2.0317733e-05,1.0,-3.963709e-06,1.5377998e-05,3.9041042e-06,1.0,370,1.149,0,2,0.364,False,-0.2524308208085344,1.0500943497680806
1.158841768046841,14:54:45.480240,14:53:29.418923,0,,0.11083649,0.0020418167,0.018522978,-0.86263037,-0.32187796,-0.39020973,-0.42910004,0.057169944,0.90144587,-0.26784724,0.94505346,-0.18743438,,0.053666946,-0.027779408,0.018090904,0.67220676,-0.019345388,0.7401107,-0.40893555,0.82362986,0.3929448,-0.6171788,-0.56679773,0.54573846,,0.09964408,1.2986217,0.43119684,0.98269564,0.0064785555,-0.18511431,-0.10526882,-0.80276954,-0.5869238,-0.15240656,0.5962542,-0.78819615,,-0.11049631,0.24626052,-0.10623038,0.83429414,0.1532316,0.52959734,-0.49642667,0.62664753,0.60072744,-0.23982042,-0.76408964,0.5988766,,-0.08150525,0.37478414,-0.3816854,-0.58508813,0.16963375,-0.7930298,-0.79227704,0.08918061,0.603609,0.17311534,0.9814638,0.0822184,,1.1293415645950955,0.5170292431964567,0.22290484324,0.47054423317927263,-0.15453588123471315,0.8228966599599297,-0.41391386358426363,,-1.3859525325398274,0.028782625422234746,0.18449577054000002,-0.11889419795572531,0.6432846408956936,-1.3951691817610048,0.8753608504136026,,-0.11663162726452107,-0.13014047567495718,0.09162943763999999,-0.11611542257629885,,1.4781952e-05,4.1127205e-06,7.1525574e-07,1.0000001,-5.6028366e-06,-4.23193e-06,5.5879354e-06,1.0,-1.1026859e-06,4.23193e-06,1.0728836e-06,1.0,383,1.191,0,2,0.364,False,-0.2537415306159976,1.0502874705711984
1.1914263078942895,14:54:45.520214,14:53:29.418923,0,,0.11094724,0.0019819513,0.018716007,-0.861264,-0.32893723,-0.3873304,-0.4257476,0.050966054,0.9034055,-0.27742296,0.9429754,-0.18393946,,0.05367474,-0.027780376,0.01809007,0.6722166,-0.01930955,0.7401027,-0.40895474,0.82362646,0.392932,-0.6171554,-0.56680393,0.54575855,,0.09964408,1.2986217,0.43119684,0.98269564,0.0064785555,-0.18511431,-0.10526882,-0.80276954,-0.5869238,-0.15240656,0.5962542,-0.78819615,,-0.110646375,0.24633059,-0.10639065,0.8350944,0.15969364,0.52641743,-0.4996537,0.62052685,0.60439444,-0.2301382,-0.7677528,0.59799,,-0.08151283,0.37478217,-0.38168436,-0.58510303,0.16959931,-0.79302615,-0.7922721,0.08917055,0.603617,0.17308761,0.9814707,0.082194835,,1.1292025554033593,0.5173072615799288,0.22271688119000002,0.4673988840270048,-0.14510796275089774,0.8258270608231496,-0.4152206161133379,,-1.3859834234713244,0.028759457223612075,0.18449965941000002,-0.11889419795572531,0.6432846408956936,-1.3951691817610048,0.8753608504136026,,-0.11663162726452107,-0.13014047567495718,0.09162943763999999,-0.11611542257629885,,1.4781952e-05,4.1127205e-06,7.1525574e-07,1.0000001,-5.6028366e-06,-4.23193e-06,5.5879354e-06,1.0,-1.1026859e-06,4.23193e-06,1.0728836e-06,1.0,392,1.219,0,2,0.364,False,-0.2529074425567037,1.0500943497680806
1.231402216013521,14:54:45.550510,14:53:29.630667,0,,0.11109929,0.001962036,0.018894643,-0.85598034,-0.3500474,-0.3804795,-0.42060953,0.043549955,0.9061959,-0.3006416,0.935719,-0.18451118,,0.05368541,-0.027780987,0.018096626,0.67224467,-0.01925014,0.74007875,-0.40896526,0.8236346,0.39290392,-0.6171178,-0.56679416,0.5458113,,0.09964408,1.2986217,0.43119684,0.98269564,0.0064785555,-0.18511431,-0.10526882,-0.80276954,-0.5869238,-0.15240656,0.5962542,-0.78819615,,-0.11082907,0.2464231,-0.106506824,0.83472884,0.1806306,0.5201926,-0.5098578,0.6103866,0.6061957,-0.2080211,-0.77123326,0.6016032,,-0.08152447,0.37478587,-0.3816872,-0.58513767,0.16953978,-0.79301333,-0.7922524,0.08917808,0.60364175,0.1730607,0.9814803,0.082136855,,1.1292643372663531,0.517314984312803,0.22255614123000003,0.4564950069658095,-0.12324612278842728,0.8244993017401157,-0.4155473042456064,,-1.3860529280671923,0.028744011757863626,0.18449965941000002,-0.11889419795572531,0.6432846408956936,-1.3951691817610048,0.8753608504136026,,-0.11663162726452107,-0.13014047567495718,0.09162943763999999,-0.11611542257629885,,1.4781952e-05,4.1127205e-06,7.1525574e-07,1.0000001,-5.6028366e-06,-4.23193e-06,5.5879354e-06,1.0,-1.1026859e-06,4.23193e-06,1.0728836e-06,1.0,405,1.26,0,2,0.364,False,-0.2529074425567037,1.0497563883626244
1.2616670599672943,14:54:45.589283,14:53:29.630667,0,,0.11123055,0.0019768104,0.019060016,-0.85030997,-0.3713594,-0.37291464,-0.41558588,0.039055705,0.908715,-0.32289535,0.9276674,-0.18754119,,0.053697385,-0.027782954,0.018099487,0.67226684,-0.019187406,0.74006027,-0.40899003,0.8236345,0.39287853,-0.6170773,-0.5667965,0.54585457,,0.09964408,1.2986217,0.43119684,0.98269564,0.0064785555,-0.18511431,-0.10526882,-0.80276954,-0.5869238,-0.15240656,0.5962542,-0.78819615,,-0.11098465,0.24653503,-0.10659656,0.83379966,0.20228043,0.51367384,-0.5195643,0.60207015,0.60627097,-0.18663092,-0.7723951,0.6071035,,-0.08153687,0.3747858,-0.38168862,-0.58516794,0.16947846,-0.79300416,-0.79223895,0.08917066,0.6036605,0.17302017,0.98149157,0.082087636,,1.1294496828553346,0.5173535979771742,0.22243040110000004,0.44580081984809883,-0.10220410182454945,0.8200828280327945,-0.41587399237787503,,-1.386114709930186,0.028713120826366727,0.18450225199,-0.11889419795572531,0.6432846408956936,-1.3951691817610048,0.8753608504136026,,-0.11663162726452107,-0.13014047567495718,0.09162943763999999,-0.11611542257629885,,1.4781952e-05,4.1127205e-06,7.1525574e-07,1.0000001,-5.6028366e-06,-4.23193e-06,5.5879354e-06,1.0,-1.1026859e-06,4.23193e-06,1.0728836e-06,1.0,418,1.302,0,2,0.364,False,-0.252371243090014,1.0495632675595068
1.3004695440176874,14:54:45.631054,14:53:29.630667,0,,0.11130875,0.0019436255,0.019319266,-0.8425204,-0.3893668,-0.37222722,-0.4148729,0.028304756,0.909439,-0.3435695,0.92064774,-0.18538514,,0.053701017,-0.027785353,0.01810211,0.67227453,-0.019161671,0.74005395,-0.40900263,0.8236327,0.39286897,-0.6170605,-0.5667998,0.54587007,,0.09964408,1.2986217,0.43119684,0.98269564,0.0064785555,-0.18511431,-0.10526882,-0.80276954,-0.5869238,-0.15240656,0.5962542,-0.78819615,,-0.11111134,0.246667,-0.10679897,0.8299693,0.21972059,0.5127123,-0.53172684,0.5894148,0.6081585,-0.16857526,-0.77737576,0.6060275,,-0.08154103,0.37478596,-0.3816915,-0.58517915,0.16945359,-0.7930012,-0.7922348,0.089164704,0.6036669,0.17300123,0.9814964,0.082069695,,1.1298049285675489,0.5175157753675328,0.22220355035000003,0.4317515936346356,-0.08498790285410396,0.8227883138958607,-0.4152206161133378,,-1.3861378781288087,0.028697675360618277,0.18450225199,-0.11889419795572531,0.6432846408956936,-1.3951691817610048,0.8753608504136026,,-0.11663162726452107,-0.13014047567495718,0.09162943763999999,-0.11611542257629885,,1.4781952e-05,4.1127205e-06,7.1525574e-07,1.0000001,-5.6028366e-06,-4.23193e-06,5.5879354e-06,1.0,-1.1026859e-06,4.23193e-06,1.0728836e-06,1.0,427,1.33,0,2,0.364,False,-0.252847864838182,1.0499977893665218
1.3422412150539458,14:54:45.660184,14:53:29.630667,0,,0.11129357,0.00190337,0.019484967,-0.8415188,-0.39445484,-0.36912286,-0.4129147,0.029054493,0.9103061,-0.34834993,0.9184558,-0.18732613,,0.05370292,-0.027784862,0.01810366,0.6721551,-0.019082665,0.74016446,-0.40904307,0.8236958,0.3926947,-0.61716384,-0.56671095,0.54584557,,0.09964408,1.2986217,0.43119684,0.98269564,0.0064785555,-0.18511431,-0.10526882,-0.80276954,-0.5869238,-0.15240656,0.5962542,-0.78819615,,-0.11113116,0.24673682,-0.10695402,0.83009356,0.22517085,0.51014,-0.53311545,0.5887047,0.6076304,-0.16350117,-0.77635354,0.60872203,,-0.08154313,0.3747873,-0.38169175,-0.58504707,0.16936521,-0.79311746,-0.7923293,0.08926609,0.60352784,0.17301512,0.9815024,0.08196815,,1.130121560615392,0.5176161708948978,0.22204540297000003,0.43007407408675946,-0.07993235236278266,0.8196459963407798,-0.414730583914935,,-1.386145600861683,0.028697675360618277,0.18450095570000002,-0.11868450801224079,0.6432846408956936,-1.3951691817610048,0.8753608504136026,,-0.11663162726452107,-0.13014047567495718,0.09162943763999999,-0.11611542257629885,,1.4781952e-05,4.1127205e-06,7.1525574e-07,1.0000001,-5.6028366e-06,-4.23193e-06,5.5879354e-06,1.0,-1.1026859e-06,4.23193e-06,1.0728836e-06,1.0,440,1.371,0,2,0.364,False,-0.252371243090014,1.0499012289649627
1.3713681709486991,14:54:45.701635,14:53:29.780782,0,,0.111362144,0.0019036308,0.019750774,-0.83774346,-0.40837413,-0.36251426,-0.40876073,0.028786361,0.9121876,-0.36207828,0.91236055,-0.1910429,,0.05370228,-0.027786933,0.018100083,0.6720196,-0.01901716,0.7402892,-0.40909863,0.8237455,0.3925325,-0.6172746,-0.5666408,0.5457931,,0.09964408,1.2986217,0.43119684,0.98269564,0.0064785555,-0.18511431,-0.10526882,-0.80276954,-0.5869238,-0.15240656,0.5962542,-0.78819615,,-0.11124534,0.24689932,-0.10714355,0.82938504,0.23980148,0.5045946,-0.5382718,0.5848686,0.60678846,-0.1496128,-0.7748703,0.61415964,,-0.081542045,0.3747833,-0.38169125,-0.58489895,0.16929236,-0.7932423,-0.79243773,0.08934578,0.6033737,0.17301941,0.9815077,0.081895396,,1.1304922517933549,0.5179945848057348,0.22183929286,0.4239930657257082,-0.0665419753857695,0.8136277661869644,-0.4140772076503978,,-1.3861224326630603,0.028682229894869828,0.18450225199,-0.11847481806875625,0.6432846408956936,-1.3951691817610048,0.8753608504136026,,-0.11663162726452107,-0.13014047567495718,0.09162943763999999,-0.11611542257629885,,1.4781952e-05,4.1127205e-06,7.1525574e-07,1.0000001,-5.6028366e-06,-4.23193e-06,5.5879354e-06,1.0,-1.1026859e-06,4.23193e-06,1.0728836e-06,1.0,453,1.413,0,2,0.364,False,-0.25260955396409823,1.049514987358727
1.4128232980147004,14:54:45.740779,14:53:29.780782,0,,0.11143029,0.0018914863,0.020054966,-0.83431447,-0.419695,-0.35745722,-0.4047164,0.026016712,0.91407216,-0.37433153,0.90729225,-0.19156355,,0.05370426,-0.027792387,0.018099546,0.672267,-0.01913485,0.74006146,-0.40904394,0.8236127,0.39286798,-0.6170413,-0.56682986,0.5458605,,0.09964408,1.2986217,0.43119684,0.98269564,0.0064785555,-0.18511431,-0.10526882,-0.80276954,-0.5869238,-0.15240656,0.5962542,-0.78819615,,-0.11136749,0.24707551,-0.10737014,0.82873785,0.2513936,0.4999948,-0.5426085,0.579664,0.60791916,-0.13700202,-0.775107,0.6167978,,-0.081544265,0.37477925,-0.38169482,-0.5851778,0.1694309,-0.793007,-0.79224557,0.08912662,0.6036583,0.1729564,0.9815037,0.08207597,,1.1308552202384434,0.5184888397096852,0.22159818292000003,0.4187508171385952,-0.05451796340641074,0.8109290410539083,-0.4142405517165322,,-1.3861378781288087,0.028651338963372932,0.18450225199,-0.11889419795572531,0.6432846408956936,-1.3951691817610048,0.8753608504136026,,-0.11663162726452107,-0.13014047567495718,0.09162943763999999,-0.11611542257629885,,1.4781952e-05,4.1127205e-06,7.1525574e-07,1.0000001,-5.6028366e-06,-4.23193e-06,5.5879354e-06,1.0,-1.1026859e-06,4.23193e-06,1.0728836e-06,1.0,462,1.44,0,2,0.364,False,-0.2532649088678296,1.0499012289649627
1.451900326879695,14:54:45.774648,14:53:29.780782,0,,0.11150448,0.0019071326,0.020281792,-0.8313046,-0.43089497,-0.35108745,-0.3999547,0.025113106,0.91619086,-0.3859651,0.9020525,-0.19321513,,0.053707566,-0.027792595,0.018099785,0.67227256,-0.019119158,0.7400568,-0.40905014,0.8236127,0.39286166,-0.6170312,-0.56683046,0.5458714,,0.09964408,1.2986217,0.43119684,0.98269564,0.0064785555,-0.18511431,-0.10526882,-0.80276954,-0.5869238,-0.15240656,0.5962542,-0.78819615,,-0.11147822,0.24722624,-0.10751918,0.8284813,0.26313743,0.49434546,-0.5459953,0.5758283,0.6085318,-0.124530636,-0.77406746,0.6207348,,-0.08154757,0.37477902,-0.38169459,-0.58518535,0.16941556,-0.7930047,-0.7922422,0.08912476,0.603663,0.17294627,0.9815066,0.08206366,,1.1311409613547898,0.5188672536205221,0.22143614667000003,0.4145570182689046,-0.04249395142705198,0.8065967411180408,-0.41505727204720355,,-1.3861533235945573,0.028643616230498707,0.18450225199,-0.11889419795572531,0.6432846408956936,-1.3951691817610048,0.8753608504136026,,-0.11663162726452107,-0.13014047567495718,0.09162943763999999,-0.11611542257629885,,1.4781952e-05,4.1127205e-06,7.1525574e-07,1.0000001,-5.6028366e-06,-4.23193e-06,5.5879354e-06,1.0,-1.1026859e-06,4.23193e-06,1.0728836e-06,1.0,475,1.481,0,2,0.364,False,-0.2521925099344511,1.0496115477602863
1.485822225920856,14:54:45.812619,14:53:29.780782,0,,0.11153826,0.0018944889,0.02042973,-0.8276054,-0.4373493,-0.35184526,-0.39959294,0.018839449,0.9164991,-0.39420155,0.8990943,-0.1903533,,0.05370532,-0.027792193,0.01810038,0.67227036,-0.019129232,0.74005854,-0.4090436,0.82361436,0.39286488,-0.61703783,-0.56682765,0.54586685,,0.09964408,1.2986217,0.43119684,0.98269564,0.0064785555,-0.18511431,-0.10526882,-0.80276954,-0.5869238,-0.15240656,0.5962542,-0.78819615,,-0.11153913,0.24730662,-0.10763329,0.82638395,0.26915687,0.4946152,-0.55078405,0.56910855,0.6105345,-0.11716021,-0.77696204,0.61854947,,-0.081545435,0.3747799,-0.381695,-0.58518165,0.16942513,-0.7930054,-0.792243,0.08912886,0.6036614,0.17295508,0.98150456,0.08206929,,1.1313185842108968,0.5190525992095035,0.2213155917,0.408685699851338,-0.03566212643877995,0.8095204349078382,-0.41440389578266656,,-1.386145600861683,0.028651338963372932,0.18450095570000002,-0.11889419795572531,0.6432846408956936,-1.3951691817610048,0.8753608504136026,,-0.11663162726452107,-0.13014047567495718,0.09162943763999999,-0.11611542257629885,,1.4781952e-05,4.1127205e-06,7.1525574e-07,1.0000001,-5.6028366e-06,-4.23193e-06,5.5879354e-06,1.0,-1.1026859e-06,4.23193e-06,1.0728836e-06,1.0,488,1.522,0,2,0.364,False,-0.25266913168261906,1.0499012289649627
1.523804091848433,14:54:45.852580,14:53:29.780782,0,,0.111575305,0.0018511117,0.020576507,-0.82181376,-0.4489357,-0.3508262,-0.40052688,0.017282963,0.91612196,-0.40521646,0.89339685,-0.19401416,,0.0537071,-0.027792417,0.018099606,0.67202014,-0.018983603,0.74028957,-0.40913227,0.8237321,0.39252543,-0.6172517,-0.56666136,0.5457977,,0.09964408,1.2986217,0.43119684,0.98269564,0.0064785555,-0.18511431,-0.10526882,-0.80276954,-0.5869238,-0.15240656,0.5962542,-0.78819615,,-0.11160695,0.24736194,-0.1077642,0.8225733,0.28127545,0.4942239,-0.5583154,0.56447953,0.60798585,-0.10796779,-0.77604574,0.6213662,,-0.08154708,0.37477905,-0.38169444,-0.58490556,0.1692619,-0.7932439,-0.79244155,0.089318536,0.6033727,0.1729794,0.98151547,0.08188725,,1.1314344252040103,0.5190912128738746,0.22117688867000002,0.3994593423380189,-0.02719066345332265,0.8059613532244231,-0.4148939279810693,,-1.3861378781288087,0.028643616230498707,0.18450225199,-0.11847481806875625,0.6432846408956936,-1.3951691817610048,0.8753608504136026,,-0.11663162726452107,-0.13014047567495718,0.09162943763999999,-0.11611542257629885,,1.4781952e-05,4.1127205e-06,7.1525574e-07,1.0000001,-5.6028366e-06,-4.23193e-06,5.5879354e-06,1.0,-1.1026859e-06,4.23193e-06,1.0728836e-06,1.0,497,1.551,0,2,0.364,False,-0.25278828711966117,1.0503840309727575
1.5637617220636457,14:54:45.882378,14:53:29.938540,0,,0.11166485,0.001851283,0.020714968,-0.81127954,-0.46899718,-0.34909517,-0.40062815,0.011065155,0.91617393,-0.4258201,0.8831303,-0.19687042,,0.053707015,-0.02779419,0.018100142,0.6720188,-0.018979102,0.7402908,-0.40913916,0.8237288,0.3925253,-0.6172485,-0.56666636,0.5457961,,0.09964408,1.2986217,0.43119684,0.98269564,0.0064785555,-0.18511431,-0.10526882,-0.80276954,-0.5869238,-0.15240656,0.5962542,-0.78819615,,-0.111718915,0.2474462,-0.10785112,0.8159481,0.3018784,0.4930498,-0.57109994,0.55343413,0.6062636,-0.08985274,-0.7762603,0.6239763,,-0.0815472,0.37477833,-0.38169613,-0.5849053,0.16925812,-0.7932449,-0.79244334,0.08931219,0.60337126,0.17297192,0.9815167,0.081888296,,1.1315657116628721,0.5190294310108808,0.22107707434,0.38352290663319505,-0.010247737482408033,0.8028454481244804,-0.41505727204720355,,-1.3861378781288087,0.028635893497624482,0.18450095570000002,-0.11847481806875625,0.6432846408956936,-1.3951691817610048,0.8753608504136026,,-0.11663162726452107,-0.13014047567495718,0.09162943763999999,-0.11611542257629885,,1.4781952e-05,4.1127205e-06,7.1525574e-07,1.0000001,-5.6028366e-06,-4.23193e-06,5.5879354e-06,1.0,-1.1026859e-06,4.23193e-06,1.0728836e-06,1.0,510,1.592,0,2,0.364,False,-0.25350321974191337,1.049708108161845
1.5935501379426569,14:54:45.920851,14:53:29.938540,0,,0.11175184,0.0018703416,0.020858645,-0.8046117,-0.4844212,-0.3434186,-0.3946431,0.004113704,0.91882527,-0.44368562,0.8748252,-0.19448346,,0.053707246,-0.027794264,0.018100202,0.67214507,-0.019046918,0.7401744,-0.4090981,0.8236691,0.3926934,-0.6171382,-0.56675094,0.545833,,0.09964408,1.2986217,0.43119684,0.98269564,0.0064785555,-0.18511431,-0.10526882,-0.80276954,-0.5869238,-0.15240656,0.5962542,-0.78819615,,-0.11182691,0.2475486,-0.107931286,0.8133882,0.3175137,0.48742658,-0.5773663,0.54297394,0.60977656,-0.0710475,-0.7774088,0.6249703,,-0.08154745,0.37477833,-0.38169622,-0.5850452,0.16933496,-0.7931253,-0.7923437,0.08921531,0.60351646,0.17295535,0.98151225,0.0819765,,1.1317665027176018,0.5189676491478871,0.22098763033000002,0.3751353088938141,0.008061553486160987,0.8021275498136178,-0.4147305839149351,,-1.386145600861683,0.028635893497624482,0.18450095570000002,-0.11868450801224079,0.6432846408956936,-1.3951691817610048,0.8753608504136026,,-0.11663162726452107,-0.13014047567495718,0.09162943763999999,-0.11611542257629885,,1.4781952e-05,4.1127205e-06,7.1525574e-07,1.0000001,-5.6028366e-06,-4.23193e-06,5.5879354e-06,1.0,-1.1026859e-06,4.23193e-06,1.0728836e-06,1.0,523,1.633,0,2,0.364,False,-0.25278828711966117,1.0499495091657423
1.6320405909791589,14:54:45.961218,14:53:29.938540,0,,0.11176716,0.0018208027,0.021149814,-0.79378337,-0.5026984,-0.34234834,-0.39212,-0.00728637,0.9198852,-0.46491927,0.86443114,-0.19133434,,0.053708017,-0.027795516,0.018099844,0.67227,-0.019110218,0.7400593,-0.4090639,0.82360595,0.39286137,-0.61702484,-0.56684047,0.5458683,,0.09964408,1.2986217,0.43119684,0.98269564,0.0064785555,-0.18511431,-0.10526882,-0.80276954,-0.5869238,-0.15240656,0.5962542,-0.78819615,,-0.11190001,0.24768767,-0.10818183,0.80692464,0.33573425,0.48595792,-0.58846486,0.5277405,0.612535,-0.05081068,-0.78023875,0.62341464,,-0.08154823,0.3747772,-0.38169685,-0.5851849,0.16940801,-0.79300666,-0.7922458,0.089112066,0.6036602,0.17293133,0.98150903,0.08206575,,1.1323302622174203,0.5188826990862706,0.22073744636000003,0.3602473229064128,0.02732729995308809,0.8036518395620811,-0.41456723984880084,,-1.3861533235945573,0.028628170764750258,0.18450095570000002,-0.11889419795572531,0.6432846408956936,-1.3951691817610048,0.8753608504136026,,-0.11663162726452107,-0.13014047567495718,0.09162943763999999,-0.11611542257629885,,1.4781952e-05,4.1127205e-06,7.1525574e-07,1.0000001,-5.6028366e-06,-4.23193e-06,5.5879354e-06,1.0,-1.1026859e-06,4.23193e-06,1.0728836e-06,1.0,532,1.661,0,2,0.364,False,-0.2518946213418456,1.049708108161845
1.6724014128558338,14:54:45.993035,14:53:29.938540,0,,0.11167008,0.0017505288,0.021351755,-0.79050547,-0.50757575,-0.3427361,-0.39363056,-0.0076608956,0.9192368,-0.46920785,0.8615731,-0.19374138,,0.053708117,-0.02779629,0.018097699,0.67226547,-0.019111365,0.7400635,-0.40907115,0.823601,0.39286426,-0.6170251,-0.5668477,0.54586047,,0.09964408,1.2986217,0.43119684,0.98269564,0.0064785555,-0.18511431,-0.10526882,-0.80276954,-0.5869238,-0.15240656,0.5962542,-0.78819615,,-0.11185024,0.24775662,-0.10840073,0.80429596,0.3409534,0.48668137,-0.59231174,0.5257321,0.610551,-0.047694564,-0.77933085,0.6247949,,-0.08154802,0.37477502,-0.38169608,-0.58518076,0.16941,-0.7930093,-0.7922502,0.08910347,0.6036557,0.17292519,0.98150945,0.08207347,,1.1329326353816098,0.5188672536205221,0.22052874367000003,0.35500507431929973,0.030196666448162338,0.8011487061041751,-0.4148939279810693,,-1.386145600861683,0.028620448031876033,0.18450225199,-0.11889419795572531,0.6432846408956936,-1.3951691817610048,0.8753608504136026,,-0.11663162726452107,-0.13014047567495718,0.09162943763999999,-0.11611542257629885,,1.4781952e-05,4.1127205e-06,7.1525574e-07,1.0000001,-5.6028366e-06,-4.23193e-06,5.5879354e-06,1.0,-1.1026859e-06,4.23193e-06,1.0728836e-06,1.0,545,1.702,0,2,0.364,False,-0.2523116653714932,1.0501909101696396
1.7042223839089274,14:54:46.033996,14:53:30.087713,0,,0.11152677,0.0016453713,0.021691054,-0.7899074,-0.5135018,-0.33520508,-0.38946846,-0.0021272302,0.9210373,-0.4736673,0.8580859,-0.19831246,,0.053710807,-0.027799614,0.018097222,0.6722651,-0.019092351,0.7400643,-0.40909144,0.8235926,0.39286065,-0.617012,-0.56686044,0.54586196,,0.09964408,1.2986217,0.43119684,0.98269564,0.0064785555,-0.18511431,-0.10526882,-0.80276954,-0.5869238,-0.15240656,0.5962542,-0.78819615,,-0.11178425,0.24788247,-0.10875642,0.8050392,0.3480649,0.48037767,-0.59175867,0.5280162,0.6091146,-0.041635796,-0.77462876,0.63104415,,-0.08155081,0.3747723,-0.38169792,-0.585184,0.16939288,-0.7930106,-0.792253,0.089086674,0.6036545,0.17290145,0.9815139,0.082069926,,1.1339288679223847,0.5188672536205221,0.22018911569000002,0.3547953843758152,0.036618581937138045,0.7925632362846802,-0.4140772076503979,,-1.3861533235945573,0.02859727983325336,0.18450225199,-0.11889419795572531,0.6432846408956936,-1.3951691817610048,0.8753608504136026,,-0.11663162726452107,-0.13014047567495718,0.09162943763999999,-0.11611542257629885,,1.4781952e-05,4.1127205e-06,7.1525574e-07,1.0000001,-5.6028366e-06,-4.23193e-06,5.5879354e-06,1.0,-1.1026859e-06,4.23193e-06,1.0728836e-06,1.0,558,1.743,0,2,0.364,False,-0.25260955396409823,1.0498529487641832
1.7451382828876376,14:54:46.074659,14:53:30.087713,0,,0.111496195,0.0016177967,0.022055387,-0.7791338,-0.5357219,-0.3255037,-0.38530344,-0.00031468272,0.92278993,-0.49446112,0.8443943,-0.20617035,,0.053711344,-0.02780082,0.018096805,0.67226386,-0.01908788,0.7400656,-0.40909833,0.8235893,0.39286047,-0.6170088,-0.56686544,0.54586035,,0.09964408,1.2986217,0.43119684,0.98269564,0.0064785555,-0.18511431,-0.10526882,-0.80276954,-0.5869238,-0.15240656,0.5962542,-0.78819615,,-0.111822784,0.24808411,-0.10906022,0.79876125,0.3724125,0.47253507,-0.60128963,0.5212367,0.60560966,-0.020766038,-0.7678679,0.6402715,,-0.08155134,0.37477118,-0.3816985,-0.58518374,0.1693891,-0.79301155,-0.7922548,0.089080326,0.6036531,0.17289397,0.98151517,0.08207098,,1.1348478731344174,0.5188904218191448,0.21989745044000003,0.3409558481058366,0.056567510902892346,0.7794000144703439,-0.41375051951812936,,-1.3861533235945573,0.028589557100379134,0.18450225199,-0.11889419795572531,0.6432846408956936,-1.3951691817610048,0.8753608504136026,,-0.11663162726452107,-0.13014047567495718,0.09162943763999999,-0.11611542257629885,,1.4781952e-05,4.1127205e-06,7.1525574e-07,1.0000001,-5.6028366e-06,-4.23193e-06,5.5879354e-06,1.0,-1.1026859e-06,4.23193e-06,1.0728836e-06,1.0,567,1.772,1,3,0.37,False,-0.25260955396409823,1.0499977893665218
1.7858459390699863,14:54:46.106079,14:53:30.087713,0,,0.11157343,0.0016127527,0.022431076,-0.7609178,-0.56650245,-0.31635314,-0.38137114,-0.003970057,0.9244135,-0.52493834,0.8240504,-0.21302685,,0.053710286,-0.027801014,0.01809597,0.6722604,-0.019093499,0.74006855,-0.40909863,0.82358766,0.3928636,-0.6170122,-0.56686765,0.5458542,,0.09964408,1.2986217,0.43119684,0.98269564,0.0064785555,-0.18511431,-0.10526882,-0.80276954,-0.5869238,-0.15240656,0.5962542,-0.78819615,,-0.11196563,0.24830966,-0.10933566,0.7869149,0.40559494,0.46503517,-0.61699516,0.50612783,0.6026206,0.009052599,-0.7611356,0.64852965,,-0.08155017,0.37477052,-0.3816983,-0.58517987,0.16939488,-0.7930132,-0.79225737,0.089078076,0.60365003,0.17289531,0.9815144,0.08207765,,1.1354193553671101,0.5189444809492644,0.21963171099000003,0.31809964426602344,0.0844413568550422,0.766553889673282,-0.41456723984880084,,-1.386145600861683,0.028589557100379134,0.18450225199,-0.11889419795572531,0.6432846408956936,-1.3951691817610048,0.8753608504136026,,-0.11663162726452107,-0.13014047567495718,0.09162943763999999,-0.11611542257629885,,1.4781952e-05,4.1127205e-06,7.1525574e-07,1.0000001,-5.6028366e-06,-4.23193e-06,5.5879354e-06,1.0,-1.1026859e-06,4.23193e-06,1.0728836e-06,1.0,580,1.813,1,3,0.411,False,-0.2536819528974772,1.049708108161845
1.8172093669418246,14:54:46.144943,14:53:30.087713,0,,0.11165576,0.0015639141,0.022686243,-0.747496,-0.5867404,-0.31142527,-0.3800443,-0.0067647696,0.9249435,-0.5448083,0.80974686,-0.21793073,,0.05371082,-0.027802162,0.018095553,0.6722592,-0.01902856,0.74007136,-0.40910548,0.8236164,0.39279616,-0.61700904,-0.5668281,0.545899,,0.09964408,1.2986217,0.43119684,0.98269564,0.0064785555,-0.18511431,-0.10526882,-0.80276954,-0.5869238,-0.15240656,0.5962542,-0.78819615,,-0.112097606,0.24842672,-0.10954337,0.777525,0.42752695,0.46116763,-0.6282243,0.49531633,0.5999966,0.028090876,-0.7562291,0.65370363,,-0.08155071,0.37476942,-0.38169885,-0.5851796,0.16932632,-0.793028,-0.79225916,0.08912103,0.60364133,0.17288783,0.9815223,0.08199853,,1.1354965826958523,0.5189753718807613,0.21942819346000003,0.301534138730746,0.10193082882501858,0.7580915885501202,-0.414730583914935,,-1.386145600861683,0.02858183436750491,0.18450225199,-0.11889419795572531,0.6432846408956936,-1.3952508605011453,0.875524194479737,,-0.11663162726452107,-0.13014047567495718,0.09162943763999999,-0.11611542257629885,,1.4781952e-05,4.1127205e-06,7.1525574e-07,1.0000001,-5.6028366e-06,-4.23193e-06,5.5879354e-06,1.0,-1.1026859e-06,4.23193e-06,1.0728836e-06,1.0,593,1.855,1,3,0.453,False,-0.2539202637715605,1.0499977893665218
1.8561002369970083,14:54:46.185352,14:53:30.260908,0,,0.11173999,0.0014624819,0.022955,-0.7337139,-0.6056479,-0.3079847,-0.38207796,-0.0070565045,0.92410314,-0.5618544,0.7957014,-0.22622731,,0.053713042,-0.02780535,0.018094897,0.6720063,-0.01887396,0.7403049,-0.40920794,0.8237274,0.39245635,-0.6172165,-0.5666718,0.5458267,,0.09964408,1.2986217,0.43119684,0.98269564,0.0064785555,-0.18511431,-0.10526882,-0.80276954,-0.5869238,-0.15240656,0.5962542,-0.78819615,,-0.11224061,0.24851051,-0.109792665,0.7668505,0.44843593,0.45917922,-0.6403824,0.4866307,0.59422296,0.04302022,-0.74973047,0.66034347,,-0.081553005,0.3747667,-0.38170055,-0.58490306,0.16915552,-0.79326844,-0.79246134,0.08929799,0.60334975,0.1728972,0.9815357,0.08181854,,1.1353575735041164,0.5190680446752519,0.21917930578000003,0.283920183478046,0.11504793280250085,0.7475588272755447,-0.414730583914935,,-1.3861378781288087,0.028558666168882238,0.18450225199,-0.11847481806875625,0.6432846408956936,-1.3952508605011453,0.875524194479737,,-0.11663162726452107,-0.13014047567495718,0.09162943763999999,-0.11611542257629885,,1.4781952e-05,4.1127205e-06,7.1525574e-07,1.0000001,-5.6028366e-06,-4.23193e-06,5.5879354e-06,1.0,-1.1026859e-06,4.23193e-06,1.0728836e-06,1.0,602,1.883,1,3,0.481,False,-0.25439688551972894,1.0499012289649627
1.8965410829987377,14:54:46.215740,14:53:30.260908,0,,0.11181201,0.0013997033,0.023099124,-0.7318004,-0.61153185,-0.30082726,-0.37730414,-0.0040537417,0.9260806,-0.56754714,0.79120946,-0.22776699,,0.053714275,-0.027811281,0.01809454,0.6720152,-0.018920004,0.74029565,-0.40912217,0.8237775,0.3924408,-0.61726373,-0.5665976,0.54585034,,0.09964408,1.2986217,0.43119684,0.98269564,0.0064785555,-0.18511431,-0.10526882,-0.80276954,-0.5869238,-0.15240656,0.5962542,-0.78819615,,-0.11234455,0.24854861,-0.10992547,0.76660824,0.45536068,0.45272335,-0.6401117,0.48629865,0.5947862,0.050683513,-0.7457616,0.66428226,,-0.08155455,0.37476254,-0.3817047,-0.58489805,0.16919172,-0.7932644,-0.79244393,0.0893908,0.60335886,0.17299385,0.981521,0.08179044,,1.1351876733808834,0.5191529947368685,0.21904449162000003,0.2832911136475924,0.12256294028960008,0.7420025937532255,-0.41620068051014336,,-1.3861378781288087,0.028520052504511114,0.18450095570000002,-0.11847481806875625,0.6434212773954591,-1.395280599664701,0.8753608504136026,,-0.11663162726452107,-0.13014047567495718,0.09162943763999999,-0.11611542257629885,,1.4781952e-05,4.1127205e-06,7.1525574e-07,1.0000001,-5.6028366e-06,-4.23193e-06,5.5879354e-06,1.0,-1.1026859e-06,4.23193e-06,1.0728836e-06,1.0,611,1.911,1,3,0.509,False,-0.25481392954937654,1.0500943497680806
1.9269254009705037,14:54:46.251789,14:53:30.260908,0,,0.11187513,0.0013304949,0.023225635,-0.73144966,-0.61296666,-0.29875308,-0.37584946,-0.0031522214,0.9266754,-0.56896275,0.7901025,-0.22807747,,0.05371954,-0.027824558,0.018091142,0.6722829,-0.01895754,0.7400516,-0.4088822,0.82384765,0.39254367,-0.61713135,-0.5664943,0.5461072,,0.09964408,1.2986217,0.43119684,0.98269564,0.0064785555,-0.18511431,-0.10526882,-0.80276954,-0.5869238,-0.15240656,0.5962542,-0.78819615,,-0.112437524,0.24857092,-0.110050544,0.7667043,0.45707306,0.45083112,-0.6398319,0.4863444,0.5950498,0.052722026,-0.7446834,0.66533226,,-0.081560045,0.37475103,-0.38171196,-0.58516735,0.16921604,-0.7930606,-0.7922134,0.08951785,0.6036427,0.17313911,0.9815052,0.08167229,,1.1349405459289081,0.5193923994559694,0.21890967746000004,0.28350080359107693,0.1243392147865508,0.7406358397453126,-0.41636402457627775,,-1.3861533235945573,0.02842737971002042,0.18450095570000002,-0.11889419795572531,0.6436945503949899,-1.3955851142122349,0.8751975063474682,,-0.11663162726452107,-0.13014047567495718,0.09162943763999999,-0.11611542257629885,,1.4781952e-05,4.1127205e-06,7.1525574e-07,1.0000001,-5.6028366e-06,-4.23193e-06,5.5879354e-06,1.0,-1.1026859e-06,4.23193e-06,1.0728836e-06,1.0,624,1.952,1,3,0.55,False,-0.2555288621716292,1.049418426957168
1.9629694309551269,14:54:46.282953,14:53:30.260908,0,,0.11193684,0.0012989789,0.023310691,-0.7332692,-0.6127283,-0.29475477,-0.37221593,-0.0010457635,0.9281455,-0.56900924,0.79029286,-0.22730047,,0.05372573,-0.027844407,0.018083036,0.67226994,-0.018840328,0.7400664,-0.40887958,0.8239184,0.3923977,-0.617147,-0.5663952,0.54619205,,0.09964408,1.2986217,0.43119684,0.98269564,0.0064785555,-0.18511431,-0.10526882,-0.80276954,-0.5869238,-0.15240656,0.5962542,-0.78819615,,-0.1125169,0.24859764,-0.11012141,0.76895356,0.4570766,0.44698027,-0.6369743,0.488124,0.59665626,0.054535843,-0.7435159,0.66649073,,-0.08156612,0.3747317,-0.38172126,-0.5851518,0.16908889,-0.79309916,-0.79222274,0.08962858,0.603614,0.17314877,0.981517,0.08150974,,1.1347552003399268,0.5196086359764477,0.21883449264000002,0.2868558426868293,0.12625212578326697,0.739402704054125,-0.41718074490694923,,-1.3861378781288087,0.028296093251158602,0.18450095570000002,-0.11889419795572531,0.6438311868947554,-1.3957782108560717,0.8753608504136026,,-0.11663162726452107,-0.13014047567495718,0.09162943763999999,-0.11611542257629885,,1.4781952e-05,4.1127205e-06,7.1525574e-07,1.0000001,-5.6028366e-06,-4.23193e-06,5.5879354e-06,1.0,-1.1026859e-06,4.23193e-06,1.0728836e-06,1.0,633,1.981,1,3,0.579,False,-0.254694774112334,1.0499977893665218
1.9940897829364985,14:54:46.315667,14:53:30.260908,0,,0.111992896,0.0012789667,0.02338317,-0.73216695,-0.6131793,-0.2965516,-0.37104812,-0.0060451925,0.92859393,-0.5711872,0.78992057,-0.22309303,,0.05373866,-0.027870066,0.018074512,0.6722458,-0.018736392,0.74009085,-0.40903056,0.8238467,0.39239103,-0.6170733,-0.56650305,0.5461637,,0.09964408,1.2986217,0.43119684,0.98269564,0.0064785555,-0.18511431,-0.10526882,-0.80276954,-0.5869238,-0.15240656,0.5962542,-0.78819615,,-0.11258705,0.24862577,-0.11017693,0.7684153,0.45694214,0.44804224,-0.6373942,0.48394814,0.5996022,0.057154324,-0.74632305,0.6631254,,-0.081579134,0.3747077,-0.3817337,-0.58515066,0.16899993,-0.79311895,-0.79225975,0.08949116,0.6035858,0.1729831,0.9815449,0.08152603,,1.134585300216694,0.5197939815654291,0.21877615959000002,0.28622677285637577,0.12857494627927946,0.7437161839419686,-0.4160373364440092,,-1.386145600861683,0.028126193127925664,0.18450095570000002,-0.11889419795572531,0.6438311868947554,-1.3957782108560717,0.8753608504136026,,-0.11663162726452107,-0.13014047567495718,0.09162943763999999,-0.11611542257629885,,1.4781952e-05,4.1127205e-06,7.1525574e-07,1.0000001,-5.6028366e-06,-4.23193e-06,5.5879354e-06,1.0,-1.1026859e-06,4.23193e-06,1.0728836e-06,1.0,646,2.022,0,3,0.585,False,-0.25600548391979716,1.0500943497680806
2.0268409189302474,14:54:46.354324,14:53:30.260908,0,,0.11214203,0.0012739077,0.023560375,-0.7244954,-0.6261139,-0.28824985,-0.36308214,-0.008809149,0.9317155,-0.5858992,0.77968186,-0.2209486,,0.05375486,-0.027907856,0.018060088,0.6722024,-0.018598974,0.7401338,-0.40925103,0.8237382,0.39238882,-0.61697435,-0.56666523,0.54610705,,0.09964408,1.2986217,0.43119684,0.98269564,0.0064785555,-0.18511431,-0.10526882,-0.80276954,-0.5869238,-0.15240656,0.5962542,-0.78819615,,-0.11276472,0.24872917,-0.11028375,0.7645689,0.47102925,0.43996114,-0.6401709,0.47559345,0.6033176,0.074937634,-0.7429282,0.66516316,,-0.08159518,0.37467122,-0.3817513,-0.58513945,0.1688847,-0.7931518,-0.79231995,0.08928574,0.6035372,0.17274535,0.9815834,0.0815661,,1.1343536182304672,0.5199329907571651,0.21867375268000003,0.27993607455184,0.14565450874995953,0.7395087160566428,-0.41620068051014336,,-1.3861378781288087,0.02787906567595048,0.18450095570000002,-0.11889419795572531,0.6438311868947554,-1.3957782108560717,0.8753608504136026,,-0.11663162726452107,-0.13014047567495718,0.09162943763999999,-0.11611542257629885,,1.4781952e-05,4.1127205e-06,7.1525574e-07,1.0000001,-5.6028366e-06,-4.23193e-06,5.5879354e-06,1.0,-1.1026859e-06,4.23193e-06,1.0728836e-06,1.0,659,2.064,0,3,0.585,False,-0.25558843989015,1.0498529487641832
2.065514262067154,14:54:46.397138,14:53:30.468103,0,,0.112342745,0.0012629554,0.023824632,-0.710077,-0.6481386,-0.27514958,-0.35079187,-0.013191491,0.93636054,-0.6105209,0.7614081,-0.21799481,,0.053769205,-0.027938507,0.018048406,0.6721838,-0.018546745,0.740152,-0.40931654,0.8237148,0.39236963,-0.6169512,-0.566701,0.54609615,,0.09964408,1.2986217,0.43119684,0.98269564,0.0064785555,-0.18511431,-0.10526882,-0.80276954,-0.5869238,-0.15240656,0.5962542,-0.78819615,,-0.113008976,0.24888079,-0.11044982,0.75645715,0.4952075,0.42724946,-0.64565367,0.46110916,0.6086951,0.10442172,-0.7363069,0.66854185,,-0.081609406,0.37464157,-0.38176543,-0.5851294,0.16883774,-0.7931692,-0.7923421,0.08923887,0.603515,0.17267764,0.98159575,0.08156097,,1.1340910453127435,0.5199484362229135,0.21852597562000003,0.2675643678862531,0.17407490070117113,0.7316077164940723,-0.4160373364440092,,-1.3861378781288087,0.02767055188834642,0.18450225199,-0.11889419795572531,0.6439678233945209,-1.3958079500196274,0.8751975063474682,,-0.11663162726452107,-0.13014047567495718,0.09162943763999999,-0.11611542257629885,,1.4781952e-05,4.1127205e-06,7.1525574e-07,1.0000001,-5.6028366e-06,-4.23193e-06,5.5879354e-06,1.0,-1.1026859e-06,4.23193e-06,1.0728836e-06,1.0,668,2.092,0,3,0.585,False,-0.25493308498641865,1.0496115477602863
2.1083206478506327,14:54:46.424445,14:53:30.468103,0,,0.11246413,0.0011819825,0.02406481,-0.70272213,-0.6585413,-0.26926768,-0.3408538,-0.020585954,0.93989086,-0.62450004,0.75226295,-0.21000016,,0.053772856,-0.027943425,0.0180493,0.6721856,-0.018517658,0.7401511,-0.4093434,0.8237047,0.39236283,-0.6169315,-0.5667166,0.54610234,,0.09964408,1.2986217,0.43119684,0.98269564,0.0064785555,-0.18511431,-0.10526882,-0.80276954,-0.5869238,-0.15240656,0.5962542,-0.78819615,,-0.113180526,0.24896297,-0.1106567,0.7530422,0.5060364,0.4205408,-0.6464203,0.4497446,0.6163364,0.12275271,-0.7359735,0.6657889,,-0.08161348,0.37463883,-0.38176918,-0.5851363,0.16881107,-0.7931698,-0.79234415,0.08921797,0.6035155,0.17264509,0.98160225,0.08155179,,1.1338825315251395,0.5199329907571651,0.21833282841,0.26295118912959353,0.19211091867020927,0.7330729437539759,-0.41701740084081484,,-1.3861533235945573,0.02763966095684952,0.18450095570000002,-0.11889419795572531,0.6439678233945209,-1.3958079500196274,0.8751975063474682,,-0.11663162726452107,-0.13014047567495718,0.09162943763999999,-0.11611542257629885,,1.4781952e-05,4.1127205e-06,7.1525574e-07,1.0000001,-5.6028366e-06,-4.23193e-06,5.5879354e-06,1.0,-1.1026859e-06,4.23193e-06,1.0728836e-06,1.0,681,2.133,0,3,0.585,False,-0.25558843989015,1.049418426957168
2.135558154899627,14:54:46.456470,14:53:30.468103,0,,0.11252485,0.0010247678,0.024312675,-0.70104104,-0.6620099,-0.2651121,-0.3357412,-0.021585166,0.94170696,-0.62914175,0.74918413,-0.20713192,,0.05377437,-0.027946167,0.018050253,0.67218643,-0.0185031,0.7401507,-0.40935677,0.8236997,0.39235938,-0.61692166,-0.56672436,0.5461053,,0.09964408,1.2986217,0.43119684,0.98269564,0.0064785555,-0.18511431,-0.10526882,-0.80276954,-0.5869238,-0.15240656,0.5962542,-0.78819615,,-0.11330402,0.24899007,-0.11092848,0.75288314,0.5098403,0.41620886,-0.64523613,0.4470962,0.61949605,0.12975863,-0.7349611,0.6655786,,-0.08161531,0.37463766,-0.38177162,-0.5851397,0.16879773,-0.79317015,-0.7923451,0.08920752,0.6035157,0.17262882,0.98160547,0.0815472,,1.1336662950046612,0.5200256635516558,0.2180619038,0.26316087907307806,0.19907938015824675,0.7326180700344544,-0.41701740084081484,,-1.3861610463274314,0.02762421549110107,0.18449965941000002,-0.11889419795572531,0.6439678233945209,-1.3958079500196274,0.8751975063474682,,-0.11663162726452107,-0.13014047567495718,0.09162943763999999,-0.11611542257629885,,1.4781952e-05,4.1127205e-06,7.1525574e-07,1.0000001,-5.6028366e-06,-4.23193e-06,5.5879354e-06,1.0,-1.1026859e-06,4.23193e-06,1.0728836e-06,1.0,690,2.161,0,3,0.585,False,-0.2551118181419816,1.0497563883626244
2.1676576118916273,14:54:46.490048,14:53:30.468103,0,,0.1126131,0.00081077963,0.024680108,-0.70268387,-0.66357195,-0.25672534,-0.32889524,-0.017019987,0.94421303,-0.6309226,0.74791884,-0.20628598,,0.053771492,-0.027948909,0.018050075,0.67217845,-0.01850985,0.74015784,-0.40936434,0.8236931,0.3923654,-0.61692536,-0.56673384,0.5460914,,0.09964408,1.2986217,0.43119684,0.98269564,0.0064785555,-0.18511431,-0.10526882,-0.80276954,-0.5869238,-0.15240656,0.5962542,-0.78819615,,-0.11348291,0.24904533,-0.1113203,0.75568026,0.5121745,0.40819687,-0.64090335,0.44994155,0.6219289,0.13487138,-0.7315941,0.66826624,,-0.08161264,0.37463605,-0.3817741,-0.5851317,0.1688055,-0.7931744,-0.7923521,0.089196675,0.6035082,0.172624,0.9816052,0.081561595,,1.1333805538883148,0.5204349683939897,0.21766394277000004,0.26798374777322215,0.20427156714933348,0.7287109046545527,-0.41636402457627775,,-1.386145600861683,0.027616492758226845,0.18449706683000003,-0.11889419795572531,0.6439678233945209,-1.3958079500196274,0.8751975063474682,,-0.11663162726452107,-0.13014047567495718,0.09162943763999999,-0.11611542257629885,,1.4781952e-05,4.1127205e-06,7.1525574e-07,1.0000001,-5.6028366e-06,-4.23193e-06,5.5879354e-06,1.0,-1.1026859e-06,4.23193e-06,1.0728836e-06,1.0,703,2.202,0,3,0.585,False,-0.25636295023092304,1.049514987358727
2.201124358922243,14:54:46.537077,14:53:30.613511,0,,0.112805426,0.0006912723,0.025121689,-0.70229703,-0.66672456,-0.2495144,-0.31803018,-0.019733578,0.94787526,-0.6368954,0.74504286,-0.19817969,,0.053775277,-0.027957149,0.018047094,0.6721697,-0.018539026,0.74016505,-0.40941244,0.82363766,0.3924315,-0.61690295,-0.5668134,0.5460341,,0.09964408,1.2986217,0.43119684,0.98269564,0.0064785555,-0.18511431,-0.10526882,-0.80276954,-0.5869238,-0.15240656,0.5962542,-0.78819615,,-0.113764435,0.24921986,-0.11168982,0.757758,0.5154143,0.40018857,-0.63597786,0.44605988,0.6297323,0.14606498,-0.7316957,0.66579753,,-0.08161641,0.37462822,-0.381778,-0.5851301,0.16884382,-0.7931674,-0.79236466,0.08910293,0.6035055,0.17257172,0.9816071,0.08164907,,1.133040753641849,0.5213616963388966,0.21729190754000002,0.2721775466429126,0.21506585063080325,0.7307721627012302,-0.41652736864241213,,-1.386145600861683,0.027562433628107275,0.18449706683000003,-0.11889419795572531,0.6439678233945209,-1.3957262712794871,0.8750341622813338,,-0.11663162726452107,-0.13014047567495718,0.09162943763999999,-0.11611542257629885,,1.4781952e-05,4.1127205e-06,7.1525574e-07,1.0000001,-5.6028366e-06,-4.23193e-06,5.5879354e-06,1.0,-1.1026859e-06,4.23193e-06,1.0728836e-06,1.0,716,2.243,0,3,0.585,False,-0.25600548391979716,1.0495632675595068
2.2482360750436783,14:54:46.577900,14:53:30.613511,0,,0.11307742,0.00061874837,0.025627583,-0.70364344,-0.6679507,-0.24233824,-0.30139837,-0.028281182,0.9530788,-0.64346313,0.74366796,-0.18141949,,0.053782392,-0.027970962,0.018045366,0.67217654,-0.018542603,0.7401587,-0.40937412,0.8236676,0.3924086,-0.6169208,-0.5667697,0.54605913,,0.09964408,1.2986217,0.43119684,0.98269564,0.0064785555,-0.18511431,-0.10526882,-0.80276954,-0.5869238,-0.15240656,0.5962542,-0.78819615,,-0.11412911,0.24947031,-0.11206327,0.7623719,0.5157597,0.3908721,-0.62684536,0.4384716,0.64405555,0.16079162,-0.7360262,0.65758,,-0.08162405,0.37461752,-0.38178644,-0.5851313,0.16884203,-0.79316694,-0.7923547,0.0891558,0.60351074,0.17261341,0.98160255,0.081614934,,1.1326546169981377,0.5226745609275149,0.21691857602000003,0.2809845242692626,0.22954931960593997,0.7401983373459555,-0.41652736864241224,,-1.3861610463274314,0.02746976083361658,0.18449577054000002,-0.11889419795572531,0.6441044598942863,-1.3957560104430429,0.8748708182151996,,-0.11663162726452107,-0.13014047567495718,0.09162943763999999,-0.11611542257629885,,1.4781952e-05,4.1127205e-06,7.1525574e-07,1.0000001,-5.6028366e-06,-4.23193e-06,5.5879354e-06,1.0,-1.1026859e-06,4.23193e-06,1.0728836e-06,1.0,725,2.272,0,3,0.585,False,-0.25576717304571295,1.0498529487641832
2.2890867120586336,14:54:46.605874,14:53:30.613511,0,,0.11324601,0.0006046146,0.025966406,-0.7086481,-0.66475916,-0.23645942,-0.29052278,-0.030488014,0.9563823,-0.6429729,0.7464353,-0.1715225,,0.053779095,-0.028012611,0.018047392,0.6721674,-0.01861316,0.7401651,-0.4093589,0.8236486,0.39246437,-0.61694086,-0.5667951,0.5460102,,0.09962285,1.2986239,0.43119222,0.98269457,0.0064704493,-0.18512024,-0.10527874,-0.8027696,-0.58692193,-0.15240656,0.5962542,-0.78819615,,-0.11433402,0.24967076,-0.112301625,0.7685576,0.51186967,0.38380805,-0.61791575,0.43839228,0.6526809,0.16582903,-0.7387839,0.6532221,,-0.08160288,0.3745976,-0.38182652,-0.58512324,0.16892102,-0.793156,-0.7923547,0.08913061,0.6035145,0.17264077,0.9815913,0.08169298,,1.1322916485530492,0.5238561390572711,0.21665672544000003,0.2916787113869734,0.2344682335974958,0.745988741629752,-0.4171807449069491,,-1.3861764917931798,0.027415701703497008,0.18449447425,-0.11889419795572531,0.6442410963940517,-1.395704070866458,0.8751975063474682,,-0.11663162726452107,-0.13014047567495718,0.09162943763999999,-0.11611542257629885,,-5.610287e-06,-5.364418e-07,6.914139e-06,1.0,-1.3560057e-05,-1.0251999e-05,1.35451555e-05,1.0,-2.6524067e-06,1.0251999e-05,2.592802e-06,1.0,738,2.313,0,3,0.585,False,-0.2555288621716292,1.049514987358727
2.317052667029202,14:54:46.641302,14:53:30.613511,0,,0.11350002,0.0005295202,0.026319236,-0.71487325,-0.65749145,-0.23803607,-0.28315824,-0.03906107,0.9582774,-0.6393571,0.75244874,-0.1582506,,0.05377964,-0.028016336,0.018045247,0.67216027,-0.01866579,0.7401703,-0.4093799,0.8236049,0.39253423,-0.6169348,-0.56685686,0.54595304,,0.09962285,1.2986239,0.43119222,0.98269457,0.0064704493,-0.18512024,-0.10527874,-0.8027696,-0.58692193,-0.15240656,0.5962542,-0.78819615,,-0.11465425,0.24982555,-0.11256266,0.77493185,0.50261015,0.38322794,-0.6098311,0.43524295,0.6623213,0.16609216,-0.74695826,0.64379096,,-0.08160332,0.3745936,-0.381828,-0.58511865,0.16898023,-0.7931468,-0.7923627,0.089060016,0.60351443,0.17261969,0.98158747,0.08178295,,1.1315734343957462,0.5253080128376254,0.21636894906,0.30258258844816865,0.23419496059796494,0.7595252120800564,-0.41701740084081484,,-1.3861687690603057,0.027392533504874337,0.18449447425,-0.11889419795572531,0.6442410963940517,-1.3956223921263176,0.8753608504136026,,-0.11663162726452107,-0.13014047567495718,0.09162943763999999,-0.11611542257629885,,-5.610287e-06,-5.364418e-07,6.914139e-06,1.0,-1.3560057e-05,-1.0251999e-05,1.35451555e-05,1.0,-2.6524067e-06,1.0251999e-05,2.592802e-06,1.0,751,2.355,0,3,0.585,False,-0.2551713958605024,1.0499012289649627
2.3524699439294636,14:54:46.679996,14:53:30.613511,0,,0.11385504,0.00044759363,0.026655257,-0.72240454,-0.6511312,-0.23272248,-0.26660547,-0.04825601,0.96259695,-0.6380071,0.7574294,-0.13873494,,0.05378242,-0.028015353,0.018045902,0.672167,-0.018715039,0.74016285,-0.40937918,0.8235761,0.39259535,-0.6169278,-0.5668971,0.54591906,,0.09962285,1.2986239,0.43119222,0.98269457,0.0064704493,-0.18512024,-0.10527874,-0.8027696,-0.58692193,-0.15240656,0.5962542,-0.78819615,,-0.11507091,0.24996383,-0.112792715,0.7841614,0.49433997,0.3751252,-0.5958621,0.43097663,0.67764854,0.17331856,-0.7549087,0.6325137,,-0.0816061,0.37459448,-0.38182724,-0.5851264,0.16903347,-0.79312974,-0.7923575,0.08901522,0.60352784,0.17261702,0.9815824,0.081849776,,1.1305231427248517,0.5266672138234889,0.21611746880000002,0.3195674738704151,0.2415733315852987,0.774908475197277,-0.4160373364440092,,-1.3861842145260541,0.027392533504874337,0.18449577054000002,-0.11889419795572531,0.6442410963940517,-1.395540713386177,0.8751975063474684,,-0.11663162726452107,-0.13014047567495718,0.09162943763999999,-0.11611542257629885,,-5.610287e-06,-5.364418e-07,6.914139e-06,1.0,-1.3560057e-05,-1.0251999e-05,1.35451555e-05,1.0,-2.6524067e-06,1.0251999e-05,2.592802e-06,1.0,760,2.382,0,3,0.585,False,-0.25535012901606535,1.0496115477602863
2.391171566909179,14:54:46.717365,14:53:30.794908,0,,0.114188805,0.00040463358,0.026906073,-0.72504634,-0.64924306,-0.22976325,-0.25680596,-0.054687798,0.96491444,-0.63902926,0.7586123,-0.12707841,,0.053782955,-0.028016545,0.018045545,0.6721658,-0.018710598,0.7401641,-0.4093861,0.82357275,0.39259517,-0.6169245,-0.56690204,0.5459176,,0.09962285,1.2986239,0.43119222,0.98269457,0.0064704493,-0.18512024,-0.10527874,-0.8027696,-0.58692193,-0.15240656,0.5962542,-0.78819615,,-0.11544668,0.2500809,-0.1129385,0.78817683,0.49146292,0.37046117,-0.5887222,0.42660287,0.6865975,0.17939742,-0.759259,0.62557364,,-0.081606634,0.37459338,-0.3818278,-0.5851262,0.16902968,-0.7931307,-0.7923593,0.08900887,0.6035264,0.17260955,0.9815836,0.08185082,,1.1294187919238377,0.5279028510833648,0.21595024739000002,0.3279550716097961,0.24703879157591632,0.784092108652894,-0.4168540567746807,,-1.3861842145260541,0.027384810772000112,0.18449577054000002,-0.11889419795572531,0.6442410963940517,-1.395540713386177,0.8751975063474684,,-0.11663162726452107,-0.13014047567495718,0.09162943763999999,-0.11611542257629885,,-5.610287e-06,-5.364418e-07,6.914139e-06,1.0,-1.3560057e-05,-1.0251999e-05,1.35451555e-05,1.0,-2.6524067e-06,1.0251999e-05,2.592802e-06,1.0,773,2.423,0,3,0.585,False,-0.2551713958605024,1.0495632675595068
2.4285243949852884,14:54:46.753959,14:53:30.794908,0,,0.114685334,0.00039765984,0.02723825,-0.72530186,-0.6502947,-0.22595118,-0.2509201,-0.055919945,0.9663912,-0.64107424,0.75762105,-0.12261325,,0.05378402,-0.028016321,0.01804632,0.6721692,-0.01870498,0.7401611,-0.40938574,0.8235744,0.39259204,-0.6169211,-0.5668999,0.5459237,,0.09962285,1.2986239,0.43119222,0.98269457,0.0064704493,-0.18512024,-0.10527874,-0.8027696,-0.58692193,-0.15240656,0.5962542,-0.78819615,,-0.115991116,0.25027496,-0.11308966,0.7895444,0.4925074,0.36613676,-0.58532095,0.42503005,0.69047,0.18444245,-0.7594642,0.623855,,-0.0816078,0.37459403,-0.38182798,-0.5851301,0.16902392,-0.793129,-0.7923567,0.08901112,0.60352945,0.17260821,0.9815844,0.08184415,,1.127681177027137,0.529972543493657,0.21575969276,0.3321488704794866,0.250044794570756,0.7864599604398659,-0.4160373364440092,,-1.3861919372589284,0.027384810772000112,0.18449577054000002,-0.11889419795572531,0.6442410963940517,-1.395540713386177,0.8751975063474684,,-0.11663162726452107,-0.13014047567495718,0.09162943763999999,-0.11611542257629885,,-5.610287e-06,-5.364418e-07,6.914139e-06,1.0,-1.3560057e-05,-1.0251999e-05,1.35451555e-05,1.0,-2.6524067e-06,1.0251999e-05,2.592802e-06,1.0,782,2.452,0,3,0.585,False,-0.25546928445310746,1.0499012289649627
2.4651448640506715,14:54:46.786545,14:53:30.794908,0,,0.11505433,0.00044652075,0.027469873,-0.7258221,-0.6499892,-0.22515814,-0.24980772,-0.0559085,0.96668005,-0.64091974,0.757884,-0.12179282,,0.05378561,-0.028014772,0.018048406,0.67217726,-0.018698245,0.740154,-0.4093781,0.823581,0.39258608,-0.6169174,-0.5668904,0.5459377,,0.09962285,1.2986239,0.43119222,0.98269457,0.0064704493,-0.18512024,-0.10527874,-0.8027696,-0.58692193,-0.15240656,0.5962542,-0.78819615,,-0.11638608,0.25045258,-0.113157906,0.7901671,0.492164,0.36525407,-0.5843431,0.42519784,0.6911946,0.18487585,-0.75959295,0.62356997,,-0.081609614,0.37459648,-0.3818278,-0.5851381,0.16901614,-0.7931248,-0.79234976,0.089021966,0.603537,0.17261302,0.9815847,0.08182976,,1.1264300943015129,0.5317719402533513,0.21565728585000002,0.33403607997084733,0.24854179307333618,0.7872771636798237,-0.4168540567746807,,-1.3862073827246768,0.027392533504874337,0.18449577054000002,-0.11889419795572531,0.6442410963940517,-1.395540713386177,0.8751975063474684,,-0.11663162726452107,-0.13014047567495718,0.09162943763999999,-0.11611542257629885,,-5.610287e-06,-5.364418e-07,6.914139e-06,1.0,-1.3560057e-05,-1.0251999e-05,1.35451555e-05,1.0,-2.6524067e-06,1.0251999e-05,2.592802e-06,1.0,795,2.493,0,3,0.585,False,-0.25576717304571295,1.0496115477602863
2.497730400878936,14:54:46.821551,14:53:30.794908,0,,0.11546544,0.00053952634,0.02776435,-0.72536117,-0.6505251,-0.2250962,-0.24931487,-0.05652851,0.96677125,-0.64163315,0.7573781,-0.12118217,,0.053784557,-0.028017513,0.018045902,0.67216796,-0.01870051,0.7401624,-0.40939263,0.8235711,0.39259192,-0.6169179,-0.56690484,0.5459222,,0.09962285,1.2986239,0.43119222,0.98269457,0.0064704493,-0.18512024,-0.10527874,-0.8027696,-0.58692193,-0.15240656,0.5962542,-0.78819615,,-0.11682765,0.25070325,-0.11323888,0.78990746,0.49269733,0.36509666,-0.5843942,0.4244021,0.69164026,0.18582152,-0.7596922,0.6231679,,-0.08160834,0.3745929,-0.38182855,-0.58512986,0.16902013,-0.79313004,-0.7923585,0.08900477,0.6035281,0.17260075,0.9815856,0.081845194,,1.125171288843014,0.5339806418553795,0.21554191604000003,0.33445545985781633,0.24703879157591632,0.7879310094395005,-0.416527368642412,,-1.3861919372589284,0.027377088039125887,0.18449577054000002,-0.11889419795572531,0.6442410963940517,-1.395540713386177,0.8751975063474684,,-0.11663162726452107,-0.13014047567495718,0.09162943763999999,-0.11611542257629885,,-5.610287e-06,-5.364418e-07,6.914139e-06,1.0,-1.3560057e-05,-1.0251999e-05,1.35451555e-05,1.0,-2.6524067e-06,1.0251999e-05,2.592802e-06,1.0,808,2.535,0,3,0.585,False,-0.2561842170753601,1.0499977893665218
2.5327397498767823,14:54:46.863871,14:53:30.794908,0,,0.11598012,0.00070974976,0.028266847,-0.72546464,-0.6503394,-0.22529906,-0.24867433,-0.057557195,0.96687555,-0.64176476,0.75746,-0.1199671,,0.053784557,-0.028017513,0.018045902,0.67216796,-0.01870051,0.7401624,-0.40939263,0.8235711,0.39259192,-0.6169179,-0.56690484,0.5459222,,0.09962285,1.2986239,0.43119222,0.98269457,0.0064704493,-0.18512024,-0.10527874,-0.8027696,-0.58692193,-0.15240656,0.5962542,-0.78819615,,-0.11739738,0.25114155,-0.11341109,0.7901139,0.4923698,0.36509177,-0.58396775,0.42363778,0.6924686,0.18628393,-0.76033086,0.62225014,,-0.08160834,0.3745929,-0.38182855,-0.58512986,0.16902013,-0.79313004,-0.7923585,0.08900477,0.6035281,0.17260075,0.9815856,0.081845194,,1.1239202061173899,0.537332307922793,0.21533062077,0.335503909575239,0.24403278858107663,0.7889936647384321,-0.4171807449069491,,-1.3861919372589284,0.027377088039125887,0.18449577054000002,-0.11889419795572531,0.6442410963940517,-1.395540713386177,0.8751975063474684,,-0.11663162726452107,-0.13014047567495718,0.09162943763999999,-0.11611542257629885,,-5.610287e-06,-5.364418e-07,6.914139e-06,1.0,-1.3560057e-05,-1.0251999e-05,1.35451555e-05,1.0,-2.6524067e-06,1.0251999e-05,2.592802e-06,1.0,817,2.563,0,3,0.585,False,-0.25672041654204936,1.0497563883626244
2.5750567119102925,14:54:46.890596,14:53:30.965130,0,,0.11612565,0.00077252835,0.028477073,-0.72494036,-0.65087056,-0.22545275,-0.2488485,-0.057725877,0.9668206,-0.64228946,0.75699085,-0.120120466,,0.05378624,-0.028016947,0.018047392,0.67192245,-0.018553346,0.740389,-0.40947396,0.8236939,0.3922493,-0.61713135,-0.5667313,0.5458612,,0.09962285,1.2986239,0.43119222,0.98269457,0.0064704493,-0.18512024,-0.10527874,-0.8027696,-0.58692193,-0.15240656,0.5962542,-0.78819615,,-0.11756873,0.2513188,-0.1135035,0.78967345,0.49294987,0.36526197,-0.58443093,0.42322123,0.6923325,0.18669859,-0.760187,0.6223017,,-0.0816102,0.37459424,-0.38182876,-0.58485806,0.16885453,-0.7933657,-0.79255253,0.08920308,0.60324395,0.17263114,0.9815961,0.08165495,,1.1236962468640372,0.5385138860525492,0.21522951015000003,0.3348748397447854,0.243212969582484,0.7886003485387834,-0.41767077710535183,,-1.3861919372589284,0.027377088039125887,0.18449577054000002,-0.11847481806875625,0.6442410963940517,-1.395540713386177,0.8751975063474684,,-0.11663162726452107,-0.13014047567495718,0.09162943763999999,-0.11611542257629885,,-5.610287e-06,-5.364418e-07,6.914139e-06,1.0,-1.3560057e-05,-1.0251999e-05,1.35451555e-05,1.0,-2.6524067e-06,1.0251999e-05,2.592802e-06,1.0,830,2.604,0,3,0.585,False,-0.25540970673458663,1.049804668563404
2.6017358088865876,14:54:46.930912,14:53:30.965130,0,,0.11626712,0.000848867,0.02880302,-0.7228696,-0.6524051,-0.22765595,-0.25061113,-0.05949554,0.96625787,-0.6439359,0.75553155,-0.12049261,,0.053788897,-0.028015174,0.018050253,0.6719339,-0.018480524,0.74038047,-0.4094661,0.82373416,0.3921729,-0.6171242,-0.56667507,0.54592764,,0.09962285,1.2986239,0.43119222,0.98269457,0.0064704493,-0.18512024,-0.10527874,-0.8027696,-0.58692193,-0.15240656,0.5962542,-0.78819615,,-0.117754966,0.2515777,-0.113677785,0.78772,0.4944798,0.36740562,-0.586849,0.42094067,0.6916771,0.18736438,-0.76045954,0.62176836,,-0.08161318,0.37459734,-0.38182876,-0.58487,0.16877618,-0.79337364,-0.792543,0.08926545,0.6032473,0.17263463,0.9816039,0.081553705,,1.1236653559325405,0.5400584326273942,0.21504932584000003,0.33151980064903297,0.2421198775843605,0.788511546886668,-0.41701740084081473,,-1.3862151054575511,0.027384810772000112,0.18449577054000002,-0.11847481806875625,0.6442410963940517,-1.3956223921263176,0.8753608504136026,,-0.11663162726452107,-0.13014047567495718,0.09162943763999999,-0.11611542257629885,,-5.610287e-06,-5.364418e-07,6.914139e-06,1.0,-1.3560057e-05,-1.0251999e-05,1.35451555e-05,1.0,-2.6524067e-06,1.0251999e-05,2.592802e-06,1.0,839,2.632,0,3,0.585,False,-0.256065061638318,1.05014262996886
2.6420829398557544,14:54:46.963362,14:53:30.965130,0,,0.11629228,0.0007946417,0.029066563,-0.71995693,-0.65602314,-0.22648518,-0.25029343,-0.058944404,0.96637404,-0.6473137,0.75243545,-0.121760935,,0.05378783,-0.028015397,0.018049479,0.67193043,-0.018546611,0.7403819,-0.40946636,0.8237005,0.3922433,-0.6171276,-0.5667218,0.5458752,,0.09962285,1.2986239,0.43119222,0.98269457,0.0064704493,-0.18512024,-0.10527874,-0.8027696,-0.58692193,-0.15240656,0.5962542,-0.78819615,,-0.11783335,0.25169608,-0.11390772,0.78552,0.4986313,0.36650392,-0.58869,0.41950813,0.6909827,0.19079423,-0.7585379,0.62307125,,-0.08161201,0.3745967,-0.38182858,-0.5848661,0.16884677,-0.7933615,-0.79254556,0.08921393,0.6032515,0.17263596,0.98159647,0.08164056,,1.1238043651242764,0.5405990239285899,0.21482506767,0.3281647615532806,0.24485260757966928,0.7857114376317558,-0.4175074330392179,,-1.3862073827246768,0.027384810772000112,0.18449577054000002,-0.11847481806875625,0.6442410963940517,-1.395540713386177,0.8751975063474684,,-0.11663162726452107,-0.13014047567495718,0.09162943763999999,-0.11611542257629885,,-5.610287e-06,-5.364418e-07,6.914139e-06,1.0,-1.3560057e-05,-1.0251999e-05,1.35451555e-05,1.0,-2.6524067e-06,1.0251999e-05,2.592802e-06,1.0,852,2.673,0,3,0.585,False,-0.25731619372725945,1.049708108161845
2.6745049939490855,14:54:47.001404,14:53:30.965130,0,,0.11627138,0.00070554763,0.029202074,-0.7180147,-0.6583668,-0.22584938,-0.25032955,-0.05850622,0.96639127,-0.64945346,0.7504199,-0.12280044,,0.05379141,-0.02801437,0.018052459,0.6715655,-0.018320099,0.7407186,-0.40958792,0.82388616,0.39172614,-0.61744416,-0.5664593,0.5457898,,0.09962285,1.2986239,0.43119222,0.98269457,0.0064704493,-0.18512024,-0.10527874,-0.8027696,-0.58692193,-0.15240656,0.5962542,-0.78819615,,-0.11784849,0.25170884,-0.11407004,0.7840011,0.5013327,0.36607075,-0.5900446,0.41863823,0.6903545,0.1928461,-0.7572368,0.6240215,,-0.08161597,0.37459934,-0.38182908,-0.58446217,0.16859245,-0.79371315,-0.7928338,0.08951353,0.6028282,0.17268035,0.9816129,0.08134853,,1.1238738697201445,0.5405913011957156,0.21466692029000004,0.32585817217495083,0.24676551857638546,0.783906550759584,-0.4175074330392178,,-1.3862151054575511,0.027384810772000112,0.18449577054000002,-0.1178457482383027,0.6442410963940517,-1.395540713386177,0.8751975063474684,,-0.11663162726452107,-0.13014047567495718,0.09162943763999999,-0.11611542257629885,,-5.610287e-06,-5.364418e-07,6.914139e-06,1.0,-1.3560057e-05,-1.0251999e-05,1.35451555e-05,1.0,-2.6524067e-06,1.0251999e-05,2.592802e-06,1.0,861,2.702,0,3,0.585,False,-0.25636295023092304,1.0499977893665218
2.7125933030620217,14:54:47.031804,14:53:31.091670,0,,0.11625291,0.00061846524,0.0293248,-0.7106645,-0.6666728,-0.22472934,-0.25150576,-0.057575792,0.96614176,-0.6570392,0.7431234,-0.12675509,,0.053797606,-0.028013535,0.018056989,0.67057776,-0.017731443,0.7416272,-0.4099189,0.8243709,0.39035755,-0.6182975,-0.56577224,0.5455363,,0.09962285,1.2986239,0.43119222,0.98269457,0.0064704493,-0.18512024,-0.10527874,-0.8027696,-0.58692193,-0.15240656,0.5962542,-0.78819615,,-0.11786346,0.25171533,-0.11422076,0.77802867,0.51085395,0.36564958,-0.59567904,0.41496927,0.68772596,0.19959417,-0.75288033,0.627163,,-0.08162277,0.37460282,-0.38183028,-0.5833698,0.16793086,-0.79465646,-0.7936126,0.09029721,0.6016855,0.17279683,0.9816545,0.08059538,,1.1239047606516412,0.5403596192094889,0.21452951355000002,0.3168415046051163,0.25305079756559573,0.7780462185282836,-0.41783412117148644,,-1.3862073827246768,0.027377088039125887,0.18449577054000002,-0.11616822869042649,0.6442410963940517,-1.395540713386177,0.8751975063474684,,-0.11663162726452107,-0.13014047567495718,0.09162943763999999,-0.11611542257629885,,-5.610287e-06,-5.364418e-07,6.914139e-06,1.0,-1.3560057e-05,-1.0251999e-05,1.35451555e-05,1.0,-2.6524067e-06,1.0251999e-05,2.592802e-06,1.0,874,2.743,0,3,0.585,False,-0.256065061638318,1.0496115477602863
2.7429776389617473,14:54:47.072188,14:53:31.091670,0,,0.11623486,0.0005977154,0.029539078,-0.69366324,-0.6844806,-0.22431593,-0.2544279,-0.05851069,0.9653201,-0.6738677,0.7266792,-0.13356435,,0.053798676,-0.028013296,0.018057823,0.6705811,-0.017725855,0.7416243,-0.4099186,0.8243726,0.39035445,-0.61829406,-0.56577003,0.5455425,,0.09962285,1.2986239,0.43119222,0.98269457,0.0064704493,-0.18512024,-0.10527874,-0.8027696,-0.58692193,-0.15240656,0.5962542,-0.78819615,,-0.11788665,0.25183034,-0.114402175,0.7640606,0.53103423,0.36635238,-0.6084313,0.40429708,0.68290204,0.21452916,-0.7446788,0.63200533,,-0.08162395,0.3746035,-0.38183045,-0.58337367,0.16792509,-0.79465485,-0.79361004,0.09029946,0.60168856,0.1727955,0.9816553,0.080588706,,1.124198224500862,0.5402515009492498,0.21438303278,0.29587251025666383,0.2665778110423743,0.7672608822827596,-0.4173440889730835,,-1.3862151054575511,0.027377088039125887,0.18449577054000002,-0.11616822869042649,0.6442410963940517,-1.395540713386177,0.8751975063474684,,-0.11663162726452107,-0.13014047567495718,0.09162943763999999,-0.11611542257629885,,-5.610287e-06,-5.364418e-07,6.914139e-06,1.0,-1.3560057e-05,-1.0251999e-05,1.35451555e-05,1.0,-2.6524067e-06,1.0251999e-05,2.592802e-06,1.0,887,2.784,0,3,0.585,False,-0.25683957197909146,1.0502391903704191
