AlexandreBanks6/ExpertPlaybackApp/resources/Motions/P_20/PC1/Data_PC1_6.csv
Task Time,PC1 Time,PC2 Time,Gaze Calib,s_T_psm1,Tx,Ty,Tz,R00,R01,R02,R10,R11,R12,R20,R21,R22,s_T_psm3,Tx,Ty,Tz,R00,R01,R02,R10,R11,R12,R20,R21,R22,cart_T_ecm,Tx,Ty,Tz,R00,R01,R02,R10,R11,R12,R20,R21,R22,ecm_T_psm1,Tx,Ty,Tz,R00,R01,R02,R10,R11,R12,R20,R21,R22,ecm_T_psm3,Tx,Ty,Tz,R00,R01,R02,R10,R11,R12,R20,R21,R22,psm1_joints,q1,q2,q3,q4,q5,q6,jaw,psm3_joints,q1,q2,q3,q4,q5,q6,jaw,ecm_joints,q1,q2,q3,q4,ecmi_T_ecm,Tx,Ty,Tz,R00,R01,R02,R10,R11,R12,R20,R21,R22,Sample #,Task Duration (s),Collisions (binary),Collisions (increments),Cumulative Collision Time (s),Clutch Press,MTMR Angle,MTML Angle
""
lci_T_si,,,,,-0.05902216,0.010539636,0.21019456,0.9780104,-0.095470026,0.1854214,0.04162175,-0.7818391,-0.62208945,0.20436059,0.61612755,-0.7606731
rci_T_si,,,,,-0.06840233,0.014540867,0.21914718,0.97457415,-0.112241976,0.19392501,0.038261294,-0.76940894,-0.6376096,0.22077419,0.6288177,-0.7455515
ecm_T_lc,,,,,-4.4061628e-05,-0.00034663224,-0.01840835,-0.99912,0.030754527,0.028518902,-0.031987965,-0.99852574,-0.043852776,0.027128186,-0.04472645,0.9986309
ecm_T_rc,,,,,-0.0043358393,0.01870579,-0.007592615,-0.99555075,-0.052743673,-0.078081585,0.04863213,-0.9973746,0.053654674,-0.08070653,0.04961868,0.9955021
cart_T_ecmi,,,,,0.09962965,1.2986269,0.43119717,0.9826964,0.0064842543,-0.18511015,-0.10526184,-0.8027695,-0.5869251,-0.15240656,0.5962542,-0.78819615
ecmac_T_ecmrep_psm1,,,,,0.044880565,-0.23049864,-0.32052848,0.99797076,0.0626086,0.011601057,-0.061749555,0.99606305,-0.0636032,-0.015537491,0.06275777,0.9979078
ecmac_T_ecmrep_psm3,,,,,0.047327206,-0.4153428,-0.56493527,0.997773,0.014750276,0.065049894,-0.025394045,0.985803,0.16597453,-0.061678212,-0.16725679,0.9839822
""
0,14:50:43.017863,14:49:27.055359,0,,0.119540885,0.0011149049,0.019899607,-0.8327973,-0.5464763,-0.08838615,-0.18135881,0.11848241,0.9762535,-0.5230272,0.8290509,-0.19778016,,0.0584879,-0.019417133,0.0037770271,-0.6997371,-0.52126884,0.4885147,-0.61395717,0.7884175,-0.03813815,-0.36527324,-0.3266139,-0.8717216,,0.09964074,1.298624,0.43118352,0.98269486,0.0064727445,-0.18511857,-0.10527593,-0.8027696,-0.58692247,-0.15240656,0.5962542,-0.78819615,,-0.11935019,0.24631311,-0.10594785,0.8823383,0.4008615,0.24655461,-0.45717996,0.60581243,0.6511358,0.11164943,-0.68724185,0.71779734,,-0.08327911,0.36868817,-0.36564457,0.7081415,0.620604,-0.33672887,-0.6088403,0.29520372,-0.7363208,-0.35756,0.7264334,0.5868947,,1.0972304413040699,0.5271305777959424,0.22233058677000003,0.5202407497851049,0.18063345268991227,0.7048598271998167,-0.4179974652376206,,-1.378847618295541,0.07046993747729866,0.20020162018,1.1702795745871304,-0.372881007859887,-0.42451490286628113,0.8457955744432979,,-0.1166250822798261,-0.13014047567495718,0.09163300952,-0.11611542257629885,,1.3299286e-05,-5.7816505e-06,1.0371208e-05,1.0,-1.1309981e-05,-8.5532665e-06,1.128763e-05,1.0,-2.1755695e-06,8.5532665e-06,2.1755695e-06,1.0,36,0.107,0,0,0.0,False,-0.259580147031059,1.0205468668910522
0.11974581493996084,14:50:43.052740,14:49:27.055359,0,,0.11924999,0.0012656078,0.020371348,-0.81775624,-0.5668267,-0.099910855,-0.197356,0.11308056,0.97378826,-0.5406711,0.8160393,-0.204339,,0.058488466,-0.019417536,0.0037788749,-0.6997359,-0.521265,0.48852065,-0.61395466,0.7884195,-0.03813669,-0.3652798,-0.32661527,-0.8717184,,0.09964074,1.298624,0.43118352,0.98269486,0.0064727445,-0.18511857,-0.10527593,-0.8027696,-0.58692247,-0.15240656,0.5962542,-0.78819615,,-0.11913098,0.24672349,-0.106284596,0.86875194,0.4223392,0.25864977,-0.4807505,0.59373254,0.64526016,0.11894988,-0.684917,0.718846,,-0.083280005,0.36868927,-0.36564595,0.70814157,0.6206005,-0.33673513,-0.60884386,0.2952036,-0.7363179,-0.35755384,0.7264364,0.58689475,,1.099470033837595,0.5278256237546226,0.22203244007000003,0.490674467753787,0.18664545867959165,0.6984055433745034,-0.4181608093037549,,-1.378855341028415,0.07046993747729866,0.20020032389000003,1.1702795745871304,-0.372881007859887,-0.42451490286628113,0.8457955744432979,,-0.1166250822798261,-0.13014047567495718,0.09163300952,-0.11611542257629885,,1.3299286e-05,-5.7816505e-06,1.0371208e-05,1.0,-1.1309981e-05,-8.5532665e-06,1.128763e-05,1.0,-2.1755695e-06,8.5532665e-06,2.1755695e-06,1.0,47,0.141,0,0,0.0,False,-0.2599376133421849,1.0204985866902727
0.15461858990602195,14:50:43.076166,14:49:27.129889,0,,0.119131856,0.0013798848,0.020621598,-0.80906194,-0.5780242,-0.10633294,-0.20598486,0.10943237,0.9724171,-0.55044425,0.8086486,-0.20760182,,0.058485214,-0.019417908,0.003778994,-0.6997661,-0.5213268,0.4884113,-0.6139978,0.78838366,-0.03818357,-0.36514926,-0.32660317,-0.8717776,,0.09964074,1.298624,0.43118352,0.98269486,0.0064727445,-0.18511857,-0.10527593,-0.8027696,-0.58692247,-0.15240656,0.5962542,-0.78819615,,-0.11904559,0.24696803,-0.106434755,0.860902,0.43411154,0.2653203,-0.4936258,0.5864098,0.6422283,0.123212285,-0.6838646,0.71913004,,-0.083276846,0.3686894,-0.36564678,0.7081465,0.62065685,-0.33662084,-0.60876834,0.29519555,-0.7363835,-0.35767254,0.7263915,0.58687794,,1.1005743846386091,0.5283739377886925,0.22190151478000003,0.47431865216199415,0.18992473467396223,0.695241441244946,-0.41750743303921756,,-1.378847618295541,0.07047766021017288,0.20019902760000002,1.1702795745871304,-0.3730176443596524,-0.42448516370272527,0.8459589185094323,,-0.1166250822798261,-0.13014047567495718,0.09163300952,-0.11611542257629885,,1.3299286e-05,-5.7816505e-06,1.0371208e-05,1.0,-1.1309981e-05,-8.5532665e-06,1.128763e-05,1.0,-2.1755695e-06,8.5532665e-06,2.1755695e-06,1.0,51,0.153,0,0,0.0,False,-0.2611887454311268,1.0207399876941698
0.1780286650173366,14:50:43.100628,14:49:27.129889,0,,0.11904186,0.0014970601,0.020877153,-0.8003337,-0.5892208,-0.11083725,-0.21300477,0.106628984,0.97121537,-0.5604418,0.8009051,-0.21084571,,0.05848697,-0.019420873,0.0037798285,-0.69976974,-0.521275,0.48846138,-0.6139932,0.7883834,-0.03826168,-0.3651499,-0.3266865,-0.8717461,,0.09964074,1.298624,0.43118352,0.98269486,0.0064727445,-0.18511857,-0.10527593,-0.8027696,-0.58692247,-0.15240656,0.5962542,-0.78819615,,-0.11898823,0.2472179,-0.106581084,0.85326505,0.446054,0.2701381,-0.50536716,0.57953876,0.6393269,0.12861879,-0.6820342,0.71992123,,-0.083278924,0.36868802,-0.36564934,0.7081505,0.6206199,-0.33668062,-0.6087656,0.2951269,-0.7364133,-0.3576692,0.72645104,0.5868063,,1.1015937853780067,0.528976310952882,0.22177447836000003,0.45901128628762383,0.19429710266645633,0.6912676746259577,-0.41832415336988904,,-1.378855341028415,0.07046221474442442,0.20019773131000002,1.1702795745871304,-0.3730176443596524,-0.4245668424428658,0.8461222625755664,,-0.1166250822798261,-0.13014047567495718,0.09163300952,-0.11611542257629885,,1.3299286e-05,-5.7816505e-06,1.0371208e-05,1.0,-1.1309981e-05,-8.5532665e-06,1.128763e-05,1.0,-2.1755695e-06,8.5532665e-06,2.1755695e-06,1.0,63,0.189,0,0,0.0,False,-0.2607717014014801,1.0204020262887135
0.20250460202805698,14:50:43.131101,14:49:27.129889,0,,0.11891037,0.0017153844,0.021432579,-0.7854169,-0.6088668,-0.11136179,-0.2190328,0.10512462,0.9700379,-0.57891697,0.786276,-0.2159285,,0.058488745,-0.019421931,0.0037802458,-0.6997709,-0.52130693,0.4884255,-0.6139897,0.788389,-0.03820336,-0.36515352,-0.32662198,-0.8717688,,0.09964074,1.298624,0.43118352,0.98269486,0.0064727445,-0.18511857,-0.10527593,-0.8027696,-0.58692247,-0.15240656,0.5962542,-0.78819615,,-0.11893078,0.24773176,-0.10690685,0.8412258,0.46763176,0.27140325,-0.52156657,0.56954294,0.6352867,0.14250444,-0.6759744,0.72301525,,-0.08328081,0.3686875,-0.36565012,0.70815253,0.6206409,-0.3366376,-0.6087661,0.29518276,-0.73639053,-0.35766447,0.7264104,0.5868595,,1.1035553595280598,0.5302737300757517,0.22149059085000003,0.43615508244781065,0.20645775114558051,0.681024766236414,-0.41832415336988926,,-1.3788630637612893,0.0704544920115502,0.20019773131000002,1.1702795745871304,-0.3730176443596524,-0.42448516370272527,0.8462856066417006,,-0.1166250822798261,-0.13014047567495718,0.09163300952,-0.11611542257629885,,1.3299286e-05,-5.7816505e-06,1.0371208e-05,1.0,-1.1309981e-05,-8.5532665e-06,1.128763e-05,1.0,-2.1755695e-06,8.5532665e-06,2.1755695e-06,1.0,74,0.223,0,0,0.0,False,-0.2612483231496481,1.0206917074933903
0.23289456102065742,14:50:43.165563,14:49:27.129889,0,,0.1187797,0.0018236414,0.021847725,-0.7796359,-0.61650753,-0.10993767,-0.21964598,0.10480267,0.96993405,-0.5864498,0.7803427,-0.21712136,,0.058491122,-0.01942147,0.0037819743,-0.69976854,-0.52125937,0.4884799,-0.6139847,0.78838986,-0.03826481,-0.36516654,-0.32669583,-0.8717356,,0.09964074,1.298624,0.43118352,0.98269486,0.0064727445,-0.18511857,-0.10527593,-0.8027696,-0.58692247,-0.15240656,0.5962542,-0.78819615,,-0.11886327,0.24807264,-0.10719035,0.83684707,0.4761009,0.2702127,-0.5267113,0.565714,0.63446265,0.14920515,-0.6732723,0.7241838,,-0.0832834,0.36868894,-0.36565048,0.70815265,0.6206065,-0.33670083,-0.6087732,0.2951224,-0.7364088,-0.35765216,0.7264643,0.5868003,,1.105076737904282,0.531177289822036,0.22123003656,0.4273481048214606,0.21260639363502531,0.676010960570075,-0.41832415336988926,,-1.3788785092270377,0.0704544920115502,0.20019773131000002,1.1702795745871304,-0.3730176443596524,-0.4245668424428658,0.8461222625755664,,-0.1166250822798261,-0.13014047567495718,0.09163300952,-0.11611542257629885,,1.3299286e-05,-5.7816505e-06,1.0371208e-05,1.0,-1.1309981e-05,-8.5532665e-06,1.128763e-05,1.0,-2.1755695e-06,8.5532665e-06,2.1755695e-06,1.0,82,0.248,0,0,0.0,False,-0.2599971910607066,1.0208848282965082
0.2674457039684057,14:50:43.184740,14:49:27.246903,0,,0.11866443,0.0019178018,0.022092164,-0.7729848,-0.6243129,-0.11281809,-0.22416966,0.10241929,0.9691534,-0.59350014,0.7744311,-0.21912062,,0.05849024,-0.019422244,0.0037814975,-0.69979995,-0.5213531,0.48833472,-0.61402434,0.78835964,-0.038253397,-0.36503962,-0.3266193,-0.8718174,,0.09964074,1.298624,0.43118352,0.98269486,0.0064727445,-0.18511857,-0.10527593,-0.8027696,-0.58692247,-0.15240656,0.5962542,-0.78819615,,-0.11878222,0.24829772,-0.10734744,0.83103234,0.48446256,0.27327868,-0.53465796,0.56027037,0.63264364,0.15338223,-0.67185795,0.7246246,,-0.083282515,0.36868817,-0.36565092,0.7081596,0.62068385,-0.3365435,-0.60869807,0.2951702,-0.73645175,-0.3577661,0.7263788,0.5868367,,1.106142475040925,0.5316638219931121,0.2210952224,0.4162345378167809,0.21602230612916135,0.6728987980171022,-0.4193042177666949,,-1.3788785092270377,0.0704544920115502,0.20019773131000002,1.1702795745871304,-0.3731542808594179,-0.4244554245391694,0.8461222625755664,,-0.1166250822798261,-0.13014047567495718,0.09163300952,-0.11611542257629885,,1.3299286e-05,-5.7816505e-06,1.0371208e-05,1.0,-1.1309981e-05,-8.5532665e-06,1.128763e-05,1.0,-2.1755695e-06,8.5532665e-06,2.1755695e-06,1.0,90,0.271,0,0,0.0,False,-0.2604738128088746,1.0206434272926108
0.2866060030646622,14:50:43.208851,14:49:27.246903,0,,0.1185385,0.0020076632,0.022296548,-0.76948893,-0.628989,-0.110723376,-0.2238748,0.1032829,0.9691299,-0.5981361,0.7705228,-0.22028995,,0.058491427,-0.019424807,0.0037806034,-0.69980484,-0.521345,0.48833627,-0.61402225,0.7883605,-0.038268536,-0.36503375,-0.32663,-0.871816,,0.09964074,1.298624,0.43118352,0.98269486,0.0064727445,-0.18511857,-0.10527593,-0.8027696,-0.58692247,-0.15240656,0.5962542,-0.78819615,,-0.11868421,0.24849494,-0.10747862,0.8284842,0.4898309,0.27143997,-0.53729236,0.5585956,0.63189226,0.15789519,-0.6693554,0.72597003,,-0.0832837,0.36868572,-0.36565214,0.70816356,0.62067777,-0.3365463,-0.6086918,0.2951618,-0.7364603,-0.35776892,0.7263874,0.58682436,,1.1072313803761906,0.5319804540409554,0.22099151920000001,0.41183104900360584,0.22025803762189,0.6688730918215292,-0.4181608093037549,,-1.3788785092270377,0.07043904654580176,0.20019773131000002,1.1702795745871304,-0.3731542808594179,-0.4244554245391694,0.8461222625755664,,-0.1166250822798261,-0.13014047567495718,0.09163300952,-0.11611542257629885,,1.3299286e-05,-5.7816505e-06,1.0371208e-05,1.0,-1.1309981e-05,-8.5532665e-06,1.128763e-05,1.0,-2.1755695e-06,8.5532665e-06,2.1755695e-06,1.0,98,0.296,0,0,0.0,False,-0.2611887454311268,1.0206434272926108
0.3107181510422379,14:50:43.235686,14:49:27.246903,0,,0.11830885,0.0021215454,0.02255565,-0.76245415,-0.6370802,-0.11310384,-0.2281436,0.1011233,0.96836185,-0.60548663,0.76413536,-0.22244763,,0.05849202,-0.019423302,0.0037819743,-0.69980115,-0.5213452,0.4883414,-0.6140208,0.788362,-0.038259506,-0.3650433,-0.326626,-0.8718134,,0.09964074,1.298624,0.43118352,0.98269486,0.0064727445,-0.18511857,-0.10527593,-0.8027696,-0.58692247,-0.15240656,0.5962542,-0.78819615,,-0.11849166,0.24874547,-0.10766026,0.82238126,0.4985848,0.27404794,-0.5452245,0.55303955,0.6299822,0.1625402,-0.6675031,0.72665,,-0.08328441,0.36868766,-0.36565173,0.70816165,0.62067735,-0.33655116,-0.60869855,0.2951659,-0.7364531,-0.35776135,0.7263861,0.58683056,,1.108899490677023,0.5322584724244275,0.22084374214000002,0.40008841216847246,0.22449376911461866,0.664847385625956,-0.41897752963442636,,-1.378886231959912,0.07044676927867598,0.20019773131000002,1.1702795745871304,-0.3731542808594179,-0.4244554245391694,0.8461222625755664,,-0.1166250822798261,-0.13014047567495718,0.09163300952,-0.11611542257629885,,1.3299286e-05,-5.7816505e-06,1.0371208e-05,1.0,-1.1309981e-05,-8.5532665e-06,1.128763e-05,1.0,-2.1755695e-06,8.5532665e-06,2.1755695e-06,1.0,105,0.317,0,0,0.0,False,-0.2611887454311268,1.0211262293004055
0.33755335095338523,14:50:43.259049,14:49:27.246903,0,,0.11816752,0.0021817312,0.022689223,-0.76104707,-0.63902175,-0.11161767,-0.22760573,0.101917565,0.9684051,-0.60745615,0.7624066,-0.22300914,,0.058492742,-0.019425329,0.0037810802,-0.69993806,-0.5212898,0.48820424,-0.6138754,0.7884782,-0.038199335,-0.36502534,-0.3264339,-0.8718928,,0.09964074,1.298624,0.43118352,0.98269486,0.0064727445,-0.18511857,-0.10527593,-0.8027696,-0.58692247,-0.15240656,0.5962542,-0.78819615,,-0.11836982,0.24887598,-0.10775803,0.82142776,0.5008885,0.27270338,-0.54601693,0.5526236,0.6296607,0.16468753,-0.6661215,0.727434,,-0.0832851,0.3686856,-0.36565262,0.7083031,0.6205985,-0.3363989,-0.60858047,0.29538226,-0.7364639,-0.35768214,0.7263655,0.5869043,,1.1099111686835466,0.5323588679517923,0.22076596474000001,0.3979915127336272,0.22681658961063117,0.6622998513419924,-0.41897752963442636,,-1.378886231959912,0.07043132381292753,0.20019773131000002,1.1704892645306149,-0.3731542808594179,-0.42437374579902887,0.8459589185094323,,-0.1166250822798261,-0.13014047567495718,0.09163300952,-0.11611542257629885,,1.3299286e-05,-5.7816505e-06,1.0371208e-05,1.0,-1.1309981e-05,-8.5532665e-06,1.128763e-05,1.0,-2.1755695e-06,8.5532665e-06,2.1755695e-06,1.0,116,0.35,0,0,0.0,False,-0.26154621174225356,1.0208848282965082
0.3609261829406023,14:50:43.289054,14:49:27.246903,0,,0.117984384,0.0022767037,0.02283001,-0.75495213,-0.6458844,-0.113493055,-0.23108524,0.100052714,0.9677754,-0.61371565,0.7568505,-0.22478944,,0.05849368,-0.019426387,0.003780961,-0.69967395,-0.5214642,0.48839647,-0.6141622,0.78825384,-0.03822115,-0.36504936,-0.3266971,-0.87178427,,0.09964074,1.298624,0.43118352,0.98269486,0.0064727445,-0.18511857,-0.10527593,-0.8027696,-0.58692247,-0.15240656,0.5962542,-0.78819615,,-0.11820402,0.24903873,-0.1078497,0.8161488,0.5083336,0.27476916,-0.5526495,0.5478002,0.62808716,0.16875923,-0.66446364,0.7280168,,-0.08328608,0.3686848,-0.36565322,0.7080281,0.62079906,-0.33660766,-0.608804,0.29505306,-0.73641115,-0.35784626,0.7263279,0.58685076,,1.1111622514091708,0.5323897588832892,0.22070244653,0.3881360853898546,0.23064241160406349,0.6590167925582116,-0.4193042177666949,,-1.378886231959912,0.07043132381292753,0.20019773131000002,1.170069884643646,-0.3731542808594179,-0.42437374579902887,0.8459589185094323,,-0.1166250822798261,-0.13014047567495718,0.09163300952,-0.11611542257629885,,1.3299286e-05,-5.7816505e-06,1.0371208e-05,1.0,-1.1309981e-05,-8.5532665e-06,1.128763e-05,1.0,-2.1755695e-06,8.5532665e-06,2.1755695e-06,1.0,127,0.383,0,0,0.0,False,-0.2618441003348577,1.0205468668910522
0.3909228730481118,14:50:43.319284,14:49:27.378509,0,,0.1178625,0.0023167208,0.022907972,-0.75365824,-0.6474432,-0.11321032,-0.2311519,0.0998494,0.96778035,-0.6152788,0.7555444,-0.22491008,,0.058496047,-0.019425925,0.0037826896,-0.6996715,-0.5214166,0.4884509,-0.61415714,0.78825474,-0.038282603,-0.36506242,-0.32677102,-0.87175107,,0.09964074,1.298624,0.43118352,0.98269486,0.0064727445,-0.18511857,-0.10527593,-0.8027696,-0.58692247,-0.15240656,0.5962542,-0.78819615,,-0.11809383,0.24911907,-0.10791247,0.815156,0.5100608,0.27451542,-0.5536699,0.54685163,0.62801504,0.17020662,-0.6639212,0.7281747,,-0.08328867,0.36868623,-0.36565357,0.7080282,0.6207647,-0.3366709,-0.6088111,0.2949927,-0.73642945,-0.35783392,0.72638184,0.5867916,,1.1119422474294676,0.5323511452189181,0.22065578009000003,0.38603918595500936,0.23228204960124876,0.6577614564539951,-0.4194675618328291,,-1.3789016774256604,0.07043132381292753,0.20019773131000002,1.170069884643646,-0.3731542808594179,-0.4244554245391694,0.8461222625755664,,-0.1166250822798261,-0.13014047567495718,0.09163300952,-0.11611542257629885,,1.3299286e-05,-5.7816505e-06,1.0371208e-05,1.0,-1.1309981e-05,-8.5532665e-06,1.128763e-05,1.0,-2.1755695e-06,8.5532665e-06,2.1755695e-06,1.0,138,0.416,0,0,0.0,False,-0.26112916771260597,1.0208848282965082
0.4211521700490266,14:50:43.350958,14:49:27.378509,0,,0.117823735,0.002321586,0.022942841,-0.7537728,-0.6472979,-0.1132787,-0.2310869,0.099729866,0.96780825,-0.6151629,0.7556846,-0.2247558,,0.05849426,-0.019426819,0.0037828088,-0.69967276,-0.5214205,0.48844498,-0.61415964,0.7882527,-0.038284093,-0.36505586,-0.32676965,-0.8717543,,0.09964074,1.298624,0.43118352,0.98269486,0.0064727445,-0.18511857,-0.10527593,-0.8027696,-0.58692247,-0.15240656,0.5962542,-0.78819615,,-0.11806158,0.24914458,-0.1079449,0.81525546,0.50987875,0.27455825,-0.55354667,0.546842,0.6281321,0.17013125,-0.66406894,0.72805756,,-0.08328698,0.36868587,-0.3656546,0.70802814,0.62076813,-0.33666465,-0.6088075,0.2949928,-0.7364324,-0.3578401,0.7263788,0.5867915,,1.1121816521485686,0.5323665906846666,0.22062726171000002,0.38603918595500936,0.23228204960124876,0.6577614564539951,-0.4194675618328291,,-1.3788939546927863,0.07043132381292753,0.20019643502,1.170069884643646,-0.3731542808594179,-0.4244554245391694,0.8461222625755664,,-0.1166250822798261,-0.13014047567495718,0.09163300952,-0.11611542257629885,,1.3299286e-05,-5.7816505e-06,1.0371208e-05,1.0,-1.1309981e-05,-8.5532665e-06,1.128763e-05,1.0,-2.1755695e-06,8.5532665e-06,2.1755695e-06,1.0,149,0.448,0,0,0.0,False,-0.26136747858668974,1.020450306489493
0.4528231790754944,14:50:43.386899,14:49:27.378509,0,,0.11784814,0.0023023635,0.022949755,-0.75357246,-0.64751893,-0.1133481,-0.23124212,0.099707425,0.9677735,-0.61534995,0.7554982,-0.22487044,,0.058495436,-0.019429367,0.003781855,-0.69967765,-0.52141243,0.48844656,-0.61415756,0.78825355,-0.038299143,-0.36505,-0.32678038,-0.87175274,,0.09964074,1.298624,0.43118352,0.98269486,0.0064727445,-0.18511857,-0.10527593,-0.8027696,-0.58692247,-0.15240656,0.5962542,-0.78819615,,-0.118089095,0.24913344,-0.10795639,0.81507343,0.5101247,0.2746419,-0.5537855,0.54671174,0.62803495,0.17022619,-0.6639873,0.72810984,,-0.083288155,0.36868343,-0.36565578,0.70803213,0.62076205,-0.33666748,-0.60880125,0.2949844,-0.7364409,-0.35784292,0.7263874,0.5867792,,1.112027197491084,0.5323897588832892,0.22061300252000002,0.38582949601152483,0.23228204960124876,0.6577614564539951,-0.4194675618328291,,-1.3788939546927863,0.07041587834717908,0.20019643502,1.170069884643646,-0.3731542808594179,-0.4244554245391694,0.8461222625755664,,-0.1166250822798261,-0.13014047567495718,0.09163300952,-0.11611542257629885,,1.3299286e-05,-5.7816505e-06,1.0371208e-05,1.0,-1.1309981e-05,-8.5532665e-06,1.128763e-05,1.0,-2.1755695e-06,8.5532665e-06,2.1755695e-06,1.0,160,0.481,0,0,0.0,False,-0.261427056305211,1.0206434272926108
0.4887399598956108,14:50:43.418683,14:49:27.378509,0,,0.11788033,0.0022775307,0.02294138,-0.75346553,-0.64766365,-0.113231555,-0.23130372,0.099898696,0.9677391,-0.6154578,0.7553488,-0.2250773,,0.058495436,-0.019429367,0.003781855,-0.69967765,-0.52141243,0.48844656,-0.61415756,0.78825355,-0.038299143,-0.36505,-0.32678038,-0.87175274,,0.09964074,1.298624,0.43118352,0.98269486,0.0064727445,-0.18511857,-0.10527593,-0.8027696,-0.58692247,-0.15240656,0.5962542,-0.78819615,,-0.11812219,0.24910842,-0.107957765,0.8149804,0.510317,0.2745606,-0.5539011,0.54677254,0.6278801,0.17029573,-0.66378933,0.72827405,,-0.083288155,0.36868343,-0.36565578,0.70803213,0.62076205,-0.33666748,-0.60880125,0.2949844,-0.7364409,-0.35784292,0.7263874,0.5867792,,1.1118032382377316,0.5323743134175408,0.22060781736,0.38582949601152483,0.23228204960124876,0.6576797777138546,-0.41963090589896335,,-1.3788939546927863,0.07041587834717908,0.20019643502,1.170069884643646,-0.3731542808594179,-0.4244554245391694,0.8461222625755664,,-0.1166250822798261,-0.13014047567495718,0.09163300952,-0.11611542257629885,,1.3299286e-05,-5.7816505e-06,1.0371208e-05,1.0,-1.1309981e-05,-8.5532665e-06,1.128763e-05,1.0,-2.1755695e-06,8.5532665e-06,2.1755695e-06,1.0,171,0.514,0,0,0.0,False,-0.261427056305211,1.0209813886980672
0.5205630171112716,14:50:43.450004,14:49:27.378509,0,,0.1179033,0.0022579953,0.022940964,-0.753508,-0.64764446,-0.11305861,-0.23120171,0.10005513,0.9677473,-0.61544406,0.75534457,-0.22512895,,0.05849604,-0.019430634,0.0037813783,-0.6996801,-0.5214085,0.48844737,-0.6141565,0.788254,-0.038306773,-0.365047,-0.32678574,-0.87175196,,0.09964074,1.298624,0.43118352,0.98269486,0.0064727445,-0.18511857,-0.10527593,-0.8027696,-0.58692247,-0.15240656,0.5962542,-0.78819615,,-0.11814703,0.24909255,-0.10796411,0.8150324,0.5103191,0.2744021,-0.5538117,0.5468934,0.6278536,0.17033698,-0.6636881,0.7283566,,-0.08328875,0.3686822,-0.36565638,0.7080341,0.62075907,-0.33666888,-0.6087981,0.29498023,-0.7364452,-0.35784435,0.7263917,0.586773,,1.111648783580247,0.5323743134175408,0.22059874333,0.38603918595500936,0.23228204960124876,0.6576797777138546,-0.41963090589896335,,-1.3788939546927863,0.07040815561430486,0.20019643502,1.170069884643646,-0.3731542808594179,-0.4244554245391694,0.8461222625755664,,-0.1166250822798261,-0.13014047567495718,0.09163300952,-0.11611542257629885,,1.3299286e-05,-5.7816505e-06,1.0371208e-05,1.0,-1.1309981e-05,-8.5532665e-06,1.128763e-05,1.0,-2.1755695e-06,8.5532665e-06,2.1755695e-06,1.0,182,0.547,0,0,0.0,False,-0.2611887454311268,1.0206434272926108
0.5518831820227206,14:50:43.480105,14:49:27.378509,0,,0.11790077,0.0022501424,0.022954404,-0.75339127,-0.6477585,-0.11318351,-0.23133136,0.099963844,0.96772575,-0.61553824,0.755259,-0.22515875,,0.058498997,-0.019431498,0.00378263,-0.6996801,-0.5213966,0.48845997,-0.6141505,0.7882585,-0.038311422,-0.36505717,-0.32679382,-0.8717447,,0.09964074,1.298624,0.43118352,0.98269486,0.0064727445,-0.18511857,-0.10527593,-0.8027696,-0.58692247,-0.15240656,0.5962542,-0.78819615,,-0.11814797,0.24909459,-0.10797973,0.8149187,0.51043385,0.2745265,-0.5539728,0.54676974,0.62781924,0.1703574,-0.6637019,0.7283393,,-0.08329193,0.36868238,-0.36565736,0.7080362,0.6207491,-0.33668283,-0.6088021,0.29497582,-0.73644364,-0.35783345,0.726402,0.5867669,,1.1116565063131212,0.532382036150415,0.22058318785000003,0.38582949601152483,0.23228204960124876,0.6576797777138546,-0.41963090589896335,,-1.3789094001585347,0.07040043288143064,0.20019643502,1.170069884643646,-0.3731542808594179,-0.4244554245391694,0.8461222625755664,,-0.1166250822798261,-0.13014047567495718,0.09163300952,-0.11611542257629885,,1.3299286e-05,-5.7816505e-06,1.0371208e-05,1.0,-1.1309981e-05,-8.5532665e-06,1.128763e-05,1.0,-2.1755695e-06,8.5532665e-06,2.1755695e-06,1.0,193,0.579,0,0,0.0,False,-0.26196325577190027,1.0212227897019646
0.58198486501351,14:50:43.518430,14:49:27.564885,0,,0.11789414,0.0022421107,0.022984415,-0.75336707,-0.64780366,-0.11308578,-0.23119539,0.09992981,0.96776175,-0.61561894,0.7552247,-0.22505307,,0.0584978,-0.019431721,0.0037817955,-0.6996814,-0.52140045,0.48845404,-0.614153,0.78825647,-0.038312882,-0.3650506,-0.32679245,-0.871748,,0.09964074,1.298624,0.43118352,0.98269486,0.0064727445,-0.18511857,-0.10527593,-0.8027696,-0.58692247,-0.15240656,0.5962542,-0.78819615,,-0.118147865,0.24910668,-0.10800911,0.81492686,0.5104797,0.27441695,-0.55391496,0.5467222,0.6279117,0.17050631,-0.66370577,0.7283009,,-0.08329064,0.36868167,-0.36565718,0.7080361,0.6207526,-0.33667657,-0.6087985,0.29497594,-0.73644656,-0.3578396,0.72639894,0.58676684,,1.1117105654432409,0.5324206498147861,0.22055466947000002,0.38582949601152483,0.23241868610101418,0.6576500385502988,-0.4194675618328291,,-1.3789016774256604,0.07040043288143064,0.20019643502,1.170069884643646,-0.3731542808594179,-0.4244554245391694,0.8461222625755664,,-0.1166250822798261,-0.13014047567495718,0.09163300952,-0.11611542257629885,,1.3299286e-05,-5.7816505e-06,1.0371208e-05,1.0,-1.1309981e-05,-8.5532665e-06,1.128763e-05,1.0,-2.1755695e-06,8.5532665e-06,2.1755695e-06,1.0,204,0.612,0,0,0.0,False,-0.26154621174225356,1.020450306489493
0.6203106329776347,14:50:43.548371,14:49:27.564885,0,,0.117892876,0.0022286475,0.023025185,-0.75300646,-0.6483347,-0.112442,-0.23113462,0.100619674,0.9677048,-0.61608267,0.7546772,-0.22561991,,0.058498397,-0.019433018,0.0037813187,-0.6996837,-0.52139646,0.48845488,-0.614152,0.7882569,-0.038320422,-0.36504763,-0.3267978,-0.87174726,,0.09964074,1.298624,0.43118352,0.98269486,0.0064727445,-0.18511857,-0.10527593,-0.8027696,-0.58692247,-0.15240656,0.5962542,-0.78819615,,-0.11815562,0.24912103,-0.10804884,0.8146654,0.5111836,0.2738824,-0.55415386,0.5469362,0.62751436,0.17097887,-0.66298723,0.7288444,,-0.083291225,0.36868045,-0.36565778,0.7080381,0.62074953,-0.33667797,-0.6087954,0.29497173,-0.73645085,-0.35784104,0.72640324,0.5867607,,1.1117414563747376,0.5324747089449057,0.22051578077000003,0.3854101161245557,0.23282859560031052,0.6566623549180848,-0.4193042177666949,,-1.3789016774256604,0.0703927101485564,0.20019643502,1.170069884643646,-0.3731542808594179,-0.4244554245391694,0.8461222625755664,,-0.1166250822798261,-0.13014047567495718,0.09163300952,-0.11611542257629885,,1.3299286e-05,-5.7816505e-06,1.0371208e-05,1.0,-1.1309981e-05,-8.5532665e-06,1.128763e-05,1.0,-2.1755695e-06,8.5532665e-06,2.1755695e-06,1.0,215,0.645,0,0,0.0,False,-0.26095043455704303,1.0204985866902727
0.6501899189315736,14:50:43.577608,14:49:27.564885,0,,0.11789475,0.0022083595,0.023075163,-0.75207484,-0.64958584,-0.11145225,-0.23143297,0.10195035,0.9674942,-0.61710787,0.75342166,-0.22700995,,0.058499582,-0.019432765,0.0037822127,-0.69968253,-0.5213926,0.48846075,-0.6141495,0.7882589,-0.038318932,-0.3650542,-0.32679918,-0.8717439,,0.09964074,1.298624,0.43118352,0.98269486,0.0064727445,-0.18511857,-0.10527593,-0.8027696,-0.58692247,-0.15240656,0.5962542,-0.78819615,,-0.11816893,0.24913558,-0.10809907,0.81390053,0.5127983,0.27313706,-0.55502504,0.54722863,0.6264886,0.17179386,-0.6614973,0.7300056,,-0.08329252,0.36868116,-0.36565796,0.70803815,0.6207461,-0.33668423,-0.608799,0.29497164,-0.73644793,-0.35783488,0.7264063,0.58676076,,1.111749179107612,0.5325287680750252,0.22046652175000003,0.3841519764636486,0.23351177809913773,0.6546350480770726,-0.41914087370056063,,-1.3789094001585347,0.0703927101485564,0.20019643502,1.170069884643646,-0.3731542808594179,-0.4244554245391694,0.8461222625755664,,-0.1166250822798261,-0.13014047567495718,0.09163300952,-0.11611542257629885,,1.3299286e-05,-5.7816505e-06,1.0371208e-05,1.0,-1.1309981e-05,-8.5532665e-06,1.128763e-05,1.0,-2.1755695e-06,8.5532665e-06,2.1755695e-06,1.0,219,0.656,0,0,0.0,False,-0.2618441003348577,1.021174509501185
0.6794500220566988,14:50:43.600060,14:49:27.564885,0,,0.11789875,0.0021958798,0.023107708,-0.75209665,-0.64954793,-0.11152595,-0.23148164,0.10191193,0.9674866,-0.617063,0.7534596,-0.22700611,,0.058498714,-0.01943354,0.0037817955,-0.69971395,-0.52144647,0.4883581,-0.61418915,0.78822553,-0.03837201,-0.3649273,-0.3267938,-0.8717991,,0.09964074,1.298624,0.43118352,0.98269486,0.0064727445,-0.18511857,-0.10527593,-0.8027696,-0.58692247,-0.15240656,0.5962542,-0.78819615,,-0.11818022,0.24914563,-0.10813072,0.8139076,0.5127496,0.2732073,-0.5550358,0.54722124,0.6264855,0.17172536,-0.6615412,0.72998196,,-0.08329164,0.36868042,-0.3656584,0.7080451,0.6207959,-0.3365776,-0.6087239,0.29495928,-0.736515,-0.3579488,0.72636867,0.58673775,,1.1117414563747376,0.5326059954037675,0.22043281821000002,0.3841519764636486,0.23337514159937228,0.6546647872406286,-0.41897752963442625,,-1.3789094001585347,0.0703927101485564,0.20019643502,1.170069884643646,-0.3732909173591833,-0.42442568537561365,0.8462856066417008,,-0.1166250822798261,-0.13014047567495718,0.09163300952,-0.11611542257629885,,1.3299286e-05,-5.7816505e-06,1.0371208e-05,1.0,-1.1309981e-05,-8.5532665e-06,1.128763e-05,1.0,-2.1755695e-06,8.5532665e-06,2.1755695e-06,1.0,226,0.678,0,0,0.0,False,-0.26148663402373185,1.0208848282965082
0.7019445660989732,14:50:43.621012,14:49:27.696265,0,,0.117900774,0.002186194,0.023145288,-0.7522854,-0.6492753,-0.1118397,-0.23146823,0.101531625,0.9675298,-0.61683786,0.7537459,-0.22666734,,0.058498714,-0.01943354,0.0037817955,-0.69971395,-0.52144647,0.4883581,-0.61418915,0.78822553,-0.03837201,-0.3649273,-0.3267938,-0.8717991,,0.09964074,1.298624,0.43118352,0.98269486,0.0064727445,-0.18511857,-0.10527593,-0.8027696,-0.58692247,-0.15240656,0.5962542,-0.78819615,,-0.118190125,0.24916098,-0.108165026,0.8140535,0.51238394,0.2734587,-0.5548858,0.54709387,0.62672967,0.17151862,-0.6619298,0.7296782,,-0.08329164,0.36868042,-0.3656584,0.7080451,0.6207959,-0.3365776,-0.6087239,0.29495928,-0.736515,-0.3579488,0.72636867,0.58673775,,1.1117569018404863,0.532690945465384,0.22039911467000003,0.38436166640713315,0.23310186859984142,0.6551326592684431,-0.4194675618328292,,-1.3789094001585347,0.0703927101485564,0.20019643502,1.170069884643646,-0.3732909173591833,-0.42442568537561365,0.8462856066417008,,-0.1166250822798261,-0.13014047567495718,0.09163300952,-0.11611542257629885,,1.3299286e-05,-5.7816505e-06,1.0371208e-05,1.0,-1.1309981e-05,-8.5532665e-06,1.128763e-05,1.0,-2.1755695e-06,8.5532665e-06,2.1755695e-06,1.0,234,0.701,0,0,0.0,False,-0.26160578946077395,1.0208365480957287
0.7228714469820261,14:50:43.649095,14:49:27.696265,0,,0.11789869,0.002171792,0.023213685,-0.7528832,-0.64853096,-0.11213593,-0.23107928,0.10094121,0.96768457,-0.6162542,0.75446564,-0.22585899,,0.05849811,-0.019436967,0.0037809014,-0.69972014,-0.52144235,0.4883538,-0.6141895,0.78822434,-0.03838861,-0.36491477,-0.3268032,-0.87180084,,0.09964074,1.298624,0.43118352,0.98269486,0.0064727445,-0.18511857,-0.10527593,-0.8027696,-0.58692247,-0.15240656,0.5962542,-0.78819615,,-0.1182021,0.24919151,-0.108226776,0.81458265,0.511454,0.27362373,-0.55421615,0.5470623,0.6273495,0.17117116,-0.66267467,0.7290835,,-0.083291136,0.36867762,-0.3656606,0.70804906,0.62079334,-0.33657417,-0.608714,0.294951,-0.7365264,-0.3579578,0.72637427,0.58672535,,1.111826406436354,0.5328531228557427,0.22033689275,0.38520042618107125,0.2326919591005451,0.6560386641605163,-0.41963090589896346,,-1.3789016774256604,0.07037726468280796,0.20019513873000003,1.170069884643646,-0.3732909173591833,-0.4244256853756135,0.8466122947739692,,-0.1166250822798261,-0.13014047567495718,0.09163300952,-0.11611542257629885,,1.3299286e-05,-5.7816505e-06,1.0371208e-05,1.0,-1.1309981e-05,-8.5532665e-06,1.128763e-05,1.0,-2.1755695e-06,8.5532665e-06,2.1755695e-06,1.0,245,0.734,0,0,0.0,False,-0.2617249448978165,1.0212710699027439
0.7509706930723041,14:50:43.670929,14:49:27.696265,0,,0.11788579,0.0021692887,0.023263097,-0.7537947,-0.6470522,-0.11452903,-0.23094451,0.09769687,0.96804965,-0.61518943,0.7561605,-0.22307658,,0.05849811,-0.019436967,0.0037809014,-0.69972014,-0.52144235,0.4883538,-0.6141895,0.78822434,-0.03838861,-0.36491477,-0.3268032,-0.87180084,,0.09964074,1.298624,0.43118352,0.98269486,0.0064727445,-0.18511857,-0.10527593,-0.8027696,-0.58692247,-0.15240656,0.5962542,-0.78819615,,-0.11819863,0.24921992,-0.10826918,0.81529987,0.50929385,0.27551034,-0.5534502,0.54552466,0.62936133,0.17023216,-0.66559947,0.726635,,-0.083291136,0.36867762,-0.3656606,0.70804906,0.62079334,-0.33657417,-0.608714,0.294951,-0.7365264,-0.3579578,0.72637427,0.58672535,,1.1119422474294676,0.5329921320474788,0.22029411518000003,0.3862488758984939,0.231735503602187,0.659840702871592,-0.42044762622963483,,-1.3789016774256604,0.07037726468280796,0.20019513873000003,1.170069884643646,-0.3732909173591833,-0.4244256853756135,0.8466122947739692,,-0.1166250822798261,-0.13014047567495718,0.09163300952,-0.11611542257629885,,1.3299286e-05,-5.7816505e-06,1.0371208e-05,1.0,-1.1309981e-05,-8.5532665e-06,1.128763e-05,1.0,-2.1755695e-06,8.5532665e-06,2.1755695e-06,1.0,252,0.755,0,0,0.0,False,-0.26202283349042155,1.020450306489493
0.7728130090981722,14:50:43.700908,14:49:27.696265,0,,0.11787514,0.0021711215,0.023352504,-0.7553412,-0.6447468,-0.11730829,-0.22927284,0.092300326,0.96897614,-0.6139165,0.75880307,-0.21754122,,0.05849811,-0.019436967,0.0037809014,-0.69972014,-0.5214025,0.48839638,-0.6141895,0.78822124,-0.038452953,-0.36491477,-0.3268744,-0.87177414,,0.09964074,1.298624,0.43118352,0.98269486,0.0064727445,-0.18511857,-0.10527593,-0.8027696,-0.58692247,-0.15240656,0.5962542,-0.78819615,,-0.118203916,0.24927622,-0.10833927,0.8167965,0.5058826,0.27735588,-0.55133706,0.5428601,0.6335064,0.16991444,-0.67036235,0.72231805,,-0.083291136,0.36867762,-0.3656606,0.70804906,0.62076586,-0.33662486,-0.608714,0.29489082,-0.7365505,-0.3579578,0.7264222,0.58666605,,1.1121430384841975,0.5332392594994539,0.22022541181000002,0.38876515522030813,0.23146223060265614,0.6662711229296676,-0.42044762622963483,,-1.3789016774256604,0.07037726468280796,0.20019513873000003,1.170069884643646,-0.3732909173591833,-0.4245073641157541,0.8467756388401035,,-0.1166250822798261,-0.13014047567495718,0.09163300952,-0.11611542257629885,,1.3299286e-05,-5.7816505e-06,1.0371208e-05,1.0,-1.1309981e-05,-8.5532665e-06,1.128763e-05,1.0,-2.1755695e-06,8.5532665e-06,2.1755695e-06,1.0,263,0.787,0,0,0.0,False,-0.2620824112089424,1.021077949099626
0.8027898950967938,14:50:43.723279,14:49:27.696265,0,,0.11786842,0.0021728352,0.02341181,-0.7563948,-0.6427181,-0.12157415,-0.22821842,0.085123956,0.96988165,-0.61301154,0.7613588,-0.2110675,,0.05849811,-0.019436967,0.0037809014,-0.69972014,-0.5214025,0.48839638,-0.6141895,0.78822124,-0.038452953,-0.36491477,-0.3268744,-0.87177414,,0.09964074,1.298624,0.43118352,0.98269486,0.0064727445,-0.18511857,-0.10527593,-0.8027696,-0.58692247,-0.15240656,0.5962542,-0.78819615,,-0.1182077,0.24931397,-0.108385384,0.8177986,0.5025288,0.2804822,-0.549941,0.5387378,0.6382214,0.16961826,-0.6761852,0.71694016,,-0.083291136,0.36867762,-0.3656606,0.70804906,0.62076586,-0.33662486,-0.608714,0.29489082,-0.7365505,-0.3579578,0.7264222,0.58666605,,1.1122743249430593,0.5334091596226869,0.22018004166000002,0.39044267476818434,0.23118895760312522,0.6742534390504138,-0.41832415336988904,,-1.3789016774256604,0.07037726468280796,0.20019513873000003,1.170069884643646,-0.3732909173591833,-0.4245073641157541,0.8467756388401035,,-0.1166250822798261,-0.13014047567495718,0.09163300952,-0.11611542257629885,,1.3299286e-05,-5.7816505e-06,1.0371208e-05,1.0,-1.1309981e-05,-8.5532665e-06,1.128763e-05,1.0,-2.1755695e-06,8.5532665e-06,2.1755695e-06,1.0,274,0.821,0,0,0.0,False,-0.26160578946077395,1.0208365480957287
0.8251604118850082,14:50:43.756403,14:49:27.696265,0,,0.11788344,0.0021911561,0.023530483,-0.7560909,-0.64236724,-0.12526326,-0.22431177,0.07454693,0.97166204,-0.6148258,0.7627628,-0.2004548,,0.058501065,-0.019437801,0.0037821531,-0.69972014,-0.52143055,0.4883664,-0.6141835,0.78822875,-0.03839326,-0.36492497,-0.32681122,-0.87179357,,0.09964074,1.298624,0.43118352,0.98269486,0.0064727445,-0.18511857,-0.10527593,-0.8027696,-0.58692247,-0.15240656,0.5962542,-0.78819615,,-0.11824111,0.249401,-0.10846251,0.8183256,0.50058097,0.28242156,-0.5479671,0.53123534,0.64615875,0.17342244,-0.683526,0.7090253,,-0.08329431,0.3686778,-0.36566156,0.70805115,0.6207834,-0.3365881,-0.608718,0.2949466,-0.7365249,-0.3579469,0.7263845,0.5867193,,1.112506006929286,0.533687178006159,0.22011133829,0.391910504372576,0.2350147795965576,0.6849374448306691,-0.41914087370056063,,-1.3789171228914088,0.07036954194993374,0.20019513873000003,1.170069884643646,-0.3732909173591833,-0.42442568537561365,0.8462856066417008,,-0.1166250822798261,-0.13014047567495718,0.09163300952,-0.11611542257629885,,1.3299286e-05,-5.7816505e-06,1.0371208e-05,1.0,-1.1309981e-05,-8.5532665e-06,1.128763e-05,1.0,-2.1755695e-06,8.5532665e-06,2.1755695e-06,1.0,285,0.854,0,0,0.0,False,-0.2622015666459845,1.0207882678949494
0.8582806959748268,14:50:43.792647,14:49:27.836132,0,,0.11795188,0.0022273287,0.02366981,-0.7548055,-0.6434585,-0.12739593,-0.21630861,0.06081608,0.97442913,-0.6192569,0.76306117,-0.18508995,,0.05850166,-0.019439127,0.003781736,-0.6997225,-0.52142656,0.48836717,-0.6141825,0.7882292,-0.03840077,-0.364922,-0.32681662,-0.8717928,,0.09964074,1.298624,0.43118352,0.98269486,0.0064727445,-0.18511857,-0.10527593,-0.8027696,-0.58692247,-0.15240656,0.5962542,-0.78819615,,-0.118328035,0.24951442,-0.10853314,0.8188857,0.49983263,0.28212336,-0.54436624,0.52057433,0.65777487,0.18191116,-0.6922208,0.6983829,,-0.083294906,0.36867657,-0.3656622,0.7080531,0.6207804,-0.33658952,-0.6087149,0.2949424,-0.7365292,-0.35794833,0.7263888,0.58671314,,1.1126681843196446,0.5340269782526248,0.22005559782000003,0.3944267836943903,0.24362287908178032,0.6985828381533569,-0.41897752963442636,,-1.3789171228914088,0.0703618192170595,0.20019513873000003,1.170069884643646,-0.3732909173591833,-0.42442568537561365,0.8462856066417008,,-0.1166250822798261,-0.13014047567495718,0.09163300952,-0.11611542257629885,,1.3299286e-05,-5.7816505e-06,1.0371208e-05,1.0,-1.1309981e-05,-8.5532665e-06,1.128763e-05,1.0,-2.1755695e-06,8.5532665e-06,2.1755695e-06,1.0,296,0.887,0,0,0.0,False,-0.26190367805337944,1.0206434272926108
0.8945285771042109,14:50:43.829767,14:49:27.836132,0,,0.11800972,0.0022319704,0.023749113,-0.7605707,-0.63658714,-0.12762831,-0.20449238,0.04830727,0.97767556,-0.6162102,0.7696903,-0.16691837,,0.058500484,-0.019439306,0.0037807822,-0.69972384,-0.52143043,0.48836127,-0.614185,0.7882272,-0.03840226,-0.36491543,-0.32681525,-0.871796,,0.09964074,1.298624,0.43118352,0.98269486,0.0064727445,-0.18511857,-0.10527593,-0.8027696,-0.58692247,-0.15240656,0.5962542,-0.78819615,,-0.11839798,0.2495662,-0.10857874,0.825483,0.49034578,0.27953318,-0.5331153,0.5146946,0.67147416,0.18538031,-0.70331395,0.6862825,,-0.08329361,0.36867586,-0.36566198,0.70805305,0.62078387,-0.33658326,-0.6087113,0.2949425,-0.7365321,-0.3579545,0.72638583,0.5867131,,1.112753134381261,0.5342895511703485,0.22001541283000003,0.4074275601904308,0.24799524707427442,0.7158455439709146,-0.4184874974360234,,-1.3789094001585347,0.0703618192170595,0.20019513873000003,1.170069884643646,-0.3732909173591833,-0.42442568537561365,0.8462856066417008,,-0.1166250822798261,-0.13014047567495718,0.09163300952,-0.11611542257629885,,1.3299286e-05,-5.7816505e-06,1.0371208e-05,1.0,-1.1309981e-05,-8.5532665e-06,1.128763e-05,1.0,-2.1755695e-06,8.5532665e-06,2.1755695e-06,1.0,307,0.919,0,0,0.0,False,-0.26202283349042155,1.0209331084972877
0.9316355339251459,14:50:43.856228,14:49:27.836132,0,,0.11806631,0.002227366,0.023794115,-0.7669709,-0.62951183,-0.124380514,-0.19333714,0.04187596,0.9802383,-0.611863,0.77586156,-0.15382573,,0.058500484,-0.019439306,0.0037807822,-0.69972384,-0.52143043,0.48836127,-0.614185,0.7882272,-0.03840226,-0.36491543,-0.32681525,-0.871796,,0.09964074,1.298624,0.43118352,0.98269486,0.0064727445,-0.18511857,-0.10527593,-0.8027696,-0.58692247,-0.15240656,0.5962542,-0.78819615,,-0.118461795,0.2495897,-0.10860377,0.8323838,0.48152035,0.27436352,-0.52158517,0.51333624,0.68149453,0.18731275,-0.710369,0.67844665,,-0.08329361,0.36867586,-0.36566198,0.70805305,0.62078387,-0.33658326,-0.6087113,0.2949425,-0.7365321,-0.3579545,0.72638583,0.5867131,,1.112753134381261,0.5344903422250783,0.21999207961000003,0.4210574065169249,0.25086461356934864,0.7273094750770448,-0.4186508415021576,,-1.3789094001585347,0.0703618192170595,0.20019513873000003,1.170069884643646,-0.3732909173591833,-0.42442568537561365,0.8462856066417008,,-0.1166250822798261,-0.13014047567495718,0.09163300952,-0.11611542257629885,,1.3299286e-05,-5.7816505e-06,1.0371208e-05,1.0,-1.1309981e-05,-8.5532665e-06,1.128763e-05,1.0,-2.1755695e-06,8.5532665e-06,2.1755695e-06,1.0,318,0.952,0,0,0.0,False,-0.2623802998015474,1.0211262293004055
0.9581092209555209,14:50:43.891164,14:49:27.836132,0,,0.11810334,0.0022103488,0.02379942,-0.77830267,-0.6155858,-0.12368932,-0.18300325,0.0339579,0.9825257,-0.60062855,0.78733784,-0.13908368,,0.05850046,-0.019441228,0.0037813187,-0.6997262,-0.52142644,0.48836204,-0.6141839,0.7882277,-0.0384098,-0.36491248,-0.3268206,-0.8717952,,0.09964074,1.298624,0.43118352,0.98269486,0.0064727445,-0.18511857,-0.10527593,-0.8027696,-0.58692247,-0.15240656,0.5962542,-0.78819615,,-0.11850105,0.24957919,-0.10860993,0.84276557,0.46487653,0.27135947,-0.5064463,0.51399857,0.6923277,0.18236849,-0.7208989,0.6686153,,-0.0832938,0.36867502,-0.36566377,0.708055,0.6207808,-0.33658466,-0.60870814,0.29493833,-0.7365363,-0.3579559,0.7263901,0.5867069,,1.112683629785393,0.5347760833414246,0.21997393155000003,0.44034888131750116,0.24703879157591632,0.7431710598424724,-0.4184874974360234,,-1.3789094001585347,0.07035409648418528,0.20019384244000002,1.170069884643646,-0.3732909173591833,-0.42442568537561365,0.8462856066417008,,-0.1166250822798261,-0.13014047567495718,0.09163300952,-0.11611542257629885,,1.3299286e-05,-5.7816505e-06,1.0371208e-05,1.0,-1.1309981e-05,-8.5532665e-06,1.128763e-05,1.0,-2.1755695e-06,8.5532665e-06,2.1755695e-06,1.0,329,0.985,0,0,0.0,False,-0.2621419889274632,1.0205468668910522
0.9929917010013014,14:50:43.922183,14:49:27.836132,0,,0.1181834,0.0021975264,0.02378732,-0.78996295,-0.60152495,-0.11885369,-0.16993748,0.028541625,0.9850415,-0.5891347,0.7983439,-0.124768555,,0.058481168,-0.019429475,0.0037744045,-0.6997402,-0.52143776,0.48833,-0.6141795,0.7882316,-0.03840086,-0.36489344,-0.32679296,-0.8718136,,0.09967785,1.2986217,0.4311947,0.98269093,0.0064427024,-0.18514054,-0.105312705,-0.80276984,-0.58691555,-0.15240656,0.5962542,-0.78819615,,-0.11860871,0.24955508,-0.10857522,0.85376143,0.44850445,0.26445258,-0.48901096,0.5163318,0.7030432,0.17877273,-0.7295514,0.6601478,,-0.08330515,0.3686704,-0.36563945,0.7080399,0.6208125,-0.3365581,-0.6087124,0.29494885,-0.73652864,-0.35797876,0.7263587,0.5867318,,1.1125214523950344,0.5350463789920225,0.21996745010000002,0.4619469454964072,0.24471597107990384,0.756908581525693,-0.4194675618328291,,-1.3789094001585347,0.07034637375131106,0.20019384244000002,1.170069884643646,-0.3732909173591833,-0.42442568537561365,0.8462856066417008,,-0.1166250822798261,-0.13014047567495718,0.09163300952,-0.11611542257629885,,4.8294663e-05,3.0398369e-06,-3.9339066e-06,1.0,-4.080683e-05,-3.0860305e-05,4.079193e-05,1.0,-7.867813e-06,3.0860305e-05,7.867813e-06,1.0,337,1.009,0,0,0.0,False,-0.2630356547052788,1.020450306489493
1.0240662060678005,14:50:43.951091,14:49:28.008085,0,,0.118267216,0.0021927208,0.023799658,-0.7981984,-0.5903953,-0.11963591,-0.16038203,0.016847432,0.9869112,-0.58065206,0.8069383,-0.108136535,,0.05847932,-0.01943332,0.0037776828,-0.69974256,-0.5214337,0.4883308,-0.6141784,0.7882321,-0.03840843,-0.36489046,-0.3267983,-0.8718128,,0.09967785,1.2986217,0.4311947,0.98269093,0.0064427024,-0.18514054,-0.105312705,-0.80276984,-0.58691555,-0.15240656,0.5962542,-0.78819615,,-0.1186933,0.2495582,-0.108569235,0.8615123,0.43461728,0.26249638,-0.47619775,0.51226664,0.7147157,0.17615965,-0.7407366,0.64828783,,-0.08330415,0.36867067,-0.36564475,0.70804185,0.6208095,-0.33655953,-0.6087092,0.29494467,-0.7365329,-0.3579802,0.726363,0.5867256,,1.112266602210185,0.5354170701699853,0.21996226494,0.47767369125774645,0.24280306008318767,0.7745591439851337,-0.4186508415021576,,-1.3789094001585347,0.07033865101843684,0.20018865728000002,1.170069884643646,-0.3732909173591833,-0.42442568537561365,0.8462856066417008,,-0.1166250822798261,-0.13014047567495718,0.09163300952,-0.11611542257629885,,4.8294663e-05,3.0398369e-06,-3.9339066e-06,1.0,-4.080683e-05,-3.0860305e-05,4.079193e-05,1.0,-7.867813e-06,3.0860305e-05,7.867813e-06,1.0,345,1.033,0,0,0.0,False,-0.26202283349042155,1.0208848282965082
1.0529705579392612,14:50:43.972240,14:49:28.008085,0,,0.11831187,0.0021907538,0.02380994,-0.80129695,-0.58627665,-0.119175434,-0.15627648,0.0128311515,0.98763,-0.5774952,0.8100092,-0.10190293,,0.058477443,-0.019438222,0.003783822,-0.6997438,-0.5214258,0.4883375,-0.61417484,0.7882345,-0.038414538,-0.36489403,-0.326805,-0.8718089,,0.09967785,1.2986217,0.4311947,0.98269093,0.0064427024,-0.18514054,-0.105312705,-0.80276984,-0.58691555,-0.15240656,0.5962542,-0.78819615,,-0.11873894,0.24956258,-0.10856854,0.8645002,0.42953765,0.26103023,-0.4709947,0.51094115,0.7190988,0.17550893,-0.74460495,0.6440187,,-0.08330366,0.36867243,-0.3656526,0.7080439,0.620803,-0.3365672,-0.60870963,0.29494038,-0.7365343,-0.35797545,0.7263703,0.5867195,,1.1121275930184489,0.5355946930260924,0.21995837607000002,0.4839643895622822,0.24239315058389135,0.780855945726484,-0.41897752963442625,,-1.3789171228914088,0.07033092828556262,0.20018087954000002,1.170069884643646,-0.3732909173591833,-0.42442568537561365,0.8462856066417008,,-0.1166250822798261,-0.13014047567495718,0.09163300952,-0.11611542257629885,,4.8294663e-05,3.0398369e-06,-3.9339066e-06,1.0,-4.080683e-05,-3.0860305e-05,4.079193e-05,1.0,-7.867813e-06,3.0860305e-05,7.867813e-06,1.0,353,1.058,0,0,0.0,False,-0.2623802998015474,1.0209813886980672
1.0741165629588068,14:50:44.001833,14:49:28.008085,0,,0.118460394,0.002207525,0.023868382,-0.8052966,-0.57986623,-0.1235009,-0.14943624,-0.0030577183,0.9887666,-0.57372993,0.8147059,-0.084190756,,0.058475588,-0.019443989,0.0037876368,-0.6997487,-0.5214178,0.48833907,-0.6141728,0.78823537,-0.038429618,-0.3648882,-0.32681575,-0.8718072,,0.09967785,1.2986217,0.4311947,0.98269093,0.0064427024,-0.18514054,-0.105312705,-0.80276984,-0.58691555,-0.15240656,0.5962542,-0.78819615,,-0.118892096,0.24961048,-0.10857097,0.8686096,0.4204105,0.26224485,-0.4632505,0.50121003,0.73088133,0.17583042,-0.7563356,0.6301112,,-0.08330286,0.36867183,-0.36565968,0.70804787,0.620797,-0.33657002,-0.6087034,0.29493198,-0.7365428,-0.35797828,0.72637886,0.5867072,,1.1116719517788698,0.5362047889231562,0.21994541317000002,0.4931907470756013,0.24266642358342222,0.7999909713324045,-0.419304217766695,,-1.3789171228914088,0.07031548281981416,0.20017439809,1.170069884643646,-0.3732909173591833,-0.42442568537561365,0.8462856066417008,,-0.1166250822798261,-0.13014047567495718,0.09163300952,-0.11611542257629885,,4.8294663e-05,3.0398369e-06,-3.9339066e-06,1.0,-4.080683e-05,-3.0860305e-05,4.079193e-05,1.0,-7.867813e-06,3.0860305e-05,7.867813e-06,1.0,361,1.083,0,0,0.0,False,-0.2626781883941529,1.0206917074933903
1.103716478915885,14:50:44.023755,14:49:28.008085,0,,0.118679665,0.0022323132,0.024000347,-0.8064848,-0.57838106,-0.122709125,-0.14297792,-0.010601848,0.9896691,-0.57370675,0.8156978,-0.074145555,,0.05847378,-0.01944679,0.0037881732,-0.69975245,-0.5214177,0.48833394,-0.6141743,0.7882338,-0.038438708,-0.3648786,-0.32681975,-0.8718097,,0.09967785,1.2986217,0.4311947,0.98269093,0.0064427024,-0.18514054,-0.105312705,-0.80276984,-0.58691555,-0.15240656,0.5962542,-0.78819615,,-0.119126335,0.24970917,-0.10860966,0.8705928,0.41781777,0.25980088,-0.45812252,0.49584332,0.73774195,0.17942117,-0.7612934,0.6230894,,-0.083301365,0.36867064,-0.36566246,0.7080498,0.6207974,-0.33656517,-0.60869664,0.2949279,-0.73655003,-0.35798588,0.72638017,0.5867009,,1.1110386876831833,0.5371006259365662,0.21989745044000003,0.4988523755496834,0.24567242657826194,0.8090564798109025,-0.4193042177666948,,-1.3789094001585347,0.07030776008693994,0.20017180551000002,1.170069884643646,-0.3732909173591833,-0.42442568537561365,0.8462856066417008,,-0.1166250822798261,-0.13014047567495718,0.09163300952,-0.11611542257629885,,4.8294663e-05,3.0398369e-06,-3.9339066e-06,1.0,-4.080683e-05,-3.0860305e-05,4.079193e-05,1.0,-7.867813e-06,3.0860305e-05,7.867813e-06,1.0,398,1.197,0,0,0.0,False,-0.26232072208302704,1.0207882678949494
1.1256361189298332,14:50:44.131180,14:49:28.172588,0,,0.11920317,0.002154,0.025047839,-0.8048814,-0.5816817,-0.11752571,-0.13843736,-0.008534074,0.9903344,-0.57706237,0.8133716,-0.0736576,,0.058475543,-0.019452572,0.0037872791,-0.6997622,-0.5214015,0.48833707,-0.6141702,0.7882356,-0.038468868,-0.3648668,-0.32684124,-0.8718066,,0.09967785,1.2986217,0.4311947,0.98269093,0.0064427024,-0.18514054,-0.105312705,-0.80276984,-0.58691555,-0.15240656,0.5962542,-0.78819615,,-0.11983351,0.25028488,-0.10934857,0.87020755,0.42171708,0.25474215,-0.456602,0.49607855,0.73852605,0.18507692,-0.75898665,0.62424815,,-0.08330333,0.3686661,-0.36566606,0.7080577,0.6207853,-0.3365708,-0.6086841,0.29491112,-0.7365671,-0.35799155,0.72639734,0.58667624,,1.1099343368821692,0.5410392197024207,0.21913134305,0.4999008252671061,0.24758533757497808,0.8055363393957791,-0.4197942499650975,,-1.3789094001585347,0.07027686915544304,0.20017050922000001,1.170069884643646,-0.3732909173591833,-0.42442568537561365,0.8462856066417008,,-0.1166250822798261,-0.13014047567495718,0.09163300952,-0.11611542257629885,,4.8294663e-05,3.0398369e-06,-3.9339066e-06,1.0,-4.080683e-05,-3.0860305e-05,4.079193e-05,1.0,-7.867813e-06,3.0860305e-05,7.867813e-06,1.0,402,1.209,0,0,0.0,False,-0.26255903295711036,1.0207399876941698
1.233048683963716,14:50:44.153316,14:49:28.172588,0,,0.11924175,0.002144836,0.025325716,-0.80482197,-0.5819786,-0.116457805,-0.13757327,-0.00794664,0.9904597,-0.57735175,0.8131651,-0.073669165,,0.058476727,-0.019452319,0.0037881136,-0.699761,-0.5214375,0.48830038,-0.6141677,0.7882407,-0.038403094,-0.36487335,-0.32677138,-0.8718301,,0.09967785,1.2986217,0.4311947,0.98269093,0.0064427024,-0.18514054,-0.105312705,-0.80276984,-0.58691555,-0.15240656,0.5962542,-0.78819615,,-0.11992176,0.25044754,-0.1095596,0.87031186,0.42211878,0.25371835,-0.45609683,0.49641868,0.7386096,0.18583046,-0.7585408,0.62456614,,-0.08330463,0.36866683,-0.36566624,0.70805776,0.6208093,-0.33652636,-0.60868764,0.29497117,-0.73654014,-0.3579854,0.7263524,0.5867356,,1.1101274052040249,0.5418887203185854,0.21892134407000002,0.5001105152105906,0.24772197407474353,0.8044447766103959,-0.41979424996509773,,-1.3789171228914088,0.07027686915544304,0.20017050922000001,1.170069884643646,-0.3732909173591833,-0.42434400663547306,0.846448950707835,,-0.1166250822798261,-0.13014047567495718,0.09163300952,-0.11611542257629885,,4.8294663e-05,3.0398369e-06,-3.9339066e-06,1.0,-4.080683e-05,-3.0860305e-05,4.079193e-05,1.0,-7.867813e-06,3.0860305e-05,7.867813e-06,1.0,410,1.234,0,0,0.0,False,-0.2629164992682367,1.020015784682478
1.25516610709019,14:50:44.170965,14:49:28.172588,0,,0.11925393,0.0021390468,0.025614202,-0.805293,-0.5816877,-0.114641055,-0.1358782,-0.007139653,0.99069977,-0.57709634,0.81338084,-0.073289216,,0.05847612,-0.01945296,0.0037890673,-0.699761,-0.52139765,0.488343,-0.6141677,0.7882376,-0.038467437,-0.36487335,-0.32684255,-0.8718034,,0.09967785,1.2986217,0.4311947,0.98269093,0.0064427024,-0.18514054,-0.105312705,-0.80276984,-0.58691555,-0.15240656,0.5962542,-0.78819615,,-0.11998571,0.2506196,-0.109782554,0.8709433,0.4219,0.251909,-0.4545969,0.49718633,0.73901784,0.18654594,-0.7581597,0.6248155,,-0.083304234,0.3686672,-0.3656674,0.70805776,0.62078184,-0.33657706,-0.60868764,0.29491103,-0.7365642,-0.3579854,0.7264003,0.5866763,,1.110482650916239,0.5427150527361274,0.21870227106,0.5013686548714977,0.24799524707427442,0.8034051534015975,-0.41963090589896335,,-1.3789171228914088,0.07027686915544304,0.20016921293,1.170069884643646,-0.3732909173591833,-0.4244256853756135,0.8466122947739692,,-0.1166250822798261,-0.13014047567495718,0.09163300952,-0.11611542257629885,,4.8294663e-05,3.0398369e-06,-3.9339066e-06,1.0,-4.080683e-05,-3.0860305e-05,4.079193e-05,1.0,-7.867813e-06,3.0860305e-05,7.867813e-06,1.0,418,1.258,0,0,0.0,False,-0.2632143878608417,1.0202089054855958
1.2728494929615408,14:50:44.200389,14:49:28.172588,0,,0.11924051,0.0021438524,0.026013017,-0.80602556,-0.58092433,-0.11335656,-0.13396564,-0.007491201,0.9909576,-0.57652056,0.813923,-0.0717859,,0.0584773,-0.019455552,0.0037881136,-0.6997658,-0.5213897,0.48834455,-0.61416566,0.7882384,-0.038482577,-0.36486742,-0.3268533,-0.87180185,,0.09967785,1.2986217,0.4311947,0.98269093,0.0064427024,-0.18514054,-0.105312705,-0.80276984,-0.58691555,-0.15240656,0.5962542,-0.78819615,,-0.12004296,0.2508678,-0.110089764,0.8718008,0.4210137,0.25042138,-0.45272684,0.49723464,0.7401325,0.18708776,-0.75862056,0.6240938,,-0.08330541,0.36866474,-0.36566862,0.7080617,0.6207758,-0.3365799,-0.6086814,0.29490262,-0.73657274,-0.35798824,0.7264089,0.5866639,,1.1111390832105483,0.5438348490028899,0.21840282807000003,0.5028364844758895,0.24799524707427442,0.8033234746614568,-0.4193042177666948,,-1.3789171228914088,0.07026142368969458,0.20016921293,1.170069884643646,-0.3732909173591833,-0.42442568537561365,0.8462856066417008,,-0.1166250822798261,-0.13014047567495718,0.09163300952,-0.11611542257629885,,4.8294663e-05,3.0398369e-06,-3.9339066e-06,1.0,-4.080683e-05,-3.0860305e-05,4.079193e-05,1.0,-7.867813e-06,3.0860305e-05,7.867813e-06,1.0,426,1.283,0,0,0.0,False,-0.2623802998015474,1.0198226638793602
1.3022479200735688,14:50:44.222069,14:49:28.172588,0,,0.11919833,0.0021368489,0.026287347,-0.807533,-0.578934,-0.11280829,-0.1324461,-0.008387566,0.99115473,-0.5747593,0.81533116,-0.06990436,,0.0584767,-0.019458964,0.0037872195,-0.69977194,-0.52138555,0.4883402,-0.614166,0.7882372,-0.038499147,-0.364855,-0.32686266,-0.8718035,,0.09967785,1.2986217,0.4311947,0.98269093,0.0064427024,-0.18514054,-0.105312705,-0.80276984,-0.58691555,-0.15240656,0.5962542,-0.78819615,,-0.1200515,0.25103065,-0.11031447,0.8731531,0.4187064,0.24957696,-0.4504351,0.4973732,0.74143654,0.18631133,-0.7598058,0.62288296,,-0.083304904,0.36866194,-0.3656708,0.7080656,0.6207732,-0.33657643,-0.60867155,0.29489434,-0.7365842,-0.35799724,0.72641444,0.5866515,,1.1117105654432409,0.5445376176944444,0.21818375506,0.5051430738542192,0.24703879157591632,0.8044301149478941,-0.41963090589896346,,-1.3789094001585347,0.07024597822394614,0.20016791664000003,1.170069884643646,-0.3732909173591833,-0.42442568537561365,0.8462856066417008,,-0.1166250822798261,-0.13014047567495718,0.09163300952,-0.11611542257629885,,4.8294663e-05,3.0398369e-06,-3.9339066e-06,1.0,-4.080683e-05,-3.0860305e-05,4.079193e-05,1.0,-7.867813e-06,3.0860305e-05,7.867813e-06,1.0,434,1.308,0,0,0.0,False,-0.2616653671792948,1.020015784682478
1.323937414912507,14:50:44.247309,14:49:28.172588,0,,0.11910992,0.0021333694,0.026682645,-0.8090988,-0.5764242,-0.114430055,-0.13124707,-0.0125588775,0.99127007,-0.5728291,0.81705403,-0.06549278,,0.05847789,-0.019461557,0.0037862659,-0.6997768,-0.52137744,0.48834175,-0.614164,0.78823817,-0.038514316,-0.36484906,-0.32687336,-0.87180203,,0.09967785,1.2986217,0.4311947,0.98269093,0.0064427024,-0.18514054,-0.105312705,-0.80276984,-0.58691555,-0.15240656,0.5962542,-0.78819615,,-0.12003603,0.25127074,-0.11064036,0.87449104,0.4154163,0.25038916,-0.44829276,0.49511206,0.74424297,0.18519999,-0.7630815,0.6191992,,-0.08330609,0.3686595,-0.36567202,0.70806956,0.6207672,-0.33657926,-0.6086653,0.29488596,-0.73659277,-0.3580001,0.726423,0.58663917,,1.1126681843196446,0.5454952365708482,0.21786875659000002,0.5070302833455799,0.24567242657826194,0.8084030498897778,-0.41914087370056063,,-1.3789094001585347,0.0702305327581977,0.20016791664000003,1.170069884643646,-0.3732909173591833,-0.42442568537561365,0.8462856066417008,,-0.1166250822798261,-0.13014047567495718,0.09163300952,-0.11611542257629885,,4.8294663e-05,3.0398369e-06,-3.9339066e-06,1.0,-4.080683e-05,-3.0860305e-05,4.079193e-05,1.0,-7.867813e-06,3.0860305e-05,7.867813e-06,1.0,442,1.332,0,0,0.0,False,-0.26243987752006825,1.0202089054855958
1.3491907638963312,14:50:44.271864,14:49:28.330140,0,,0.11904045,0.0021314695,0.026949137,-0.8095856,-0.575622,-0.115023285,-0.13026999,-0.014880568,0.99136686,-0.5723642,0.8175804,-0.06293926,,0.058480255,-0.019463867,0.0037862062,-0.6997806,-0.5213655,0.48834926,-0.61415946,0.788241,-0.038527906,-0.3648497,-0.32688546,-0.8717972,,0.09967785,1.2986217,0.4311947,0.98269093,0.0064427024,-0.18514054,-0.105312705,-0.80276984,-0.58691555,-0.15240656,0.5962542,-0.78819615,,-0.1200159,0.25143304,-0.11086194,0.8750085,0.4142424,0.25052604,-0.44723186,0.49359322,0.74588835,0.18532062,-0.7647019,0.6171607,,-0.08330856,0.36865774,-0.3656734,0.7080736,0.62075764,-0.33658835,-0.60866255,0.29487747,-0.7365984,-0.35799676,0.7264346,0.5866269,,1.1133786757440733,0.5460821642692893,0.21765746132000002,0.5076593531760334,0.24567242657826194,0.8102816609130108,-0.41897752963442614,,-1.3789171228914088,0.07021508729244924,0.20016791664000003,1.170069884643646,-0.3732909173591833,-0.42442568537561365,0.8462856066417008,,-0.1166250822798261,-0.13014047567495718,0.09163300952,-0.11611542257629885,,4.8294663e-05,3.0398369e-06,-3.9339066e-06,1.0,-4.080683e-05,-3.0860305e-05,4.079193e-05,1.0,-7.867813e-06,3.0860305e-05,7.867813e-06,1.0,475,1.434,0,0,0.0,False,-0.2626186106756321,1.0200640648832575
1.3737448719330132,14:50:44.372285,14:49:28.330140,0,,0.11863724,0.0022474825,0.02794683,-0.8111359,-0.5718627,-0.12260342,-0.13093857,-0.02674529,0.9910297,-0.57001185,0.8199132,-0.053184897,,0.058484882,-0.019473389,0.0037828684,-0.6996656,-0.52146447,0.48840827,-0.6142956,0.788135,-0.03852737,-0.36484087,-0.32698336,-0.8717641,,0.09967785,1.2986217,0.4311947,0.98269093,0.0064427024,-0.18514054,-0.105312705,-0.80276984,-0.58691555,-0.15240656,0.5962542,-0.78819615,,-0.11978514,0.25213906,-0.11164916,0.87601686,0.4086383,0.25614297,-0.44630715,0.48561528,0.75165665,0.18276876,-0.7727823,0.60778534,,-0.08331319,0.36864874,-0.36567792,0.70794994,0.6208642,-0.33665192,-0.60875225,0.29474363,-0.7365778,-0.35808882,0.7263978,0.5866162,,1.116946578331965,0.5483758159329339,0.21692116860000002,0.5064012135151263,0.24266642358342222,0.8191037965252961,-0.419957594031232,,-1.3789171228914088,0.07016102816232966,0.20016791664000003,1.1698601947001614,-0.3732909173591833,-0.424344006635473,0.8461222625755664,,-0.1166250822798261,-0.13014047567495718,0.09163300952,-0.11611542257629885,,4.8294663e-05,3.0398369e-06,-3.9339066e-06,1.0,-4.080683e-05,-3.0860305e-05,4.079193e-05,1.0,-7.867813e-06,3.0860305e-05,7.867813e-06,1.0,487,1.471,0,0,0.0,False,-0.2622015666459845,1.0201606252848165
1.4741684689652175,14:50:44.405350,14:49:28.465306,0,,0.118540406,0.0023072958,0.02814293,-0.8112949,-0.5715845,-0.12284851,-0.12939218,-0.029369444,0.9911585,-0.5701388,0.82001734,-0.05013141,,0.058487836,-0.019474238,0.0037841797,-0.6996656,-0.52145267,0.48842087,-0.6142895,0.78813946,-0.03853202,-0.36485106,-0.32699144,-0.8717569,,0.09967785,1.2986217,0.4311947,0.98269093,0.0064427024,-0.18514054,-0.105312705,-0.80276984,-0.58691555,-0.15240656,0.5962542,-0.78819615,,-0.11971788,0.25230724,-0.11178557,0.8763928,0.40801194,0.25585535,-0.4451614,0.48360285,0.75363094,0.18375805,-0.77437365,0.60545725,,-0.08331637,0.36864895,-0.3656789,0.707952,0.62085426,-0.33666584,-0.60875624,0.29473925,-0.7365763,-0.3580779,0.7264081,0.58661014,,1.1178810290097463,0.5488314571725132,0.21680190992,0.5068205934020954,0.24375951558154577,0.8210712092006442,-0.4191408737005605,,-1.3789325683571574,0.07015330542945544,0.20016791664000003,1.1698601947001614,-0.3732909173591833,-0.424344006635473,0.8461222625755664,,-0.1166250822798261,-0.13014047567495718,0.09163300952,-0.11611542257629885,,4.8294663e-05,3.0398369e-06,-3.9339066e-06,1.0,-4.080683e-05,-3.0860305e-05,4.079193e-05,1.0,-7.867813e-06,3.0860305e-05,7.867813e-06,1.0,491,1.484,0,0,0.0,False,-0.26112916771260597,1.0201606252848165
1.5072326129302382,14:50:44.435394,14:49:28.465306,0,,0.11844924,0.0023450553,0.028304279,-0.81039023,-0.57233965,-0.12527946,-0.13073823,-0.031784207,0.9909073,-0.5711174,0.81940037,-0.049069166,,0.05848962,-0.019478068,0.0037827492,-0.69967294,-0.52144057,0.48842323,-0.6142864,0.7881408,-0.038554728,-0.36484218,-0.32700753,-0.8717545,,0.09967785,1.2986217,0.4311947,0.98269093,0.0064427024,-0.18514054,-0.105312705,-0.80276984,-0.58691555,-0.15240656,0.5962542,-0.78819615,,-0.1196528,0.25243664,-0.11190718,0.8755117,0.40854886,0.25800592,-0.44683185,0.48132232,0.7541022,0.18390359,-0.77551055,0.603956,,-0.083318144,0.36864525,-0.3656807,0.707958,0.6208452,-0.33667007,-0.6087468,0.29472667,-0.73658913,-0.35808218,0.726421,0.5865916,,1.1186224113656718,0.5491635346861049,0.21669302156000003,0.5043043140802811,0.24375951558154577,0.8221330328224715,-0.4186508415021575,,-1.3789325683571574,0.07013013723083278,0.20016791664000003,1.1698601947001614,-0.3732909173591833,-0.424344006635473,0.8461222625755664,,-0.1166250822798261,-0.13014047567495718,0.09163300952,-0.11611542257629885,,4.8294663e-05,3.0398369e-06,-3.9339066e-06,1.0,-4.080683e-05,-3.0860305e-05,4.079193e-05,1.0,-7.867813e-06,3.0860305e-05,7.867813e-06,1.0,503,1.521,0,0,0.0,False,-0.2613079008681689,1.0196778232770218
1.5372736030258238,14:50:44.466974,14:49:28.465306,0,,0.118366815,0.002357833,0.02839744,-0.8114705,-0.5700892,-0.12850598,-0.13273937,-0.034342498,0.9905558,-0.5691184,0.8208647,-0.04780546,,0.058492765,-0.01948148,0.0037831068,-0.6995748,-0.52164555,0.48834494,-0.61446226,0.78800625,-0.038502127,-0.3647343,-0.32700473,-0.8718008,,0.09967785,1.2986217,0.4311947,0.98269093,0.0064427024,-0.18514054,-0.105312705,-0.80276984,-0.58691555,-0.15240656,0.5962542,-0.78819615,,-0.11958732,0.25250444,-0.11198935,0.8759535,0.4057647,0.26088402,-0.44718042,0.48017967,0.75462383,0.1809285,-0.77767766,0.6020651,,-0.08332153,0.36864308,-0.36568302,0.7078315,0.62103724,-0.33658177,-0.60878414,0.2946614,-0.73658437,-0.3582687,0.72628325,0.5866483,,1.1191089435367478,0.5493720484737089,0.21661394787000002,0.5040946241367965,0.24075351258670605,0.8245842267037928,-0.4181608093037549,,-1.3789480138229058,0.07011469176508432,0.20016791664000003,1.169650504756677,-0.37342755385894877,-0.42415090999163596,0.8459589185094323,,-0.1166250822798261,-0.13014047567495718,0.09163300952,-0.11611542257629885,,4.8294663e-05,3.0398369e-06,-3.9339066e-06,1.0,-4.080683e-05,-3.0860305e-05,4.079193e-05,1.0,-7.867813e-06,3.0860305e-05,7.867813e-06,1.0,515,1.557,0,0,0.0,False,-0.26196325577190027,1.0204020262887135
1.568821111926809,14:50:44.498181,14:49:28.465306,0,,0.11829393,0.0023311526,0.02853924,-0.81137866,-0.57015145,-0.12881008,-0.13372634,-0.033460736,0.99045324,-0.5690183,0.8208579,-0.049095035,,0.058498684,-0.019483134,0.0037856698,-0.6995748,-0.52162206,0.48837018,-0.6144502,0.7880152,-0.038511425,-0.36475453,-0.32702085,-0.87178624,,0.09967785,1.2986217,0.4311947,0.98269093,0.0064427024,-0.18514054,-0.105312705,-0.80276984,-0.58691555,-0.15240656,0.5962542,-0.78819615,,-0.11954485,0.25257078,-0.11213048,0.8757195,0.4059396,0.261397,-0.44789994,0.48087293,0.75375515,0.18028033,-0.7771578,0.6029301,,-0.08332789,0.36864346,-0.36568496,0.7078357,0.6210174,-0.33660963,-0.60879207,0.2946526,-0.7365813,-0.3582469,0.7263038,0.5866361,,1.1195645847763271,0.5495419485969418,0.21647913371000002,0.5030461744193739,0.24007033008787887,0.8230993477187608,-0.4184874974360234,,-1.3789789047544028,0.07009924629933588,0.20016791664000003,1.169650504756677,-0.37342755385894877,-0.42415090999163596,0.8459589185094323,,-0.1166250822798261,-0.13014047567495718,0.09163300952,-0.11611542257629885,,4.8294663e-05,3.0398369e-06,-3.9339066e-06,1.0,-4.080683e-05,-3.0860305e-05,4.079193e-05,1.0,-7.867813e-06,3.0860305e-05,7.867813e-06,1.0,544,1.647,0,0,0.0,False,-0.2618441003348577,1.0196778232770218
1.6000546759460121,14:50:44.586574,14:49:28.596193,0,,0.11807469,0.0023165196,0.028845131,-0.8038061,-0.5790875,-0.13621083,-0.14221534,-0.035274744,0.9892069,-0.5776421,0.8145019,-0.054001153,,0.058510527,-0.019487381,0.0037884712,-0.6995784,-0.52161455,0.48837286,-0.6144277,0.78803456,-0.03847465,-0.36478567,-0.3269859,-0.8717863,,0.09967785,1.2986217,0.4311947,0.98269093,0.0064427024,-0.18514054,-0.105312705,-0.80276984,-0.58691555,-0.15240656,0.5962542,-0.78819615,,-0.119387254,0.25274834,-0.11242289,0.8687772,0.4155564,0.26933068,-0.45995158,0.47561574,0.7498228,0.18349575,-0.7753081,0.6043399,,-0.083340295,0.3686419,-0.3656881,0.707846,0.62100554,-0.3366098,-0.6088013,0.29469112,-0.73655826,-0.3582109,0.72629833,0.5866649,,1.1209237857621908,0.5496655123229295,0.21621339426000002,0.48752911860151915,0.2425297870836568,0.8188068207282897,-0.4191408737005605,,-1.3790329638845222,0.07006063263496475,0.20016921293,1.169650504756677,-0.37342755385894877,-0.42406923125149537,0.8454688863110291,,-0.1166250822798261,-0.13014047567495718,0.09163300952,-0.11611542257629885,,4.8294663e-05,3.0398369e-06,-3.9339066e-06,1.0,-4.080683e-05,-3.0860305e-05,4.079193e-05,1.0,-7.867813e-06,3.0860305e-05,7.867813e-06,1.0,552,1.672,0,0,0.0,False,-0.26106958999408425,1.0197261034778013
1.688450563000515,14:50:44.607816,14:49:28.596193,0,,0.11799671,0.002324745,0.02895078,-0.80072033,-0.58309007,-0.13730584,-0.14391518,-0.03525096,0.98896205,-0.581494,0.8116423,-0.055689454,,0.058512304,-0.019488424,0.0037888885,-0.6995796,-0.52160674,0.4883796,-0.6144241,0.788037,-0.03848076,-0.36478925,-0.32699263,-0.8717823,,0.09967785,1.2986217,0.4311947,0.98269093,0.0064427024,-0.18514054,-0.105312705,-0.80276984,-0.58691555,-0.15240656,0.5962542,-0.78819615,,-0.119328916,0.25282016,-0.11251642,0.86623394,0.41997337,0.270668,-0.46367887,0.4739142,0.7486035,0.18612014,-0.7739688,0.60525334,,-0.08334218,0.3686414,-0.36568886,0.707848,0.6209991,-0.3366175,-0.6088017,0.2946868,-0.7365596,-0.35820615,0.7263056,0.5866588,,1.1214566543305122,0.549680957788678,0.21613691315000003,0.482286870014406,0.24498924407943473,0.8164745835011917,-0.4184874974360232,,-1.3790406866173965,0.07005290990209052,0.20016921293,1.169650504756677,-0.37342755385894877,-0.42406923125149537,0.8454688863110291,,-0.1166250822798261,-0.13014047567495718,0.09163300952,-0.11611542257629885,,4.8294663e-05,3.0398369e-06,-3.9339066e-06,1.0,-4.080683e-05,-3.0860305e-05,4.079193e-05,1.0,-7.867813e-06,3.0860305e-05,7.867813e-06,1.0,556,1.684,0,0,0.0,False,-0.2608312791200009,1.0197743836785806
1.709700085921213,14:50:44.636450,14:49:28.596193,0,,0.11784541,0.0023662224,0.029109687,-0.7946416,-0.59031606,-0.14167462,-0.14877585,-0.03689024,0.98818254,-0.5885663,0.8063287,-0.058510333,,0.058515266,-0.019492045,0.003788352,-0.69958574,-0.5215908,0.48838782,-0.61441857,0.78804034,-0.038502008,-0.36478698,-0.32701007,-0.87177676,,0.09967785,1.2986217,0.4311947,0.98269093,0.0064427024,-0.18514054,-0.105312705,-0.80276984,-0.58691555,-0.15240656,0.5962542,-0.78819615,,-0.119204246,0.25295147,-0.11264711,0.86093825,0.42775863,0.2753324,-0.47190073,0.4694202,0.7462938,0.189987,-0.7724424,0.6060014,,-0.08334525,0.36863843,-0.36569086,0.70785403,0.6209866,-0.336628,-0.6087959,0.29467413,-0.7365696,-0.35820425,0.72632146,0.5866403,,1.1224760550699098,0.5496964032544264,0.21603191366000002,0.4711733030097262,0.24840515657357073,0.8134440996883594,-0.4186508415021577,,-1.3790484093502706,0.07002974170346786,0.20016921293,1.169650504756677,-0.37342755385894877,-0.42406923125149537,0.8454688863110291,,-0.1166250822798261,-0.13014047567495718,0.09163300952,-0.11611542257629885,,4.8294663e-05,3.0398369e-06,-3.9339066e-06,1.0,-4.080683e-05,-3.0860305e-05,4.079193e-05,1.0,-7.867813e-06,3.0860305e-05,7.867813e-06,1.0,568,1.721,0,0,0.0,False,-0.26178452261633733,1.0204985866902727
1.7383329200092703,14:50:44.666247,14:49:28.596193,0,,0.11765783,0.0023777261,0.029301763,-0.79372126,-0.59178317,-0.14070915,-0.1481756,-0.036250144,0.98829645,-0.5899579,0.80528164,-0.058915466,,0.05851794,-0.019492164,0.0037905574,-0.6996136,-0.521633,0.48830298,-0.6144506,0.7880129,-0.038550705,-0.36467966,-0.3270087,-0.8718222,,0.09967785,1.2986217,0.4311947,0.98269093,0.0064427024,-0.18514054,-0.105312705,-0.80276984,-0.58691555,-0.15240656,0.5962542,-0.78819615,,-0.11905393,0.2530797,-0.11282924,0.8603649,0.42945844,0.2744771,-0.47228596,0.4692962,0.746128,0.19161995,-0.7715741,0.6065932,,-0.08334825,0.3686398,-0.36569184,0.7078612,0.621026,-0.33654016,-0.6087314,0.2946615,-0.73662794,-0.35829964,0.72629285,0.58661747,,1.1237116923297856,0.5497272941859233,0.21587506257000003,0.46949578346185006,0.2504547040700523,0.8113644374322104,-0.41848749743602354,,-1.3790715775488933,0.07002974170346786,0.20016921293,1.169650504756677,-0.3735641903587142,-0.4240394920879396,0.8456322303771635,,-0.1166250822798261,-0.13014047567495718,0.09163300952,-0.11611542257629885,,4.8294663e-05,3.0398369e-06,-3.9339066e-06,1.0,-4.080683e-05,-3.0860305e-05,4.079193e-05,1.0,-7.867813e-06,3.0860305e-05,7.867813e-06,1.0,576,1.746,0,0,0.0,False,-0.26196325577190027,1.0200640648832575
1.7681219279766083,14:50:44.688624,14:49:28.596193,0,,0.11752299,0.0023965836,0.029444724,-0.79127157,-0.5946566,-0.14238235,-0.15054405,-0.036229134,0.98793924,-0.5926429,0.80316305,-0.06085497,,0.05852149,-0.019494265,0.0037913322,-0.69961596,-0.5216172,0.48831636,-0.61444354,0.78801787,-0.038562924,-0.36468685,-0.32702214,-0.87181413,,0.09967785,1.2986217,0.4311947,0.98269093,0.0064427024,-0.18514054,-0.105312705,-0.80276984,-0.58691555,-0.15240656,0.5962542,-0.78819615,,-0.1189454,0.25318325,-0.1129576,0.8581489,0.4326415,0.27640885,-0.4758219,0.46803752,0.7446707,0.19280572,-0.77055967,0.60750616,,-0.08335202,0.36863875,-0.36569342,0.70786524,0.62101305,-0.3365555,-0.6087322,0.2946529,-0.7366307,-0.35829017,0.72630745,0.5866052,,1.1245843611445732,0.549789076048917,0.21576487792000001,0.46446322481822144,0.2515477960681759,0.809002876880109,-0.41914087370056063,,-1.379087023014642,0.0700142962377194,0.20016921293,1.169650504756677,-0.3735641903587142,-0.4240394920879396,0.8456322303771635,,-0.1166250822798261,-0.13014047567495718,0.09163300952,-0.11611542257629885,,4.8294663e-05,3.0398369e-06,-3.9339066e-06,1.0,-4.080683e-05,-3.0860305e-05,4.079193e-05,1.0,-7.867813e-06,3.0860305e-05,7.867813e-06,1.0,584,1.77,0,0,0.0,False,-0.2617249448978165,1.0197743836785806
1.7904895599931479,14:50:44.718089,14:49:28.596193,0,,0.11731649,0.002431333,0.029646873,-0.78947204,-0.5965987,-0.14423576,-0.15263295,-0.03678775,0.98759806,-0.5945057,0.80169606,-0.06201783,,0.058527995,-0.019494459,0.0037952662,-0.69961226,-0.52159375,0.4883467,-0.61443007,0.78802836,-0.038563162,-0.36471662,-0.32703424,-0.8717971,,0.09967785,1.2986217,0.4311947,0.98269093,0.0064427024,-0.18514054,-0.105312705,-0.80276984,-0.58691555,-0.15240656,0.5962542,-0.78819615,,-0.11877543,0.25333616,-0.113137715,0.85645664,0.4347257,0.27838027,-0.47862816,0.4667126,0.7437032,0.19338332,-0.7701902,0.60779107,,-0.083359085,0.36864108,-0.36569494,0.7078675,0.6209927,-0.33658823,-0.6087469,0.29464823,-0.7366204,-0.35826078,0.7263267,0.5865993,,1.1259281166646882,0.5499049170420305,0.21561061941,0.46005973600504646,0.25223097856700305,0.8072206062595184,-0.41897752963442625,,-1.379125636679013,0.07000657350484518,0.20016921293,1.169650504756677,-0.3735641903587142,-0.4240394920879396,0.8456322303771635,,-0.1166250822798261,-0.13014047567495718,0.09163300952,-0.11611542257629885,,4.8294663e-05,3.0398369e-06,-3.9339066e-06,1.0,-4.080683e-05,-3.0860305e-05,4.079193e-05,1.0,-7.867813e-06,3.0860305e-05,7.867813e-06,1.0,592,1.795,0,0,0.0,False,-0.2612483231496481,1.0202089054855958
1.8199632989708334,14:50:44.738078,14:49:28.596193,0,,0.11717867,0.0024492815,0.029803962,-0.7865093,-0.5996581,-0.14769316,-0.15649427,-0.037825197,0.9869543,-0.5974215,0.7993618,-0.06409323,,0.058531556,-0.019494638,0.0037955642,-0.69961226,-0.52158195,0.48835933,-0.6144241,0.78803277,-0.03856778,-0.36472684,-0.3270423,-0.8717898,,0.09967785,1.2986217,0.4311947,0.98269093,0.0064427024,-0.18514054,-0.105312705,-0.80276984,-0.58691555,-0.15240656,0.5962542,-0.78819615,,-0.11866661,0.25344765,-0.113278136,0.8535898,0.4379929,0.2820402,-0.48348945,0.46448672,0.74195015,0.19396496,-0.76968455,0.608246,,-0.08336266,0.3686409,-0.36569473,0.7078696,0.62098277,-0.33660218,-0.6087509,0.29464382,-0.7366189,-0.35824987,0.726337,0.5865932,,1.1268007854794755,0.5500207580351438,0.21548747186000003,0.45355934775702617,0.25250425156653394,0.8054458743894548,-0.41816080930375477,,-1.3791410821447614,0.06999885077197096,0.20017050922000001,1.169650504756677,-0.3735641903587142,-0.4240394920879396,0.8456322303771635,,-0.1166250822798261,-0.13014047567495718,0.09163300952,-0.11611542257629885,,4.8294663e-05,3.0398369e-06,-3.9339066e-06,1.0,-4.080683e-05,-3.0860305e-05,4.079193e-05,1.0,-7.867813e-06,3.0860305e-05,7.867813e-06,1.0,621,1.885,0,0,0.0,False,-0.2613079008681689,1.020112345084037
1.8399597760289907,14:50:44.821656,14:49:28.816222,0,,0.11671034,0.0025686696,0.03057611,-0.76825935,-0.6220943,-0.1509179,-0.1634512,-0.03730768,0.9858457,-0.6189193,0.7820529,-0.07302016,,0.058538646,-0.019496113,0.0037990212,-0.69961095,-0.5215944,0.48834786,-0.61440957,0.78804684,-0.038511276,-0.36475366,-0.32698858,-0.8717987,,0.09967785,1.2986217,0.4311947,0.98269093,0.0064427024,-0.18514054,-0.105312705,-0.80276984,-0.58691555,-0.15240656,0.5962542,-0.78819615,,-0.11833176,0.2540187,-0.11390392,0.8387169,0.46302885,0.28663257,-0.5023004,0.45446855,0.7356308,0.21035281,-0.76096165,0.61375,,-0.08337031,0.368642,-0.36569688,0.7078739,0.62098694,-0.33658558,-0.6087624,0.29469508,-0.73658884,-0.35822192,0.72631264,0.5866404,,1.1305076972591033,0.5507003585280755,0.21496247441000002,0.4246221355561618,0.2675342665407324,0.7904128278180694,-0.4184874974360234,,-1.3791796958091325,0.0699834053062225,0.20017050922000001,1.169650504756677,-0.3735641903587142,-0.42395781334779903,0.8457955744432979,,-0.1166250822798261,-0.13014047567495718,0.09163300952,-0.11611542257629885,,4.8294663e-05,3.0398369e-06,-3.9339066e-06,1.0,-4.080683e-05,-3.0860305e-05,4.079193e-05,1.0,-7.867813e-06,3.0860305e-05,7.867813e-06,1.0,629,1.91,0,0,0.0,False,-0.26190367805337944,1.0197743836785806
1.9235376650467515,14:50:44.850466,14:49:28.816222,0,,0.11661905,0.0025936887,0.030727774,-0.76244915,-0.6293428,-0.15032971,-0.16419476,-0.03654203,0.9857509,-0.62586844,0.7762681,-0.07547343,,0.058540422,-0.019497156,0.0037993789,-0.6996122,-0.5215865,0.4883546,-0.6144061,0.7880492,-0.038517326,-0.36475724,-0.32699528,-0.8717947,,0.09967785,1.2986217,0.4311947,0.98269093,0.0064427024,-0.18514054,-0.105312705,-0.80276984,-0.58691555,-0.15240656,0.5962542,-0.78819615,,-0.118266456,0.2541321,-0.11402573,0.8341891,0.47122824,0.286483,-0.5071906,0.45158687,0.73404837,0.21653235,-0.7576366,0.6157114,,-0.0833722,0.3686415,-0.36569765,0.7078759,0.62098044,-0.33659327,-0.6087628,0.2946908,-0.7365902,-0.35821718,0.7263199,0.58663434,,1.1312645250807774,0.550715803993824,0.21486784524000002,0.4166539177037499,0.27340963603064633,0.7855401792189827,-0.41832415336988926,,-1.3791874185420068,0.06997568257334828,0.20017050922000001,1.169650504756677,-0.3735641903587142,-0.42395781334779903,0.8457955744432979,,-0.1166250822798261,-0.13014047567495718,0.09163300952,-0.11611542257629885,,4.8294663e-05,3.0398369e-06,-3.9339066e-06,1.0,-4.080683e-05,-3.0860305e-05,4.079193e-05,1.0,-7.867813e-06,3.0860305e-05,7.867813e-06,1.0,637,1.934,0,0,0.0,False,-0.26106958999408425,1.0196778232770218
1.952349924016744,14:50:44.871490,14:49:28.940659,0,,0.11650382,0.0026181713,0.030871779,-0.7570692,-0.63545406,-0.15180367,-0.16621397,-0.037373245,0.98538125,-0.63183784,0.77123356,-0.07732728,,0.05853984,-0.019498676,0.0037981272,-0.69961584,-0.5215863,0.48834944,-0.61440754,0.7880477,-0.038526416,-0.3647477,-0.3269993,-0.8717972,,0.09967785,1.2986217,0.4311947,0.98269093,0.0064427024,-0.18514054,-0.105312705,-0.80276984,-0.58691555,-0.15240656,0.5962542,-0.78819615,,-0.118176505,0.25424057,-0.1141472,0.8297433,0.4779799,0.2882035,-0.51248544,0.44789377,0.7326321,0.22109887,-0.7555967,0.6165946,,-0.0833715,0.36863956,-0.36569807,0.7078778,0.62098086,-0.3365884,-0.6087561,0.2946867,-0.7365974,-0.35822475,0.7263212,0.5866281,,1.1320831347654452,0.5507080812609498,0.21477191978000001,0.40847600990785343,0.277645367523375,0.7823312604248154,-0.41816080930375477,,-1.3791796958091325,0.06996795984047406,0.20017050922000001,1.169650504756677,-0.3735641903587142,-0.42395781334779903,0.8457955744432979,,-0.1166250822798261,-0.13014047567495718,0.09163300952,-0.11611542257629885,,4.8294663e-05,3.0398369e-06,-3.9339066e-06,1.0,-4.080683e-05,-3.0860305e-05,4.079193e-05,1.0,-7.867813e-06,3.0860305e-05,7.867813e-06,1.0,645,1.959,0,0,0.0,False,-0.26196325577190027,1.0199675044816985
1.9733740480151027,14:50:44.899060,14:49:28.940659,0,,0.116382085,0.0026670247,0.031110138,-0.7438497,-0.65180004,-0.14779833,-0.16667071,-0.033246666,0.98545194,-0.64723134,0.7576617,-0.08390555,,0.05854518,-0.019499928,0.0037987828,-0.699617,-0.5216065,0.48832613,-0.614398,0.7880578,-0.03847274,-0.36476147,-0.3269429,-0.8718126,,0.09967785,1.2986217,0.4311947,0.98269093,0.0064427024,-0.18514054,-0.105312705,-0.80276984,-0.58691555,-0.15240656,0.5962542,-0.78819615,,-0.11809389,0.25442615,-0.114328176,0.8195258,0.4968717,0.2854751,-0.52238,0.44296956,0.72862685,0.2355773,-0.746255,0.6225808,,-0.08337696,0.36863884,-0.36569867,0.7078819,0.62099195,-0.3365593,-0.60876054,0.29473817,-0.73657316,-0.35820913,0.7262909,0.5866752,,1.133249267429453,0.5506076857335849,0.21464099449000001,0.39128143454212244,0.2918555634989808,0.7688651874171546,-0.41897752963442625,,-1.3792028640077552,0.0699525143747256,0.20017180551000002,1.169650504756677,-0.3735641903587142,-0.4238761346076584,0.8456322303771635,,-0.1166250822798261,-0.13014047567495718,0.09163300952,-0.11611542257629885,,4.8294663e-05,3.0398369e-06,-3.9339066e-06,1.0,-4.080683e-05,-3.0860305e-05,4.079193e-05,1.0,-7.867813e-06,3.0860305e-05,7.867813e-06,1.0,653,1.983,0,0,0.0,False,-0.26160578946077395,1.0196778232770218
2.000939683057368,14:50:44.922531,14:49:28.940659,0,,0.11619807,0.0027215853,0.03131038,-0.7292928,-0.6676436,-0.14961305,-0.17435855,-0.030097038,0.9842222,-0.66161245,0.74387234,-0.09445995,,0.058549203,-0.019502565,0.0037995577,-0.69948745,-0.5216778,0.48843563,-0.61453426,0.7879504,-0.0384959,-0.36478046,-0.3270879,-0.87175024,,0.09967785,1.2986217,0.4311947,0.98269093,0.0064427024,-0.18514054,-0.105312705,-0.80276984,-0.58691555,-0.15240656,0.5962542,-0.78819615,,-0.11794299,0.25459337,-0.11449004,0.80689615,0.5151868,0.2889658,-0.5373801,0.43713608,0.7212036,0.24523719,-0.7372209,0.62957454,,-0.08338122,0.3686374,-0.3657005,0.7077485,0.62107915,-0.336679,-0.60887295,0.2945649,-0.73654956,-0.3582818,0.7262866,0.5866362,,1.1343922318948383,0.5504532310761003,0.21452951355000002,0.3694736804197319,0.29978048048537637,0.7555419348309549,-0.41897752963442625,,-1.3792183094735035,0.06993706890897716,0.20017180551000002,1.1694408148131923,-0.3735641903587142,-0.4238761346076584,0.8456322303771635,,-0.1166250822798261,-0.13014047567495718,0.09163300952,-0.11611542257629885,,4.8294663e-05,3.0398369e-06,-3.9339066e-06,1.0,-4.080683e-05,-3.0860305e-05,4.079193e-05,1.0,-7.867813e-06,3.0860305e-05,7.867813e-06,1.0,661,2.008,0,0,0.0,False,-0.2617249448978165,1.0200640648832575
2.0244144999887794,14:50:44.942414,14:49:28.940659,0,,0.1161213,0.0027621984,0.03144744,-0.7191059,-0.6798973,-0.14361872,-0.17556393,-0.022213548,0.9842174,-0.672357,0.73297065,-0.10339171,,0.05855156,-0.019502118,0.0038013458,-0.69948494,-0.52167004,0.48844743,-0.61452925,0.7879544,-0.038493007,-0.36479357,-0.3270906,-0.8717438,,0.09967785,1.2986217,0.4311947,0.98269093,0.0064427024,-0.18514054,-0.105312705,-0.80276984,-0.58691555,-0.15240656,0.5962542,-0.78819615,,-0.117887266,0.25471005,-0.11458808,0.7987143,0.53009254,0.28470582,-0.54499465,0.4367848,0.7156814,0.2550222,-0.72678804,0.6377639,,-0.083383806,0.36863884,-0.3657009,0.7077486,0.62107223,-0.33669153,-0.60888004,0.2945647,-0.7365438,-0.35826945,0.72629255,0.58663625,,1.1350563869220216,0.5503528355487355,0.21446858792,0.3564729039236914,0.30893512596966083,0.7406441699305035,-0.4181608093037549,,-1.3792337549392522,0.06993706890897716,0.20017180551000002,1.1694408148131923,-0.3735641903587142,-0.4238761346076584,0.8456322303771635,,-0.1166250822798261,-0.13014047567495718,0.09163300952,-0.11611542257629885,,4.8294663e-05,3.0398369e-06,-3.9339066e-06,1.0,-4.080683e-05,-3.0860305e-05,4.079193e-05,1.0,-7.867813e-06,3.0860305e-05,7.867813e-06,1.0,690,2.098,0,0,0.0,False,-0.26202283349042155,1.0199675044816985
2.0442317149136215,14:50:45.032585,14:49:29.096744,0,,0.1156841,0.0028894246,0.03210202,-0.6693855,-0.7297796,-0.1390852,-0.20038544,-0.0029165447,0.97971284,-0.71538,0.6836762,-0.144285,,0.05853976,-0.019526869,0.0038055778,-0.69937557,-0.5217155,0.4885556,-0.6146835,0.78782743,-0.03862974,-0.36474365,-0.32732385,-0.8716771,,0.09967785,1.2986217,0.4311947,0.98269093,0.0064427024,-0.18514054,-0.105312705,-0.80276984,-0.58691555,-0.15240656,0.5962542,-0.78819615,,-0.11756085,0.25521502,-0.1151118,0.7546763,0.5900049,0.2869807,-0.59135807,0.4222307,0.68703485,0.2841819,-0.68819726,0.66755164,,-0.08337458,0.36862743,-0.36572444,0.7076222,0.6211476,-0.33681834,-0.6089492,0.29430902,-0.73658884,-0.35840166,0.72633183,0.5865069,,1.1377130070307548,0.5502138263569994,0.21409136753000002,0.28433956336501504,0.33270987692884746,0.6841753066635108,-0.4201209380973663,,-1.3792260322063778,0.06991390071035448,0.20017180551000002,1.1692311248697078,-0.3735641903587142,-0.423957813347799,0.8454688863110291,,-0.1166250822798261,-0.13014047567495718,0.09163300952,-0.11611542257629885,,4.8294663e-05,3.0398369e-06,-3.9339066e-06,1.0,-4.080683e-05,-3.0860305e-05,4.079193e-05,1.0,-7.867813e-06,3.0860305e-05,7.867813e-06,1.0,698,2.123,0,0,0.0,False,-0.2620824112089424,1.020112345084037
2.1344682660419494,14:50:45.060564,14:49:29.096744,0,,0.11559559,0.00288143,0.032198697,-0.66734654,-0.73220843,-0.13608646,-0.20156062,0.0016628802,0.97947466,-0.71695316,0.68107855,-0.14869416,,0.058546424,-0.019524299,0.003797114,-0.69937533,-0.5217159,0.48855576,-0.6146837,0.78782725,-0.03862956,-0.36474377,-0.32732397,-0.87167704,,0.099671975,1.298622,0.43118665,0.982691,0.0064430023,-0.18514031,-0.10531234,-0.80276984,-0.5869156,-0.15240656,0.5962542,-0.78819615,,-0.11748819,0.2552737,-0.115217604,0.7528162,0.5934239,0.2848085,-0.59326637,0.4242781,0.68412215,0.2851364,-0.68398553,0.6714619,,-0.083374985,0.36862707,-0.36572328,0.7076222,0.6211476,-0.33681834,-0.6089492,0.29430902,-0.73658884,-0.35840166,0.72633183,0.5865069,,1.138269043797699,0.5502061036241251,0.21399933094,0.2809845242692626,0.33352969592744014,0.6775442512110713,-0.4186508415021578,,-1.3792260322063778,0.06991390071035448,0.20017310180000003,1.1692311248697078,-0.3735641903587142,-0.423957813347799,0.8454688863110291,,-0.1166250822798261,-0.13014047567495718,0.09163300952,-0.11611542257629885,,4.3720007e-05,-2.0861626e-06,3.2186508e-06,1.0000001,-4.0508807e-05,-3.065169e-05,4.0493906e-05,1.0,-7.838011e-06,3.0644238e-05,7.8082085e-06,1.0,706,2.147,0,0,0.0,False,-0.2621419889274632,1.020112345084037
2.162448426010087,14:50:45.087638,14:49:29.096744,0,,0.115435824,0.0029002875,0.032428354,-0.65630245,-0.7420777,-0.13633694,-0.2051769,0.0016466379,0.97872347,-0.7260643,0.6703118,-0.15333802,,0.058550566,-0.01952494,0.0037993193,-0.6993741,-0.52170014,0.48857427,-0.6146753,0.78783375,-0.03863269,-0.36476046,-0.32733333,-0.87166655,,0.099671975,1.298622,0.43118665,0.982691,0.0064430023,-0.18514031,-0.10531234,-0.80276984,-0.5869156,-0.15240656,0.5962542,-0.78819615,,-0.117370754,0.25543055,-0.11541817,0.74319834,0.60496646,0.28578278,-0.6017926,0.4177471,0.6806857,0.2924071,-0.67786646,0.6745333,,-0.083379455,0.36862797,-0.36572444,0.7076243,0.62113416,-0.3368385,-0.60895675,0.29430452,-0.73658437,-0.3583846,0.7263451,0.5865009,,1.1392884445370965,0.5502061036241251,0.21383988727000003,0.2658868483383769,0.33981497491665036,0.6689885205551325,-0.4193042177666949,,-1.3792492004050005,0.06990617797748026,0.20017310180000003,1.1692311248697078,-0.3735641903587142,-0.423957813347799,0.8454688863110291,,-0.1166250822798261,-0.13014047567495718,0.09163300952,-0.11611542257629885,,4.3720007e-05,-2.0861626e-06,3.2186508e-06,1.0000001,-4.0508807e-05,-3.065169e-05,4.0493906e-05,1.0,-7.838011e-06,3.0644238e-05,7.8082085e-06,1.0,714,2.172,0,0,0.0,False,-0.26243987752006825,1.020112345084037
2.189514007885009,14:50:45.120019,14:49:29.096744,0,,0.115278855,0.0029120892,0.032630444,-0.6527957,-0.7456103,-0.13387758,-0.20312504,0.0020290017,0.9791507,-0.7297931,0.6663791,-0.15277666,,0.05855233,-0.019523181,0.0038015246,-0.6993692,-0.52169645,0.48858532,-0.6146713,0.78783727,-0.03862223,-0.36477655,-0.32733068,-0.8716608,,0.099671975,1.298622,0.43118665,0.982691,0.0064430023,-0.18514031,-0.10531234,-0.80276984,-0.5869156,-0.15240656,0.5962542,-0.78819615,,-0.11725204,0.2555649,-0.115601145,0.7407034,0.6091617,0.28333816,-0.60248256,0.41566795,0.6813479,0.29727644,-0.675383,0.67489594,,-0.08338145,0.36863062,-0.3657242,0.70762247,0.6211303,-0.33684966,-0.608967,0.2943085,-0.7365743,-0.35837087,0.7263468,0.58650714,,1.1404005180709849,0.5502061036241251,0.21369340650000002,0.26211242935565543,0.3448705254079717,0.6656011667796298,-0.41979424996509773,,-1.379264645870749,0.06991390071035448,0.20017310180000003,1.1692311248697078,-0.3735641903587142,-0.423957813347799,0.8454688863110291,,-0.1166250822798261,-0.13014047567495718,0.09163300952,-0.11611542257629885,,4.3720007e-05,-2.0861626e-06,3.2186508e-06,1.0000001,-4.0508807e-05,-3.065169e-05,4.0493906e-05,1.0,-7.838011e-06,3.0644238e-05,7.8082085e-06,1.0,726,2.209,0,0,0.0,False,-0.2607121236829584,1.0198709440801397
2.2218686619307846,14:50:45.150190,14:49:29.096744,0,,0.11508916,0.0029635653,0.032817096,-0.6473241,-0.7502199,-0.13469121,-0.20344596,-0.00023832917,0.9790861,-0.73456186,0.6611883,-0.15247503,,0.05855176,-0.019522764,0.003799677,-0.69937044,-0.5217003,0.48857942,-0.61467373,0.7878353,-0.03862372,-0.36476994,-0.32732934,-0.87166405,,0.099671975,1.298622,0.43118665,0.982691,0.0064430023,-0.18514031,-0.10531234,-0.80276984,-0.5869156,-0.15240656,0.5962542,-0.78819615,,-0.11709358,0.25572142,-0.115755625,0.73617226,0.6142919,0.28407004,-0.60570043,0.4107323,0.68148804,0.30195585,-0.673754,0.67444664,,-0.08338056,0.36862954,-0.36572284,0.7076224,0.62113374,-0.33684337,-0.60896343,0.2943086,-0.7365772,-0.35837704,0.7263438,0.5865071,,1.141682491728106,0.550198380891251,0.21357933298,0.2547732813336971,0.3493795299002312,0.6631495570597563,-0.41897752963442636,,-1.3792569231378748,0.06991390071035448,0.20017439809,1.1692311248697078,-0.3735641903587142,-0.423957813347799,0.8454688863110291,,-0.1166250822798261,-0.13014047567495718,0.09163300952,-0.11611542257629885,,4.3720007e-05,-2.0861626e-06,3.2186508e-06,1.0000001,-4.0508807e-05,-3.065169e-05,4.0493906e-05,1.0,-7.838011e-06,3.0644238e-05,7.8082085e-06,1.0,734,2.234,0,0,0.0,False,-0.2618441003348577,1.020112345084037
2.2520717210136354,14:50:45.173832,14:49:29.096744,0,,0.1149731,0.003019847,0.032943636,-0.63924354,-0.7568627,-0.13611262,-0.2054325,-0.002494067,0.9786681,-0.74105674,0.65356916,-0.15388995,,0.058552474,-0.019522019,0.003800571,-0.69950116,-0.52160937,0.48848927,-0.61452794,0.78794956,-0.038611323,-0.36476478,-0.32719907,-0.8717152,,0.099671975,1.298622,0.43118665,0.982691,0.0064430023,-0.18514031,-0.10531234,-0.80276984,-0.5869156,-0.15240656,0.5962542,-0.78819615,,-0.116995625,0.25584432,-0.11584479,0.7291893,0.62183934,0.28565502,-0.61131257,0.40433416,0.680302,0.3075385,-0.67069346,0.6749743,,-0.08338136,0.36863065,-0.36572272,0.70776,0.6210301,-0.3367453,-0.6088555,0.29447323,-0.7366007,-0.3582887,0.7263657,0.58653396,,1.1424702104812772,0.5501906581583768,0.21352359251000003,0.24407909421598634,0.35429844389178705,0.6591385125266851,-0.41897752963442636,,-1.379264645870749,0.06991390071035448,0.20017439809,1.1694408148131923,-0.3735641903587142,-0.423957813347799,0.8454688863110291,,-0.1166250822798261,-0.13014047567495718,0.09163300952,-0.11611542257629885,,4.3720007e-05,-2.0861626e-06,3.2186508e-06,1.0000001,-4.0508807e-05,-3.065169e-05,4.0493906e-05,1.0,-7.838011e-06,3.0644238e-05,7.8082085e-06,1.0,755,2.299,0,0,0.0,False,-0.2608908568385213,1.0200640648832575
2.2757168780080974,14:50:45.234221,14:49:29.245963,0,,0.11475253,0.003109932,0.03326264,-0.6193245,-0.77383435,-0.13273175,-0.20503443,-0.0037837923,0.9787474,-0.75789046,0.6333768,-0.15631938,,0.05855318,-0.019521318,0.0038015246,-0.69963205,-0.52151835,0.48839906,-0.61438215,0.78806394,-0.038598925,-0.36475947,-0.3270688,-0.8717662,,0.099671975,1.298622,0.43118665,0.982691,0.0064430023,-0.18514031,-0.10531234,-0.80276984,-0.5869156,-0.15240656,0.5962542,-0.78819615,,-0.11682564,0.2561127,-0.116084844,0.71280116,0.641825,0.28279886,-0.62146634,0.39107838,0.67885,0.32510638,-0.659635,0.67763376,,-0.08338216,0.36863175,-0.36572263,0.7078976,0.62092644,-0.33664718,-0.6087474,0.29463783,-0.7366241,-0.3582004,0.72638756,0.5865608,,1.1440610934533673,0.5500593716995149,0.21337192658,0.22080351048920413,0.37083146036340536,0.6458203036596992,-0.41897752963442625,,-1.3792723686036232,0.06991390071035448,0.20017439809,1.169650504756677,-0.3735641903587142,-0.423957813347799,0.8454688863110291,,-0.1166250822798261,-0.13014047567495718,0.09163300952,-0.11611542257629885,,4.3720007e-05,-2.0861626e-06,3.2186508e-06,1.0000001,-4.0508807e-05,-3.065169e-05,4.0493906e-05,1.0,-7.838011e-06,3.0644238e-05,7.8082085e-06,1.0,763,2.323,0,0,0.0,False,-0.2621419889274632,1.0199675044816985
2.3361009128857404,14:50:45.270182,14:49:29.245963,0,,0.11470064,0.0030939206,0.03335923,-0.60962266,-0.7807325,-0.13717525,-0.20879197,-0.00878945,0.97792053,-0.7647,0.62480354,-0.15765253,,0.05855318,-0.019521318,0.0038015246,-0.69963205,-0.52151835,0.48839906,-0.61438215,0.78806394,-0.038598925,-0.36475947,-0.3270688,-0.8717662,,0.099671975,1.298622,0.43118665,0.982691,0.0064430023,-0.18514031,-0.10531234,-0.80276984,-0.5869156,-0.15240656,0.5962542,-0.78819615,,-0.11679425,0.2561596,-0.116180174,0.7040652,0.64943886,0.28726536,-0.6286837,0.38192436,0.67741466,0.33022577,-0.6575431,0.67719126,,-0.08338216,0.36863175,-0.36572263,0.7078976,0.62092644,-0.33664718,-0.6087474,0.29463783,-0.7366241,-0.3582004,0.72638756,0.5865608,,1.1442309935766002,0.5499512534392758,0.21329674176000002,0.20801242393664815,0.3749305553563686,0.6437029476509151,-0.4191408737005605,,-1.3792723686036232,0.06991390071035448,0.20017439809,1.169650504756677,-0.3735641903587142,-0.423957813347799,0.8454688863110291,,-0.1166250822798261,-0.13014047567495718,0.09163300952,-0.11611542257629885,,4.3720007e-05,-2.0861626e-06,3.2186508e-06,1.0000001,-4.0508807e-05,-3.065169e-05,4.0493906e-05,1.0,-7.838011e-06,3.0644238e-05,7.8082085e-06,1.0,771,2.348,0,0,0.0,False,-0.26249945523859,1.0199675044816985
2.3720639639068395,14:50:45.292720,14:49:29.245963,0,,0.11468777,0.003082469,0.033426166,-0.601522,-0.78680456,-0.13823918,-0.21059501,-0.010743767,0.9775143,-0.7705978,0.61710876,-0.15923461,,0.058553495,-0.019521855,0.0038019419,-0.6996623,-0.52160823,0.4882597,-0.61441916,0.78803575,-0.03858614,-0.3646391,-0.32699355,-0.8718448,,0.099671975,1.298622,0.43118665,0.982691,0.0064430023,-0.18514031,-0.10531234,-0.80276984,-0.5869156,-0.15240656,0.5962542,-0.78819615,,-0.11679507,0.25619167,-0.11624142,0.6969798,0.6564815,0.28853276,-0.63378525,0.37571365,0.67613274,0.33546296,-0.6541187,0.67793316,,-0.08338258,0.3686317,-0.36572325,0.7079047,0.6210003,-0.33649608,-0.60867584,0.2946856,-0.7366642,-0.35830814,0.72630507,0.58659714,,1.1442309935766002,0.5498663033776593,0.21325266790000003,0.19815699659287553,0.3794395598486281,0.6399444780887926,-0.4193042177666947,,-1.3792800913364975,0.06991390071035448,0.20017439809,1.169650504756677,-0.37370082685847966,-0.4238463954441025,0.8454688863110291,,-0.1166250822798261,-0.13014047567495718,0.09163300952,-0.11611542257629885,,4.3720007e-05,-2.0861626e-06,3.2186508e-06,1.0000001,-4.0508807e-05,-3.065169e-05,4.0493906e-05,1.0,-7.838011e-06,3.0644238e-05,7.8082085e-06,1.0,779,2.372,0,0,0.0,False,-0.26178452261633733,1.0199675044816985
2.394601135980338,14:50:45.320026,14:49:29.245963,0,,0.11468239,0.003063783,0.033539504,-0.5897932,-0.7957287,-0.13769521,-0.21204743,-0.011925876,0.97718656,-0.7792174,0.60553586,-0.16169852,,0.058554083,-0.019523107,0.003801465,-0.69966483,-0.5216041,0.4882605,-0.61441815,0.7880361,-0.03859371,-0.36463615,-0.3269989,-0.87184405,,0.099671975,1.298622,0.43118665,0.982691,0.0064430023,-0.18514031,-0.10531234,-0.80276984,-0.5869156,-0.15240656,0.5962542,-0.78819615,,-0.116812386,0.25624636,-0.11634107,0.6868839,0.66709584,0.28839839,-0.64030546,0.36775997,0.6743601,0.34380144,-0.6478702,0.6797535,,-0.083383165,0.36863047,-0.36572385,0.70790666,0.62099725,-0.33649752,-0.6086727,0.2946814,-0.73666847,-0.35830954,0.72630936,0.586591,,1.1442001026451034,0.549789076048917,0.21318007566000002,0.18452715026638142,0.3868179308359619,0.6329477664074992,-0.41897752963442636,,-1.3792800913364975,0.06990617797748026,0.20017439809,1.169650504756677,-0.37370082685847966,-0.4238463954441025,0.8454688863110291,,-0.1166250822798261,-0.13014047567495718,0.09163300952,-0.11611542257629885,,4.3720007e-05,-2.0861626e-06,3.2186508e-06,1.0000001,-4.0508807e-05,-3.065169e-05,4.0493906e-05,1.0,-7.838011e-06,3.0644238e-05,7.8082085e-06,1.0,787,2.397,0,0,0.0,False,-0.26112916771260597,1.0205951470918317
2.421880966052413,14:50:45.341997,14:49:29.402302,0,,0.11467174,0.0030461252,0.033609837,-0.5836043,-0.80042374,-0.13685034,-0.2130966,-0.011660576,0.97696155,-0.7835788,0.5993212,-0.16376251,,0.05855527,-0.019522898,0.003802359,-0.6996635,-0.52160025,0.48826644,-0.61441565,0.78803813,-0.03859225,-0.36464268,-0.32700023,-0.87184083,,0.099671975,1.298622,0.43118665,0.982691,0.0064430023,-0.18514031,-0.10531234,-0.80276984,-0.5869156,-0.15240656,0.5962542,-0.78819615,,-0.11681677,0.25627556,-0.11640815,0.6814871,0.67281634,0.28791243,-0.643855,0.36419946,0.6729112,0.34788808,-0.64395416,0.6813934,,-0.08338446,0.36863118,-0.36572403,0.7079067,0.6209938,-0.33650377,-0.60867625,0.2946813,-0.73666555,-0.3583034,0.72631234,0.58659106,,1.1442078253779775,0.549750462384546,0.21312692777000003,0.17718800224442308,0.3903704798298634,0.6282539686282997,-0.4199575940312318,,-1.3792878140693716,0.06990617797748026,0.20017439809,1.169650504756677,-0.37370082685847966,-0.4238463954441025,0.8454688863110291,,-0.1166250822798261,-0.13014047567495718,0.09163300952,-0.11611542257629885,,4.3720007e-05,-2.0861626e-06,3.2186508e-06,1.0000001,-4.0508807e-05,-3.065169e-05,4.0493906e-05,1.0,-7.838011e-06,3.0644238e-05,7.8082085e-06,1.0,795,2.422,0,0,0.0,False,-0.2608908568385213,1.0202089054855958
2.4438788569532335,14:50:45.370785,14:49:29.402302,0,,0.11464013,0.0030385852,0.033706784,-0.5749389,-0.8069675,-0.13508815,-0.21482038,-0.010431856,0.9765978,-0.7894919,0.5905037,-0.16735542,,0.058556456,-0.019522645,0.0038031936,-0.6996623,-0.5215565,0.48831493,-0.61441314,0.788037,-0.03865519,-0.36464924,-0.3270728,-0.8718108,,0.099671975,1.298622,0.43118665,0.982691,0.0064430023,-0.18514031,-0.10531234,-0.80276984,-0.5869156,-0.15240656,0.5962542,-0.78819615,,-0.116804145,0.25632924,-0.11649424,0.67386365,0.6809271,0.28678575,-0.6489076,0.35982046,0.67040896,0.35330826,-0.63786167,0.6843287,,-0.08338576,0.3686319,-0.3657242,0.7079068,0.62096286,-0.33656076,-0.60867983,0.29462102,-0.7366867,-0.35829723,0.72636324,0.58653176,,1.1443313891039653,0.5497118487201749,0.21306211327000002,0.16670350507019685,0.39501612082188836,0.620626859116015,-0.41914087370056063,,-1.379295536802246,0.06990617797748026,0.20017439809,1.169650504756677,-0.37370082685847966,-0.42392807418424316,0.8456322303771635,,-0.1166250822798261,-0.13014047567495718,0.09163300952,-0.11611542257629885,,4.3720007e-05,-2.0861626e-06,3.2186508e-06,1.0000001,-4.0508807e-05,-3.065169e-05,4.0493906e-05,1.0,-7.838011e-06,3.0644238e-05,7.8082085e-06,1.0,824,2.512,0,0,0.0,False,-0.2617249448978165,1.0197743836785806
2.4726675210986286,14:50:45.446904,14:49:29.402302,0,,0.11447835,0.0030436516,0.033940345,-0.5644443,-0.8155152,-0.12781872,-0.21303299,-0.0056862533,0.9770284,-0.79750824,0.57870764,-0.17052212,,0.05855527,-0.019522898,0.003802359,-0.6996635,-0.52152056,0.48835164,-0.61441565,0.7880318,-0.038720995,-0.36464268,-0.3271427,-0.8717874,,0.099671975,1.298622,0.43118665,0.982691,0.0064430023,-0.18514031,-0.10531234,-0.80276984,-0.5869156,-0.15240656,0.5962542,-0.78819615,,-0.1166872,0.2564776,-0.116706535,0.6652799,0.69197387,0.28031188,-0.652488,0.3564122,0.6687524,0.3628526,-0.6278077,0.68861854,,-0.08338446,0.36863118,-0.36572403,0.7079067,0.62093884,-0.33660522,-0.60867625,0.29456097,-0.7367137,-0.3583034,0.7264082,0.5864724,,1.1453507898433628,0.549580562261313,0.21290526218000003,0.15517055817854802,0.4043074028059383,0.6078230022956623,-0.4194675618328292,,-1.3792878140693716,0.06990617797748026,0.20017439809,1.169650504756677,-0.37370082685847966,-0.4240097529243837,0.8457955744432979,,-0.1166250822798261,-0.13014047567495718,0.09163300952,-0.11611542257629885,,4.3720007e-05,-2.0861626e-06,3.2186508e-06,1.0000001,-4.0508807e-05,-3.065169e-05,4.0493906e-05,1.0,-7.838011e-06,3.0644238e-05,7.8082085e-06,1.0,832,2.536,0,0,0.0,False,-0.26160578946077395,1.0202089054855958
2.548674888908863,14:50:45.475041,14:49:29.533492,0,,0.11440699,0.003071934,0.03398919,-0.5590468,-0.8190361,-0.12902163,-0.21438627,-0.0075283647,0.9767199,-0.80094016,0.57369256,-0.17138147,,0.058556456,-0.019522645,0.0038031936,-0.6996623,-0.5215565,0.48831493,-0.61441314,0.788037,-0.03865519,-0.36464924,-0.3270728,-0.8718108,,0.099671975,1.298622,0.43118665,0.982691,0.0064430023,-0.18514031,-0.10531234,-0.80276984,-0.5869156,-0.15240656,0.5962542,-0.78819615,,-0.11662265,0.25653043,-0.11674285,0.6604509,0.6960651,0.28159887,-0.65570223,0.35191166,0.6679916,0.36586773,-0.62582064,0.68883187,,-0.08338576,0.3686319,-0.3657242,0.7079068,0.62096286,-0.33656076,-0.60867983,0.29462102,-0.7366867,-0.35829723,0.72636324,0.58653176,,1.1457292037541997,0.5494956121996966,0.21288841041000003,0.14825079004355873,0.40690349630148165,0.6053793471648681,-0.41946756183282896,,-1.379295536802246,0.06990617797748026,0.20017439809,1.169650504756677,-0.37370082685847966,-0.42392807418424316,0.8456322303771635,,-0.1166250822798261,-0.13014047567495718,0.09163300952,-0.11611542257629885,,4.3720007e-05,-2.0861626e-06,3.2186508e-06,1.0000001,-4.0508807e-05,-3.065169e-05,4.0493906e-05,1.0,-7.838011e-06,3.0644238e-05,7.8082085e-06,1.0,840,2.561,0,0,0.0,False,-0.2613079008681689,1.020015784682478
2.576914163073525,14:50:45.504910,14:49:29.533492,0,,0.11437664,0.003076762,0.03399226,-0.55990934,-0.8186186,-0.12792674,-0.21341108,-0.006701261,0.97693944,-0.800598,0.5742984,-0.17095023,,0.05855881,-0.019522212,0.0038049817,-0.6996599,-0.5215887,0.48828417,-0.6144082,0.7880442,-0.03858787,-0.36466235,-0.3270043,-0.87183106,,0.099671975,1.298622,0.43118665,0.982691,0.0064430023,-0.18514031,-0.10531234,-0.80276984,-0.5869156,-0.15240656,0.5962542,-0.78819615,,-0.116592966,0.25653636,-0.116748974,0.66135657,0.69565606,0.28048202,-0.6547151,0.35293326,0.6684207,0.36599946,-0.62570024,0.68887126,,-0.08338834,0.36863333,-0.3657246,0.7079069,0.6209834,-0.33652255,-0.6086869,0.29468098,-0.73665684,-0.3582849,0.72632134,0.5865912,,1.1459222720760553,0.5494261076038285,0.21288711412000003,0.14950892970446586,0.40731340580077796,0.6051267721939193,-0.41914087370056063,,-1.3793109822679943,0.06990617797748026,0.20017439809,1.169650504756677,-0.37370082685847966,-0.4238463954441026,0.8461222625755664,,-0.1166250822798261,-0.13014047567495718,0.09163300952,-0.11611542257629885,,4.3720007e-05,-2.0861626e-06,3.2186508e-06,1.0000001,-4.0508807e-05,-3.065169e-05,4.0493906e-05,1.0,-7.838011e-06,3.0644238e-05,7.8082085e-06,1.0,848,2.585,0,0,0.0,False,-0.26160578946077395,1.020112345084037
