AlexandreBanks6/ExpertPlaybackApp/resources/Motions/P_20/PC1/Data_PC1_9.csv
Task Time,PC1 Time,PC2 Time,Gaze Calib,s_T_psm1,Tx,Ty,Tz,R00,R01,R02,R10,R11,R12,R20,R21,R22,s_T_psm3,Tx,Ty,Tz,R00,R01,R02,R10,R11,R12,R20,R21,R22,cart_T_ecm,Tx,Ty,Tz,R00,R01,R02,R10,R11,R12,R20,R21,R22,ecm_T_psm1,Tx,Ty,Tz,R00,R01,R02,R10,R11,R12,R20,R21,R22,ecm_T_psm3,Tx,Ty,Tz,R00,R01,R02,R10,R11,R12,R20,R21,R22,psm1_joints,q1,q2,q3,q4,q5,q6,jaw,psm3_joints,q1,q2,q3,q4,q5,q6,jaw,ecm_joints,q1,q2,q3,q4,ecmi_T_ecm,Tx,Ty,Tz,R00,R01,R02,R10,R11,R12,R20,R21,R22,Sample #,Task Duration (s),Collisions (binary),Collisions (increments),Cumulative Collision Time (s),Clutch Press,MTMR Angle,MTML Angle
""
lci_T_si,,,,,-0.05902216,0.010539636,0.21019456,0.9780104,-0.095470026,0.1854214,0.04162175,-0.7818391,-0.62208945,0.20436059,0.61612755,-0.7606731
rci_T_si,,,,,-0.06840233,0.014540867,0.21914718,0.97457415,-0.112241976,0.19392501,0.038261294,-0.76940894,-0.6376096,0.22077419,0.6288177,-0.7455515
ecm_T_lc,,,,,-4.4061628e-05,-0.00034663224,-0.01840835,-0.99912,0.030754527,0.028518902,-0.031987965,-0.99852574,-0.043852776,0.027128186,-0.04472645,0.9986309
ecm_T_rc,,,,,-0.0043358393,0.01870579,-0.007592615,-0.99555075,-0.052743673,-0.078081585,0.04863213,-0.9973746,0.053654674,-0.08070653,0.04961868,0.9955021
cart_T_ecmi,,,,,0.09962965,1.2986269,0.43119717,0.9826964,0.0064842543,-0.18511015,-0.10526184,-0.8027695,-0.5869251,-0.15240656,0.5962542,-0.78819615
ecmac_T_ecmrep_psm1,,,,,0.044880565,-0.23049864,-0.32052848,0.99797076,0.0626086,0.011601057,-0.061749555,0.99606305,-0.0636032,-0.015537491,0.06275777,0.9979078
ecmac_T_ecmrep_psm3,,,,,0.047327206,-0.4153428,-0.56493527,0.997773,0.014750276,0.065049894,-0.025394045,0.985803,0.16597453,-0.061678212,-0.16725679,0.9839822
""
0,14:56:23.768255,14:55:07.828660,0,,0.11716725,0.0048770607,0.017325059,-0.86551696,-0.38673317,-0.31830508,-0.25910705,-0.19815537,0.94530314,-0.42865387,0.9006508,0.0713014,,0.05156387,-0.012146499,0.006279826,-0.49736375,-0.07822102,0.8640086,-0.7457548,0.54740524,-0.37973323,-0.4432595,-0.8332041,-0.33059305,,0.09966643,1.2986252,0.43118927,0.982691,0.0064430605,-0.18514027,-0.105312265,-0.80276984,-0.5869156,-0.15240656,0.5962542,-0.78819615,,-0.11611329,0.24772835,-0.102220416,0.88749176,0.19167414,0.4190697,-0.4605861,0.39814526,0.79331005,-0.0147936065,-0.8970738,0.44163308,,-0.07642074,0.3758278,-0.36268058,0.5132835,0.25365725,-0.81987685,-0.7701,-0.28552443,-0.5704575,-0.37879556,0.9241936,0.04878648,,1.1110850240804286,0.5294705658568324,0.22620260500000003,0.5194019900111668,0.05807051240031219,1.0437936804667918,-0.4062366924759525,,-1.3585831672335758,0.12320848027537783,0.19872255329000002,0.9337493183365869,-0.29650120449100575,-1.1279756211359941,0.8373016830043154,,-0.11663162726452107,-0.13014047567495718,0.09162943763999999,-0.11611542257629885,,3.7528574e-05,-3.1590462e-06,4.7683716e-07,1.0000001,-4.0456653e-05,-3.0606985e-05,4.04343e-05,1.0,-7.838011e-06,3.0599535e-05,7.778406e-06,1.0,33,0.099,0,0,0.0,False,-0.2540989969271239,1.010214903924248
0.1294897780753672,14:56:23.789972,14:55:07.828660,0,,0.11721784,0.0048515946,0.01766248,-0.8663635,-0.38962293,-0.31242344,-0.2536294,-0.1956419,0.9473101,-0.43021682,0.89995444,0.07067713,,0.051562686,-0.012144577,0.0062800646,-0.49732146,-0.078214794,0.8640334,-0.7457112,0.5475193,-0.37965432,-0.4433802,-0.83312976,-0.33061862,,0.09966643,1.2986252,0.43118927,0.982691,0.0064430605,-0.18514027,-0.105312265,-0.80276984,-0.5869156,-0.15240656,0.5962542,-0.78819615,,-0.11622594,0.24791451,-0.10248442,0.88929814,0.19493967,0.41369963,-0.45720753,0.3997279,0.7944677,-0.010494016,-0.89566517,0.44460517,,-0.07641948,0.37582928,-0.36267942,0.5132651,0.25364634,-0.81989175,-0.7701687,-0.2853955,-0.57042927,-0.37868074,0.9242364,0.048866943,,1.1113553197310264,0.5302891755415002,0.22593686555000003,0.5227570291069192,0.06203297089350997,1.0401541675588928,-0.40607334840981824,,-1.3585754445007014,0.12321620300825205,0.19872255329000002,0.9337493183365869,-0.29636456799124034,-1.1279236815594096,0.8366483067397783,,-0.11663162726452107,-0.13014047567495718,0.09162943763999999,-0.11611542257629885,,3.7528574e-05,-3.1590462e-06,4.7683716e-07,1.0000001,-4.0456653e-05,-3.0606985e-05,4.04343e-05,1.0,-7.838011e-06,3.0599535e-05,7.778406e-06,1.0,41,0.123,0,0,0.0,False,-0.2550522404234603,1.0100700633219095
0.15118269016966224,14:56:23.811102,14:55:07.828660,0,,0.1172989,0.004824795,0.018144414,-0.86826324,-0.39257523,-0.30332124,-0.244893,-0.19256175,0.95023537,-0.4314469,0.8993356,0.07105529,,0.051563766,-0.012146141,0.006279528,-0.49716097,-0.07834235,0.8641143,-0.74582756,0.54748917,-0.37946922,-0.44336453,-0.8331375,-0.33061996,,0.09966643,1.2986252,0.43118927,0.982691,0.0064430605,-0.18514027,-0.105312265,-0.80276984,-0.5869156,-0.15240656,0.5962542,-0.78819615,,-0.116394214,0.24818793,-0.10285389,0.89249057,0.19832511,0.40512678,-0.45104122,0.40180644,0.79694,-0.0047293343,-0.89399034,0.44806126,,-0.07642056,0.37582782,-0.36268017,0.5130968,0.25377107,-0.8199585,-0.77024454,-0.28540945,-0.5703199,-0.3787546,0.92419785,0.04902309,,1.1117260109089893,0.5315248128013761,0.22556483032000002,0.5290477274114549,0.06736179438436214,1.0358905480548728,-0.40591000434368407,,-1.3585754445007014,0.12320848027537783,0.19872255329000002,0.9335396283931023,-0.29636456799124034,-1.1277603240791283,0.8363216186075098,,-0.11663162726452107,-0.13014047567495718,0.09162943763999999,-0.11611542257629885,,3.7528574e-05,-3.1590462e-06,4.7683716e-07,1.0000001,-4.0456653e-05,-3.0606985e-05,4.04343e-05,1.0,-7.838011e-06,3.0599535e-05,7.778406e-06,1.0,49,0.148,0,0,0.0,False,-0.25386068605304013,1.010842546534381
0.17229575803503394,14:56:23.840299,14:55:07.828660,0,,0.11734928,0.0047787353,0.018465653,-0.87086916,-0.39172292,-0.29688436,-0.23866391,-0.19102094,0.9521294,-0.429682,0.90003556,0.072864056,,0.051564906,-0.012149613,0.0062794685,-0.49700338,-0.07832524,0.86420643,-0.74594426,0.5473923,-0.3793795,-0.44334477,-0.83320284,-0.33048195,,0.09966643,1.2986252,0.43118927,0.982691,0.0064430605,-0.18514027,-0.105312265,-0.80276984,-0.5869156,-0.15240656,0.5962542,-0.78819615,,-0.11650642,0.24834791,-0.103117794,0.89551765,0.19756655,0.39876762,-0.44501638,0.40344632,0.7994945,-0.0029279552,-0.89341956,0.44921365,,-0.0764219,0.37582543,-0.3626826,0.51293063,0.25375867,-0.8200663,-0.77031726,-0.28552255,-0.57016504,-0.37883174,0.9241663,0.049021423,,1.1118804655664738,0.5323356997531696,0.22529779458000002,0.5355481156594752,0.06900143238154742,1.0345535332105158,-0.40558331621141563,,-1.3585754445007014,0.12319303480962938,0.198721257,0.933329938449618,-0.29636456799124034,-1.1277603240791283,0.8359949304752413,,-0.11663162726452107,-0.13014047567495718,0.09162943763999999,-0.11611542257629885,,3.7528574e-05,-3.1590462e-06,4.7683716e-07,1.0000001,-4.0456653e-05,-3.0606985e-05,4.04343e-05,1.0,-7.838011e-06,3.0599535e-05,7.778406e-06,1.0,60,0.18,0,0,0.0,False,-0.2544564632382502,1.0104563049281452
0.20149393402971327,14:56:23.869861,14:55:07.924085,0,,0.1174327,0.004722081,0.018867955,-0.8727116,-0.39249176,-0.2903876,-0.23233739,-0.18925107,0.9540458,-0.4294112,0.9000745,0.07397097,,0.051564176,-0.0121501945,0.006278634,-0.49684155,-0.07825129,0.8643062,-0.74606234,0.54727143,-0.3793217,-0.4433275,-0.83328915,-0.3302874,,0.09966643,1.2986252,0.43118927,0.982691,0.0064430605,-0.18514027,-0.105312265,-0.80276984,-0.5869156,-0.15240656,0.5962542,-0.78819615,,-0.11666665,0.24854892,-0.103443295,0.8980782,0.19853668,0.39247775,-0.4398358,0.40487507,0.8016362,0.00024974762,-0.89255774,0.450933,,-0.07642109,0.37582454,-0.36268267,0.5127606,0.2536923,-0.8201932,-0.7703931,-0.28567204,-0.5699877,-0.37890774,0.92413837,0.048961423,,1.1119963065595873,0.53337826869119,0.22496724063,0.5410000541900728,0.07173416237685623,1.032406853876728,-0.40541997214528125,,-1.3585677217678274,0.12319303480962938,0.198721257,0.9331202485061334,-0.29636456799124034,-1.127842002819269,0.8364849626736439,,-0.11663162726452107,-0.13014047567495718,0.09162943763999999,-0.11611542257629885,,3.7528574e-05,-3.1590462e-06,4.7683716e-07,1.0000001,-4.0456653e-05,-3.0606985e-05,4.04343e-05,1.0,-7.838011e-06,3.0599535e-05,7.778406e-06,1.0,68,0.205,0,0,0.0,False,-0.25493308498641865,1.0105045851289247
0.23109533707611263,14:56:23.898972,14:55:07.924085,0,,0.117538616,0.004612297,0.019277856,-0.8738313,-0.3945508,-0.2841633,-0.22530928,-0.18932185,0.9557159,-0.43087673,0.89915895,0.07653928,,0.05156688,-0.012151819,0.0062790513,-0.49651623,-0.07822052,0.86449593,-0.74629205,0.54709446,-0.37912512,-0.44330537,-0.83340824,-0.33001646,,0.09966643,1.2986252,0.43118927,0.982691,0.0064430605,-0.18514027,-0.105312265,-0.80276984,-0.5869156,-0.15240656,0.5962542,-0.78819615,,-0.11685699,0.24871242,-0.10380152,0.90033245,0.2006994,0.38616216,-0.43517,0.40427443,0.80448073,0.005343312,-0.8923463,0.45131975,,-0.07642393,0.37582356,-0.36268374,0.5124214,0.25367007,-0.820412,-0.7705504,-0.28587848,-0.5696715,-0.37904674,0.9240806,0.04897529,,1.1119345246965933,0.5342818284374743,0.22460168685,0.5458229228902169,0.07637980336888121,1.031885794756672,-0.4055833162114154,,-1.3585754445007014,0.12318531207675515,0.198721257,0.9327008686191642,-0.29636456799124034,-1.127842002819269,0.8364849626736439,,-0.11663162726452107,-0.13014047567495718,0.09162943763999999,-0.11611542257629885,,3.7528574e-05,-3.1590462e-06,4.7683716e-07,1.0000001,-4.0456653e-05,-3.0606985e-05,4.04343e-05,1.0,-7.838011e-06,3.0599535e-05,7.778406e-06,1.0,76,0.23,0,0,0.0,False,-0.2540989969271239,1.011470189144514
0.2601857651025057,14:56:23.923326,14:55:07.924085,0,,0.1176732,0.00450062,0.019672737,-0.87267816,-0.40157896,-0.27779016,-0.21693586,-0.19081777,0.9573543,-0.43746063,0.8957247,0.079405546,,0.051567506,-0.01215307,0.006278515,-0.4965191,-0.078499496,0.86446905,-0.74629253,0.5472135,-0.3789523,-0.44330138,-0.8333038,-0.33028543,,0.09966643,1.2986252,0.43118927,0.982691,0.0064430605,-0.18514027,-0.105312265,-0.80276984,-0.5869156,-0.15240656,0.5962542,-0.78819615,,-0.11707289,0.24886502,-0.104143046,0.90145236,0.2079757,0.37964427,-0.43259418,0.40104344,0.8074815,0.015682701,-0.892138,0.45149064,,-0.07642454,0.3758223,-0.36268428,0.5124235,0.25393495,-0.8203287,-0.77054733,-0.28569835,-0.569766,-0.37905005,0.92406356,0.049270347,,1.1118418519021027,0.5350232107933998,0.22425428113,0.5479198223250622,0.08621763135199292,1.031459828523602,-0.40460325181460977,,-1.3585754445007014,0.12317758934388093,0.198721257,0.9327008686191642,-0.29636456799124034,-1.1275152878587067,0.8368116508059126,,-0.11663162726452107,-0.13014047567495718,0.09162943763999999,-0.11611542257629885,,3.7528574e-05,-3.1590462e-06,4.7683716e-07,1.0000001,-4.0456653e-05,-3.0606985e-05,4.04343e-05,1.0,-7.838011e-06,3.0599535e-05,7.778406e-06,1.0,87,0.262,0,0,0.0,False,-0.2551118181419816,1.011470189144514
0.28450718405656517,14:56:23.951146,14:55:07.924085,0,,0.11772466,0.004422553,0.019891933,-0.87242645,-0.40236607,-0.2774418,-0.21389134,-0.19609034,0.95697385,-0.43945742,0.89423156,0.08501169,,0.051570047,-0.01215383,0.0062794685,-0.49602744,-0.07874435,0.8647289,-0.7466373,0.5470775,-0.3784692,-0.44327125,-0.8333701,-0.33015877,,0.09966643,1.2986252,0.43118927,0.982691,0.0064430605,-0.18514027,-0.105312265,-0.80276984,-0.5869156,-0.15240656,0.5962542,-0.78819615,,-0.11717209,0.24893717,-0.10434733,0.9019523,0.2083333,0.3782582,-0.43141308,0.39596766,0.8106123,0.01909953,-0.89431924,0.44702166,,-0.07642724,0.37582234,-0.36268502,0.5119117,0.25417772,-0.82057303,-0.77078605,-0.28581405,-0.56938493,-0.37925628,0.92396104,0.049605094,,1.1117955155048573,0.5354170701699853,0.22404687473,0.5489682720424848,0.08936027084659805,1.0363299820913756,-0.4049299399468782,,-1.3585831672335758,0.12317758934388093,0.198721257,0.9320717987887107,-0.29636456799124034,-1.1271885728981443,0.8377917152027181,,-0.11663162726452107,-0.13014047567495718,0.09162943763999999,-0.11611542257629885,,3.7528574e-05,-3.1590462e-06,4.7683716e-07,1.0000001,-4.0456653e-05,-3.0606985e-05,4.04343e-05,1.0,-7.838011e-06,3.0599535e-05,7.778406e-06,1.0,95,0.287,0,0,0.0,False,-0.2551713958605024,1.0108908267351602
0.3123668141197413,14:56:23.979141,14:55:07.924085,0,,0.1177945,0.0042804033,0.02024199,-0.8724466,-0.4052475,-0.27315116,-0.20819654,-0.19746852,0.95794594,-0.44214386,0.8926256,0.08790952,,0.051572464,-0.01215389,0.006280303,-0.4959877,-0.07857649,0.86476696,-0.74659014,0.5471253,-0.37849325,-0.44339493,-0.8333546,-0.33003172,,0.09966643,1.2986252,0.43118927,0.982691,0.0064430605,-0.18514027,-0.105312265,-0.80276984,-0.5869156,-0.15240656,0.5962542,-0.78819615,,-0.11732074,0.24903871,-0.104686774,0.9031801,0.21125363,0.37368104,-0.42855763,0.39391726,0.8131221,0.024575593,-0.8945396,0.4463126,,-0.07642978,0.37582275,-0.36268523,0.5118966,0.25401324,-0.82063335,-0.7708546,-0.28578657,-0.56930596,-0.37913722,0.9240148,0.049514093,,1.1117414563747376,0.5359653842040552,0.22370335788,0.5516942413077837,0.09455245783768479,1.0369968261593452,-0.40607334840981835,,-1.35859088996645,0.1231698666110067,0.198721257,0.9320717987887107,-0.2962279314914749,-1.1272999908018408,0.8374650270704498,,-0.11663162726452107,-0.13014047567495718,0.09162943763999999,-0.11611542257629885,,3.7528574e-05,-3.1590462e-06,4.7683716e-07,1.0000001,-4.0456653e-05,-3.0606985e-05,4.04343e-05,1.0,-7.838011e-06,3.0599535e-05,7.778406e-06,1.0,103,0.312,0,0,0.0,False,-0.2551713958605024,1.0109873871367192
0.34036730299703777,14:56:24.001404,14:55:07.924085,0,,0.117811635,0.004193105,0.020455137,-0.8723309,-0.4056897,-0.27286392,-0.20779596,-0.19754386,0.9580173,-0.44256032,0.8924081,0.08802289,,0.051571913,-0.012155335,0.006278932,-0.49599215,-0.07872115,0.8647513,-0.74659294,0.54717976,-0.3784089,-0.44338536,-0.8333051,-0.33016938,,0.09966643,1.2986252,0.43118927,0.982691,0.0064430605,-0.18514027,-0.105312265,-0.80276984,-0.5869156,-0.15240656,0.5962542,-0.78819615,,-0.117386565,0.24910013,-0.10489946,0.90319276,0.21171409,0.3733898,-0.42849705,0.39372793,0.8132457,0.025161585,-0.8945141,0.44633105,,-0.0764291,0.37582082,-0.3626856,0.5118991,0.2541509,-0.8205892,-0.77084863,-0.2857013,-0.56935674,-0.37914595,0.9240033,0.049661625,,1.1117414563747376,0.536336075382018,0.22348817374000002,0.5516942413077837,0.09482573083721568,1.0367739903519526,-0.40607334840981835,,-1.3585831672335758,0.12316214387813249,0.198721257,0.9320717987887107,-0.2962279314914749,-1.1271366333215598,0.8371383389381812,,-0.11663162726452107,-0.13014047567495718,0.09162943763999999,-0.11611542257629885,,3.7528574e-05,-3.1590462e-06,4.7683716e-07,1.0000001,-4.0456653e-05,-3.0606985e-05,4.04343e-05,1.0,-7.838011e-06,3.0599535e-05,7.778406e-06,1.0,111,0.335,0,0,0.0,False,-0.25493308498641865,1.011083947538278
0.3626286790240556,14:56:24.031262,14:55:08.090794,0,,0.11784287,0.0040557906,0.020797089,-0.8728317,-0.4052226,-0.2719552,-0.20668961,-0.19786555,0.95819026,-0.44209078,0.89254904,0.08894789,,0.051572423,-0.0121575855,0.0062793493,-0.49583158,-0.07870747,0.8648446,-0.74670905,0.54708755,-0.37831306,-0.4433695,-0.833367,-0.3300347,,0.09966643,1.2986252,0.43118927,0.982691,0.0064430605,-0.18514027,-0.105312265,-0.80276984,-0.5869156,-0.15240656,0.5962542,-0.78819615,,-0.117495485,0.24920085,-0.105238214,0.90373963,0.21119203,0.3723608,-0.4273311,0.3935564,0.81394196,0.025353087,-0.894713,0.44592145,,-0.07642983,0.37581968,-0.36268753,0.51173073,0.2541416,-0.8206971,-0.77092415,-0.2858085,-0.5692007,-0.3792198,0.9239727,0.049666904,,1.1117182881761152,0.5369770622105786,0.22314465689000001,0.5529523809686907,0.09455245783768479,1.0369968261593452,-0.40607334840981835,,-1.3585831672335758,0.12315442114525825,0.19871996071000003,0.9318621088452262,-0.2962279314914749,-1.1271366333215598,0.8368116508059126,,-0.11663162726452107,-0.13014047567495718,0.09162943763999999,-0.11611542257629885,,3.7528574e-05,-3.1590462e-06,4.7683716e-07,1.0000001,-4.0456653e-05,-3.0606985e-05,4.04343e-05,1.0,-7.838011e-06,3.0599535e-05,7.778406e-06,1.0,122,0.369,0,0,0.0,False,-0.25439688551972894,1.0119047109515291
0.39247839502058923,14:56:24.060630,14:55:08.090794,0,,0.11788541,0.00394769,0.02113448,-0.8728039,-0.40626895,-0.27047914,-0.20518947,-0.19739124,0.9586104,-0.4428438,0.8921783,0.088921666,,0.051575307,-0.012160163,0.00627923,-0.49567232,-0.078683436,0.864938,-0.7468234,0.5469931,-0.37822402,-0.44335502,-0.83343124,-0.32989186,,0.09966643,1.2986252,0.43118927,0.982691,0.0064430605,-0.18514027,-0.105312265,-0.80276984,-0.5869156,-0.15240656,0.5962542,-0.78819615,,-0.11761089,0.24932177,-0.1055535,0.90403885,0.21233971,0.37097922,-0.42660692,0.3937123,0.81424636,0.026837748,-0.89437264,0.4465168,,-0.07643281,0.3758177,-0.36268896,0.51156396,0.25412238,-0.820807,-0.7709995,-0.2859199,-0.5690427,-0.37929153,0.9239435,0.04966191,,1.1117414563747376,0.5376721081692588,0.22282576955000002,0.5535814507991443,0.09550891333604287,1.0359718646130487,-0.4062366924759523,,-1.35859088996645,0.12313897567950981,0.19871996071000003,0.9316524189017417,-0.2962279314914749,-1.1271366333215598,0.8371383389381812,,-0.11663162726452107,-0.13014047567495718,0.09162943763999999,-0.11611542257629885,,3.7528574e-05,-3.1590462e-06,4.7683716e-07,1.0000001,-4.0456653e-05,-3.0606985e-05,4.04343e-05,1.0,-7.838011e-06,3.0599535e-05,7.778406e-06,1.0,130,0.393,0,0,0.0,False,-0.25546928445310746,1.0140773199866044
0.4218253130093217,14:56:24.083407,14:55:08.090794,0,,0.11792733,0.003847018,0.02146639,-0.8724753,-0.40789387,-0.26909035,-0.20404984,-0.19625792,0.9590862,-0.44401646,0.8916868,0.08799943,,0.05158008,-0.01215617,0.006282091,-0.49526542,-0.07807784,0.86522603,-0.74666727,0.5473556,-0.3780078,-0.44407207,-0.83325016,-0.32938433,,0.09966643,1.2986252,0.43118927,0.982691,0.0064430605,-0.18514027,-0.105312265,-0.80276984,-0.5869156,-0.15240656,0.5962542,-0.78819615,,-0.11772373,0.2494452,-0.10586024,0.90407294,0.2141578,0.36984932,-0.42642713,0.3943197,0.8140466,0.028495563,-0.89367133,0.4478165,,-0.076437704,0.37582198,-0.36268684,0.5112946,0.25352082,-0.8211608,-0.77148664,-0.28560388,-0.56854093,-0.37866366,0.9242065,0.049560197,,1.111780070039109,0.538367154127939,0.22251595624000003,0.5535814507991443,0.09660200533416641,1.0341003765017907,-0.4062366924759525,,-1.35859088996645,0.12313125294663559,0.19871996071000003,0.9314427289582573,-0.2954081124928823,-1.1273967470430355,0.8389351236656581,,-0.11663162726452107,-0.13014047567495718,0.09162943763999999,-0.11611542257629885,,3.7528574e-05,-3.1590462e-06,4.7683716e-07,1.0000001,-4.0456653e-05,-3.0606985e-05,4.04343e-05,1.0,-7.838011e-06,3.0599535e-05,7.778406e-06,1.0,138,0.418,0,0,0.0,False,-0.2548735072678969,1.0159119676162243
0.444624240975827,14:56:24.112929,14:55:08.090794,0,,0.11795133,0.003792055,0.021676019,-0.8723041,-0.40901732,-0.26793784,-0.20340598,-0.19476393,0.95952743,-0.4446479,0.8914997,0.086696744,,0.05159318,-0.012132671,0.006296098,-0.4955088,-0.07511355,0.86534905,-0.74455655,0.5498036,-0.37861788,-0.44733253,-0.8319099,-0.32835868,,0.09966643,1.2986252,0.43118927,0.982691,0.0064430605,-0.18514027,-0.105312265,-0.80276984,-0.5869156,-0.15240656,0.5962542,-0.78819615,,-0.1177915,0.24952997,-0.106049344,0.9041008,0.21547875,0.3690132,-0.4263064,0.3953947,0.81358826,0.029405123,-0.8928785,0.44933662,,-0.07645136,0.3758465,-0.36267537,0.5122234,0.2505455,-0.82149506,-0.7726294,-0.28328058,-0.56815135,-0.37506136,0.92573166,0.048475876,,1.1118341291692284,0.5388305181003925,0.22232540161000003,0.5535814507991443,0.09714855133322817,1.0321028088243343,-0.406400036542087,,-1.35859088996645,0.12311580748088713,0.19871866442000002,0.9331202485061334,-0.2918555634989808,-1.1290684314370343,0.841711972789941,,-0.11663162726452107,-0.13014047567495718,0.09162943763999999,-0.11611542257629885,,3.7528574e-05,-3.1590462e-06,4.7683716e-07,1.0000001,-4.0456653e-05,-3.0606985e-05,4.04343e-05,1.0,-7.838011e-06,3.0599535e-05,7.778406e-06,1.0,146,0.443,0,0,0.0,False,-0.25493308498641865,1.016443049824798
0.47416086099110544,14:56:24.139457,14:55:08.090794,0,,0.11797403,0.0037100315,0.022014216,-0.8707134,-0.41336828,-0.26643023,-0.20251465,-0.19231445,0.96020985,-0.4481586,0.89002347,0.08373752,,0.05159903,-0.012136649,0.0062956214,-0.49479026,-0.07646535,0.8656418,-0.744637,0.55082685,-0.37696892,-0.4479934,-0.8311095,-0.3294826,,0.09966643,1.2986252,0.43118927,0.982691,0.0064430605,-0.18514027,-0.105312265,-0.80276984,-0.5869156,-0.15240656,0.5962542,-0.78819615,,-0.11788433,0.24967214,-0.10635394,0.9032877,0.2203005,0.36815625,-0.427765,0.39646053,0.812303,0.03299134,-0.89122766,0.45235476,,-0.0764573,0.3758431,-0.36267722,0.51162225,0.25180966,-0.82148314,-0.77325076,-0.28189835,-0.56799346,-0.37460098,0.9258106,0.05048653,,1.112058088422581,0.5394792276618273,0.22202206975000002,0.5514845513642991,0.10015455432806786,1.0280180401402017,-0.4060733484098181,,-1.3585754445007014,0.12306947108364179,0.19871736813000002,0.9322814887321953,-0.2908991080006227,-1.1271529583382702,0.8418753168560752,,-0.11663162726452107,-0.13014047567495718,0.09162943763999999,-0.11611542257629885,,3.7528574e-05,-3.1590462e-06,4.7683716e-07,1.0000001,-4.0456653e-05,-3.0606985e-05,4.04343e-05,1.0,-7.838011e-06,3.0599535e-05,7.778406e-06,1.0,154,0.466,0,0,0.0,False,-0.2548735072678969,1.0172638132380487
0.5006313640624285,14:56:24.161969,14:55:08.090794,0,,0.11799659,0.0036744922,0.022237197,-0.8675331,-0.4214552,-0.26412505,-0.20071706,-0.18922192,0.9612012,-0.4550814,0.8868881,0.07956293,,0.05160611,-0.012141015,0.0062947273,-0.49431455,-0.0759372,0.86596,-0.7446884,0.5508856,-0.37678134,-0.44843304,-0.83111894,-0.3288602,,0.09966643,1.2986252,0.43118927,0.982691,0.0064430605,-0.18514027,-0.105312265,-0.80276984,-0.5869156,-0.15240656,0.5962542,-0.78819615,,-0.117950566,0.24978048,-0.10654201,0.901647,0.2291449,0.366777,-0.43061003,0.39704752,0.8105111,0.040096592,-0.88873273,0.4566688,,-0.076464415,0.37583905,-0.36267892,0.5112247,0.25129575,-0.82188797,-0.77366257,-0.28191444,-0.5674244,-0.37429342,0.9259453,0.050296497,,1.1123283840731788,0.5398035824425448,0.22183929286,0.547500442438093,0.10684974281657443,1.0223952053787957,-0.4057466602775496,,-1.3585754445007014,0.12302313468639645,0.19871736813000002,0.9320717987887107,-0.29048919850132643,-1.1273238545690785,0.8418753168560752,,-0.11663162726452107,-0.13014047567495718,0.09162943763999999,-0.11611542257629885,,3.7528574e-05,-3.1590462e-06,4.7683716e-07,1.0000001,-4.0456653e-05,-3.0606985e-05,4.04343e-05,1.0,-7.838011e-06,3.0599535e-05,7.778406e-06,1.0,165,0.5,0,0,0.0,False,-0.2549926627049395,1.0167810112302544
0.5231936580967158,14:56:24.194556,14:55:08.252237,0,,0.117933705,0.0036149397,0.02253218,-0.865237,-0.42763782,-0.26170784,-0.19860083,-0.18695304,0.9620843,-0.46035063,0.8844062,0.076829344,,0.05161257,-0.01215544,0.0062916875,-0.49450794,-0.07604304,0.8658403,-0.744576,0.55098414,-0.37685958,-0.4484065,-0.83104396,-0.3290857,,0.09966643,1.2986252,0.43118927,0.982691,0.0064430605,-0.18514027,-0.105312265,-0.80276984,-0.5869156,-0.15240656,0.5962542,-0.78819615,,-0.11794933,0.2499146,-0.106818646,0.9006156,0.23590945,0.36501822,-0.4321833,0.3973689,0.8095156,0.04592549,-0.88681716,0.45983276,,-0.076471224,0.37582695,-0.3626871,0.511418,0.2513939,-0.82173765,-0.7735539,-0.28178513,-0.5676367,-0.37425387,0.92595804,0.050356753,,1.1130079845661105,0.540089323558891,0.22157484970000002,0.5447744731727943,0.11258847580672293,1.0178790109038274,-0.40656338060822106,,-1.3585831672335758,0.12293818462477997,0.19871477555000003,0.9322814887321953,-0.29048919850132643,-1.1271604970887972,0.8425286931206123,,-0.11663162726452107,-0.13014047567495718,0.09162943763999999,-0.11611542257629885,,3.7528574e-05,-3.1590462e-06,4.7683716e-07,1.0000001,-4.0456653e-05,-3.0606985e-05,4.04343e-05,1.0,-7.838011e-06,3.0599535e-05,7.778406e-06,1.0,177,0.537,0,0,0.0,False,-0.2549926627049395,1.0158636874154445
0.5557597440201789,14:56:24.225452,14:55:08.252237,0,,0.1177327,0.003523752,0.022954985,-0.863383,-0.43307757,-0.25887007,-0.19611101,-0.1846818,0.9630333,-0.46487665,0.8822337,0.07451975,,0.051615898,-0.012164738,0.006288767,-0.49403542,-0.0764254,0.86607635,-0.74492896,0.550877,-0.37631825,-0.44834107,-0.8310799,-0.3290841,,0.09966643,1.2986252,0.43118927,0.982691,0.0064430605,-0.18514027,-0.105312265,-0.80276984,-0.5869156,-0.15240656,0.5962542,-0.78819615,,-0.11784013,0.25010312,-0.10724293,0.8999312,0.24189454,0.36278206,-0.43300253,0.39787585,0.80882853,0.051308986,-0.8849756,0.46280184,,-0.07647463,0.3758185,-0.3626919,0.5109185,0.25176877,-0.82193357,-0.773769,-0.2818473,-0.5673126,-0.37449136,0.9258372,0.050809864,,1.1144212446820936,0.5403055600793694,0.22117559238000004,0.5424678837944645,0.11832720879687143,1.0131177802084372,-0.40591000434368396,,-1.3585754445007014,0.12289184822753463,0.19871347926000002,0.9316524189017417,-0.29048919850132643,-1.1266704246479542,0.8418753168560752,,-0.11663162726452107,-0.13014047567495718,0.09162943763999999,-0.11611542257629885,,3.7528574e-05,-3.1590462e-06,4.7683716e-07,1.0000001,-4.0456653e-05,-3.0606985e-05,4.04343e-05,1.0,-7.838011e-06,3.0599535e-05,7.778406e-06,1.0,185,0.561,0,0,0.0,False,-0.2548735072678969,1.0147049625967375
0.5865849661640823,14:56:24.252118,14:55:08.252237,0,,0.11760091,0.0034806803,0.023168609,-0.86215544,-0.4360588,-0.25795466,-0.1953837,-0.1835978,0.9633883,-0.46745384,0.8809906,0.07309097,,0.05152682,-0.012195457,0.006280124,-0.49408057,-0.07652664,0.8660414,-0.74484956,0.55103165,-0.37624887,-0.44842306,-0.830968,-0.32925484,,0.099656925,1.2986234,0.4311932,0.98269325,0.006460602,-0.18512744,-0.10529079,-0.80276966,-0.58691967,-0.15240656,0.5962542,-0.78819615,,-0.11774826,0.25019553,-0.107462466,0.8992922,0.24516802,0.36216876,-0.43400073,0.3980017,0.8082314,0.054008707,-0.8840177,0.46432292,,-0.076379664,0.37579638,-0.3627238,0.5110003,0.2518528,-0.821857,-0.77376765,-0.28165308,-0.56741095,-0.3743826,0.92587346,0.05095076,,1.1152166861681387,0.5403750646752374,0.22097207485000003,0.5405806743031037,0.12119657529194568,1.010614646750531,-0.40591000434368396,,-1.3585754445007014,0.12286868002891195,0.19871218297,0.9316524189017417,-0.29035256200156095,-1.1264551275910883,0.8408952524592698,,-0.11663162726452107,-0.13014047567495718,0.09162943763999999,-0.11611542257629885,,2.7783215e-05,5.9604645e-07,1.1920929e-07,1.0,-2.323091e-05,-1.7568469e-05,2.321601e-05,1.0,-4.5001507e-06,1.758337e-05,4.440546e-06,1.0,193,0.586,0,0,0.0,False,-0.2551713958605024,1.0143670011912813
0.6133021481800824,14:56:24.275495,14:55:08.252237,0,,0.11739249,0.0034311637,0.023479864,-0.86202765,-0.4379659,-0.25513536,-0.1933907,-0.18108726,0.9642652,-0.468517,0.88056415,0.07140356,,0.051529415,-0.012200568,0.006284654,-0.49404457,-0.07641582,0.86607176,-0.7448007,0.5511031,-0.37624106,-0.4485439,-0.8309309,-0.32918403,,0.099656925,1.2986234,0.4311932,0.98269325,0.006460602,-0.18512744,-0.10529079,-0.80276966,-0.58691967,-0.15240656,0.5962542,-0.78819615,,-0.11760664,0.2503487,-0.10777749,0.8996121,0.24742642,0.35983074,-0.43307787,0.39973965,0.80786866,0.056049444,-0.88260317,0.46676555,,-0.07638331,0.37579632,-0.36273006,0.5109885,0.2517424,-0.8218981,-0.77383256,-0.28158888,-0.56735426,-0.3742645,0.92592305,0.050917782,,1.1165527189553797,0.540498628401225,0.22068040960000002,0.5405806743031037,0.12379266878748904,1.0067824530373473,-0.40574666027754946,,-1.35859088996645,0.12284551183028927,0.19870699781,0.9316524189017417,-0.2902159255017955,-1.126484866754644,0.8407319083931352,,-0.11663162726452107,-0.13014047567495718,0.09162943763999999,-0.11611542257629885,,2.7783215e-05,5.9604645e-07,1.1920929e-07,1.0,-2.323091e-05,-1.7568469e-05,2.321601e-05,1.0,-4.5001507e-06,1.758337e-05,4.440546e-06,1.0,212,0.643,0,0,0.0,False,-0.25540970673458663,1.0135945179788102
0.636650700122118,14:56:24.331698,14:55:08.384134,0,,0.11711261,0.0033908337,0.02402316,-0.861503,-0.44050664,-0.2525201,-0.19230399,-0.17721084,0.96520233,-0.4699273,0.88008535,0.06795642,,0.05154746,-0.012207199,0.006288588,-0.49355793,-0.07657805,0.86633486,-0.74512887,0.55095696,-0.37580505,-0.44853476,-0.83101285,-0.32898965,,0.099656925,1.2986234,0.4311932,0.98269325,0.006460602,-0.18512744,-0.10529079,-0.80276966,-0.58691967,-0.15240656,0.5962542,-0.78819615,,-0.1174354,0.25065184,-0.108281404,0.8994905,0.25048742,0.35801256,-0.433087,0.40253007,0.806477,0.057901524,-0.88046896,0.4705548,,-0.07640217,0.3757936,-0.36273476,0.5104862,0.25190586,-0.8221601,-0.77407634,-0.28173035,-0.56695133,-0.37444583,0.92583555,0.051174913,,1.118560629502678,0.5411318924969114,0.22020985633,0.5391128446987121,0.12597885278373608,1.000589114610614,-0.40607334840981824,,-1.3586681172951922,0.12279145270016971,0.19870829410000002,0.9310233490712881,-0.2902159255017955,-1.126158151794082,0.8394251558640612,,-0.11663162726452107,-0.13014047567495718,0.09162943763999999,-0.11611542257629885,,2.7783215e-05,5.9604645e-07,1.1920929e-07,1.0,-2.323091e-05,-1.7568469e-05,2.321601e-05,1.0,-4.5001507e-06,1.758337e-05,4.440546e-06,1.0,220,0.668,0,0,0.0,False,-0.25558843989015,1.0134496773764716
0.6929306229576468,14:56:24.362415,14:55:08.384134,0,,0.116999246,0.00337369,0.024344847,-0.8617917,-0.44051164,-0.25152442,-0.1914905,-0.17664427,0.96546793,-0.46973014,0.8801967,0.06787667,,0.051556982,-0.0122152455,0.0062883496,-0.49340793,-0.076517016,0.8664257,-0.74523914,0.55084676,-0.37574795,-0.44851655,-0.8310915,-0.32881552,,0.099656925,1.2986234,0.4311932,0.98269325,0.006460602,-0.18512744,-0.10529079,-0.80276966,-0.58691967,-0.15240656,0.5962542,-0.78819615,,-0.11738423,0.25083625,-0.10856427,0.8998413,0.2505451,0.3570893,-0.432321,0.40304616,0.80663025,0.058173787,-0.8802164,0.47099352,,-0.07641204,0.37578747,-0.3627393,0.5103282,0.25185162,-0.82227486,-0.7741455,-0.28186607,-0.5667894,-0.37451822,0.92580897,0.051125597,,1.1195105256462077,0.5416956519967298,0.21994152430000002,0.5393225346421967,0.12625212578326697,0.9991410977011128,-0.4062366924759525,,-1.3586990082266892,0.12273739357005013,0.19870829410000002,0.9308136591278036,-0.2902159255017955,-1.126158151794082,0.8394251558640612,,-0.11663162726452107,-0.13014047567495718,0.09162943763999999,-0.11611542257629885,,2.7783215e-05,5.9604645e-07,1.1920929e-07,1.0,-2.323091e-05,-1.7568469e-05,2.321601e-05,1.0,-4.5001507e-06,1.758337e-05,4.440546e-06,1.0,228,0.692,0,0,0.0,False,-0.2559459062012759,1.0133048367741333
0.7236155921127647,14:56:24.383266,14:55:08.384134,0,,0.1169687,0.0033733398,0.024534509,-0.8614492,-0.44264117,-0.2489456,-0.18990207,-0.17386872,0.9662851,-0.4710014,0.8796809,0.06572053,,0.051559914,-0.0122205205,0.006286323,-0.49325556,-0.076423034,0.8665208,-0.745357,0.5507101,-0.37571457,-0.44848835,-0.8311908,-0.32860312,,0.099656925,1.2986234,0.4311932,0.98269325,0.006460602,-0.18512744,-0.10529079,-0.80276966,-0.58691967,-0.15240656,0.5962542,-0.78819615,,-0.11738821,0.2509524,-0.10871721,0.899937,0.25307038,0.35506165,-0.431847,0.40494058,0.805935,0.060179416,-0.87862307,0.4737087,,-0.07641493,0.37578228,-0.36274162,0.51016563,0.25176662,-0.82240176,-0.774212,-0.28203726,-0.56661344,-0.3746023,0.92578,0.05103502,,1.119973889618661,0.542081788640441,0.21979633982000002,0.5393225346421967,0.12816503677998314,0.9954575998057085,-0.40656338060822095,,-1.3586990082266892,0.12270650263855323,0.19870829410000002,0.9306039691843192,-0.2902159255017955,-1.1262398305342223,0.8395884999301954,,-0.11663162726452107,-0.13014047567495718,0.09162943763999999,-0.11611542257629885,,2.7783215e-05,5.9604645e-07,1.1920929e-07,1.0,-2.323091e-05,-1.7568469e-05,2.321601e-05,1.0,-4.5001507e-06,1.758337e-05,4.440546e-06,1.0,236,0.717,0,0,0.0,False,-0.2551713958605024,1.013063435770236
0.7444532290101051,14:56:24.412358,14:55:08.384134,0,,0.11693727,0.00338196,0.024772689,-0.86122787,-0.44346488,-0.24824463,-0.18938896,-0.17323023,0.9665005,-0.47161242,0.8793919,0.06520325,,0.051562954,-0.0122239925,0.006285548,-0.49326253,-0.07640579,0.86651826,-0.74535626,0.5506983,-0.37573326,-0.44848186,-0.8312001,-0.3285883,,0.099656925,1.2986234,0.4311932,0.98269325,0.006460602,-0.18512744,-0.10529079,-0.80276966,-0.58691967,-0.15240656,0.5962542,-0.78819615,,-0.11739882,0.25110537,-0.10890238,0.8998955,0.25400728,0.35449737,-0.4318175,0.40527475,0.80578285,0.06100587,-0.87819856,0.4743897,,-0.076418035,0.37577924,-0.36274338,0.5101715,0.25175044,-0.8224031,-0.7742059,-0.28205344,-0.5666137,-0.37460685,0.92577946,0.051011052,,1.1204990354541082,0.5426764390717563,0.21961874809,0.5389031547552277,0.1287115827790449,0.9939501045690953,-0.406073348409818,,-1.3587067309595633,0.12268333443993056,0.19870829410000002,0.9306039691843192,-0.2902159255017955,-1.1262398305342223,0.8395884999301954,,-0.11663162726452107,-0.13014047567495718,0.09162943763999999,-0.11611542257629885,,2.7783215e-05,5.9604645e-07,1.1920929e-07,1.0,-2.323091e-05,-1.7568469e-05,2.321601e-05,1.0,-4.5001507e-06,1.758337e-05,4.440546e-06,1.0,244,0.742,0,0,0.0,False,-0.25493308498641865,1.0132082763725743
0.7735331251751631,14:56:24.433647,14:55:08.384134,0,,0.11694383,0.003395073,0.02493094,-0.85918474,-0.44786632,-0.2474212,-0.1889898,-0.17158571,0.9668719,-0.47548327,0.87748164,0.06278157,,0.051563576,-0.012225259,0.0062850714,-0.49326542,-0.07647309,0.86651075,-0.7453568,0.55072415,-0.37569422,-0.44847786,-0.8311768,-0.32865286,,0.099656925,1.2986234,0.4311932,0.98269325,0.006460602,-0.18512744,-0.10529079,-0.80276966,-0.58691967,-0.15240656,0.5962542,-0.78819615,,-0.11743169,0.2512126,-0.109014936,0.89864194,0.2588523,0.35417247,-0.43388933,0.40543887,0.80458647,0.06467376,-0.8767068,0.47665763,,-0.076418646,0.375778,-0.3627439,0.51017356,0.25181445,-0.82238215,-0.77420294,-0.28201318,-0.5666378,-0.3746102,0.9257743,0.051079832,,1.120800222036203,0.5430471302497191,0.21951245231000002,0.5359674955464443,0.13199085877341546,0.9906226449592568,-0.40672672467435533,,-1.3587067309595633,0.12267561170705633,0.19870829410000002,0.9306039691843192,-0.2902159255017955,-1.126158151794082,0.8394251558640612,,-0.11663162726452107,-0.13014047567495718,0.09162943763999999,-0.11611542257629885,,2.7783215e-05,5.9604645e-07,1.1920929e-07,1.0,-2.323091e-05,-1.7568469e-05,2.321601e-05,1.0,-4.5001507e-06,1.758337e-05,4.440546e-06,1.0,255,0.774,0,0,0.0,False,-0.2550522404234603,1.013787638781928
0.7948547620326281,14:56:24.465925,14:55:08.546776,0,,0.11695219,0.0033977628,0.02511777,-0.8549192,-0.4568017,-0.2458565,-0.18811792,-0.16868049,0.96755284,-0.48345098,0.8734294,0.05827549,,0.05156727,-0.012225736,0.0062868,-0.49277085,-0.07643117,0.8667957,-0.7456993,0.5504683,-0.3753894,-0.44845212,-0.8313501,-0.32824937,,0.099656925,1.2986234,0.4311932,0.98269325,0.006460602,-0.18512744,-0.10529079,-0.80276966,-0.58691967,-0.15240656,0.5962542,-0.78819615,,-0.11747274,0.25132912,-0.10915538,0.8960095,0.2686636,0.35353482,-0.43811467,0.405323,0.802352,0.07226697,-0.87380385,0.4808787,,-0.07642261,0.37577873,-0.3627448,0.50965977,0.25178507,-0.8227096,-0.7744438,-0.2823123,-0.5661595,-0.37481156,0.9256911,0.051110163,,1.1211863586799142,0.5433251486331911,0.21938282331000003,0.5300961771288776,0.13909595676121836,0.9846655564867617,-0.40672672467435533,,-1.3587221764253117,0.12267561170705633,0.19870829410000002,0.9299748993538655,-0.2902159255017955,-1.126158151794082,0.8394251558640612,,-0.11663162726452107,-0.13014047567495718,0.09162943763999999,-0.11611542257629885,,2.7783215e-05,5.9604645e-07,1.1920929e-07,1.0,-2.323091e-05,-1.7568469e-05,2.321601e-05,1.0,-4.5001507e-06,1.758337e-05,4.440546e-06,1.0,263,0.799,0,0,0.0,False,-0.25493308498641865,1.0131117159710155
0.8271608671639115,14:56:24.492409,14:55:08.546776,0,,0.11697457,0.0034208894,0.025275007,-0.8471134,-0.47299284,-0.24223255,-0.18552385,-0.16391876,0.9688713,-0.4979756,0.8656838,0.051106304,,0.05156913,-0.012227301,0.0062863827,-0.492735,-0.076337695,0.86682427,-0.7456545,0.5505396,-0.3753738,-0.4485659,-0.83131146,-0.32819167,,0.099656925,1.2986234,0.4311932,0.98269325,0.006460602,-0.18512744,-0.10529079,-0.80276966,-0.58691967,-0.15240656,0.5962542,-0.78819615,,-0.117519595,0.25144354,-0.10925771,0.89131045,0.28644907,0.3514436,-0.44502333,0.40446892,0.7989738,0.08671729,-0.8685343,0.48798388,,-0.07642446,0.3757772,-0.3627454,0.50964665,0.25169146,-0.8227464,-0.7745059,-0.2822456,-0.5661078,-0.37470105,0.9257369,0.05109099,,1.121657445385242,0.5433483168318138,0.21929986075000002,0.5202407497851049,0.1530328797372933,0.9747711476322569,-0.40607334840981824,,-1.3587221764253117,0.12266016624130789,0.19870829410000002,0.9299748993538655,-0.29007928900203006,-1.1261878909576377,0.8392618117979266,,-0.11663162726452107,-0.13014047567495718,0.09162943763999999,-0.11611542257629885,,2.7783215e-05,5.9604645e-07,1.1920929e-07,1.0,-2.323091e-05,-1.7568469e-05,2.321601e-05,1.0,-4.5001507e-06,1.758337e-05,4.440546e-06,1.0,271,0.824,0,0,0.0,False,-0.2551118181419816,1.013787638781928
0.8536365709733218,14:56:24.516152,14:55:08.546776,0,,0.11700227,0.0034469366,0.025386557,-0.83805025,-0.48969722,-0.24055833,-0.18429384,-0.16091588,0.96960914,-0.51352453,0.8569146,0.04460737,,0.051570375,-0.012229759,0.00628525,-0.49274075,-0.07647239,0.86680925,-0.74565554,0.55059135,-0.37529576,-0.44855785,-0.83126485,-0.3283208,,0.099656925,1.2986234,0.4311932,0.98269325,0.006460602,-0.18512744,-0.10529079,-0.80276966,-0.58691967,-0.15240656,0.5962542,-0.78819615,,-0.117563136,0.25153226,-0.10932197,0.885392,0.30469203,0.35106096,-0.4536475,0.4016018,0.7955627,0.10141489,-0.86364275,0.49379778,,-0.07642567,0.37577474,-0.36274645,0.5096509,0.25181958,-0.8227046,-0.7744999,-0.2821651,-0.5661561,-0.37470773,0.9257266,0.051228546,,1.1220204138303305,0.5432479213044489,0.21925578689000003,0.508288423006487,0.16710643921313365,0.9661538594564452,-0.4062366924759524,,-1.3587221764253117,0.12264472077555943,0.19870829410000002,0.9299748993538655,-0.29007928900203006,-1.1260245334773564,0.8392618117979267,,-0.11663162726452107,-0.13014047567495718,0.09162943763999999,-0.11611542257629885,,2.7783215e-05,5.9604645e-07,1.1920929e-07,1.0,-2.323091e-05,-1.7568469e-05,2.321601e-05,1.0,-4.5001507e-06,1.758337e-05,4.440546e-06,1.0,279,0.848,0,0,0.0,False,-0.25540970673458663,1.0135462377780307
0.8773865459952503,14:56:24.538215,14:55:08.546776,0,,0.11703546,0.0034833401,0.025564924,-0.82269263,-0.5171591,-0.23605731,-0.17913625,-0.15825063,0.97101337,-0.5395247,0.84113204,0.037549645,,0.051575426,-0.012230922,0.006287396,-0.49241132,-0.07657112,0.8669877,-0.7458805,0.5504815,-0.3750099,-0.44854563,-0.8313285,-0.32817614,,0.099656925,1.2986234,0.4311932,0.98269325,0.006460602,-0.18512744,-0.10529079,-0.80276966,-0.58691967,-0.15240656,0.5962542,-0.78819615,,-0.11762258,0.25167003,-0.10943023,0.87569517,0.33463514,0.34810522,-0.46561918,0.39425606,0.7923137,0.12789342,-0.85590976,0.50106066,,-0.07643107,0.37577516,-0.36274785,0.50930965,0.25191998,-0.82288516,-0.77466214,-0.2822751,-0.5658792,-0.3748363,0.92566574,0.051387448,,1.122692291590388,0.5429158437908572,0.2191896761,0.49025508786681793,0.1929307376688019,0.954162215813424,-0.4064000365420869,,-1.3587453446239344,0.12263699804268521,0.19870829410000002,0.9295555194668965,-0.29007928900203006,-1.1258611759970754,0.8395884999301951,,-0.11663162726452107,-0.13014047567495718,0.09162943763999999,-0.11611542257629885,,2.7783215e-05,5.9604645e-07,1.1920929e-07,1.0,-2.323091e-05,-1.7568469e-05,2.321601e-05,1.0,-4.5001507e-06,1.758337e-05,4.440546e-06,1.0,287,0.873,0,0,0.0,False,-0.2537415306159976,1.0147049625967375
0.899443584959954,14:56:24.565592,14:55:08.546776,0,,0.11701209,0.0035104528,0.0256681,-0.81104356,-0.53540885,-0.23568118,-0.17902794,-0.1563783,0.9713366,-0.5569176,0.82998985,0.030976415,,0.051577672,-0.012232263,0.0062877536,-0.49224868,-0.0766222,0.8670755,-0.7459944,0.5504229,-0.3748695,-0.4485348,-0.8313626,-0.32810465,,0.099656925,1.2986234,0.4311932,0.98269325,0.006460602,-0.18512744,-0.10529079,-0.80276966,-0.58691967,-0.15240656,0.5962542,-0.78819615,,-0.117614664,0.25175485,-0.109498575,0.86743796,0.35466304,0.34894913,-0.47627985,0.38905385,0.7885395,0.14390583,-0.8502066,0.5063989,,-0.07643343,0.37577438,-0.36274874,0.50914025,0.251972,-0.8229741,-0.7747403,-0.28233403,-0.5657429,-0.37490496,0.9256336,0.051465224,,1.123240605624458,0.5425914890101399,0.21915337998000003,0.47494772199244767,0.2083706621422967,0.945165857261913,-0.4060733484098181,,-1.3587530673568087,0.12262927530981099,0.19870829410000002,0.9293458295234119,-0.29007928900203006,-1.1257794972569348,0.840078532128598,,-0.11663162726452107,-0.13014047567495718,0.09162943763999999,-0.11611542257629885,,2.7783215e-05,5.9604645e-07,1.1920929e-07,1.0,-2.323091e-05,-1.7568469e-05,2.321601e-05,1.0,-4.5001507e-06,1.758337e-05,4.440546e-06,1.0,306,0.93,0,0,0.0,False,-0.2545756186752919,1.0143670011912813
0.9268227990251034,14:56:24.617031,14:55:08.546776,0,,0.116862796,0.0035794303,0.025931582,-0.7830361,-0.5793503,-0.22629073,-0.17209762,-0.14780724,0.97392786,-0.5976927,0.8015648,0.01603356,,0.05157981,-0.012235347,0.0062867403,-0.4919266,-0.07666722,0.8672544,-0.74622655,0.5502699,-0.37463176,-0.44850188,-0.83145976,-0.32790348,,0.099656925,1.2986234,0.4311932,0.98269325,0.006460602,-0.18512744,-0.10529079,-0.80276966,-0.58691967,-0.15240656,0.5962542,-0.78819615,,-0.11750703,0.25197193,-0.109692864,0.84825516,0.40369096,0.342778,-0.4960009,0.37876087,0.7813599,0.18559706,-0.83281076,0.5215169,,-0.07643557,0.3757715,-0.36275017,0.5088023,0.25202227,-0.8231677,-0.77489054,-0.28250173,-0.56545323,-0.37505308,0.92556876,0.051552143,,1.1250708933156492,0.5414716927433773,0.21906263968000003,0.4426554706958309,0.24977152157122512,0.9193290702355319,-0.4055833162114152,,-1.3587530673568087,0.12261382984406254,0.19870829410000002,0.9289264496364429,-0.29007928900203006,-1.1256978185167943,0.8405685643270012,,-0.11663162726452107,-0.13014047567495718,0.09162943763999999,-0.11611542257629885,,2.7783215e-05,5.9604645e-07,1.1920929e-07,1.0,-2.323091e-05,-1.7568469e-05,2.321601e-05,1.0,-4.5001507e-06,1.758337e-05,4.440546e-06,1.0,314,0.955,0,0,0.0,False,-0.2552905512975445,1.0156222864115474
0.9782324379775673,14:56:24.647261,14:55:08.721390,0,,0.11659217,0.0035572872,0.026015326,-0.7755639,-0.5894631,-0.22590648,-0.17413263,-0.14420879,0.9741056,-0.60677695,0.7948189,0.009198219,,0.051584292,-0.012238,0.006287515,-0.49160147,-0.07662763,0.86744225,-0.74645406,0.5500913,-0.37444067,-0.44847983,-0.8315815,-0.3276246,,0.099656925,1.2986234,0.4311932,0.98269325,0.006460602,-0.18512744,-0.10529079,-0.80276966,-0.58691967,-0.15240656,0.5962542,-0.78819615,,-0.11726073,0.25200787,-0.10982996,0.84232014,0.41521916,0.34364197,-0.5032329,0.377552,0.7773102,0.19301137,-0.827676,0.52697164,,-0.07644029,0.37576997,-0.36275196,0.50846344,0.25199172,-0.8233864,-0.7750465,-0.282712,-0.5651343,-0.3751904,0.92551285,0.05155658,,1.1264300943015129,0.5406221921272126,0.21896801051000003,0.43154190369115114,0.2576964385576207,0.9103347908767819,-0.40705341280662377,,-1.358768512822557,0.1225983843783141,0.19870829410000002,0.928507069749474,-0.29007928900203006,-1.1256978185167943,0.8405685643270012,,-0.11663162726452107,-0.13014047567495718,0.09162943763999999,-0.11611542257629885,,2.7783215e-05,5.9604645e-07,1.1920929e-07,1.0,-2.323091e-05,-1.7568469e-05,2.321601e-05,1.0,-4.5001507e-06,1.758337e-05,4.440546e-06,1.0,322,0.979,0,0,0.0,False,-0.2552309735790237,1.0159602478170033
1.008490890963003,14:56:24.672744,14:55:08.721390,0,,0.116328426,0.00352934,0.026093856,-0.76973045,-0.5989558,-0.22083221,-0.17422023,-0.13569891,0.9753118,-0.61413544,0.7892006,0.00010126829,,0.05159059,-0.01223639,0.0062890053,-0.4908282,-0.07506932,0.8680162,-0.74648345,0.5499827,-0.37454173,-0.4492772,-0.83179545,-0.325985,,0.099656925,1.2986234,0.4311932,0.98269325,0.006460602,-0.18512744,-0.10529079,-0.80276966,-0.58691967,-0.15240656,0.5962542,-0.78819615,,-0.11702096,0.25203595,-0.10996497,0.8379266,0.42657128,0.34046432,-0.50785565,0.3809109,0.77265096,0.19990414,-0.8203315,0.535812,,-0.07644664,0.37577164,-0.36275068,0.5078348,0.25048772,-0.8242328,-0.7757451,-0.28308165,-0.5639897,-0.37459767,0.92580813,0.05055592,,1.1277584043558795,0.5397804142439221,0.21887467763000001,0.42357368583873917,0.2653480825444854,0.8973977315782563,-0.40672672467435544,,-1.358760790089683,0.12257521617969142,0.19870829410000002,0.9278779999190202,-0.289122833503672,-1.1269678162835126,0.8415486287238066,,-0.11663162726452107,-0.13014047567495718,0.09162943763999999,-0.11611542257629885,,2.7783215e-05,5.9604645e-07,1.1920929e-07,1.0,-2.323091e-05,-1.7568469e-05,2.321601e-05,1.0,-4.5001507e-06,1.758337e-05,4.440546e-06,1.0,330,1.004,0,0,0.0,False,-0.2561842170753601,1.0169258518325928
1.0339702861383557,14:56:24.696211,14:55:08.721390,0,,0.11615489,0.0035115555,0.026147887,-0.7662566,-0.60334,-0.22097905,-0.17550012,-0.13431403,0.9752741,-0.61810243,0.78609186,-0.0029673278,,0.051593572,-0.012237165,0.0062901974,-0.49082798,-0.07505217,0.86801773,-0.7464794,0.549983,-0.37454942,-0.4492842,-0.8317969,-0.3259719,,0.099656925,1.2986234,0.4311932,0.98269325,0.006460602,-0.18512744,-0.10529079,-0.80276966,-0.58691967,-0.15240656,0.5962542,-0.78819615,,-0.11686354,0.25205636,-0.110055245,0.83507895,0.43157935,0.3411487,-0.5113247,0.38013557,0.77074254,0.2029538,-0.81806856,0.5381204,,-0.07644982,0.3757718,-0.36275154,0.507836,0.2504711,-0.8242371,-0.7757479,-0.28308403,-0.56398463,-0.37459022,0.9258119,0.05054214,,1.1286001822391698,0.539293882072846,0.21880856684000002,0.41812174730814156,0.26876399503862136,0.8933054241435968,-0.40672672467435544,,-1.3587762355554314,0.1225674934468172,0.19870829410000002,0.9278779999190202,-0.289122833503672,-1.1269678162835126,0.8415486287238066,,-0.11663162726452107,-0.13014047567495718,0.09162943763999999,-0.11611542257629885,,2.7783215e-05,5.9604645e-07,1.1920929e-07,1.0,-2.323091e-05,-1.7568469e-05,2.321601e-05,1.0,-4.5001507e-06,1.758337e-05,4.440546e-06,1.0,338,1.028,0,0,0.0,False,-0.25576717304571295,1.016732731029475
1.0574317320715636,14:56:24.717803,14:55:08.721390,0,,0.115995646,0.0035141036,0.026220754,-0.76154554,-0.61025155,-0.2182687,-0.17441359,-0.1313844,0.97586787,-0.62420195,0.7812369,-0.006381035,,0.05159898,-0.01224019,0.0062912107,-0.49083188,-0.07502119,0.86801815,-0.74647415,0.5499762,-0.3745698,-0.4492886,-0.8318041,-0.3259472,,0.099656925,1.2986234,0.4311932,0.98269325,0.006460602,-0.18512744,-0.10529079,-0.80276966,-0.58691967,-0.15240656,0.5962542,-0.78819615,,-0.11672081,0.25210425,-0.11014474,0.8317072,0.43956202,0.33918783,-0.5142395,0.3795313,0.7690993,0.20933446,-0.8140892,0.54169905,,-0.0764555,0.37577015,-0.36275363,0.50784093,0.25044137,-0.82424307,-0.7757476,-0.28309664,-0.5639787,-0.37458405,0.92581606,0.05051123,,1.1295191874512025,0.5388227953675183,0.21875153008000003,0.4124601188340594,0.2755958200268934,0.8869994202975106,-0.4075434450050267,,-1.358799403754054,0.12254432524819452,0.19870829410000002,0.9278779999190202,-0.289122833503672,-1.1269678162835126,0.8415486287238066,,-0.11663162726452107,-0.13014047567495718,0.09162943763999999,-0.11611542257629885,,2.7783215e-05,5.9604645e-07,1.1920929e-07,1.0,-2.323091e-05,-1.7568469e-05,2.321601e-05,1.0,-4.5001507e-06,1.758337e-05,4.440546e-06,1.0,346,1.053,1,1,0.006,False,-0.25588632848275505,1.0159602478170033
1.0790252920705825,14:56:24.746821,14:55:08.721390,0,,0.11582097,0.0035458505,0.026324496,-0.75303954,-0.62074685,-0.2181849,-0.17520773,-0.1304518,0.97585076,-0.6342189,0.77308184,-0.010524362,,0.051608518,-0.01224478,0.0062916875,-0.49018088,-0.07494162,0.8683929,-0.7469287,0.5496199,-0.3741864,-0.44924372,-0.83204675,-0.32538915,,0.099656925,1.2986234,0.4311932,0.98269325,0.006460602,-0.18512744,-0.10529079,-0.80276966,-0.58691967,-0.15240656,0.5962542,-0.78819615,,-0.116564766,0.2521943,-0.1102439,0.82508856,0.45137233,0.339841,-0.52107024,0.37535527,0.76654696,0.21843699,-0.80955017,0.54489803,,-0.07646528,0.37576678,-0.36275595,0.5071625,0.25037983,-0.8246794,-0.7760587,-0.2835161,-0.56333965,-0.37485877,0.92570436,0.050520692,,1.130600370053594,0.538367154127939,0.21869449332000002,0.40113686188589515,0.2847504655111779,0.8801061719308343,-0.4070534128066241,,-1.3588302946855508,0.12251343431669762,0.19870959039000002,0.9270392401450821,-0.289122833503672,-1.1269678162835126,0.8415486287238066,,-0.11663162726452107,-0.13014047567495718,0.09162943763999999,-0.11611542257629885,,2.7783215e-05,5.9604645e-07,1.1920929e-07,1.0,-2.323091e-05,-1.7568469e-05,2.321601e-05,1.0,-4.5001507e-06,1.758337e-05,4.440546e-06,1.0,359,1.094,1,1,0.047,False,-0.25558843989015,1.016732731029475
1.1080180869903415,14:56:24.776719,14:55:08.721390,0,,0.11575101,0.0035948902,0.026483342,-0.7421074,-0.6346218,-0.21571213,-0.17323789,-0.12929106,0.9763568,-0.6475069,0.76193106,-0.013992816,,0.051614825,-0.012250576,0.0062916875,-0.48990119,-0.07497421,0.86854786,-0.7472006,0.5493536,-0.37403473,-0.4490968,-0.8322197,-0.32514966,,0.099656925,1.2986234,0.4311932,0.98269325,0.006460602,-0.18512744,-0.10529079,-0.80276966,-0.58691967,-0.15240656,0.5962542,-0.78819615,,-0.1165185,0.2523309,-0.11035217,0.81703913,0.46704224,0.3381104,-0.52773935,0.36955097,0.76480275,0.23224618,-0.80330795,0.5484142,,-0.076471865,0.37576252,-0.3627594,0.50684446,0.25042295,-0.8248618,-0.77614284,-0.28381503,-0.5630731,-0.37511462,0.92560107,0.0505139,,1.1313803660738906,0.5382049767375803,0.21863227140000002,0.38876515522030813,0.2982774789879565,0.8718528766296678,-0.4067267246743552,,-1.3588534628841735,0.12248254338520072,0.19870959039000002,0.9266198602581132,-0.28925947000343744,-1.1269380771199566,0.8413852846576723,,-0.11663162726452107,-0.13014047567495718,0.09162943763999999,-0.11611542257629885,,2.7783215e-05,5.9604645e-07,1.1920929e-07,1.0,-2.323091e-05,-1.7568469e-05,2.321601e-05,1.0,-4.5001507e-06,1.758337e-05,4.440546e-06,1.0,363,1.106,1,1,0.059,False,-0.2555288621716292,1.016539610226357
1.1379491910338402,14:56:24.800932,14:55:08.721390,0,,0.11571706,0.0036289245,0.026646778,-0.7312429,-0.64735603,-0.21497425,-0.1730616,-0.12877443,0.9764563,-0.65979797,0.7512305,-0.017867178,,0.05162041,-0.012254555,0.006292045,-0.49007207,-0.07502037,0.8684475,-0.74708056,0.5494594,-0.37411895,-0.44910997,-0.8321457,-0.3253209,,0.099656925,1.2986234,0.4311932,0.98269325,0.006460602,-0.18512744,-0.10529079,-0.80276966,-0.58691967,-0.15240656,0.5962542,-0.78819615,,-0.116510086,0.25245818,-0.11046511,0.80864847,0.48143652,0.33809254,-0.5352148,0.3635044,0.76250225,0.24419832,-0.79754835,0.55161923,,-0.07647769,0.37575984,-0.36276183,0.50702286,0.25046307,-0.82474,-0.77606183,-0.28368697,-0.56324923,-0.37504113,0.9256295,0.05053905,,1.131905511909338,0.5381818085389576,0.21855579029000002,0.37555468878078313,0.30989158146801893,0.8640159296182831,-0.40738010093889254,,-1.3588766310827962,0.12245165245370383,0.19870959039000002,0.9268295502015975,-0.28925947000343744,-1.126856398379816,0.8415486287238066,,-0.11663162726452107,-0.13014047567495718,0.09162943763999999,-0.11611542257629885,,2.7783215e-05,5.9604645e-07,1.1920929e-07,1.0,-2.323091e-05,-1.7568469e-05,2.321601e-05,1.0,-4.5001507e-06,1.758337e-05,4.440546e-06,1.0,376,1.146,1,1,0.099,False,-0.25588632848275505,1.016539610226357
1.1621613299939781,14:56:24.846160,14:55:08.913949,0,,0.11573087,0.0036907494,0.026873603,-0.7106737,-0.66989845,-0.21489275,-0.17499459,-0.12752745,0.97627544,-0.6814101,0.73141825,-0.026598275,,0.051629297,-0.0122613795,0.006292343,-0.48991895,-0.075033456,0.8685328,-0.74719,0.5493845,-0.37401044,-0.449095,-0.832194,-0.32521805,,0.099656925,1.2986234,0.4311932,0.98269325,0.006460602,-0.18512744,-0.10529079,-0.80276966,-0.58691967,-0.15240656,0.5962542,-0.78819615,,-0.11655598,0.25264588,-0.11059972,0.7921772,0.50711507,0.33954322,-0.55014354,0.35253057,0.7570101,0.26419184,-0.78648365,0.55825275,,-0.076486945,0.37575495,-0.36276585,0.50686234,0.25047898,-0.8248338,-0.7761332,-0.28377044,-0.56310886,-0.3751104,0.9255996,0.050572496,,1.132283925820175,0.5382049767375803,0.21847930918000003,0.35060158550612475,0.3280642359368225,0.849605742127362,-0.40721675687275793,,-1.3589075220142932,0.12240531605645848,0.19870959039000002,0.9266198602581132,-0.28925947000343744,-1.1267747196396756,0.8417119727899408,,-0.11663162726452107,-0.13014047567495718,0.09162943763999999,-0.11611542257629885,,2.7783215e-05,5.9604645e-07,1.1920929e-07,1.0,-2.323091e-05,-1.7568469e-05,2.321601e-05,1.0,-4.5001507e-06,1.758337e-05,4.440546e-06,1.0,389,1.187,1,1,0.14,False,-0.25535012901606535,1.0171189726357106
1.2073179360013455,14:56:24.874825,14:55:08.913949,0,,0.11575702,0.0037466437,0.027054831,-0.6895441,-0.691797,-0.21434936,-0.17741092,-0.1256024,0.9760889,-0.7021781,0.7110843,-0.03612405,,0.051631615,-0.012265358,0.006290853,-0.4897634,-0.07508434,0.8686161,-0.74730694,0.54931384,-0.37388057,-0.4490701,-0.83223605,-0.32514477,,0.099656925,1.2986234,0.4311932,0.98269325,0.006460602,-0.18512744,-0.10529079,-0.80276966,-0.58691967,-0.15240656,0.5962542,-0.78819615,,-0.11660658,0.25280088,-0.11070006,0.77494717,0.5323451,0.34068394,-0.5649417,0.3417679,0.75102305,0.28336862,-0.77446973,0.56559604,,-0.07648923,0.37575102,-0.3627676,0.5066973,0.25053135,-0.82491934,-0.7762019,-0.28384313,-0.5629775,-0.37519118,0.92556316,0.050640352,,1.1324615486762821,0.5381431948745865,0.21843393903000002,0.3250194124010128,0.3456903444065643,0.8338442939681341,-0.4077067890711612,,-1.3589075220142932,0.1223821478578358,0.19870959039000002,0.9264101703146286,-0.28925947000343744,-1.126693040899535,0.8418753168560751,,-0.11663162726452107,-0.13014047567495718,0.09162943763999999,-0.11611542257629885,,2.7783215e-05,5.9604645e-07,1.1920929e-07,1.0,-2.323091e-05,-1.7568469e-05,2.321601e-05,1.0,-4.5001507e-06,1.758337e-05,4.440546e-06,1.0,398,1.216,1,1,0.169,False,-0.25582675076423333,1.0180362964505203
1.2360389141831547,14:56:24.907168,14:55:08.913949,0,,0.115794085,0.0037953258,0.027252391,-0.6663741,-0.71606284,-0.2078447,-0.1789712,-0.11699557,0.9768733,-0.72381955,0.6881612,-0.05019191,,0.051635664,-0.0122677125,0.0062915087,-0.48960188,-0.07547976,0.86867285,-0.7474187,0.5494055,-0.37352225,-0.44906014,-0.83213973,-0.3254049,,0.099656925,1.2986234,0.4311932,0.98269325,0.006460602,-0.18512744,-0.10529079,-0.80276966,-0.58691967,-0.15240656,0.5962542,-0.78819615,,-0.11667165,0.2529601,-0.11081492,0.7559914,0.56120205,0.33694103,-0.5796143,0.33471894,0.7429741,0.30417803,-0.75697786,0.5783254,,-0.07649349,0.3757497,-0.3627692,0.5065293,0.25091025,-0.82490736,-0.77627933,-0.28367636,-0.5629548,-0.37525785,0.9255116,0.051086053,,1.132554221470773,0.5380659675458442,0.21837949485000002,0.297130649917571,0.36536600037278777,0.8091421693809497,-0.40787013313729537,,-1.3589229674800416,0.12236670239208736,0.19870959039000002,0.926200480371144,-0.28925947000343744,-1.1262029684586916,0.8431820693851497,,-0.11663162726452107,-0.13014047567495718,0.09162943763999999,-0.11611542257629885,,2.7783215e-05,5.9604645e-07,1.1920929e-07,1.0,-2.323091e-05,-1.7568469e-05,2.321601e-05,1.0,-4.5001507e-06,1.758337e-05,4.440546e-06,1.0,411,1.257,1,1,0.21,False,-0.25582675076423333,1.0174086538403875
1.2683049410115927,14:56:24.947931,14:55:08.913949,0,,0.11575315,0.0038531795,0.02748017,-0.63480073,-0.7458145,-0.20196198,-0.18907109,-0.103500456,0.9764936,-0.7491862,0.658064,-0.0753099,,0.05163618,-0.012272898,0.0062885284,-0.48948961,-0.07569471,0.8687175,-0.74758375,0.5492816,-0.37337422,-0.4489079,-0.83220196,-0.3254557,,0.099656925,1.2986234,0.4311932,0.98269325,0.006460602,-0.18512744,-0.10529079,-0.80276966,-0.58691967,-0.15240656,0.5962542,-0.78819615,,-0.11666483,0.25314566,-0.110964656,0.72840494,0.59731424,0.3356217,-0.60338444,0.32718185,0.72724086,0.32458198,-0.7322348,0.598731,,-0.07649385,0.3757441,-0.36277127,0.50638217,0.25112376,-0.8249327,-0.776277,-0.283784,-0.56290376,-0.37546122,0.9254207,0.051238447,,1.1327395670597542,0.5379115128883598,0.21829912487000003,0.25707987071202687,0.38258219934323323,0.7737036835983733,-0.40868685346796674,,-1.3589152447471673,0.12234353419346468,0.19870959039000002,0.9259907904276595,-0.28939610650320285,-1.1260098718148546,0.8430187253190151,,-0.11663162726452107,-0.13014047567495718,0.09162943763999999,-0.11611542257629885,,2.7783215e-05,5.9604645e-07,1.1920929e-07,1.0,-2.323091e-05,-1.7568469e-05,2.321601e-05,1.0,-4.5001507e-06,1.758337e-05,4.440546e-06,1.0,420,1.285,1,1,0.238,False,-0.25558843989015,1.0174569340411665
1.309164492180571,14:56:24.977424,14:55:08.913949,0,,0.11573051,0.0039152578,0.027688071,-0.6049713,-0.7709018,-0.19929881,-0.19631869,-0.09815991,0.9756144,-0.77166605,0.6293448,-0.09195855,,0.051639043,-0.012275476,0.0062884092,-0.48932967,-0.07552935,0.8688219,-0.7476977,0.5491266,-0.37337396,-0.4488924,-0.83231926,-0.32517698,,0.099656925,1.2986234,0.4311932,0.98269325,0.006460602,-0.18512744,-0.10529079,-0.80276966,-0.58691967,-0.15240656,0.5962542,-0.78819615,,-0.11667176,0.25332227,-0.11109255,0.702372,0.6275851,0.3358727,-0.62311804,0.3140071,0.71632636,0.34408933,-0.71241593,0.6116094,,-0.07649682,0.3757421,-0.3627727,0.50621456,0.25097036,-0.82508224,-0.77635145,-0.28398693,-0.5626987,-0.37553325,0.9254001,0.051082894,,1.1328245171213707,0.5378111173609949,0.21823819924,0.22017444065875058,0.39966176181391333,0.7469528834342524,-0.4075434450050267,,-1.3589229674800416,0.12232808872771624,0.19870959039000002,0.9257811004841751,-0.28939610650320285,-1.1261732292951359,0.8426920371867465,,-0.11663162726452107,-0.13014047567495718,0.09162943763999999,-0.11611542257629885,,2.7783215e-05,5.9604645e-07,1.1920929e-07,1.0,-2.323091e-05,-1.7568469e-05,2.321601e-05,1.0,-4.5001507e-06,1.758337e-05,4.440546e-06,1.0,433,1.326,1,1,0.279,False,-0.25600548391979716,1.0182776974544174
1.3386427501682192,14:56:25.009358,14:55:09.062257,0,,0.1157135,0.00394956,0.027863547,-0.5850061,-0.7890173,-0.18766823,-0.19744147,-0.08588165,0.9765456,-0.78662854,0.60833865,-0.105543524,,0.05164266,-0.012278248,0.0062866807,-0.48933667,-0.07565403,0.86880714,-0.74769706,0.5491758,-0.37330294,-0.4488859,-0.8322755,-0.32529813,,0.099656925,1.2986234,0.4311932,0.98269325,0.006460602,-0.18512744,-0.10529079,-0.80276966,-0.58691967,-0.15240656,0.5962542,-0.78819615,,-0.11668199,0.253457,-0.11121088,0.6854109,0.650571,0.32706156,-0.63332826,0.31098577,0.7086488,0.35931486,-0.692853,0.62517804,,-0.076500274,0.37573874,-0.36277324,0.5062204,0.25108895,-0.82504255,-0.7763454,-0.28391117,-0.56274533,-0.37553793,0.92539114,0.051210117,,1.1329635263131066,0.5377338900322526,0.21817468103,0.19689885693196837,0.41387195778951913,0.7197647820829771,-0.4083601653356981,,-1.358930690212916,0.12230492052909356,0.19871088668000003,0.9257811004841751,-0.28939610650320285,-1.1260098718148546,0.8430187253190151,,-0.11663162726452107,-0.13014047567495718,0.09162943763999999,-0.11611542257629885,,2.7783215e-05,5.9604645e-07,1.1920929e-07,1.0,-2.323091e-05,-1.7568469e-05,2.321601e-05,1.0,-4.5001507e-06,1.758337e-05,4.440546e-06,1.0,442,1.355,1,1,0.308,False,-0.2564821056679656,1.018132856852079
1.370587000157684,14:56:25.041746,14:55:09.062257,0,,0.115628935,0.003935583,0.027990952,-0.5677088,-0.8035737,-0.17881802,-0.20552695,-0.07198718,0.9760003,-0.79716074,0.59083587,-0.12428838,,0.051647037,-0.012282673,0.0062860847,-0.48885116,-0.07560769,0.8690845,-0.7480419,0.548903,-0.37301308,-0.44884026,-0.8324597,-0.32488948,,0.099656925,1.2986234,0.4311932,0.98269325,0.006460602,-0.18512744,-0.10529079,-0.80276966,-0.58691967,-0.15240656,0.5962542,-0.78819615,,-0.116623946,0.25352466,-0.111335866,0.6693719,0.66966826,0.32169187,-0.64630663,0.31135997,0.69666547,0.36637276,-0.6742399,0.64122665,,-0.076504774,0.37573507,-0.36277556,0.50571203,0.2510559,-0.82536435,-0.77657175,-0.2842298,-0.56227195,-0.3757548,0.9253023,0.051224496,,1.1330870900390944,0.5375562671761455,0.21808005186,0.17425234303563975,0.41906414478060583,0.6926608545031558,-0.4077067890711612,,-1.35893841294579,0.12228175233047088,0.19871088668000003,0.9251520306537214,-0.28939610650320285,-1.1260098718148546,0.8430187253190151,,-0.11663162726452107,-0.13014047567495718,0.09162943763999999,-0.11611542257629885,,2.7783215e-05,5.9604645e-07,1.1920929e-07,1.0,-2.323091e-05,-1.7568469e-05,2.321601e-05,1.0,-4.5001507e-06,1.758337e-05,4.440546e-06,1.0,455,1.396,1,1,0.349,False,-0.25576717304571295,1.0183742578559765
1.402952283155173,14:56:25.081309,14:55:09.062257,0,,0.11562864,0.003941372,0.028230712,-0.54326,-0.8227463,-0.16720375,-0.19951658,-0.06693441,0.9776057,-0.81551313,0.5644539,-0.12778884,,0.05165239,-0.012290169,0.0062838197,-0.48870257,-0.07571229,0.86915886,-0.7481581,0.5488508,-0.37285706,-0.44880855,-0.8324846,-0.3248695,,0.099656925,1.2986234,0.4311932,0.98269325,0.006460602,-0.18512744,-0.10529079,-0.80276966,-0.58691967,-0.15240656,0.5962542,-0.78819615,,-0.11666556,0.25367612,-0.11151711,0.6495538,0.69371563,0.31118888,-0.6529909,0.29934308,0.6956987,0.38946483,-0.6550972,0.6474294,,-0.07651017,0.3757281,-0.3627791,0.5055527,0.25115946,-0.8254304,-0.7766341,-0.2842729,-0.56216407,-0.3758403,0.92526096,0.051344052,,1.1331488719020881,0.5372936942584218,0.21798801527000003,0.1505573794218885,0.44188244024143436,0.6711953086809337,-0.4088501975341009,,-1.3589461356786643,0.12223541593322554,0.19871088668000003,0.9249423407102368,-0.28939610650320285,-1.1258465143345735,0.8433454134512836,,-0.11663162726452107,-0.13014047567495718,0.09162943763999999,-0.11611542257629885,,2.7783215e-05,5.9604645e-07,1.1920929e-07,1.0,-2.323091e-05,-1.7568469e-05,2.321601e-05,1.0,-4.5001507e-06,1.758337e-05,4.440546e-06,1.0,464,1.425,1,1,0.378,False,-0.2552905512975445,1.0178431756474022
1.442435913020745,14:56:25.111248,14:55:09.187614,0,,0.11559712,0.0039551556,0.02837734,-0.5197938,-0.8382504,-0.16477473,-0.19647503,-0.07040802,0.97797763,-0.8313915,0.5407208,-0.12809762,,0.051653005,-0.012291435,0.006283343,-0.48870546,-0.07563785,0.8691638,-0.7481586,0.5488155,-0.3729078,-0.4488045,-0.83251464,-0.3247982,,0.099656925,1.2986234,0.4311932,0.98269325,0.006460602,-0.18512744,-0.10529079,-0.80276966,-0.58691967,-0.15240656,0.5962542,-0.78819615,,-0.116659135,0.2537771,-0.11162869,0.6298737,0.71261954,0.30892158,-0.6604983,0.28218102,0.6957844,0.4086577,-0.64229846,0.64842236,,-0.07651077,0.37572685,-0.36277965,0.50555485,0.2510889,-0.8254506,-0.77663106,-0.28432482,-0.56214195,-0.37584367,0.9252642,0.05126166,,1.1331488719020881,0.5368766666832137,0.21795560802000002,0.12644303592116818,0.46073827720906524,0.6585150363954659,-0.4093402297325037,,-1.3589461356786643,0.12222769320035132,0.19871088668000003,0.9249423407102368,-0.28939610650320285,-1.1259281930747143,0.8435087575174182,,-0.11663162726452107,-0.13014047567495718,0.09162943763999999,-0.11611542257629885,,2.7783215e-05,5.9604645e-07,1.1920929e-07,1.0,-2.323091e-05,-1.7568469e-05,2.321601e-05,1.0,-4.5001507e-06,1.758337e-05,4.440546e-06,1.0,477,1.466,1,1,0.419,False,-0.2571374605716965,1.0180362964505203
1.4724122821353376,14:56:25.151277,14:55:09.187614,0,,0.115560144,0.0039350986,0.028526947,-0.49664146,-0.8543868,-0.15287359,-0.18788448,-0.06612834,0.9799625,-0.8473762,0.51541257,-0.12768397,,0.051656883,-0.012292821,0.006284535,-0.48837677,-0.075601116,0.8693517,-0.7483848,0.5486417,-0.3727097,-0.4487853,-0.8326325,-0.32452258,,0.099656925,1.2986234,0.4311932,0.98269325,0.006460602,-0.18512744,-0.10529079,-0.80276966,-0.58691967,-0.15240656,0.5962542,-0.78819615,,-0.11665225,0.25385317,-0.11176403,0.6112301,0.7334146,0.29749095,-0.6636827,0.27018696,0.6975129,0.43118796,-0.6237805,0.65190095,,-0.076514885,0.37572658,-0.36278087,0.5052131,0.25106084,-0.82566833,-0.7767886,-0.28452882,-0.56182104,-0.3759777,0.92520905,0.051273514,,1.1331411491692138,0.5362047889231562,0.21791931190000002,0.10547404157271575,0.4841031186689555,0.6390541811626752,-0.40852350940183246,,-1.3589615811444127,0.1222199704674771,0.19871088668000003,0.9245229608232679,-0.28939610650320285,-1.1259281930747143,0.8435087575174182,,-0.11663162726452107,-0.13014047567495718,0.09162943763999999,-0.11611542257629885,,2.7783215e-05,5.9604645e-07,1.1920929e-07,1.0,-2.323091e-05,-1.7568469e-05,2.321601e-05,1.0,-4.5001507e-06,1.758337e-05,4.440546e-06,1.0,490,1.508,1,1,0.461,False,-0.25546928445310746,1.0186639390606533
1.512485546991229,14:56:25.193395,14:55:09.187614,0,,0.11546805,0.0038746372,0.028607503,-0.47728923,-0.86661667,-0.14550036,-0.18478882,-0.062892616,0.9807638,-0.8590972,0.49499485,-0.13012314,,0.05166284,-0.012294371,0.006286919,-0.48837635,-0.07570879,0.86934257,-0.7483767,0.5487031,-0.37263542,-0.4487991,-0.83258224,-0.3246323,,0.099656925,1.2986234,0.4311932,0.98269325,0.006460602,-0.18512744,-0.10529079,-0.80276966,-0.58691967,-0.15240656,0.5962542,-0.78819615,,-0.11658448,0.25385547,-0.11188246,0.594831,0.74939424,0.29083386,-0.66856825,0.26033288,0.69659406,0.44630998,-0.608798,0.65587527,,-0.07652125,0.37572688,-0.3627826,0.5052156,0.25116244,-0.8256359,-0.77679414,-0.28444186,-0.56185734,-0.37596288,0.9252082,0.05139705,,1.1331334264363397,0.5353939019713626,0.21787264546000001,0.08576318688517047,0.4996796796422157,0.6221869243941144,-0.4070534128066239,,-1.3589924720759097,0.12220452500172864,0.19871088668000003,0.9245229608232679,-0.28939610650320285,-1.125764835594433,0.8435087575174179,,-0.11663162726452107,-0.13014047567495718,0.09162943763999999,-0.11611542257629885,,2.7783215e-05,5.9604645e-07,1.1920929e-07,1.0,-2.323091e-05,-1.7568469e-05,2.321601e-05,1.0,-4.5001507e-06,1.758337e-05,4.440546e-06,1.0,499,1.535,1,1,0.488,False,-0.25731619372725945,1.0182294172536381
1.554625625954941,14:56:25.231792,14:55:09.306818,0,,0.11539102,0.0038065016,0.028695866,-0.46488914,-0.87425303,-0.13985562,-0.1854673,-0.058295965,0.9809197,-0.86572504,0.48195758,-0.13504434,,0.051667336,-0.012297023,0.0062876344,-0.48805052,-0.075597525,0.8695352,-0.74860334,0.5484941,-0.372488,-0.44877562,-0.83273005,-0.32428536,,0.099656925,1.2986234,0.4311932,0.98269325,0.006460602,-0.18512744,-0.10529079,-0.80276966,-0.58691967,-0.15240656,0.5962542,-0.78819615,,-0.11653379,0.25385633,-0.112008214,0.58382493,0.75975347,0.28622207,-0.6732621,0.25603953,0.6936583,0.45372516,-0.5976775,0.66099554,,-0.076525964,0.37572536,-0.36278436,0.5048759,0.25106373,-0.8258737,-0.77694845,-0.28469777,-0.56151426,-0.37610027,0.9251563,0.05132656,,1.1331334264363397,0.5349537061975318,0.21778320145000002,0.07171396067170732,0.5069214141297841,0.6081139014841478,-0.4073801009388923,,-1.359007917541658,0.1221890795359802,0.19871088668000003,0.9241035809362987,-0.28939610650320285,-1.1258465143345737,0.8436721015835525,,-0.11663162726452107,-0.13014047567495718,0.09162943763999999,-0.11611542257629885,,2.7783215e-05,5.9604645e-07,1.1920929e-07,1.0,-2.323091e-05,-1.7568469e-05,2.321601e-05,1.0,-4.5001507e-06,1.758337e-05,4.440546e-06,1.0,512,1.577,1,1,0.53,False,-0.2555288621716292,1.0183742578559765
1.5930124120786786,14:56:25.261021,14:55:09.306818,0,,0.11537269,0.0037732273,0.028772905,-0.46039015,-0.877716,-0.13287349,-0.18513468,-0.05145541,0.9813651,-0.86819696,0.47641027,-0.1388062,,0.051668957,-0.012297083,0.006288588,-0.48788467,-0.075580835,0.8696297,-0.748716,0.5484096,-0.3723859,-0.4487679,-0.8327873,-0.32414916,,0.099656925,1.2986234,0.4311932,0.98269325,0.006460602,-0.18512744,-0.10529079,-0.80276966,-0.58691967,-0.15240656,0.5962542,-0.78819615,,-0.11653387,0.25387737,-0.1120915,0.57991785,0.76499605,0.28013626,-0.6745489,0.25807512,0.6916509,0.45681405,-0.5900663,0.6656896,,-0.076527715,0.37572587,-0.3627847,0.5047039,0.25105122,-0.8259826,-0.77702856,-0.28479677,-0.56135315,-0.3761656,0.92512923,0.051335935,,1.1331411491692138,0.5349073698002864,0.21771449808,0.06689109197156327,0.5099274171246237,0.5978215485493327,-0.4070534128066239,,-1.3590156402745324,0.1221890795359802,0.19871088668000003,0.9238938909928144,-0.28939610650320285,-1.1258465143345737,0.8436721015835525,,-0.11663162726452107,-0.13014047567495718,0.09162943763999999,-0.11611542257629885,,2.7783215e-05,5.9604645e-07,1.1920929e-07,1.0,-2.323091e-05,-1.7568469e-05,2.321601e-05,1.0,-4.5001507e-06,1.758337e-05,4.440546e-06,1.0,521,1.605,1,1,0.558,False,-0.2552905512975445,1.0182294172536381
1.6222471320070326,14:56:25.292751,14:55:09.306818,0,,0.11531786,0.0036670119,0.028961971,-0.45558685,-0.8812339,-0.12596573,-0.18852371,-0.04278165,0.9811363,-0.86999965,0.47074026,-0.1466428,,0.05167257,-0.012299079,0.006289184,-0.48788732,-0.0755602,0.86963,-0.7487126,0.54840505,-0.3723995,-0.44877082,-0.83279204,-0.32413274,,0.099656925,1.2986234,0.4311932,0.98269325,0.006460602,-0.18512744,-0.10529079,-0.80276966,-0.58691967,-0.15240656,0.5962542,-0.78819615,,-0.116527624,0.25390968,-0.11231274,0.57511777,0.77054894,0.27476156,-0.6783695,0.26148483,0.6866152,0.45722467,-0.58127445,0.6731015,,-0.07653151,0.37572476,-0.36278608,0.5047072,0.25103143,-0.82598656,-0.7770284,-0.28480518,-0.5613492,-0.37616155,0.925132,0.051315315,,1.1332338219637046,0.5350000425947772,0.21749542507000003,0.059761633893089444,0.5095175076253274,0.584515452656948,-0.4075434450050267,,-1.3590310857402808,0.12217363407023174,0.19871088668000003,0.9238938909928144,-0.28939610650320285,-1.1258465143345737,0.8436721015835525,,-0.11663162726452107,-0.13014047567495718,0.09162943763999999,-0.11611542257629885,,2.7783215e-05,5.9604645e-07,1.1920929e-07,1.0,-2.323091e-05,-1.7568469e-05,2.321601e-05,1.0,-4.5001507e-06,1.758337e-05,4.440546e-06,1.0,530,1.633,1,1,0.586,False,-0.25683957197909146,1.018132856852079
1.6539230721537024,14:56:25.326177,14:55:09.306818,0,,0.115286015,0.0036511645,0.029101536,-0.44973344,-0.8844654,-0.12434061,-0.18991926,-0.04133153,0.9809294,-0.8727373,0.46477145,-0.14938894,,0.05167318,-0.012300346,0.0062886477,-0.4878902,-0.07562779,0.8696226,-0.74871314,0.5484307,-0.37236065,-0.44876677,-0.83276904,-0.32419744,,0.099656925,1.2986234,0.4311932,0.98269325,0.006460602,-0.18512744,-0.10529079,-0.80276966,-0.58691967,-0.15240656,0.5962542,-0.78819615,,-0.11652342,0.2539829,-0.112436704,0.569715,0.77494967,0.27363804,-0.6811956,0.25899994,0.6847566,0.45977968,-0.57651716,0.6754485,,-0.07653211,0.3757235,-0.36278662,0.50470936,0.25109577,-0.82596576,-0.7770254,-0.28476533,-0.5613736,-0.3761649,0.9251268,0.05138406,,1.1333805538883148,0.5351853881837585,0.21738524042000001,0.05242248587113109,0.5114304186220436,0.578136556336905,-0.4073801009388923,,-1.3590310857402808,0.12216591133735752,0.19871088668000003,0.9238938909928144,-0.28939610650320285,-1.125764835594433,0.8438354456496868,,-0.11663162726452107,-0.13014047567495718,0.09162943763999999,-0.11611542257629885,,2.7783215e-05,5.9604645e-07,1.1920929e-07,1.0,-2.323091e-05,-1.7568469e-05,2.321601e-05,1.0,-4.5001507e-06,1.758337e-05,4.440546e-06,1.0,543,1.674,1,1,0.627,False,-0.25767366003838577,1.0171672528364901
1.687393874162808,14:56:25.361936,14:55:09.432975,0,,0.11523719,0.0036055297,0.029316291,-0.44086555,-0.8895511,-0.11973448,-0.18778056,-0.039037257,0.98143494,-0.8777106,0.4551646,-0.14983028,,0.051674075,-0.012300972,0.0062887073,-0.48756158,-0.07582119,0.86978996,-0.7489431,0.5483478,-0.37202027,-0.44874024,-0.83280617,-0.32413903,,0.099656925,1.2986234,0.4311932,0.98269325,0.006460602,-0.18512744,-0.10529079,-0.80276966,-0.58691967,-0.15240656,0.5962542,-0.78819615,,-0.11651984,0.25407878,-0.11264013,0.56222194,0.78191483,0.26928735,-0.68262154,0.25496826,0.6848496,0.46683437,-0.5688588,0.67710066,,-0.07653304,0.3757231,-0.362787,0.5043662,0.25128663,-0.8261173,-0.7771797,-0.28482947,-0.56112736,-0.37630635,0.92505527,0.051636513,,1.1336122358745415,0.5352626155125008,0.21721931530000002,0.04340581830129654,0.5183988801100811,0.5692687723829054,-0.4095035737986382,,-1.3590310857402808,0.1221581886044833,0.19871088668000003,0.9234745111058452,-0.28939610650320285,-1.1254381206338708,0.8431820693851495,,-0.11663162726452107,-0.13014047567495718,0.09162943763999999,-0.11611542257629885,,2.7783215e-05,5.9604645e-07,1.1920929e-07,1.0,-2.323091e-05,-1.7568469e-05,2.321601e-05,1.0,-4.5001507e-06,1.758337e-05,4.440546e-06,1.0,552,1.703,1,1,0.656,False,-0.25624379479388093,1.0174569340411665
1.723154098028317,14:56:25.400505,14:55:09.432975,0,,0.1151481,0.0035231486,0.02962111,-0.42842677,-0.89615464,-0.11557454,-0.18837038,-0.0365161,0.9814189,-0.88372326,0.44223684,-0.15316457,,0.051731624,-0.012279779,0.0062868595,-0.4873526,-0.07594137,0.86989677,-0.7491012,0.5482716,-0.37181416,-0.44870344,-0.8328452,-0.32408926,,0.099606425,1.2986236,0.43119887,0.982698,0.006496611,-0.18510112,-0.105246715,-0.8027694,-0.58692795,-0.15240656,0.5962542,-0.78819615,,-0.11645315,0.25419486,-0.112949915,0.5510916,0.79098696,0.26577744,-0.68685263,0.24912521,0.6827665,0.47384754,-0.5588168,0.6805823,,-0.076540954,0.37572688,-0.36276466,0.5041813,0.25139156,-0.8261982,-0.7772497,-0.28489476,-0.56099725,-0.37640953,0.9250066,0.051755402,,1.1341296589771146,0.5352935064439976,0.21698079794000003,0.028727522257379835,0.5248207955990567,0.5564360080761015,-0.40934022973250384,,-1.359038808473155,0.1221272976729864,0.19871088668000003,0.9232648211623607,-0.28939610650320285,-1.1254381206338708,0.8431820693851495,,-0.11663162726452107,-0.13014047567495718,0.09162943763999999,-0.11611542257629885,,-2.272427e-05,3.516674e-06,4.887581e-06,1.0000001,1.2122095e-05,9.171665e-06,-1.2136996e-05,1.0,2.3245811e-06,-9.186566e-06,-2.3543835e-06,1.0,565,1.744,1,1,0.697,False,-0.2561246393568388,1.0168775716318132
1.7617160291410983,14:56:25.432930,14:55:09.432975,0,,0.11504021,0.003484644,0.029790357,-0.42314193,-0.8992717,-0.11073133,-0.18900013,-0.03191945,0.9814582,-0.8861319,0.4362242,-0.15645614,,0.05173854,-0.012284666,0.0062873363,-0.48703074,-0.07610038,0.87006307,-0.74932635,0.5481769,-0.37150005,-0.44867697,-0.83289313,-0.32400292,,0.099606425,1.2986236,0.43119887,0.982698,0.006496611,-0.18510112,-0.105246715,-0.8027694,-0.58692795,-0.15240656,0.5962542,-0.78819615,,-0.116382934,0.25426894,-0.11312696,0.5462832,0.79568696,0.26164275,-0.68886757,0.24909963,0.68074286,0.4764831,-0.55211556,0.6842019,,-0.076548174,0.37572357,-0.36276764,0.50384516,0.2515496,-0.82635516,-0.77740043,-0.28497767,-0.5607462,-0.37654826,0.92493814,0.051970158,,1.1346470820796877,0.5352935064439976,0.21682135427000002,0.021807754122390534,0.5271436160950693,0.5467824233999088,-0.4090135416002352,,-1.3590619766717777,0.1220964067414895,0.19871088668000003,0.9228454412753917,-0.28939610650320285,-1.125193084413449,0.8426920371867468,,-0.11663162726452107,-0.13014047567495718,0.09162943763999999,-0.11611542257629885,,-2.272427e-05,3.516674e-06,4.887581e-06,1.0000001,1.2122095e-05,9.171665e-06,-1.2136996e-05,1.0,2.3245811e-06,-9.186566e-06,-2.3543835e-06,1.0,574,1.773,1,1,0.726,False,-0.25642252794944387,1.0146084021951787
1.7941585171502084,14:56:25.469572,14:55:09.544656,0,,0.11488067,0.0034203231,0.030065432,-0.41609216,-0.90273714,-0.1092387,-0.18882313,-0.031736493,0.9814981,-0.8895016,0.42902035,-0.15725246,,0.05174456,-0.012288913,0.006287813,-0.48703766,-0.07627918,0.8700436,-0.7493217,0.54825634,-0.37139213,-0.4486773,-0.8328244,-0.324179,,0.099606425,1.2986236,0.43119887,0.982698,0.006496611,-0.18510112,-0.105246715,-0.8027694,-0.58692795,-0.15240656,0.5962542,-0.78819615,,-0.11628447,0.2543879,-0.113412306,0.54002714,0.8003732,0.26033324,-0.6908476,0.24485862,0.68027484,0.48072895,-0.5472175,0.6851662,,-0.07655446,0.37572068,-0.36277026,0.5038523,0.25171927,-0.82629913,-0.7773971,-0.28485885,-0.56081116,-0.3765456,0.92492855,0.052159052,,1.1354270780999842,0.5353243973754945,0.21657765175000002,0.013420156383009559,0.531106074588267,0.5406108695476524,-0.409503573798638,,-1.3590851448704004,0.1220655158099926,0.19871088668000003,0.9228454412753917,-0.28939610650320285,-1.1249480481930276,0.8412219405915382,,-0.11663162726452107,-0.13014047567495718,0.09162943763999999,-0.11611542257629885,,-2.272427e-05,3.516674e-06,4.887581e-06,1.0000001,1.2122095e-05,9.171665e-06,-1.2136996e-05,1.0,2.3245811e-06,-9.186566e-06,-2.3543835e-06,1.0,587,1.814,1,1,0.767,False,-0.25600548391979716,1.0134979575772511
1.8308065009769052,14:56:25.502067,14:55:09.544656,0,,0.11476967,0.0033952147,0.030267611,-0.4098205,-0.90596306,-0.10619895,-0.18824235,-0.029919952,0.98166674,-0.8925311,0.42229825,-0.15827891,,0.051750474,-0.012294963,0.0062868595,-0.4868845,-0.07616721,0.87013906,-0.7494347,0.54812,-0.37136522,-0.4486546,-0.8329244,-0.3239534,,0.099606425,1.2986236,0.43119887,0.982698,0.006496611,-0.18510112,-0.105246715,-0.8027694,-0.58692795,-0.15240656,0.5962542,-0.78819615,,-0.11621535,0.25449276,-0.11360736,0.5345216,0.80494934,0.2575717,-0.69229394,0.24220198,0.67975533,0.48478425,-0.54165924,0.68672377,,-0.076560535,0.37571564,-0.36277342,0.5036903,0.25161678,-0.8264291,-0.77746487,-0.28503194,-0.56062925,-0.3766224,0.92490315,0.052055385,,1.1360140057984254,0.5353939019713626,0.21641431921,0.006081008361051207,0.5349318965816994,0.5334072312371245,-0.4081968212695638,,-1.3591005903361488,0.12202690214562148,0.19871088668000003,0.9226357513319072,-0.28939610650320285,-1.125029726933168,0.8397518439963295,,-0.11663162726452107,-0.13014047567495718,0.09162943763999999,-0.11611542257629885,,-2.272427e-05,3.516674e-06,4.887581e-06,1.0000001,1.2122095e-05,9.171665e-06,-1.2136996e-05,1.0,2.3245811e-06,-9.186566e-06,-2.3543835e-06,1.0,596,1.842,1,1,0.795,False,-0.2566012611050077,1.0127254743647798
1.8633011570200324,14:56:25.535163,14:55:09.544656,0,,0.11462633,0.0033503845,0.030490622,-0.4015643,-0.9097056,-0.10574493,-0.19034812,-0.030038208,0.98125696,-0.8958312,0.41416597,-0.16109857,,0.051755708,-0.012297064,0.0062884092,-0.4867213,-0.07641415,0.8702088,-0.7495438,0.5481521,-0.37109753,-0.44864956,-0.8328806,-0.32407293,,0.099606425,1.2986236,0.43119887,0.982698,0.006496611,-0.18510112,-0.105246715,-0.8027694,-0.58692795,-0.15240656,0.5962542,-0.78819615,,-0.11612093,0.25459507,-0.11383737,0.5267835,0.81003255,0.25757787,-0.6960451,0.2371564,0.6777006,0.48787332,-0.5362873,0.68874925,,-0.07656608,0.37571505,-0.36277515,0.50352156,0.25185445,-0.8264596,-0.7775445,-0.28495634,-0.56055725,-0.3766837,0.9248617,0.052346382,,1.1366395471612376,0.5354402383686079,0.21621209797000002,-0.00482286870014406,0.5372547170777118,0.5259589725447271,-0.40917688566636956,,-1.3591237585347715,0.12201145667987302,0.19871088668000003,0.9224260613884226,-0.28939610650320285,-1.1247030119726058,0.8390984677317924,,-0.11663162726452107,-0.13014047567495718,0.09162943763999999,-0.11611542257629885,,-2.272427e-05,3.516674e-06,4.887581e-06,1.0000001,1.2122095e-05,9.171665e-06,-1.2136996e-05,1.0,2.3245811e-06,-9.186566e-06,-2.3543835e-06,1.0,609,1.883,1,1,0.836,False,-0.2570778828531757,1.0123392327585439
1.8963831481523812,14:56:25.571667,14:55:09.544656,0,,0.11447321,0.003329888,0.030748054,-0.39100522,-0.91519344,-0.097652525,-0.18841398,-0.024260938,0.98179,-0.90089667,0.40228403,-0.16294914,,0.05175812,-0.012299284,0.0062882304,-0.48672548,-0.07640037,0.8702076,-0.74954265,0.5481451,-0.37111032,-0.44864696,-0.8328865,-0.32406142,,0.099606425,1.2986236,0.43119887,0.982698,0.006496611,-0.18510112,-0.105246715,-0.8027694,-0.58692795,-0.15240656,0.5962542,-0.78819615,,-0.11601996,0.25473776,-0.11408145,0.5176305,0.8182412,0.25007996,-0.6977028,0.2344872,0.6769243,0.49524677,-0.5248782,0.69226694,,-0.07656857,0.37571326,-0.36277637,0.5035253,0.2518414,-0.82646126,-0.7775414,-0.28496653,-0.5605564,-0.37668508,0.92486215,0.052329257,,1.1374040977157858,0.5354479611014822,0.21602154334,-0.016565505535277424,0.5444964515652801,0.5113958771939171,-0.40721675687275816,,-1.3591314812676456,0.12199601121412458,0.19871088668000003,0.9224260613884226,-0.28939610650320285,-1.1247030119726058,0.8390984677317924,,-0.11663162726452107,-0.13014047567495718,0.09162943763999999,-0.11611542257629885,,-2.272427e-05,3.516674e-06,4.887581e-06,1.0000001,1.2122095e-05,9.171665e-06,-1.2136996e-05,1.0,2.3245811e-06,-9.186566e-06,-2.3543835e-06,1.0,618,1.912,1,1,0.865,False,-0.256541683386486,1.0119529911523084
1.9329022360034287,14:56:25.603193,14:55:09.544656,0,,0.11432687,0.0033162534,0.030927256,-0.38264078,-0.9191107,-0.09392367,-0.19013351,-0.021146655,0.9815305,-0.90412116,0.39343154,-0.16666228,,0.051757995,-0.012298897,0.006287992,-0.48652068,-0.076311484,0.8703299,-0.749614,0.54813683,-0.3709784,-0.44874975,-0.83290017,-0.32388395,,0.099606425,1.2986236,0.43119887,0.982698,0.006496611,-0.18510112,-0.105246715,-0.8027694,-0.58692795,-0.15240656,0.5962542,-0.78819615,,-0.115910806,0.25483793,-0.11425969,0.50982296,0.82403725,0.24706921,-0.7011032,0.23155667,0.6744151,0.49853265,-0.51705337,0.6957881,,-0.07656838,0.37571332,-0.36277595,0.50333637,0.2517557,-0.8266024,-0.77768356,-0.28499007,-0.56034714,-0.37664407,0.92487824,0.052340418,,1.1380528072772207,0.5354479611014822,0.21587376628000002,-0.02746938259647269,0.5470925450608235,0.500539311828645,-0.4093402297325037,,-1.3591237585347715,0.12199601121412458,0.19871088668000003,0.9222163714449381,-0.28925947000343744,-1.1247327511361616,0.8389351236656583,,-0.11663162726452107,-0.13014047567495718,0.09162943763999999,-0.11611542257629885,,-2.272427e-05,3.516674e-06,4.887581e-06,1.0000001,1.2122095e-05,9.171665e-06,-1.2136996e-05,1.0,2.3245811e-06,-9.186566e-06,-2.3543835e-06,1.0,631,1.953,1,1,0.906,False,-0.25588632848275505,1.0112770683413959
1.9644280711654574,14:56:25.645114,14:55:09.544656,0,,0.11417391,0.0033029988,0.031161413,-0.37290806,-0.92355525,-0.08936094,-0.19008559,-0.018225312,0.9815984,-0.90818876,0.38303202,-0.16875827,,0.051762044,-0.012301207,0.0062886477,-0.48635894,-0.07642317,0.87041056,-0.74972534,0.54810566,-0.37079936,-0.44873917,-0.8329104,-0.32387233,,0.099606425,1.2986236,0.43119887,0.982698,0.006496611,-0.18510112,-0.105246715,-0.8027694,-0.58692795,-0.15240656,0.5962542,-0.78819615,,-0.115804926,0.2549721,-0.114481464,0.5010569,0.83059824,0.24299909,-0.70363396,0.22753012,0.67314875,0.50382656,-0.50826824,0.6984427,,-0.076572634,0.375712,-0.3627775,0.503168,0.25186518,-0.8266716,-0.7777602,-0.2850079,-0.5602317,-0.37671077,0.9248429,0.052483853,,1.1387941896331462,0.535509742964476,0.21569487826000003,-0.03921201943160605,0.551874822552614,0.48904356236619795,-0.409503573798638,,-1.35913920400052,0.12198056574837612,0.19871088668000003,0.9220066815014537,-0.28925947000343744,-1.1245693936558805,0.8379550592688524,,-0.11663162726452107,-0.13014047567495718,0.09162943763999999,-0.11611542257629885,,-2.272427e-05,3.516674e-06,4.887581e-06,1.0000001,1.2122095e-05,9.171665e-06,-1.2136996e-05,1.0,2.3245811e-06,-9.186566e-06,-2.3543835e-06,1.0,640,1.982,1,1,0.935,False,-0.2548735072678969,1.0102631841250274
2.0063093560747802,14:56:25.676793,14:55:09.746589,0,,0.11406754,0.003288217,0.031336293,-0.36840898,-0.9254845,-0.08805443,-0.19093591,-0.017372936,0.9814487,-0.9098451,0.37838715,-0.170308,,0.051764295,-0.012302563,0.006289065,-0.4861958,-0.07661624,0.8704846,-0.7498384,0.54810697,-0.37056872,-0.448727,-0.83289176,-0.3239371,,0.099606425,1.2986236,0.43119887,0.982698,0.006496611,-0.18510112,-0.105246715,-0.8027694,-0.58692795,-0.15240656,0.5962542,-0.78819615,,-0.11573415,0.2550684,-0.11464831,0.49685302,0.83341604,0.24198096,-0.70535624,0.22537367,0.67207086,0.5055785,-0.5046032,0.6998328,,-0.076574996,0.37571126,-0.3627784,0.50299793,0.25205204,-0.8267181,-0.7778369,-0.28497583,-0.5601415,-0.3767795,0.9248019,0.052713137,,1.1395664629205686,0.5357337022178285,0.21549784218,-0.04948682666234775,0.5544709160481573,0.4808823954255644,-0.40917688566636956,,-1.3591469267333942,0.1219728430155019,0.19871088668000003,0.9217969915579691,-0.28925947000343744,-1.1243243574354587,0.8368116508059124,,-0.11663162726452107,-0.13014047567495718,0.09162943763999999,-0.11611542257629885,,-2.272427e-05,3.516674e-06,4.887581e-06,1.0000001,1.2122095e-05,9.171665e-06,-1.2136996e-05,1.0,2.3245811e-06,-9.186566e-06,-2.3543835e-06,1.0,653,2.023,1,1,0.976,False,-0.2550522404234603,1.010408024727366
2.038001777138561,14:56:25.714558,14:55:09.746589,0,,0.11392111,0.0033361614,0.03160821,-0.3510544,-0.9320238,-0.08995876,-0.19319215,-0.021910429,0.98091626,-0.91620815,0.36173418,-0.17236799,,0.051767163,-0.012305126,0.006288886,-0.4860356,-0.07666372,0.87056994,-0.74995196,0.548043,-0.37043357,-0.4487108,-0.8329295,-0.32386237,,0.099606425,1.2986236,0.43119887,0.982698,0.006496611,-0.18510112,-0.105246715,-0.8027694,-0.58692795,-0.15240656,0.5962542,-0.78819615,,-0.11563353,0.25527403,-0.11486109,0.4807637,0.8421777,0.24413721,-0.7111745,0.21163768,0.6704031,0.5129299,-0.49592966,0.700683,,-0.07657796,0.37570927,-0.36277983,0.50282997,0.25210074,-0.8268054,-0.7779106,-0.28504127,-0.56000584,-0.37685156,0.92476845,0.052784543,,1.1400375496258963,0.5359962751355521,0.21538765753000003,-0.06668140202807875,0.5588432840406514,0.47323308550025084,-0.4068900687404895,,-1.3591546494662683,0.12195739754975346,0.19871088668000003,0.9215873016144845,-0.28925947000343744,-1.1242426786953181,0.8366483067397782,,-0.11663162726452107,-0.13014047567495718,0.09162943763999999,-0.11611542257629885,,-2.272427e-05,3.516674e-06,4.887581e-06,1.0000001,1.2122095e-05,9.171665e-06,-1.2136996e-05,1.0,2.3245811e-06,-9.186566e-06,-2.3543835e-06,1.0,662,2.051,1,1,1.004,False,-0.2552309735790237,1.0111322277390575
2.0757881170138717,14:56:25.745375,14:55:09.746589,0,,0.113831446,0.0033829361,0.031830117,-0.3374448,-0.93724865,-0.08772758,-0.1926499,-0.022462517,0.98101044,-0.92142105,0.34793746,-0.17298108,,0.05177363,-0.0123097,0.006289363,-0.485878,-0.07654828,0.87066805,-0.75006205,0.54791397,-0.37040156,-0.44869745,-0.833025,-0.32363522,,0.099606425,1.2986236,0.43119887,0.982698,0.006496611,-0.18510112,-0.105246715,-0.8027694,-0.58692795,-0.15240656,0.5962542,-0.78819615,,-0.11557953,0.25544763,-0.11502362,0.46848226,0.8496593,0.24208146,-0.7140468,0.20279096,0.67008436,0.52025145,-0.4867801,0.70170045,,-0.07658471,0.37570617,-0.36278263,0.50266534,0.25199455,-0.8269379,-0.777984,-0.2852066,-0.5598197,-0.37691966,0.9247464,0.052684266,,1.1405009135983497,0.536336075382018,0.21526969514000002,-0.08282752767638712,0.5654018360293926,0.46208583557284255,-0.40770678907116087,,-1.359177817664891,0.12192650661825656,0.19871088668000003,0.921377611671,-0.28925947000343744,-1.1243243574354587,0.8371383389381812,,-0.11663162726452107,-0.13014047567495718,0.09162943763999999,-0.11611542257629885,,-2.272427e-05,3.516674e-06,4.887581e-06,1.0000001,1.2122095e-05,9.171665e-06,-1.2136996e-05,1.0,2.3245811e-06,-9.186566e-06,-2.3543835e-06,1.0,676,2.096,1,1,1.049,False,-0.25558843989015,1.011470189144514
2.1065930409822613,14:56:25.786007,14:55:09.746589,0,,0.11371483,0.0033746213,0.03214203,-0.32529643,-0.94182086,-0.08459306,-0.19655836,-0.02015832,0.9802849,-0.9249577,0.33551052,-0.17856541,,0.051785998,-0.0123131275,0.0062941313,-0.48571277,-0.07654072,0.870761,-0.7501607,0.5478581,-0.37028444,-0.44871143,-0.8330625,-0.32351938,,0.099606425,1.2986236,0.43119887,0.982698,0.006496611,-0.18510112,-0.105246715,-0.8027694,-0.58692795,-0.15240656,0.5962542,-0.78819615,,-0.11552231,0.25563306,-0.11529436,0.45675787,0.85662645,0.23992378,-0.7193983,0.19703566,0.6660653,0.5232956,-0.47683132,0.70625323,,-0.0765979,0.37570655,-0.36278623,0.5024985,0.25198966,-0.8270408,-0.7780718,-0.28527153,-0.55966455,-0.37696087,0.92472774,0.05271753,,1.1410801185639166,0.5368766666832137,0.2150285852,-0.09855427343772645,0.5663582915277506,0.44864570552518057,-0.4088501975341011,,-1.3592395995278848,0.12189561568675966,0.19871088668000003,0.9211679217275154,-0.28925947000343744,-1.1242426786953184,0.8379550592688526,,-0.11663162726452107,-0.13014047567495718,0.09162943763999999,-0.11611542257629885,,-2.272427e-05,3.516674e-06,4.887581e-06,1.0000001,1.2122095e-05,9.171665e-06,-1.2136996e-05,1.0,2.3245811e-06,-9.186566e-06,-2.3543835e-06,1.0,685,2.125,1,1,1.078,False,-0.25546928445310746,1.0126289139632207
2.147216506069526,14:56:25.817120,14:55:09.886228,0,,0.113636866,0.0033539906,0.03240113,-0.31615558,-0.9449719,-0.08410622,-0.1991843,-0.02056092,0.97974634,-0.9275619,0.3265048,-0.1817232,,0.05179673,-0.0123156905,0.0063002706,-0.48570916,-0.07640432,0.8707749,-0.7501442,0.5478337,-0.3703541,-0.44874296,-0.833091,-0.32340202,,0.099606425,1.2986236,0.43119887,0.982698,0.006496611,-0.18510112,-0.105246715,-0.8027694,-0.58692795,-0.15240656,0.5962542,-0.78819615,,-0.11549498,0.25577608,-0.11552333,0.44796628,0.86125153,0.2399416,-0.72314125,0.1912256,0.66370136,0.52573085,-0.4708275,0.70846915,,-0.07660967,0.37570873,-0.36279032,0.50250137,0.25185865,-0.82707894,-0.7780859,-0.28532088,-0.55961984,-0.376928,0.9247482,0.052593518,,1.1414817006733764,0.5373477533885413,0.21481858622000002,-0.11050660021634434,0.5673147470261087,0.4405963723267955,-0.40738010093889243,,-1.3593013813908785,0.12187244748813698,0.19870959039000002,0.9211679217275154,-0.28925947000343744,-1.1243243574354587,0.8381184033349868,,-0.11663162726452107,-0.13014047567495718,0.09162943763999999,-0.11611542257629885,,-2.272427e-05,3.516674e-06,4.887581e-06,1.0000001,1.2122095e-05,9.171665e-06,-1.2136996e-05,1.0,2.3245811e-06,-9.186566e-06,-2.3543835e-06,1.0,699,2.17,1,1,1.123,False,-0.2552905512975445,1.0123392327585439
2.178354910109192,14:56:25.858709,14:55:09.886228,0,,0.11349105,0.0033206046,0.032836422,-0.29727763,-0.9510455,-0.08449079,-0.1989919,-0.024834394,0.9796864,-0.93382436,0.30805174,-0.18186772,,0.051807746,-0.0123184025,0.006304741,-0.48537812,-0.07632597,0.8709664,-0.7503592,0.5476625,-0.3701716,-0.4487417,-0.8332108,-0.32309517,,0.099606425,1.2986236,0.43119887,0.982698,0.006496611,-0.18510112,-0.105246715,-0.8027694,-0.58692795,-0.15240656,0.5962542,-0.78819615,,-0.115434445,0.2560175,-0.11591052,0.43068656,0.8699128,0.24033485,-0.7269746,0.1765919,0.6635685,0.53480554,-0.4605074,0.7084603,,-0.076621436,0.37570944,-0.36279345,0.5021611,0.25179017,-0.82730645,-0.77825034,-0.2855283,-0.5592852,-0.37704194,0.9247028,0.052574594,,1.1421381329676854,0.5379037901554855,0.21449321743000002,-0.13273373422570392,0.5748297545132081,0.4286691970735124,-0.40852350940183235,,-1.3593554405209982,0.12184927928951432,0.19870959039000002,0.9207485418405464,-0.28925947000343744,-1.1243243574354587,0.8381184033349868,,-0.11663162726452107,-0.13014047567495718,0.09162943763999999,-0.11611542257629885,,-2.272427e-05,3.516674e-06,4.887581e-06,1.0000001,1.2122095e-05,9.171665e-06,-1.2136996e-05,1.0,2.3245811e-06,-9.186566e-06,-2.3543835e-06,1.0,708,2.199,1,1,1.152,False,-0.2552905512975445,1.0129185951678976
2.2199084961321205,14:56:25.895782,14:55:09.886228,0,,0.113389,0.0032743812,0.03309749,-0.28665003,-0.95438635,-0.0835381,-0.1993351,-0.02587384,0.9795897,-0.93706834,0.29745144,-0.18282607,,0.051809974,-0.012317553,0.0063061714,-0.48517004,-0.07636574,0.8710788,-0.7504259,0.54771966,-0.36995178,-0.44885516,-0.8331695,-0.32304388,,0.099606425,1.2986236,0.43119887,0.982698,0.006496611,-0.18510112,-0.105246715,-0.8027694,-0.58692795,-0.15240656,0.5962542,-0.78819615,,-0.11538724,0.25614172,-0.116161644,0.42085075,0.87492514,0.23956345,-0.729317,0.16930316,0.6628975,0.53942686,-0.45369864,0.70934916,,-0.07662381,0.3757109,-0.36279333,0.501971,0.2518262,-0.8274108,-0.77839804,-0.28545687,-0.5591162,-0.3769902,0.92471504,0.05272993,,1.1425474378100193,0.538158640340335,0.21427544071000001,-0.1455248207782599,0.5785189400068749,0.4203517955645725,-0.405419972145281,,-1.3593631632538725,0.12184927928951432,0.19870959039000002,0.9205388518970619,-0.289122833503672,-1.1241907391187336,0.8382817474011212,,-0.11663162726452107,-0.13014047567495718,0.09162943763999999,-0.11611542257629885,,-2.272427e-05,3.516674e-06,4.887581e-06,1.0000001,1.2122095e-05,9.171665e-06,-1.2136996e-05,1.0,2.3245811e-06,-9.186566e-06,-2.3543835e-06,1.0,722,2.244,1,1,1.197,False,-0.2545756186752919,1.013401397175692
2.2569899391382933,14:56:25.928941,14:55:09.886228,0,,0.11318946,0.003234513,0.03334956,-0.26534933,-0.9608767,-0.07940832,-0.20318049,-0.024782822,0.9788276,-0.9425005,0.27586544,-0.18865538,,0.05181358,-0.01231958,0.006306827,-0.48517278,-0.076416254,0.8710729,-0.7504224,0.5477454,-0.36992067,-0.44885805,-0.833148,-0.3230955,,0.099606425,1.2986236,0.43119887,0.982698,0.006496611,-0.18510112,-0.105246715,-0.8027694,-0.58692795,-0.15240656,0.5962542,-0.78819615,,-0.11524251,0.25626618,-0.11642335,0.4005421,0.88523793,0.23647363,-0.7358522,0.15699346,0.6586916,0.545974,-0.43784335,0.71428674,,-0.0766276,0.3757098,-0.3627947,0.5019744,0.251874,-0.82739425,-0.7783978,-0.2854196,-0.55913556,-0.37698624,0.92471355,0.05278483,,1.1430262472482213,0.5381818085389576,0.21406155286000003,-0.1721554436007945,0.5830279444991343,0.3999308630137754,-0.40656338060822117,,-1.359378608719621,0.12183383382376586,0.19870959039000002,0.9205388518970619,-0.289122833503672,-1.124109060378593,0.8384450914672555,,-0.11663162726452107,-0.13014047567495718,0.09162943763999999,-0.11611542257629885,,-2.272427e-05,3.516674e-06,4.887581e-06,1.0000001,1.2122095e-05,9.171665e-06,-1.2136996e-05,1.0,2.3245811e-06,-9.186566e-06,-2.3543835e-06,1.0,736,2.289,1,1,1.242,False,-0.2543373078012081,1.013401397175692
2.290170601103455,14:56:25.978017,14:55:10.039563,0,,0.1130183,0.003180325,0.03356348,-0.24782169,-0.96606046,-0.07288112,-0.20658442,-0.020802766,0.9782076,-0.94652367,0.2574771,-0.19441777,,0.051816896,-0.0123232305,0.0063043833,-0.48485228,-0.076528266,0.87124145,-0.7506533,0.5476169,-0.36964238,-0.44881833,-0.83322215,-0.3229594,,0.099606425,1.2986236,0.43119887,0.982698,0.006496611,-0.18510112,-0.105246715,-0.8027694,-0.58692795,-0.15240656,0.5962542,-0.78819615,,-0.11512052,0.25635576,-0.11665809,0.38372055,0.8940771,0.23105104,-0.74114555,0.14891571,0.65462005,0.5508737,-0.4224336,0.7197833,,-0.0766307,0.37570533,-0.36279547,0.501637,0.25198796,-0.8275641,-0.77854186,-0.28554827,-0.5588692,-0.37713784,0.92464274,0.052941594,,1.1434046611590583,0.5381740858060834,0.21386322049000003,-0.19417288766666954,0.5861705839937394,0.37980732209853685,-0.4064000365420869,,-1.359378608719621,0.12181066562514319,0.19871088668000003,0.9201194720100929,-0.289122833503672,-1.123945702898312,0.8392618117979268,,-0.11663162726452107,-0.13014047567495718,0.09162943763999999,-0.11611542257629885,,-2.272427e-05,3.516674e-06,4.887581e-06,1.0000001,1.2122095e-05,9.171665e-06,-1.2136996e-05,1.0,2.3245811e-06,-9.186566e-06,-2.3543835e-06,1.0,745,2.318,1,1,1.271,False,-0.2544564632382502,1.013691078380369
2.3392350510694087,14:56:26.007973,14:55:10.039563,0,,0.11290329,0.0031625181,0.033750877,-0.22951527,-0.97049624,-0.073891416,-0.20454326,-0.026128486,0.9785088,-0.95156956,0.23969662,-0.19251165,,0.051825657,-0.012324601,0.006308496,-0.4846843,-0.0766125,0.87132746,-0.7507553,0.54759556,-0.36946684,-0.44882908,-0.83322847,-0.3229281,,0.099606425,1.2986236,0.43119887,0.982698,0.006496611,-0.18510112,-0.105246715,-0.8027694,-0.58692795,-0.15240656,0.5962542,-0.78819615,,-0.11504394,0.2564574,-0.11683828,0.3670189,0.90088594,0.23173623,-0.7427679,0.13384946,0.6560337,0.55999374,-0.412903,0.7182744,,-0.0766401,0.37570682,-0.3627977,0.5014667,0.25207043,-0.8276422,-0.7786296,-0.28555927,-0.5587413,-0.37718308,0.9246169,0.053071033,,1.1435513930836685,0.538158640340335,0.21374136923000003,-0.21493219207163747,0.5946420469791969,0.36963226246373615,-0.4073801009388923,,-1.3594249451168663,0.12179522015939474,0.19871088668000003,0.9199097820666083,-0.289122833503672,-1.1237823454180307,0.8394251558640611,,-0.11663162726452107,-0.13014047567495718,0.09162943763999999,-0.11611542257629885,,-2.272427e-05,3.516674e-06,4.887581e-06,1.0000001,1.2122095e-05,9.171665e-06,-1.2136996e-05,1.0,2.3245811e-06,-9.186566e-06,-2.3543835e-06,1.0,759,2.363,1,1,1.316,False,-0.254218152364166,1.0142221605889432
2.3691573780961335,14:56:26.049052,14:55:10.039563,0,,0.112674944,0.0031329393,0.03399457,-0.19846179,-0.9778651,-0.06627968,-0.20680505,-0.024322286,0.97807974,-0.95804197,0.20781836,-0.19740039,,0.051845785,-0.0123306215,0.0063159466,-0.48451996,-0.07656026,0.8714235,-0.7508441,0.5475378,-0.36937186,-0.4488579,-0.83327127,-0.3227777,,0.099606425,1.2986236,0.43119887,0.982698,0.006496611,-0.18510112,-0.105246715,-0.8027694,-0.58692795,-0.15240656,0.5962542,-0.78819615,,-0.114868306,0.2565851,-0.11709369,0.3375828,0.9139786,0.22512454,-0.7487657,0.11580707,0.65263975,0.5704277,-0.38888547,0.72345024,,-0.07666154,0.37570694,-0.36280373,0.5013039,0.25202233,-0.82775545,-0.77872247,-0.28563336,-0.55857396,-0.3772077,0.9246071,0.05306633,,1.1438139660013922,0.5381045812102154,0.21355599976000003,-0.2524666919553673,0.6027036004653578,0.33986184394572766,-0.4077067890711611,,-1.3595253406442311,0.12174116102927517,0.19871088668000003,0.9197000921231239,-0.289122833503672,-1.1237006666778901,0.8395884999301952,,-0.11663162726452107,-0.13014047567495718,0.09162943763999999,-0.11611542257629885,,-2.272427e-05,3.516674e-06,4.887581e-06,1.0000001,1.2122095e-05,9.171665e-06,-1.2136996e-05,1.0,2.3245811e-06,-9.186566e-06,-2.3543835e-06,1.0,768,2.391,1,1,1.344,False,-0.2550522404234603,1.0155257260099881
2.4102794360369444,14:56:26.078281,14:55:10.039563,0,,0.11258211,0.0031354055,0.034054264,-0.18612579,-0.9805596,-0.06213118,-0.2094259,-0.022189543,0.9775727,-0.95994675,0.19496329,-0.20122454,,0.051853254,-0.012334034,0.006317854,-0.48419333,-0.076787174,0.87158513,-0.75106573,0.5474795,-0.36900768,-0.44883966,-0.83328867,-0.322758,,0.099606425,1.2986236,0.43119887,0.982698,0.006496611,-0.18510112,-0.105246715,-0.8027694,-0.58692795,-0.15240656,0.5962542,-0.78819615,,-0.114788026,0.25662434,-0.11715853,0.32555002,0.91916794,0.22169238,-0.7521014,0.10963919,0.6498636,0.5730276,-0.37829825,0.72700053,,-0.07666944,0.3757056,-0.36280635,0.5009647,0.2522445,-0.8278932,-0.77887774,-0.28566387,-0.5583418,-0.37733784,0.9245371,0.053360112,,1.1439066387958827,0.5380968584773411,0.21350933332000002,-0.26798374777322215,0.6039333289632467,0.32619887809067266,-0.4068900687404896,,-1.3595562315757281,0.12171027009777827,0.19871088668000003,0.9192807122361547,-0.289122833503672,-1.123373951717328,0.8408952524592695,,-0.11663162726452107,-0.13014047567495718,0.09162943763999999,-0.11611542257629885,,-2.272427e-05,3.516674e-06,4.887581e-06,1.0000001,1.2122095e-05,9.171665e-06,-1.2136996e-05,1.0,2.3245811e-06,-9.186566e-06,-2.3543835e-06,1.0,782,2.436,1,1,1.389,False,-0.25403941920860307,1.0162499290216802
2.4395116539672017,14:56:26.125931,14:55:10.172340,0,,0.11230976,0.0031639189,0.03425269,-0.150271,-0.986794,-0.060468122,-0.20805064,-0.028229147,0.97771055,-0.96650577,0.15950194,-0.20106119,,0.051871695,-0.012338012,0.0063239336,-0.4841922,-0.07682642,0.8715822,-0.75104177,0.5475414,-0.36896455,-0.4488809,-0.8332444,-0.32281503,,0.099606425,1.2986236,0.43119887,0.982698,0.006496611,-0.18510112,-0.105246715,-0.8027694,-0.58692795,-0.15240656,0.5962542,-0.78819615,,-0.11455395,0.25677058,-0.11735392,0.29191092,0.93078583,0.22005841,-0.75531566,0.08319186,0.6500595,0.58675915,-0.35597304,0.72732174,,-0.07668887,0.37570614,-0.36281028,0.50097215,0.25227985,-0.8278779,-0.7788943,-0.28558713,-0.558358,-0.37729374,0.9245512,0.053428136,,1.1442541617752229,0.5379346810869825,0.21341081528000003,-0.3105508063005806,0.6156840679430747,0.3000361541242462,-0.4064000365420869,,-1.3596489043702187,0.12167165643340715,0.19871218297,0.9192807122361547,-0.289122833503672,-1.1232105942370467,0.8418753168560754,,-0.11663162726452107,-0.13014047567495718,0.09162943763999999,-0.11611542257629885,,-2.272427e-05,3.516674e-06,4.887581e-06,1.0000001,1.2122095e-05,9.171665e-06,-1.2136996e-05,1.0,2.3245811e-06,-9.186566e-06,-2.3543835e-06,1.0,796,2.481,1,1,1.434,False,-0.25481392954937654,1.0177466152458434
