AlexandreBanks6/ExpertPlaybackApp/resources/Motions/P_09/PC1/Data_PC1_5.csv
Task Time,PC1 Time,PC2 Time,Gaze Calib,s_T_psm1,Tx,Ty,Tz,R00,R01,R02,R10,R11,R12,R20,R21,R22,s_T_psm3,Tx,Ty,Tz,R00,R01,R02,R10,R11,R12,R20,R21,R22,cart_T_ecm,Tx,Ty,Tz,R00,R01,R02,R10,R11,R12,R20,R21,R22,ecm_T_psm1,Tx,Ty,Tz,R00,R01,R02,R10,R11,R12,R20,R21,R22,ecm_T_psm3,Tx,Ty,Tz,R00,R01,R02,R10,R11,R12,R20,R21,R22,psm1_joints,q1,q2,q3,q4,q5,q6,jaw,psm3_joints,q1,q2,q3,q4,q5,q6,jaw,ecm_joints,q1,q2,q3,q4,ecmi_T_ecm,Tx,Ty,Tz,R00,R01,R02,R10,R11,R12,R20,R21,R22,Sample #,Task Duration (s),Collisions (binary),Collisions (increments),Cumulative Collision Time (s),Clutch Press,MTMR Angle,MTML Angle
""
lci_T_si,,,,,-0.06340535,0.054754253,0.18611735,0.99153084,-0.022042563,0.12798724,0.07037211,-0.7370862,-0.67212474,0.10915297,0.6754392,-0.7292925
rci_T_si,,,,,-0.07167363,0.05759123,0.1936862,0.9901677,-0.04165475,0.13353959,0.0629946,-0.71957815,-0.6915482,0.12489843,0.693161,-0.709879
ecm_T_lc,,,,,-4.4061628e-05,-0.00034663224,-0.01840835,-0.99912,0.030754527,0.028518902,-0.031987965,-0.99852574,-0.043852776,0.027128186,-0.04472645,0.9986309
ecm_T_rc,,,,,-0.0043358393,0.01870579,-0.007592615,-0.99555075,-0.052743673,-0.078081585,0.04863213,-0.9973746,0.053654674,-0.08070653,0.04961868,0.9955021
cart_T_ecmi,,,,,0.0836296,1.290016,0.4269553,0.99350035,0.08788843,-0.07233704,0.015880011,-0.73628986,-0.67647994,-0.11271578,0.6709343,-0.7328999
ecmac_T_ecmrep_psm1,,,,,0.023195708,-0.2631036,-0.30022871,0.99664557,0.07921609,0.02055357,-0.078295335,0.99603295,-0.04228661,-0.023821812,0.040535513,0.9988941
ecmac_T_ecmrep_psm3,,,,,0.022281613,-0.4507852,-0.5326207,0.99995744,0.002629678,0.008843231,-0.0032003638,0.99787027,0.06515156,-0.008653069,-0.06517708,0.9978362
""
0,19:08:28.732211,19:07:09.170698,0,,0.11645956,0.02777385,0.028641209,0.0019361898,0.3350849,-0.9421858,0.6486908,0.7166319,0.25620052,0.76104933,-0.6116837,-0.21597907,,0.06473382,0.03281008,0.029001594,0.63192767,0.050835818,0.7733583,0.18422468,-0.9790993,-0.08617392,0.7528138,0.19692746,-0.628085,,0.08361053,1.290016,0.42695314,0.9934999,0.08791016,-0.07231707,0.015909337,-0.73628724,-0.6764821,-0.11271578,0.6709343,-0.7328999,,-0.094707824,0.25376257,-0.108809456,-0.03886174,-0.22705337,0.9731066,0.992699,0.10251041,0.06356276,-0.1141857,0.9684722,0.22141194,,-0.05050104,0.43559498,-0.33819076,-0.7417997,-0.098858856,-0.66329485,0.61185324,-0.50466853,-0.6090528,-0.27453378,-0.8576343,0.4348501,,1.1858488010357962,0.4407827015292381,0.20762417672000003,2.4403715622728948,-0.16614998371477557,-1.21098986032232,0.5320116233993475,,-1.258975358621828,0.26847308563954086,0.18408873548000002,-1.7641214945353034,-0.2918555634989808,0.7047826421988693,-0.1488064442483284,,-0.06645122960811911,-0.038497599975864924,0.0911007994,-0.0984527949168055,,-1.8700957e-05,-3.0994415e-06,2.9802322e-06,1.0,2.1643937e-05,1.9803643e-05,-2.1629035e-05,1.0,3.3676624e-06,-1.9803643e-05,-3.33786e-06,1.0,40,0.12,0,0,0.0,False,0.7074258022838311,0.014290922245577597
0.12157629011198878,19:08:28.776039,19:07:09.243043,0,,0.11629923,0.02789858,0.02865927,0.0016844291,0.33306825,-0.9429012,0.6490757,0.71692353,0.25440392,0.76072174,-0.612443,-0.21497895,,0.064435944,0.032916654,0.029441118,0.62760407,0.056368805,0.7764894,0.17826264,-0.9812827,-0.07284656,0.75784934,0.184138,-0.6259054,,0.08361053,1.290016,0.42695314,0.9934999,0.08791016,-0.07231707,0.015909337,-0.73628724,-0.6764821,-0.11271578,0.6709343,-0.7328999,,-0.09454277,0.25387013,-0.10875672,-0.038555082,-0.22495635,0.97360575,0.9927649,0.10225636,0.06294062,-0.11371627,0.9689883,0.21938625,,-0.05027617,0.4360249,-0.33843127,-0.7384487,-0.10229338,-0.6665055,0.6121433,-0.51622933,-0.59898907,-0.2827971,-0.85031956,0.4438271,,1.1866983016519608,0.4407286423991185,0.20768121348000002,2.441000632103348,-0.16574007421547926,-1.2114874715136903,0.5323383115316163,,-1.2583961536562611,0.2704423825224681,0.18371021880000002,-1.7637021146483343,-0.3008735724834999,0.6940852222717688,-0.14864310018219418,,-0.06645122960811911,-0.038497599975864924,0.0911007994,-0.0984527949168055,,-1.8700957e-05,-3.0994415e-06,2.9802322e-06,1.0,2.1643937e-05,1.9803643e-05,-2.1629035e-05,1.0,3.3676624e-06,-1.9803643e-05,-3.33786e-06,1.0,48,0.145,0,0,0.0,False,0.7077832685949574,0.014387482647136629
0.16541682998649776,19:08:28.798285,19:07:09.243043,0,,0.11615327,0.028018013,0.02866526,0.0022138683,0.33300754,-0.9429215,0.6484236,0.7173494,0.25486565,0.76127625,-0.61197704,-0.21434191,,0.06404601,0.032945115,0.029882908,0.62329257,0.063306265,0.7794221,0.17625594,-0.9824429,-0.061153322,0.7618662,0.17549425,-0.62350744,,0.08361053,1.290016,0.42695314,0.9934999,0.08791016,-0.07231707,0.015909337,-0.73628724,-0.6764821,-0.11271578,0.6709343,-0.7328999,,-0.09439112,0.25396526,-0.10869714,-0.03917677,-0.22491693,0.97359,0.9926505,0.10288665,0.06371243,-0.11449942,0.9689307,0.21923314,,-0.049962167,0.43641514,-0.33874297,-0.73487693,-0.10776478,-0.669584,0.61428225,-0.52418643,-0.58981854,-0.28742516,-0.84475756,0.4514105,,1.1876481977954905,0.4406128014060052,0.20775769459,2.4407909421598637,-0.16614998371477557,-1.2109081815821794,0.5325016555977502,,-1.2574076438483603,0.272226333816414,0.18325262843,-1.766428083913633,-0.307432124472241,0.6857929320457232,-0.14815306798379124,,-0.06645122960811911,-0.038497599975864924,0.0911007994,-0.0984527949168055,,-1.8700957e-05,-3.0994415e-06,2.9802322e-06,1.0,2.1643937e-05,1.9803643e-05,-2.1629035e-05,1.0,3.3676624e-06,-1.9803643e-05,-3.33786e-06,1.0,59,0.177,0,0,0.0,False,0.7082003126246046,0.014725444052592795
0.18764367001131177,19:08:28.828055,19:07:09.243043,0,,0.11601703,0.028102301,0.02866225,0.0014180178,0.33229607,-0.94317394,0.64827365,0.71783435,0.2538798,0.76140577,-0.6117952,-0.21440099,,0.06366694,0.03296532,0.030264497,0.6192627,0.07139469,0.78193134,0.17673807,-0.98297596,-0.050219297,0.7650342,0.169296,-0.62133837,,0.08361053,1.290016,0.42695314,0.9934999,0.08791016,-0.07231707,0.015909337,-0.73628724,-0.6764821,-0.11271578,0.6709343,-0.7328999,,-0.09425035,0.2540283,-0.1086537,-0.03840876,-0.22419901,0.9737862,0.9926473,0.10338278,0.06295496,-0.11478717,0.96904427,0.21857975,,-0.04964932,0.436754,-0.3390205,-0.73140305,-0.11475551,-0.67222077,0.61739975,-0.5300378,-0.5812723,-0.2895982,-0.84017324,0.45852128,,1.1884050256171645,0.4404274558170238,0.20781473135000003,2.4395328024989564,-0.16601334721501013,-1.2108562420055948,0.5325016555977502,,-1.256395965841837,0.27382493952137843,0.18283781563,-1.7708315727268082,-0.31194112896450055,0.6785247716888697,-0.14913313238059694,,-0.06645122960811911,-0.038497599975864924,0.0911007994,-0.0984527949168055,,-1.8700957e-05,-3.0994415e-06,2.9802322e-06,1.0,2.1643937e-05,1.9803643e-05,-2.1629035e-05,1.0,3.3676624e-06,-1.9803643e-05,-3.33786e-06,1.0,67,0.202,0,0,0.0,False,0.7089152452468572,0.014435762847916145
0.21743454411625862,19:08:28.854531,19:07:09.243043,0,,0.11593057,0.028142646,0.028659955,0.0012725731,0.33202073,-0.9432711,0.6481595,0.7180316,0.25361338,0.7615032,-0.6117132,-0.21428874,,0.06338152,0.0329551,0.030608952,0.6154498,0.07668907,0.78443635,0.17471772,-0.98376864,-0.040902883,0.76856697,0.16222864,-0.61885905,,0.08361053,1.290016,0.42695314,0.9934999,0.08791016,-0.07231707,0.015909337,-0.73628724,-0.6764821,-0.11271578,0.6709343,-0.7328999,,-0.09416178,0.25405836,-0.10863471,-0.03828117,-0.22392175,0.973855,0.99263316,0.103589654,0.06283803,-0.11495211,0.9690863,0.21830662,,-0.04942342,0.43703485,-0.33928567,-0.7282455,-0.1188535,-0.6749314,0.61911476,-0.5363994,-0.5735614,-0.29386303,-0.8355534,0.46421438,,1.188868389589618,0.4402652784266651,0.20784454602000002,2.439113422611987,-0.16601334721501013,-1.2106928845253135,0.5338084081268246,,-1.255639138020163,0.27502196311688326,0.18247485443000003,-1.7729284721616532,-0.31781649845441445,0.6717990391879967,-0.14766303578538842,,-0.06645122960811911,-0.038497599975864924,0.0911007994,-0.0984527949168055,,-1.8700957e-05,-3.0994415e-06,2.9802322e-06,1.0,2.1643937e-05,1.9803643e-05,-2.1629035e-05,1.0,3.3676624e-06,-1.9803643e-05,-3.33786e-06,1.0,75,0.226,0,0,0.0,False,0.7102855327728408,0.014387482647136629
0.2438436180818826,19:08:28.881209,19:07:09.243043,0,,0.11583479,0.028170735,0.028642103,0.0015339712,0.33150396,-0.94345254,0.64822435,0.71806186,0.2533617,0.76144755,-0.6119578,-0.21378754,,0.06293584,0.033006985,0.031265557,0.60275877,0.09171606,0.79263484,0.17187619,-0.9849764,-0.016731232,0.7791921,0.14631999,-0.609467,,0.08361053,1.290016,0.42695314,0.9934999,0.08791016,-0.07231707,0.015909337,-0.73628724,-0.6764821,-0.11271578,0.6709343,-0.7328999,,-0.094063155,0.25406912,-0.108613804,-0.038531143,-0.22338206,0.9739691,0.99263674,0.10345799,0.06299798,-0.114837505,0.9692249,0.21775089,,-0.049088642,0.43760645,-0.33972567,-0.71748555,-0.13113628,-0.6841182,0.6265401,-0.5506814,-0.551541,-0.30440414,-0.8243502,0.47726813,,1.1893085853634486,0.44000270550894144,0.20787824956000003,2.439113422611987,-0.1658767107152447,-1.21080430242901,0.5341350962590932,,-1.2545656781506458,0.2773156147805279,0.18186819071000002,-1.7819451397314878,-0.3333930594276747,0.6552596912390674,-0.14766303578538842,,-0.06645122960811911,-0.038497599975864924,0.0911007994,-0.0984527949168055,,-1.8700957e-05,-3.0994415e-06,2.9802322e-06,1.0,2.1643937e-05,1.9803643e-05,-2.1629035e-05,1.0,3.3676624e-06,-1.9803643e-05,-3.33786e-06,1.0,86,0.259,0,0,0.0,False,0.7109408876765722,0.014822004454151827
0.27059854194521904,19:08:28.909693,19:07:09.243043,0,,0.11577824,0.028159864,0.028612569,0.0010141842,0.33080134,-0.94369984,0.64821947,0.71836615,0.25251025,0.76145256,-0.611981,-0.2137034,,0.062469043,0.033162016,0.0319857,0.58785284,0.10584952,0.80201304,0.16747041,-0.9858496,0.0073611736,0.79144335,0.12998623,-0.5972612,,0.08361053,1.290016,0.42695314,0.9934999,0.08791016,-0.07231707,0.015909337,-0.73628724,-0.6764821,-0.11271578,0.6709343,-0.7328999,,-0.094004676,0.25404242,-0.10860622,-0.038015798,-0.22266334,0.97415394,0.99264884,0.103682086,0.06243627,-0.11490458,0.9693663,0.21708494,,-0.048741516,0.43829566,-0.34013197,-0.7048294,-0.142463,-0.69492435,0.63438743,-0.56496066,-0.5276098,-0.31744003,-0.81272614,0.48857757,,1.1894398718223105,0.4397169643925951,0.20789510133000003,2.4384843527815336,-0.16601334721501013,-1.211182956966157,0.5360952250527045,,-1.253538554678374,0.28025025327273323,0.18126800844000002,-1.7918005670752608,-0.3518389868960091,0.6402433318663574,-0.14929647644673127,,-0.06645122960811911,-0.038497599975864924,0.0911007994,-0.0984527949168055,,-1.8700957e-05,-3.0994415e-06,2.9802322e-06,1.0,2.1643937e-05,1.9803643e-05,-2.1629035e-05,1.0,3.3676624e-06,-1.9803643e-05,-3.33786e-06,1.0,94,0.284,0,0,0.0,False,0.7113579317062193,0.014097801442459978
0.29909097612835467,19:08:28.938714,19:07:09.243043,0,,0.11575079,0.028124072,0.02857913,-0.00023969635,0.32968357,-0.9440914,0.6484822,0.7187216,0.2508182,0.76122946,-0.61216664,-0.21396631,,0.06187013,0.03345089,0.032889843,0.56904817,0.120825425,0.813379,0.16360919,-0.9860059,0.032006085,0.80586356,0.114863396,-0.5808529,,0.08361053,1.290016,0.42695314,0.9934999,0.08791016,-0.07231707,0.015909337,-0.73628724,-0.6764821,-0.11271578,0.6709343,-0.7328999,,-0.093976244,0.2539941,-0.108609304,-0.03673205,-0.22151285,0.97446537,0.9927197,0.10384324,0.061025508,-0.11470958,0.9696126,0.2160858,,-0.048291374,0.43922445,-0.34057274,-0.6886665,-0.15480393,-0.7083602,0.64463586,-0.57795924,-0.5004075,-0.33193827,-0.8012483,0.49781337,,1.1893780899593167,0.4394543914748715,0.20789769391000001,2.437226213120627,-0.1658767107152447,-1.2120294835311185,0.5356051928543015,,-1.2523878674801145,0.28442052902481446,0.18055893781000001,-1.8058497932887239,-0.3731542808594179,0.6281384996522562,-0.15011319677740265,,-0.06645122960811911,-0.038497599975864924,0.0911007994,-0.0984527949168055,,-1.8700957e-05,-3.0994415e-06,2.9802322e-06,1.0,2.1643937e-05,1.9803643e-05,-2.1629035e-05,1.0,3.3676624e-06,-1.9803643e-05,-3.33786e-06,1.0,102,0.308,0,0,0.0,False,0.711298353987698,0.014580603450254692
0.32811179803684354,19:08:28.967578,19:07:09.243043,0,,0.11574791,0.028095,0.028552935,-0.00029382482,0.32945812,-0.94417006,0.64853,0.71875477,0.2506,0.76118886,-0.6122492,-0.21387474,,0.06149641,0.033698548,0.033447206,0.5544977,0.12614438,0.8225691,0.1593416,-0.9862499,0.04383257,0.8167879,0.106764525,-0.56697327,,0.08361053,1.290016,0.42695314,0.9934999,0.08791016,-0.07231707,0.015909337,-0.73628724,-0.6764821,-0.11271578,0.6709343,-0.7328999,,-0.093972534,0.25395504,-0.10861028,-0.036671273,-0.22127862,0.9745209,0.9927284,0.10381678,0.060929473,-0.11465401,0.9696689,0.21586248,,-0.048008222,0.43984342,-0.34079266,-0.67614466,-0.1587503,-0.7194628,0.6515482,-0.584729,-0.48329794,-0.3439671,-0.795544,0.49879485,,1.1892468035004549,0.4392922140845128,0.20789899020000002,2.437226213120627,-0.16601334721501013,-1.2122447805879841,0.5359318809865703,,-1.251546089596824,0.2872779401882775,0.18017264339000003,-1.8157052206324964,-0.3902338433300979,0.6254849533657747,-0.14798972391765705,,-0.06645122960811911,-0.038497599975864924,0.0911007994,-0.0984527949168055,,-1.8700957e-05,-3.0994415e-06,2.9802322e-06,1.0,2.1643937e-05,1.9803643e-05,-2.1629035e-05,1.0,3.3676624e-06,-1.9803643e-05,-3.33786e-06,1.0,114,0.344,0,0,0.0,False,0.7111791985506564,0.014918564855710414
0.356955184135586,19:08:29.001635,19:07:09.243043,0,,0.115763545,0.02802533,0.028507963,-0.00045947637,0.32995242,-0.9439974,0.64834154,0.7188103,0.25092793,0.76134926,-0.6119176,-0.21425222,,0.060734104,0.034297813,0.03464842,0.50840783,0.1391322,0.8498022,0.13977492,-0.98710716,0.07798961,0.84969664,0.07913062,-0.5213001,,0.08361053,1.290016,0.42695314,0.9934999,0.08791016,-0.07231707,0.015909337,-0.73628724,-0.6764821,-0.11271578,0.6709343,-0.7328999,,-0.09398779,0.25387302,-0.10862291,-0.036534533,-0.2217995,0.9744076,0.992703,0.10407104,0.060909666,-0.114917345,0.96952266,0.21637882,,-0.047439408,0.4412158,-0.34121233,-0.6363118,-0.16712359,-0.75311154,0.66819483,-0.6072763,-0.4298036,-0.3855165,-0.7767143,0.4980882,,1.188868389589618,0.4390064729681665,0.20788861988000001,2.437226213120627,-0.16669652971383736,-1.2117693698096428,0.5360952250527045,,-1.2490979832756948,0.2933093945630469,0.17947783195000003,-1.8414970836810929,-0.447347900232052,0.6156993064138908,-0.14864310018219407,,-0.06645122960811911,-0.038497599975864924,0.0911007994,-0.0984527949168055,,-1.8700957e-05,-3.0994415e-06,2.9802322e-06,1.0,2.1643937e-05,1.9803643e-05,-2.1629035e-05,1.0,3.3676624e-06,-1.9803643e-05,-3.33786e-06,1.0,129,0.39,0,0,0.0,False,0.7108813099580513,0.014242642044798082
0.3909937939606607,19:08:29.040671,19:07:09.243043,0,,0.11578724,0.027963296,0.028488472,-0.00040771067,0.329299,-0.94422555,0.6485698,0.71878916,0.25039792,0.7611547,-0.6122945,-0.21386656,,0.059840824,0.03493904,0.03588718,0.43507385,0.16164067,0.8857669,0.109491795,-0.9859512,0.12614246,0.89371264,0.042103052,-0.4466598,,0.08361053,1.290016,0.42695314,0.9934999,0.08791016,-0.07231707,0.015909337,-0.73628724,-0.6764821,-0.11271578,0.6709343,-0.7328999,,-0.09401316,0.2538137,-0.108647965,-0.03655229,-0.22111394,0.97456276,0.99273723,0.10381504,0.060788054,-0.11461536,0.9697067,0.21571335,,-0.046746682,0.44265825,-0.34164038,-0.5715727,-0.1833414,-0.7998066,0.6890345,-0.63653046,-0.34649742,-0.44557393,-0.7491428,0.49015197,,1.1885594802746489,0.438852018310682,0.20786269408000002,2.437435903064111,-0.16669652971383736,-1.2125861572110483,0.5360952250527047,,-1.244974043920859,0.29907827602009257,0.17889320516,-1.8834350723779978,-0.5341120775831066,0.6031373603177449,-0.147989723917657,,-0.06645122960811911,-0.038497599975864924,0.0911007994,-0.0984527949168055,,-1.8700957e-05,-3.0994415e-06,2.9802322e-06,1.0,2.1643937e-05,1.9803643e-05,-2.1629035e-05,1.0,3.3676624e-06,-1.9803643e-05,-3.33786e-06,1.0,141,0.427,0,0,0.0,False,0.7112387762691776,0.014290922245577597
0.43004723894409835,19:08:29.078818,19:07:09.243043,0,,0.1158047,0.027890965,0.028504655,-0.0011440841,0.32887828,-0.9443715,0.6487274,0.7189306,0.24958234,0.76101977,-0.61235446,-0.21417496,,0.058564965,0.03540479,0.037000895,0.3521481,0.1954979,0.91529906,0.08833167,-0.9805187,0.17544377,0.9317666,0.019067854,-0.3625564,,0.08361053,1.290016,0.42695314,0.9934999,0.08791016,-0.07231707,0.015909337,-0.73628724,-0.6764821,-0.11271578,0.6709343,-0.7328999,,-0.094036594,0.25377122,-0.108706675,-0.035797782,-0.22068141,0.97468877,0.99277854,0.103888035,0.05998369,-0.114495784,0.9697974,0.2153688,,-0.04565932,0.44393405,-0.34216487,-0.4962494,-0.21294063,-0.84166074,0.7125103,-0.6538066,-0.2546879,-0.49605,-0.72608066,0.47617355,,1.1883277982884222,0.43873617731756864,0.20780306474000002,2.4368068332336574,-0.16669652971383736,-1.212994550911751,0.5362585691188386,,-1.238849916751599,0.3038663704021118,0.17823987500000002,-1.945503295649417,-0.6190999804372107,0.6007253625735055,-0.14831641204992557,,-0.06645122960811911,-0.038497599975864924,0.0911007994,-0.0984527949168055,,-1.8700957e-05,-3.0994415e-06,2.9802322e-06,1.0,2.1643937e-05,1.9803643e-05,-2.1629035e-05,1.0,3.3676624e-06,-1.9803643e-05,-3.33786e-06,1.0,149,0.452,0,0,0.0,False,0.710523843646925,0.015063405458049406
0.4682159470394254,19:08:29.109202,19:07:09.612590,0,,NaN,NaN,NaN,NaN,NaN,NaN,NaN,NaN,NaN,NaN,NaN,NaN,,NaN,NaN,NaN,NaN,NaN,NaN,NaN,NaN,NaN,NaN,NaN,NaN,,NaN,NaN,NaN,NaN,NaN,NaN,NaN,NaN,NaN,NaN,NaN,NaN,,-0.0940716,0.2537422,-0.10878176,-0.03568039,-0.22041696,0.9747529,0.9927844,0.103916176,0.05983857,-0.11448204,0.96985453,0.21511875,,-0.044550765,0.44468284,-0.34255683,-0.44326356,-0.24231668,-0.863018,0.7324131,-0.65298086,-0.19283943,-0.516806,-0.71756434,0.46691853,,1.1881038390350698,0.43868984092032326,0.20772528734,2.4368068332336574,-0.16683316621360278,-1.2133732054488982,0.5356051928543017,,-1.2331891535547923,0.30674694976419753,0.17769802578000002,-2.003377720051146,-0.6661029363565222,0.6093220600339097,-0.14831641204992557,,-0.06645122960811911,-0.038497599975864924,0.0911007994,-0.0984527949168055,,NaN,NaN,NaN,NaN,NaN,NaN,NaN,NaN,NaN,NaN,NaN,NaN,161,0.488,0,0,0.0,False,0.7105834213654458,0.01419436184401901
0.4985460271127522,19:08:29.141738,19:07:09.612590,0,,0.115857854,0.027754284,0.028562889,-0.0013782913,0.32846957,-0.9445135,0.64868075,0.71912587,0.24914084,0.7610591,-0.61234456,-0.21406315,,0.055862773,0.035764474,0.038133323,0.24432138,0.25429398,0.9357573,0.09472808,-0.9666458,0.237955,0.96505624,0.03050518,-0.26026097,,0.08361053,1.290016,0.42695314,0.9934999,0.08791016,-0.07231707,0.015909337,-0.73628724,-0.6764821,-0.11271578,0.6709343,-0.7328999,,-0.094103634,0.25370923,-0.10883537,-0.035572052,-0.2202646,0.97479135,0.9927766,0.10404762,0.05973905,-0.11458311,0.96987504,0.21497235,,-0.04316935,0.4453107,-0.34295124,-0.39510992,-0.27256283,-0.8772672,0.7533508,-0.6426222,-0.13963984,-0.52569073,-0.716063,0.45924184,,1.1878644343159688,0.4386280590573295,0.20766954687000003,2.4368068332336574,-0.16710643921313365,-1.2136404420823488,0.5359318809865703,,-1.2264935441528397,0.3095039654002957,0.17707969545000002,-2.0673331528139256,-0.6995788787990551,0.6272263913233684,-0.1496231645789998,,-0.06645122960811911,-0.038497599975864924,0.0911007994,-0.0984527949168055,,-1.8700957e-05,-3.0994415e-06,2.9802322e-06,1.0,2.1643937e-05,1.9803643e-05,-2.1629035e-05,1.0,3.3676624e-06,-1.9803643e-05,-3.33786e-06,1.0,172,0.521,0,0,0.0,False,0.7107621545210088,0.014725444052592795
0.5311342030763626,19:08:29.177398,19:07:09.612590,0,,0.11588411,0.02769535,0.028568193,-0.0015105568,0.32849276,-0.9445052,0.6488369,0.7190221,0.2490335,0.7609257,-0.612454,-0.21422444,,0.05426781,0.035892177,0.0386222,0.19439593,0.28355715,0.9390451,0.10426885,-0.95785713,0.2676525,0.9753656,0.045882672,-0.21576968,,0.08361053,1.290016,0.42695314,0.9934999,0.08791016,-0.07231707,0.015909337,-0.73628724,-0.6764821,-0.11271578,0.6709343,-0.7328999,,-0.09413385,0.25366896,-0.10887604,-0.03541767,-0.22028293,0.97479284,0.9928037,0.1038967,0.059550565,-0.11439573,0.9698871,0.21501793,,-0.041672166,0.44593403,-0.3433625,-0.3473437,-0.30376676,-0.88717425,0.772802,-0.62860996,-0.08733023,-0.5311585,-0.71594363,0.4530953,,1.1876095841311194,0.4385508317285872,0.2076267693,2.4368068332336574,-0.16710643921313365,-1.2137221208224893,0.536421913184973,,-1.2195353618331635,0.312369099296633,0.17641599497000002,-2.1350630045594268,-0.7282725437497977,0.6485821825961028,-0.14766303578538842,,-0.06645122960811911,-0.038497599975864924,0.0911007994,-0.0984527949168055,,-1.8700957e-05,-3.0994415e-06,2.9802322e-06,1.0,2.1643937e-05,1.9803643e-05,-2.1629035e-05,1.0,3.3676624e-06,-1.9803643e-05,-3.33786e-06,1.0,180,0.546,0,0,0.0,False,0.7104642659284042,0.01520824606038751
0.5667919649276882,19:08:29.192043,19:07:09.612590,0,,0.11589879,0.027650729,0.02856724,-0.002017552,0.3284051,-0.9445348,0.6489597,0.71905386,0.2486215,0.7608198,-0.6124637,-0.21457249,,0.052667122,0.036034722,0.039146364,0.15139124,0.30750996,0.9394245,0.10461101,-0.95002574,0.29412174,0.9829228,0.05374679,-0.17599447,,0.08361053,1.290016,0.42695314,0.9934999,0.08791016,-0.07231707,0.015909337,-0.73628724,-0.6764821,-0.11271578,0.6709343,-0.7328999,,-0.094151065,0.25363526,-0.10890386,-0.034896005,-0.22019295,0.97483194,0.99283385,0.103915475,0.059012625,-0.11429429,0.9699055,0.21498878,,-0.040174756,0.44659397,-0.34378618,-0.3061217,-0.32853532,-0.8935066,0.7833799,-0.62023294,-0.040336747,-0.54093015,-0.71230304,0.44723472,,1.1874242385421379,0.43846588166697076,0.20759825092000003,2.4363874533466885,-0.16710643921313365,-1.2138037995626298,0.5362585691188388,,-1.2125617340477388,0.3157284880969206,0.1757509982,-2.191469599356764,-0.7572394817000709,0.6668936600706076,-0.14847975611605982,,-0.06645122960811911,-0.038497599975864924,0.0911007994,-0.0984527949168055,,-1.8700957e-05,-3.0994415e-06,2.9802322e-06,1.0,2.1643937e-05,1.9803643e-05,-2.1629035e-05,1.0,3.3676624e-06,-1.9803643e-05,-3.33786e-06,1.0,192,0.583,0,0,0.0,False,0.7101067996172779,0.014387482647136629
0.5814063409343362,19:08:29.239815,19:07:09.612590,0,,0.11589885,0.027623072,0.028565869,-0.0020520305,0.32832128,-0.9445638,0.64904284,0.7190164,0.24851313,0.76074886,-0.6125527,-0.2145701,,0.050947133,0.036305327,0.039678693,0.10701167,0.33441913,0.9363292,0.10507837,-0.9402668,0.32381624,0.9886894,0.0637359,-0.13575971,,0.08361053,1.290016,0.42695314,0.9934999,0.08791016,-0.07231707,0.015909337,-0.73628724,-0.6764821,-0.11271578,0.6709343,-0.7328999,,-0.09415269,0.253614,-0.10892155,-0.03484951,-0.22010306,0.97485393,0.99284744,0.10382949,0.058935434,-0.11419045,0.9699351,0.21491036,,-0.03855874,0.44735757,-0.34413317,-0.2632521,-0.35653055,-0.89642864,0.7928599,-0.60932976,0.009507305,-0.54961026,-0.70823956,0.44308612,,1.1873470112133957,0.4383809316053543,0.20758139915,2.4363874533466885,-0.16710643921313365,-1.2138854783027704,0.5357685369204359,,-1.2054259288719553,0.3199064865818761,0.17511970497,-2.2535378226281835,-0.7841568721538626,0.6872094122959914,-0.14847975611605985,,-0.06645122960811911,-0.038497599975864924,0.0911007994,-0.0984527949168055,,-1.8700957e-05,-3.0994415e-06,2.9802322e-06,1.0,2.1643937e-05,1.9803643e-05,-2.1629035e-05,1.0,3.3676624e-06,-1.9803643e-05,-3.33786e-06,1.0,200,0.606,0,0,0.0,False,0.7109408876765722,0.01448404304869566
0.629173442022875,19:08:29.265665,19:07:09.612590,0,,0.11588599,0.027607717,0.028565332,-0.0020363377,0.3285203,-0.9444947,0.6489894,0.7190037,0.24868932,0.7607945,-0.61246085,-0.21467042,,0.049100075,0.036702145,0.040246665,0.06319572,0.35784358,0.9316406,0.09992826,-0.93108416,0.35085142,0.9929856,0.07092506,-0.0945992,,0.08361053,1.290016,0.42695314,0.9934999,0.08791016,-0.07231707,0.015909337,-0.73628724,-0.6764821,-0.11271578,0.6709343,-0.7328999,,-0.094140805,0.25360268,-0.108933054,-0.034872975,-0.22031073,0.9748062,0.99283886,0.103877835,0.058994956,-0.11425798,0.9698828,0.21511053,,-0.036820907,0.4482449,-0.34442353,-0.22079855,-0.3806455,-0.89797384,0.7974805,-0.6005056,0.05846187,-0.56149155,-0.7032084,0.43614817,,1.18735473394627,0.4382882588108636,0.20757232512,2.4363874533466885,-0.1672430757128991,-1.2136107029187926,0.5357685369204359,,-1.197911709785335,0.325096163073355,0.17452470786000002,-2.3156060458996026,-0.8127139006048397,0.7118026140107924,-0.1481530679837913,,-0.06645122960811911,-0.038497599975864924,0.0911007994,-0.0984527949168055,,-1.8700957e-05,-3.0994415e-06,2.9802322e-06,1.0,2.1643937e-05,1.9803643e-05,-2.1629035e-05,1.0,3.3676624e-06,-1.9803643e-05,-3.33786e-06,1.0,219,0.665,0,0,0.0,False,0.7109408876765722,0.014725444052592795
0.6550289809238166,19:08:29.313545,19:07:09.612590,0,,0.11587995,0.027603775,0.02856411,-0.0020255418,0.3284433,-0.9445215,0.6489045,0.71909,0.24866123,0.7608669,-0.6124008,-0.21458496,,0.046111528,0.037479777,0.041086137,0.0027933046,0.3879919,0.9216586,0.07922965,-0.91885066,0.38656974,0.9968524,0.071942955,-0.033307135,,0.08361053,1.290016,0.42695314,0.9934999,0.08791016,-0.07231707,0.015909337,-0.73628724,-0.6764821,-0.11271578,0.6709343,-0.7328999,,-0.09413493,0.2535991,-0.108935535,-0.034896206,-0.220235,0.97482246,0.9928255,0.10398372,0.059033006,-0.1143668,0.9698886,0.21502629,,-0.033993892,0.44971076,-0.3447398,-0.1621779,-0.4103471,-0.89739263,0.79335517,-0.59499973,0.128697,-0.58675885,-0.69107926,0.4220468,,1.187362456679144,0.43824964514649245,0.20757102883000003,2.4363874533466885,-0.16737971221266457,-1.2136626424953776,0.5357685369204359,,-1.185539891720827,0.3344329471182924,0.17375989676,-2.4032564422761338,-0.8598534930239167,0.7514669718881662,-0.147989723917657,,-0.06645122960811911,-0.038497599975864924,0.0911007994,-0.0984527949168055,,-1.8700957e-05,-3.0994415e-06,2.9802322e-06,1.0,2.1643937e-05,1.9803643e-05,-2.1629035e-05,1.0,3.3676624e-06,-1.9803643e-05,-3.33786e-06,1.0,227,0.689,0,0,0.0,False,0.7109408876765722,0.014387482647136629
0.7029422780033201,19:08:29.341807,19:07:09.823362,0,,0.11587998,0.027602933,0.028565094,-0.0020255418,0.3284433,-0.9445215,0.6489045,0.71909,0.24866123,0.7608669,-0.6124008,-0.21458496,,0.04422669,0.037980366,0.04147774,-0.024979241,0.39627346,0.9177927,0.056093603,-0.91607714,0.39705944,0.9981129,0.061400652,0.0006544888,,0.08361053,1.290016,0.42695314,0.9934999,0.08791016,-0.07231707,0.015909337,-0.73628724,-0.6764821,-0.11271578,0.6709343,-0.7328999,,-0.09413511,0.25359917,-0.10893682,-0.034896206,-0.220235,0.97482246,0.9928255,0.10398372,0.059033006,-0.1143668,0.9698886,0.21502629,,-0.03218854,0.45053944,-0.34484228,-0.13537666,-0.41677055,-0.8988746,0.7820942,-0.6019233,0.16129793,-0.60827774,-0.6811686,0.4074402,,1.187362456679144,0.43824964514649245,0.20756973254000002,2.4363874533466885,-0.16737971221266457,-1.2136626424953776,0.5359318809865703,,-1.1769058763674443,0.3404180650958164,0.17344878716,-2.443936291312131,-0.8929195259671534,0.778103389622138,-0.14864310018219412,,-0.06645122960811911,-0.038497599975864924,0.0911007994,-0.0984527949168055,,-1.8700957e-05,-3.0994415e-06,2.9802322e-06,1.0,2.1643937e-05,1.9803643e-05,-2.1629035e-05,1.0,3.3676624e-06,-1.9803643e-05,-3.33786e-06,1.0,239,0.726,0,0,0.0,False,0.7109408876765722,0.015449647064285088
0.7311396219301969,19:08:29.378792,19:07:09.823362,0,,0.11588335,0.027597688,0.028562501,-0.002042165,0.3285612,-0.9444804,0.64882636,0.7191253,0.24876286,0.76093346,-0.6122961,-0.21464786,,0.04224328,0.038485635,0.041723073,-0.04851734,0.40349233,0.9136958,0.030427396,-0.9137515,0.40513262,0.9983587,0.047457427,0.032055557,,0.08361053,1.290016,0.42695314,0.9934999,0.08791016,-0.07231707,0.015909337,-0.73628724,-0.6764821,-0.11271578,0.6709343,-0.7328999,,-0.094138525,0.25359347,-0.10893809,-0.034891207,-0.22036049,0.97479427,0.99281377,0.10407798,0.059063897,-0.11446997,0.96985,0.21514553,,-0.030262232,0.45127326,-0.34485805,-0.112633854,-0.42160454,-0.8997573,0.7679444,-0.6115547,0.19042657,-0.6305355,-0.66951513,0.3926506,,1.187323843014773,0.438234199680744,0.20756843625000002,2.4363874533466885,-0.16751634871242999,-1.213551224591681,0.5360952250527045,,-1.1672447375417894,0.34638773760759195,0.17326082511000002,-2.4818901710828305,-0.9263954684096862,0.8048290248467772,-0.14815306798379127,,-0.06645122960811911,-0.038497599975864924,0.0911007994,-0.0984527949168055,,-1.8700957e-05,-3.0994415e-06,2.9802322e-06,1.0,2.1643937e-05,1.9803643e-05,-2.1629035e-05,1.0,3.3676624e-06,-1.9803643e-05,-3.33786e-06,1.0,247,0.75,0,0,0.0,False,0.7103451104913616,0.015353086662726056
0.7681888749357313,19:08:29.412304,19:07:09.823362,0,,0.11588545,0.027597114,0.028563663,-0.0020470852,0.328416,-0.94453084,0.6488253,0.71916544,0.2486496,0.76093435,-0.6123268,-0.21455689,,0.040185854,0.038992215,0.041834593,-0.07239995,0.41522843,0.9068316,0.008318961,-0.9089347,0.41685563,0.9973409,0.037724376,0.062352538,,0.08361053,1.290016,0.42695314,0.9934999,0.08791016,-0.07231707,0.015909337,-0.73628724,-0.6764821,-0.11271578,0.6709343,-0.7328999,,-0.09414076,0.25359377,-0.108939074,-0.034886483,-0.22021075,0.97482824,0.9928137,0.10409003,0.059043754,-0.11447197,0.9698827,0.21499692,,-0.028241284,0.45191658,-0.34479487,-0.08928576,-0.43153197,-0.8976682,0.7552385,-0.6169092,0.22144488,-0.64934033,-0.6581817,0.38099077,,1.1873161202818987,0.43824192241361826,0.20756713996,2.4363874533466885,-0.16751634871242999,-1.2137145820719621,0.5360952250527045,,-1.157189739339549,0.35213345086601494,0.17316360336000003,-2.526763818988518,-0.9560455888587869,0.8326005745150855,-0.14815306798379127,,-0.06645122960811911,-0.038497599975864924,0.0911007994,-0.0984527949168055,,-1.8700957e-05,-3.0994415e-06,2.9802322e-06,1.0,2.1643937e-05,1.9803643e-05,-2.1629035e-05,1.0,3.3676624e-06,-1.9803643e-05,-3.33786e-06,1.0,262,0.796,0,0,0.0,False,0.7107621545210088,0.014870284654931343
0.8016586219891906,19:08:29.446505,19:07:09.823362,0,,0.11588749,0.027598202,0.028562829,-0.0020520063,0.3284251,-0.9445277,0.6488242,0.71916497,0.24865384,0.76093537,-0.61232245,-0.21456598,,0.037935674,0.03949674,0.041707754,-0.09782627,0.43146834,0.89680827,0.0007893443,-0.90109664,0.43361765,0.99520314,0.04312718,0.08781031,,0.08361053,1.290016,0.42695314,0.9934999,0.08791016,-0.07231707,0.015909337,-0.73628724,-0.6764821,-0.11271578,0.6709343,-0.7328999,,-0.09414263,0.25359395,-0.108937494,-0.03488176,-0.22022025,0.9748263,0.99281365,0.104092434,0.059040617,-0.11447398,0.9698803,0.21500675,,-0.025991727,0.45240247,-0.34460163,-0.06398162,-0.44829267,-0.8915941,0.75148153,-0.60950977,0.2525339,-0.6566444,-0.65385896,0.3758811,,1.1873083975490246,0.43824964514649245,0.20756843625000002,2.4363874533466885,-0.16751634871242999,-1.2137145820719621,0.5360952250527045,,-1.1463161314526409,0.3577247094669535,0.17313378869,-2.5865254528816077,-0.9713488768325161,0.8668059246064742,-0.1494598205128655,,-0.06645122960811911,-0.038497599975864924,0.0911007994,-0.0984527949168055,,-1.8700957e-05,-3.0994415e-06,2.9802322e-06,1.0,2.1643937e-05,1.9803643e-05,-2.1629035e-05,1.0,3.3676624e-06,-1.9803643e-05,-3.33786e-06,1.0,270,0.82,0,0,0.0,False,0.7097493333061515,0.015063405458049406
0.8359027039259672,19:08:29.474947,19:07:09.823362,0,,0.11588672,0.027598895,0.028561458,-0.0018441491,0.32834882,-0.9445547,0.6489286,0.719057,0.2486937,0.76084685,-0.6124901,-0.21440105,,0.036708668,0.03977083,0.041504562,-0.114744,0.43111238,0.8949727,0.006509453,-0.9005774,0.43464682,0.99337363,0.05569896,0.10052952,,0.08361053,1.290016,0.42695314,0.9934999,0.08791016,-0.07231707,0.015909337,-0.73628724,-0.6764821,-0.11271578,0.6709343,-0.7328999,,-0.094141684,0.25359356,-0.10893613,-0.035072837,-0.22013421,0.97483885,0.99282527,0.10390118,0.0591825,-0.114314996,0.96992034,0.2149107,,-0.024743464,0.45256707,-0.3444101,-0.04689398,-0.44996023,-0.89181656,0.75575364,-0.5997778,0.26287454,-0.6531749,-0.66166633,0.36818504,,1.187323843014773,0.43824192241361826,0.20756973254000002,2.437016523177142,-0.16737971221266457,-1.213744321235518,0.5356051928543015,,-1.1406013091257148,0.3604971705688001,0.17316878852,-2.62972158123942,-0.9699825118348617,0.9029372510736063,-0.14847975611605985,,-0.06645122960811911,-0.038497599975864924,0.0911007994,-0.0984527949168055,,-1.8700957e-05,-3.0994415e-06,2.9802322e-06,1.0,2.1643937e-05,1.9803643e-05,-2.1629035e-05,1.0,3.3676624e-06,-1.9803643e-05,-3.33786e-06,1.0,282,0.857,0,0,0.0,False,0.71022595505432,0.015063405458049406
0.8643419130239636,19:08:29.512903,19:07:09.823362,0,,0.11588462,0.027599059,0.028559968,0.00085781794,0.32867378,-0.94444305,0.6489781,0.71835595,0.2505831,0.7608063,-0.61313814,-0.21268596,,0.036403716,0.039915044,0.04137677,-0.12261665,0.4322043,0.8934006,0.011522114,-0.89951277,0.4367426,0.9923872,0.06384581,0.1053153,,0.08361053,1.290016,0.42695314,0.9934999,0.08791016,-0.07231707,0.015909337,-0.73628724,-0.6764821,-0.11271578,0.6709343,-0.7328999,,-0.094139434,0.25359273,-0.10893517,-0.037748765,-0.22043458,0.974671,0.9927703,0.10293908,0.06173076,-0.11393933,0.9699547,0.21495508,,-0.02441943,0.45260063,-0.3442551,-0.0388798,-0.4523334,-0.89100105,0.75919104,-0.5931366,0.2679888,-0.6497056,-0.66602063,0.3664685,,1.1873392884805214,0.4382264769478698,0.20757102883000003,2.439323112555472,-0.16737971221266457,-1.2139076787157992,0.5356051928543017,,-1.139543294721946,0.36124627565759987,0.17325823253000003,-2.646706466661666,-0.9667032358404912,0.9152104308306152,-0.14602959512404565,,-0.06645122960811911,-0.038497599975864924,0.0911007994,-0.0984527949168055,,-1.8700957e-05,-3.0994415e-06,2.9802322e-06,1.0,2.1643937e-05,1.9803643e-05,-2.1629035e-05,1.0,3.3676624e-06,-1.9803643e-05,-3.33786e-06,1.0,290,0.881,0,0,0.0,False,0.7104046882098829,0.01467716385181328
0.9023001999594271,19:08:29.543132,19:07:10.015985,0,,0.115879044,0.027600966,0.028554961,0.00066165347,0.32830942,-0.94456995,0.6489815,0.71849173,0.2501847,0.7608036,-0.61317426,-0.21259142,,0.036294773,0.040189136,0.04114908,-0.13108733,0.43769753,0.8895151,0.015807927,-0.8962207,0.4433267,0.99124473,0.07217595,0.11056405,,0.08361053,1.290016,0.42695314,0.9934999,0.08791016,-0.07231707,0.015909337,-0.73628724,-0.6764821,-0.11271578,0.6709343,-0.7328999,,-0.09413328,0.25359085,-0.10893087,-0.03755349,-0.22006077,0.97476304,0.99277556,0.10302277,0.06150567,-0.11395777,0.9700307,0.21460208,,-0.02427047,0.452624,-0.34391436,-0.03026293,-0.45904055,-0.88789976,0.762099,-0.58537483,0.27666122,-0.6467529,-0.6682949,0.3675495,,1.18735473394627,0.4382033087492471,0.20757621399,2.439113422611987,-0.16737971221266457,-1.2142343936763615,0.5359318809865701,,-1.1394815128589522,0.36196448981490276,0.17354989778000002,-2.6634816621404283,-0.9635605963458861,0.9219591954216216,-0.147989723917657,,-0.06645122960811911,-0.038497599975864924,0.0911007994,-0.0984527949168055,,-1.8700957e-05,-3.0994415e-06,2.9802322e-06,1.0,2.1643937e-05,1.9803643e-05,-2.1629035e-05,1.0,3.3676624e-06,-1.9803643e-05,-3.33786e-06,1.0,298,0.905,0,0,0.0,False,0.7104046882098829,0.014725444052592795
0.932526821969077,19:08:29.563268,19:07:10.015985,0,,0.11587477,0.027604654,0.028549686,0.0006714929,0.32813686,-0.94462985,0.6489838,0.71853346,0.25005892,0.7608017,-0.61321765,-0.21247312,,0.03624463,0.04040252,0.040957034,-0.13739154,0.4428019,0.88603055,0.019040465,-0.89316744,0.44932112,0.99033374,0.078603506,0.114282414,,0.08361053,1.290016,0.42695314,0.9934999,0.08791016,-0.07231707,0.015909337,-0.73628724,-0.6764821,-0.11271578,0.6709343,-0.7328999,,-0.09412827,0.25359008,-0.10892505,-0.03756293,-0.21988252,0.9748029,0.9927757,0.10302801,0.061495118,-0.1139537,0.97007054,0.21442398,,-0.024186324,0.45262733,-0.34363538,-0.023839388,-0.4650613,-0.88495743,0.7642464,-0.57914275,0.28376245,-0.6444836,-0.66956085,0.36922783,,1.1873701794120184,0.4381878632834987,0.20758269544000002,2.439113422611987,-0.16737971221266457,-1.2143977511566426,0.5359318809865701,,-1.1395664629205686,0.36242785378735626,0.17379619288,-2.6756436788625306,-0.9611011393501082,0.9254261487445037,-0.14782637985152272,,-0.06645122960811911,-0.038497599975864924,0.0911007994,-0.0984527949168055,,-1.8700957e-05,-3.0994415e-06,2.9802322e-06,1.0,2.1643937e-05,1.9803643e-05,-2.1629035e-05,1.0,3.3676624e-06,-1.9803643e-05,-3.33786e-06,1.0,313,0.951,0,0,0.0,False,0.71082173223953,0.013808120237783328
0.9526624910067767,19:08:29.605746,19:07:10.015985,0,,0.11585489,0.027621336,0.028542593,-0.00030135177,0.32769197,-0.94478446,0.64883673,0.7189767,0.24916515,0.7609274,-0.612936,-0.21283534,,0.03587871,0.04096957,0.040546536,-0.14363429,0.44292033,0.8849807,0.025696367,-0.89228266,0.45074543,0.9892971,0.087483436,0.11678089,,0.08361053,1.290016,0.42695314,0.9934999,0.08791016,-0.07231707,0.015909337,-0.73628724,-0.6764821,-0.11271578,0.6709343,-0.7328999,,-0.09410681,0.25359797,-0.108910896,-0.036618598,-0.21944194,0.9749381,0.9927761,0.10355493,0.06059704,-0.11425718,0.97011423,0.21406467,,-0.023749238,0.4527362,-0.3429865,-0.01739701,-0.46659517,-0.8842999,0.76855063,-0.57196784,0.2866753,-0.6395524,-0.67464197,0.36855257,,1.1874705749393832,0.4381569723520018,0.20759954721,2.4380649728945647,-0.16751634871242999,-1.2146130482135085,0.5362585691188388,,-1.1379755799484783,0.36482190097836587,0.17431989404,-2.6924188743412927,-0.9541326778620707,0.9385299458883155,-0.1488064442483284,,-0.06645122960811911,-0.038497599975864924,0.0911007994,-0.0984527949168055,,-1.8700957e-05,-3.0994415e-06,2.9802322e-06,1.0,2.1643937e-05,1.9803643e-05,-2.1629035e-05,1.0,3.3676624e-06,-1.9803643e-05,-3.33786e-06,1.0,321,0.976,0,0,0.0,False,0.7107621545210088,0.014773724253372311
0.9949778099544346,19:08:29.627196,19:07:10.015985,0,,0.11583534,0.02762641,0.028542385,-0.00065991376,0.327313,-0.9449157,0.6488161,0.7191693,0.2486627,0.7609448,-0.61291265,-0.21284059,,0.035544626,0.0412079,0.04040295,-0.14349565,0.4422254,0.8853507,0.026551992,-0.8925666,0.45013317,0.98929465,0.088100076,0.11633739,,0.08361053,1.290016,0.42695314,0.9934999,0.08791016,-0.07231707,0.015909337,-0.73628724,-0.6764821,-0.11271578,0.6709343,-0.7328999,,-0.09408705,0.253602,-0.10890956,-0.036265567,-0.21905613,0.97503805,0.9927812,0.103721075,0.060227916,-0.11432529,0.9701837,0.2137133,,-0.0233923,0.4528233,-0.34275404,-0.01751863,-0.4660138,-0.88460404,0.7690977,-0.5716199,0.28590107,-0.63889116,-0.67533827,0.36842412,,1.187563247733874,0.4381106359547564,0.20760343608,2.4376455930075958,-0.16751634871242999,-1.21485808443393,0.5364219131849728,,-1.136137569524413,0.3663510020874623,0.17448970803000002,-2.696193293324014,-0.9526296763646508,0.9430218607574942,-0.1471730035869856,,-0.06645122960811911,-0.038497599975864924,0.0911007994,-0.0984527949168055,,-1.8700957e-05,-3.0994415e-06,2.9802322e-06,1.0,2.1643937e-05,1.9803643e-05,-2.1629035e-05,1.0,3.3676624e-06,-1.9803643e-05,-3.33786e-06,1.0,329,1.001,0,0,0.0,False,0.71022595505432,0.014628883651033764
1.0165921410080045,19:08:29.655063,19:07:10.015985,0,,0.115796134,0.02762121,0.028534904,-0.0018209191,0.32617188,-0.9453086,0.6491255,0.71946436,0.24699557,0.76067877,-0.61317456,-0.21303669,,0.03491518,0.041524757,0.04023254,-0.14097396,0.44280544,0.8854658,0.0264014,-0.89239824,0.45047563,0.98966116,0.08688304,0.11411415,,0.08361053,1.290016,0.42695314,0.9934999,0.08791016,-0.07231707,0.015909337,-0.73628724,-0.6764821,-0.11271578,0.6709343,-0.7328999,,-0.09404768,0.25359404,-0.108912185,-0.035066858,-0.21787846,0.97534573,0.99285513,0.1037867,0.05888086,-0.11405679,0.9704418,0.21268229,,-0.022738218,0.45297468,-0.34248036,-0.020068627,-0.46638697,-0.8843531,0.76899356,-0.572478,0.28446063,-0.63894147,-0.6743531,0.37013742,,1.18770225692561,0.43797162676302037,0.20760602866000002,2.4363874533466885,-0.16710643921313365,-1.2156824105858628,0.5357685369204359,,-1.132523330539276,0.36888405847020794,0.17466859605,-2.698919262589313,-0.9515365843665273,0.9461327757948104,-0.14766303578538845,,-0.06645122960811911,-0.038497599975864924,0.0911007994,-0.0984527949168055,,-1.8700957e-05,-3.0994415e-06,2.9802322e-06,1.0,2.1643937e-05,1.9803643e-05,-2.1629035e-05,1.0,3.3676624e-06,-1.9803643e-05,-3.33786e-06,1.0,337,1.025,0,0,0.0,False,0.7096301778691094,0.014725444052592795
1.0444462499581277,19:08:29.680526,19:07:10.015985,0,,0.11577219,0.0276047,0.028525874,-0.0022066245,0.32545292,-0.9455556,0.6494855,0.7194427,0.24611093,0.7603705,-0.61358184,-0.2129646,,0.034426056,0.041695643,0.04014933,-0.14319101,0.44818652,0.8823975,0.027110875,-0.8894743,0.4561804,0.98932356,0.08924362,0.115213946,,0.08361053,1.290016,0.42695314,0.9934999,0.08791016,-0.07231707,0.015909337,-0.73628724,-0.6764821,-0.11271578,0.6709343,-0.7328999,,-0.09402401,0.25357637,-0.10891958,-0.03463066,-0.21712479,0.9755294,0.99291897,0.103511184,0.058286592,-0.11363366,0.9706401,0.21200266,,-0.0222392,0.4530793,-0.34235626,-0.017814232,-0.47202694,-0.8814041,0.7694542,-0.5693864,0.28937748,-0.6384535,-0.67304504,0.3733463,,1.1877485933228553,0.43783261757128433,0.20760213979000003,2.4359680734597196,-0.16669652971383736,-1.2162617005173737,0.5356051928543015,,-1.1300288878209013,0.3704826641751724,0.1747269291,-2.707726240215663,-0.9507167653679346,0.947832951836708,-0.14782637985152272,,-0.06645122960811911,-0.038497599975864924,0.0911007994,-0.0984527949168055,,-1.8700957e-05,-3.0994415e-06,2.9802322e-06,1.0,2.1643937e-05,1.9803643e-05,-2.1629035e-05,1.0,3.3676624e-06,-1.9803643e-05,-3.33786e-06,1.0,374,1.139,0,0,0.0,False,0.7090344006838989,0.014532323249474732
1.0699156150221825,19:08:29.784672,19:07:10.210156,0,,0.11558415,0.027472489,0.028465852,-0.003028486,0.32406163,-0.94603115,0.64979154,0.7197285,0.24446186,0.7601062,-0.61398286,-0.21275225,,0.033596337,0.0420047,0.03967321,-0.15756804,0.43511802,0.8864788,0.073744535,-0.8900013,0.4499548,0.9847507,0.13627157,0.10814814,,0.0836553,1.2900189,0.4269503,0.9935007,0.087872446,-0.07235172,0.015858455,-0.73629177,-0.6764784,-0.11271578,0.6709343,-0.7328999,,-0.09387841,0.25344604,-0.108982295,-0.033735715,-0.21564797,0.97588825,0.99298406,0.10349519,0.057196666,-0.11333408,0.970971,0.2106435,,-0.0213779,0.45301917,-0.3419128,-0.0020742845,-0.46677053,-0.88437605,0.7983781,-0.53330487,0.27960384,-0.6021529,-0.7054865,0.3737656,,1.1878258206515977,0.43665876217440225,0.20755936222000002,2.4349196237422968,-0.16710643921313365,-1.21674423420769,0.5339717521929588,,-1.1264300943015129,0.3731933434140252,0.17476063264000002,-2.749454538969083,-0.905216810946043,0.9893057379210207,-0.14782637985152275,,-0.06645777459281409,-0.038497599975864924,0.0911007994,-0.0984527949168055,,2.6140362e-05,-3.2186508e-06,-1.1920929e-07,1.0,-1.5899539e-05,-1.45584345e-05,1.591444e-05,1.0,-2.413988e-06,1.45584345e-05,2.4735928e-06,1.0,378,1.151,0,0,0.0,False,0.7083194680616467,0.014966845056490374
1.174067395972088,19:08:29.808077,19:07:10.210156,0,,0.115548566,0.027458392,0.02846177,-0.0021274304,0.3239521,-0.9460711,0.6498595,0.7195137,0.24491335,0.7600512,-0.6142924,-0.21205412,,0.033946127,0.042033073,0.039762795,-0.1628711,0.43569607,0.88523555,0.066473216,-0.8903315,0.45043433,0.98440546,0.13220716,0.11604719,,0.0836553,1.2900189,0.4269503,0.9935007,0.087872446,-0.07235172,0.015858455,-0.73629177,-0.6764784,-0.11271578,0.6709343,-0.7328999,,-0.093843535,0.25343376,-0.108992994,-0.03462074,-0.21552119,0.9758853,0.99297523,0.103129946,0.058002952,-0.113143854,0.97103804,0.21043676,,-0.021737013,0.45306602,-0.34190786,0.0030880938,-0.46669108,-0.88441503,0.7939104,-0.5366091,0.28593177,-0.6080269,-0.7030292,0.36885378,,1.1879339389118369,0.43648886205116927,0.20755417706,2.4357583835162346,-0.16710643921313365,-1.2168259129478307,0.5338084081268244,,-1.1288241414925224,0.3724751292567223,0.1748306323,-2.7528095780648356,-0.9128684549329076,0.991297846040711,-0.14815306798379124,,-0.06645777459281409,-0.038497599975864924,0.0911007994,-0.0984527949168055,,2.6140362e-05,-3.2186508e-06,-1.1920929e-07,1.0,-1.5899539e-05,-1.45584345e-05,1.591444e-05,1.0,-2.413988e-06,1.45584345e-05,2.4735928e-06,1.0,386,1.176,0,0,0.0,False,0.7080215794690417,0.015401366863505128
1.1974147129803896,19:08:29.829210,19:07:10.210156,0,,0.11550994,0.02746015,0.02846761,-0.0020206347,0.32367927,-0.94616467,0.64994067,0.7194963,0.24474888,0.759982,-0.6144566,-0.21182624,,0.034272388,0.042088833,0.039794445,-0.16661283,0.43687707,0.8839562,0.06333032,-0.8898946,0.45174882,0.9839865,0.13124847,0.12060025,,0.0836553,1.2900189,0.4269503,0.9935007,0.087872446,-0.07235172,0.015858455,-0.73629177,-0.6764784,-0.11271578,0.6709343,-0.7328999,,-0.09380566,0.25343993,-0.109000504,-0.03471482,-0.21523477,0.9759451,0.99298537,0.103012115,0.058039226,-0.11302623,0.97111404,0.21014893,,-0.022063093,0.45309046,-0.34184757,0.006793336,-0.46769425,-0.8838642,0.79193807,-0.537164,0.29032558,-0.61056364,-0.70193803,0.36673576,,1.188258293692554,0.43638074379093017,0.20755158448000002,2.4357583835162346,-0.16683316621360278,-1.2170487487552235,0.5341350962590934,,-1.130978783964431,0.37194226068840086,0.17492785405000003,-2.7549064774996808,-0.9161477309272782,0.9911947985646459,-0.14717300358698557,,-0.06645777459281409,-0.038497599975864924,0.0911007994,-0.0984527949168055,,2.6140362e-05,-3.2186508e-06,-1.1920929e-07,1.0,-1.5899539e-05,-1.45584345e-05,1.591444e-05,1.0,-2.413988e-06,1.45584345e-05,2.4735928e-06,1.0,398,1.213,0,0,0.0,False,0.708379045780168,0.014870284654931343
1.2186033420730382,19:08:29.866039,19:07:10.210156,0,,0.11541903,0.027518995,0.02851887,-0.0014618207,0.3235526,-0.9462091,0.65024984,0.71916205,0.24491014,0.7597188,-0.61491454,-0.2114414,,0.0348197,0.042251583,0.039795816,-0.1721668,0.43723008,0.8827165,0.060102016,-0.88976526,0.45244396,0.98323256,0.13094899,0.12690958,,0.0836553,1.2900189,0.4269503,0.9935007,0.087872446,-0.07235172,0.015858455,-0.73629177,-0.6764784,-0.11271578,0.6709343,-0.7328999,,-0.093716934,0.25352004,-0.109008476,-0.03522418,-0.21508335,0.97596025,0.9930203,0.10245887,0.058419924,-0.112560935,0.9712061,0.2099731,,-0.02260055,0.45313856,-0.34166086,0.012339357,-0.46799204,-0.88364655,0.7898597,-0.5373403,0.29561293,-0.6131634,-0.7016045,0.36301762,,1.1888066077266242,0.43641935745530125,0.20755158448000002,2.4359680734597196,-0.16614998371477557,-1.2167073721321593,0.5341350962590932,,-1.1345621320180712,0.3713244420584629,0.17515729738000002,-2.7578421367084642,-0.9192903704218833,0.992205514286993,-0.14733634765311984,,-0.06645777459281409,-0.038497599975864924,0.0911007994,-0.0984527949168055,,2.6140362e-05,-3.2186508e-06,-1.1920929e-07,1.0,-1.5899539e-05,-1.45584345e-05,1.591444e-05,1.0,-2.413988e-06,1.45584345e-05,2.4735928e-06,1.0,410,1.25,0,0,0.0,False,0.7089152452468572,0.014773724253372311
1.2553922671359032,19:08:29.907924,19:07:10.371938,0,,0.11529933,0.027597561,0.028580174,-0.0010272879,0.32148725,-0.94691336,0.6521589,0.7180537,0.24307941,0.75808144,-0.6172884,-0.21039847,,0.035544284,0.04262292,0.03975761,-0.17782582,0.438573,0.88092655,0.055996418,-0.889234,0.4540125,0.9824674,0.13006395,0.13357022,,0.0836553,1.2900189,0.4269503,0.9935007,0.087872446,-0.07235172,0.015858455,-0.73629177,-0.6764784,-0.11271578,0.6709343,-0.7328999,,-0.09359943,0.25362214,-0.10901375,-0.03537324,-0.21286109,0.976442,0.9932988,0.10008235,0.05780153,-0.110028304,0.97194326,0.20789443,,-0.023302939,0.45327535,-0.34127057,0.017975623,-0.46916524,-0.8829274,0.7872061,-0.53779596,0.30179796,-0.6164279,-0.7004709,0.35966253,,1.189764226603028,0.4365197529826662,0.20755417706,2.4359680734597196,-0.16300734422017046,-1.218371517775631,0.5338084081268246,,-1.1393116127357192,0.371224046531098,0.17557988792,-2.759309966312856,-0.9224330099164885,0.9909292252854043,-0.14815306798379127,,-0.06645777459281409,-0.038497599975864924,0.0911007994,-0.0984527949168055,,2.6140362e-05,-3.2186508e-06,-1.1920929e-07,1.0,-1.5899539e-05,-1.45584345e-05,1.591444e-05,1.0,-2.413988e-06,1.45584345e-05,2.4735928e-06,1.0,422,1.287,0,0,0.0,False,0.7096897555876307,0.014725444052592795
1.2973169090691954,19:08:29.944251,19:07:10.371938,0,,0.11513938,0.027705662,0.028665438,0.0016694134,0.32054368,-0.9472323,0.6523812,0.71754986,0.24396884,0.7578889,-0.61836404,-0.20791887,,0.036233537,0.043136533,0.039751828,-0.18035296,0.43556064,0.8819068,0.052728176,-0.891039,0.450854,0.9821875,0.1278143,0.13773516,,0.0836553,1.2900189,0.4269503,0.9935007,0.087872446,-0.07235172,0.015858455,-0.73629177,-0.6764784,-0.11271578,0.6709343,-0.7328999,,-0.09344255,0.25376314,-0.1090211,-0.038017992,-0.21184659,0.9765632,0.99326766,0.099004544,0.060145434,-0.1094258,0.97227526,0.20665641,,-0.023973215,0.45353383,-0.34079856,0.020457735,-0.4658612,-0.88462126,0.7851211,-0.54032797,0.3027054,-0.6190043,-0.7007275,0.35470358,,1.190968972931407,0.4365506439141631,0.20756195480000003,2.4380649728945647,-0.16205088872181236,-1.2189880856212247,0.5344617843913615,,-1.1439375297273797,0.3721121608116338,0.17604266345000003,-2.7563743071040725,-0.9235261019146119,0.9914938535544134,-0.14815306798379127,,-0.06645777459281409,-0.038497599975864924,0.0911007994,-0.0984527949168055,,2.6140362e-05,-3.2186508e-06,-1.1920929e-07,1.0,-1.5899539e-05,-1.45584345e-05,1.591444e-05,1.0,-2.413988e-06,1.45584345e-05,2.4735928e-06,1.0,455,1.389,0,0,0.0,False,0.708855667528336,0.014290922245577597
1.3336344631388783,19:08:30.039162,19:07:10.478472,0,,0.114784285,0.027937733,0.028788492,0.0023170225,0.3133646,-0.9496301,0.6541904,0.71775895,0.23844656,0.7563261,-0.6217916,-0.20333715,,0.03822939,0.044679668,0.039224327,-0.1841732,0.42396134,0.8867565,0.042689204,-0.8978879,0.43814957,0.9819663,0.11855042,0.14726827,,0.0836553,1.2900189,0.4269503,0.9935007,0.087872446,-0.07235172,0.015858455,-0.73629177,-0.6764784,-0.11271578,0.6709343,-0.7328999,,-0.0930881,0.25402534,-0.10899465,-0.038392283,-0.2043592,0.9781428,0.99351853,0.09699971,0.05926152,-0.1069902,0.97407824,0.19931063,,-0.025830798,0.45393944,-0.3390585,0.024088943,-0.45304012,-0.8911646,0.7787577,-0.550458,0.30088606,-0.62686217,-0.70124936,0.33954853,,1.1934865838484041,0.4365197529826662,0.20762288043000002,2.437435903064111,-0.15822506672838005,-1.2248848640895036,0.5347884725236305,,-1.1557533110249432,0.37352542092761687,0.17784061768,-2.7435832205515167,-0.9284450159061678,0.9935446083241111,-0.1488064442483284,,-0.06645777459281409,-0.038497599975864924,0.0911007994,-0.0984527949168055,,2.6140362e-05,-3.2186508e-06,-1.1920929e-07,1.0,-1.5899539e-05,-1.45584345e-05,1.591444e-05,1.0,-2.413988e-06,1.45584345e-05,2.4735928e-06,1.0,463,1.413,0,0,0.0,False,0.7096897555876307,0.014628883651033764
1.428519411943853,19:08:30.071015,19:07:10.478472,0,,0.11470325,0.027986154,0.028788432,0.00050290395,0.3120218,-0.9500748,0.6540141,0.7186121,0.23635143,0.756482,-0.6214814,-0.20370534,,0.03870756,0.04499167,0.03903997,-0.18483791,0.4213666,0.8878542,0.040160656,-0.8994279,0.43522018,0.981948,0.11610201,0.14932603,,0.0836553,1.2900189,0.4269503,0.9935007,0.087872446,-0.07235172,0.015858455,-0.73629177,-0.6764784,-0.11271578,0.6709343,-0.7328999,,-0.09300466,0.25406274,-0.10897121,-0.036617413,-0.20300466,0.97849286,0.9935378,0.097867966,0.057484772,-0.10743278,0.9742746,0.19810914,,-0.026267476,0.4539554,-0.33864734,0.024703935,-0.45011154,-0.8926306,0.7771501,-0.55300903,0.30036438,-0.62883025,-0.70112807,0.33614272,,1.1939422250879834,0.43641163472242706,0.20765658397000003,2.4353390036292657,-0.15822506672838005,-1.2256199727507686,0.5357685369204361,,-1.1597227957222946,0.37333235260576125,0.17853154025,-2.7387603518513726,-0.9314510189010075,0.9938721549617777,-0.1488064442483284,,-0.06645777459281409,-0.038497599975864924,0.0911007994,-0.0984527949168055,,2.6140362e-05,-3.2186508e-06,-1.1920929e-07,1.0,-1.5899539e-05,-1.45584345e-05,1.591444e-05,1.0,-2.413988e-06,1.45584345e-05,2.4735928e-06,1.0,475,1.45,0,0,0.0,False,0.7099876441802353,0.01467716385181328
1.4604053411167115,19:08:30.109782,19:07:10.595072,0,,0.11460252,0.028003916,0.028739318,-0.00072664674,0.3099215,-0.95076185,0.6539553,0.7194302,0.23401412,0.7565328,-0.62158585,-0.2031976,,0.0397193,0.045613255,0.03869617,-0.18675049,0.41559282,0.89017236,0.034439743,-0.9027868,0.42870724,0.9818035,0.11071864,0.15428294,,0.0836553,1.2900189,0.4269503,0.9935007,0.087872446,-0.07235172,0.015858455,-0.73629177,-0.6764784,-0.11271578,0.6709343,-0.7328999,,-0.092898585,0.2540448,-0.10893514,-0.03540521,-0.20085827,0.9789803,0.99355805,0.098446846,0.05613085,-0.10765187,0.97466105,0.1960788,,-0.027199583,0.45399824,-0.33783647,0.026515272,-0.4436042,-0.89583045,0.77348095,-0.5585926,0.29950207,-0.63326466,-0.7008492,0.32830817,,1.1942820253344493,0.4360254980787158,0.20770843557000002,2.4338711740248744,-0.1583617032281455,-1.2271421296498835,0.535278504722033,,-1.1637386168168913,0.37307750242091187,0.1791861667,-2.733727793207744,-0.9344570218958472,0.9945264165600067,-0.1486431001821941,,-0.06645777459281409,-0.038497599975864924,0.0911007994,-0.0984527949168055,,2.6140362e-05,-3.2186508e-06,-1.1920929e-07,1.0,-1.5899539e-05,-1.45584345e-05,1.591444e-05,1.0,-2.413988e-06,1.45584345e-05,2.4735928e-06,1.0,483,1.476,0,0,0.0,False,0.7101067996172779,0.014870284654931343
1.4991773839574307,19:08:30.129202,19:07:10.595072,0,,0.11456244,0.027995065,0.02870576,-0.00066095777,0.31021857,-0.950665,0.6534698,0.71974224,0.2344101,0.75695205,-0.6210761,-0.20319425,,0.040215597,0.04592153,0.038531184,-0.18719955,0.4123373,0.89159083,0.03156355,-0.90464264,0.42500052,0.9818146,0.10770175,0.15633379,,0.0836553,1.2900189,0.4269503,0.9935007,0.087872446,-0.07235172,0.015858455,-0.73629177,-0.6764784,-0.11271578,0.6709343,-0.7328999,,-0.09285594,0.25401646,-0.10892136,-0.035542555,-0.2011855,0.9789081,0.9934851,0.09901488,0.056421388,-0.108277634,0.974536,0.19635555,,-0.027657347,0.45402423,-0.33743855,0.026906705,-0.43993735,-0.89762527,0.7716423,-0.561702,0.29842746,-0.6354873,-0.70067537,0.32436076,,1.1943206389988203,0.4357629251609922,0.2077304725,2.4338711740248744,-0.15918152222673815,-1.2266369797079861,0.5359318809865703,,-1.1663643459941277,0.37295393869492427,0.17962690530000003,-2.7297436842815377,-0.9365065693923288,0.9948908252732039,-0.14847975611605987,,-0.06645777459281409,-0.038497599975864924,0.0911007994,-0.0984527949168055,,2.6140362e-05,-3.2186508e-06,-1.1920929e-07,1.0,-1.5899539e-05,-1.45584345e-05,1.591444e-05,1.0,-2.413988e-06,1.45584345e-05,2.4735928e-06,1.0,491,1.5,0,0,0.0,False,0.7103451104913616,0.014918564855710414
1.5185984200797975,19:08:30.159562,19:07:10.595072,0,,0.114506036,0.027952,0.028653607,-0.00061677117,0.3100952,-0.95070535,0.6532259,0.7199638,0.2344096,0.7571626,-0.620881,-0.20300636,,0.04102824,0.046442296,0.038218915,-0.18790478,0.4070457,0.8938711,0.026719123,-0.907627,0.4189265,0.9818237,0.102601826,0.15967149,,0.0836553,1.2900189,0.4269503,0.9935007,0.087872446,-0.07235172,0.015858455,-0.73629177,-0.6764784,-0.11271578,0.6709343,-0.7328999,,-0.09279732,0.25395077,-0.10891911,-0.03562265,-0.20106909,0.97892916,0.9934481,0.099312864,0.056549545,-0.10859062,0.97452974,0.19621392,,-0.028399821,0.45404592,-0.33674765,0.0275171,-0.43394506,-0.900519,0.7685326,-0.5668808,0.29665437,-0.6392187,-0.70024127,0.317902,,1.1942974708001977,0.43530728392141294,0.20774473169000002,2.4338711740248744,-0.15986470472556533,-1.2264882838902067,0.5357685369204357,,-1.1705423444790832,0.3727068112429491,0.18039430898000003,-2.723243296033518,-0.9400591183862304,0.9955006860453752,-0.1481530679837913,,-0.06645777459281409,-0.038497599975864924,0.0911007994,-0.0984527949168055,,2.6140362e-05,-3.2186508e-06,-1.1920929e-07,1.0,-1.5899539e-05,-1.45584345e-05,1.591444e-05,1.0,-2.413988e-06,1.45584345e-05,2.4735928e-06,1.0,499,1.525,0,0,0.0,False,0.7099876441802353,0.01549792726506416
1.5489468090236187,19:08:30.181012,19:07:10.595072,0,,0.11447197,0.02791918,0.028623477,-0.0006025396,0.30946872,-0.9509094,0.65339315,0.71997803,0.23389924,0.75701827,-0.62117696,-0.20263864,,0.04155564,0.04675966,0.038009048,-0.1880736,0.40261945,0.895838,0.022964895,-0.9100628,0.4138338,0.9818864,0.09840411,0.16191263,,0.0836553,1.2900189,0.4269503,0.9935007,0.087872446,-0.07235172,0.015858455,-0.73629177,-0.6764784,-0.11271578,0.6709343,-0.7328999,,-0.09276248,0.25390705,-0.10892336,-0.035611954,-0.20041625,0.9790634,0.99347246,0.09913708,0.05642962,-0.10837091,0.9746821,0.19557756,,-0.028880885,0.4540411,-0.33631006,0.027608467,-0.42894262,-0.90290976,0.76612246,-0.5711221,0.29474717,-0.64210135,-0.69987696,0.31285477,,1.1942820253344493,0.43502926553794086,0.20774732427000003,2.4338711740248744,-0.15986470472556533,-1.2269783563310501,0.5360952250527047,,-1.173152628190571,0.37242107012660275,0.18089208434,-2.7184204273333736,-0.94306512138107,0.9966450200844474,-0.14913313238059697,,-0.06645777459281409,-0.038497599975864924,0.0911007994,-0.0984527949168055,,2.6140362e-05,-3.2186508e-06,-1.1920929e-07,1.0,-1.5899539e-05,-1.45584345e-05,1.591444e-05,1.0,-2.413988e-06,1.45584345e-05,2.4735928e-06,1.0,528,1.614,0,0,0.0,False,0.7100472218987566,0.014870284654931343
1.5704086709301919,19:08:30.265504,19:07:10.720535,0,,0.11441867,0.027871646,0.028587535,-0.0005621379,0.3088653,-0.9511056,0.6535186,0.7200152,0.23343396,0.7569101,-0.6214342,-0.20225403,,0.044371605,0.047945555,0.036995173,-0.1883488,0.382414,0.9045906,0.006266147,-0.9205892,0.39048213,0.9820821,0.07921526,0.1709956,,0.0836553,1.2900189,0.4269503,0.9935007,0.087872446,-0.07235172,0.015858455,-0.73629177,-0.6764784,-0.11271578,0.6709343,-0.7328999,,-0.09270883,0.253849,-0.10893554,-0.035633452,-0.19978882,0.9791908,0.99349004,0.099003926,0.05635404,-0.10820264,0.9748244,0.19496036,,-0.03147545,0.45375916,-0.3344252,0.027558831,-0.40609235,-0.9134164,0.7552884,-0.5901122,0.2851437,-0.6548129,-0.6977511,0.29045406,,1.1942897480673236,0.4346276834284812,0.20774602798000003,2.4338711740248744,-0.16000134122533075,-1.227357010868197,0.5357685369204361,,-1.186466619665734,0.36888405847020794,0.18317355474000002,-2.691580114567355,-0.9575485903562067,0.9969386155164489,-0.14831641204992554,,-0.06645122960811911,-0.038497599975864924,0.0911007994,-0.0984527949168055,,2.6140362e-05,-3.2186508e-06,-1.1920929e-07,1.0,-1.5899539e-05,-1.45584345e-05,1.591444e-05,1.0,-2.413988e-06,1.45584345e-05,2.4735928e-06,1.0,536,1.639,0,0,0.0,False,0.7100472218987566,0.015256526261167025
1.6548738940618932,19:08:30.294801,19:07:10.720535,0,,0.1144267,0.027878128,0.02859588,-0.0005676057,0.30871958,-0.9511529,0.6535785,0.7200029,0.23330426,0.7568584,-0.6215209,-0.20218123,,0.045443434,0.048110064,0.03680396,-0.1889117,0.375499,0.9073658,0.002261728,-0.9238346,0.38278523,0.9819914,0.0743649,0.17367385,,0.0836553,1.2900189,0.4269503,0.9935007,0.087872446,-0.07235172,0.015858455,-0.73629177,-0.6764784,-0.11271578,0.6709343,-0.7328999,,-0.09271726,0.25385925,-0.10893632,-0.035619125,-0.19963616,0.9792225,0.993499,0.09893945,0.056309428,-0.108125135,0.9748622,0.19481419,,-0.032499384,0.45360753,-0.33404967,0.028059453,-0.3985429,-0.91672033,0.75264263,-0.595099,0.28175572,-0.6578311,-0.69786876,0.28326222,,1.1942974708001977,0.4346971880243492,0.2077434354,2.4338711740248744,-0.15986470472556533,-1.2275501075120343,0.5356051928543017,,-1.1916485734243387,0.36676030692979616,0.18371929283000002,-2.6819343771670665,-0.9613744123496389,0.99589270107278,-0.1481530679837913,,-0.06645122960811911,-0.038497599975864924,0.0911007994,-0.0984527949168055,,2.6140362e-05,-3.2186508e-06,-1.1920929e-07,1.0,-1.5899539e-05,-1.45584345e-05,1.591444e-05,1.0,-2.413988e-06,1.45584345e-05,2.4735928e-06,1.0,544,1.663,0,0,0.0,False,0.7099280664617149,0.01520824606038751
1.684188564075157,19:08:30.328410,19:07:10.720535,0,,0.11442813,0.027875789,0.02859725,-0.00036486797,0.3087559,-0.95114124,0.6535865,0.71994656,0.23345563,0.75685155,-0.6215681,-0.20206144,,0.04644838,0.048136797,0.036740124,-0.19048405,0.37022933,0.9092008,-1.0639429e-05,-0.92615926,0.37713265,0.9816902,0.07182816,0.17642246,,0.0836553,1.2900189,0.4269503,0.9935007,0.087872446,-0.07235172,0.015858455,-0.73629177,-0.6764784,-0.11271578,0.6709343,-0.7328999,,-0.092718974,0.25385842,-0.10893872,-0.035819266,-0.1996709,0.9792081,0.99349546,0.09886518,0.056501552,-0.1080913,0.97486264,0.19483086,,-0.033480264,0.45346716,-0.33386835,0.029620126,-0.39297417,-0.91907233,0.7510933,-0.59793884,0.2798713,-0.65953124,-0.6985989,0.27744925,,1.1942897480673236,0.4346971880243492,0.20774084282000002,2.434080863968359,-0.15986470472556533,-1.2275501075120343,0.5356051928543017,,-1.1967146861898301,0.3644743779990257,0.18406410597000003,-2.6745952291451083,-0.9638338693454169,0.994467716253412,-0.14913313238059694,,-0.06645122960811911,-0.038497599975864924,0.0911007994,-0.0984527949168055,,2.6140362e-05,-3.2186508e-06,-1.1920929e-07,1.0,-1.5899539e-05,-1.45584345e-05,1.591444e-05,1.0,-2.413988e-06,1.45584345e-05,2.4735928e-06,1.0,556,1.701,0,0,0.0,False,0.7097493333061515,0.015353086662726056
1.7177803930826485,19:08:30.361560,19:07:10.858098,0,,0.11442849,0.0278676,0.02860047,-0.00037199166,0.3087555,-0.95114136,0.6536021,0.71993524,0.2334467,0.75683796,-0.6215814,-0.20207113,,0.047579486,0.048054244,0.036771894,-0.19469446,0.3674252,0.9094464,-0.0017552674,-0.9273182,0.37426984,0.9808623,0.071272075,0.18118861,,0.0836553,1.2900189,0.4269503,0.9935007,0.087872446,-0.07235172,0.015858455,-0.73629177,-0.6764784,-0.11271578,0.6709343,-0.7328999,,-0.09272016,0.2538546,-0.10894657,-0.035809867,-0.19966985,0.97920865,0.9934979,0.09884789,0.05648844,-0.108071744,0.9748646,0.19483185,,-0.034602944,0.45331195,-0.33381614,0.033878047,-0.3901376,-0.9201331,0.7497904,-0.59880817,0.28150168,-0.6608076,-0.6994437,0.27223498,,1.194274302601575,0.43468174255860076,0.20773306508000003,2.434080863968359,-0.15986470472556533,-1.2275501075120343,0.5356051928543017,,-1.2026920814344797,0.36157063043831733,0.18431169736000003,-2.670191740331933,-0.9664299628409603,0.9920923257159131,-0.14864310018219412,,-0.06645122960811911,-0.038497599975864924,0.0911007994,-0.0984527949168055,,2.6140362e-05,-3.2186508e-06,-1.1920929e-07,1.0,-1.5899539e-05,-1.45584345e-05,1.591444e-05,1.0,-2.413988e-06,1.45584345e-05,2.4735928e-06,1.0,564,1.726,0,0,0.0,False,0.7100472218987566,0.015353086662726056
1.750956165138632,19:08:30.383964,19:07:10.858098,0,,0.11442922,0.027851157,0.028610304,-0.00038268697,0.30875486,-0.95114154,0.6536256,0.7199183,0.23343334,0.75681776,-0.6216013,-0.20208566,,0.048338946,0.04790136,0.03687507,-0.1989386,0.36691195,0.90873486,-0.0019470453,-0.92741525,0.37402815,0.98001003,0.072639406,0.18521306,,0.0836553,1.2900189,0.4269503,0.9935007,0.087872446,-0.07235172,0.015858455,-0.73629177,-0.6764784,-0.11271578,0.6709343,-0.7328999,,-0.09272288,0.25384918,-0.10896474,-0.03579577,-0.19966827,0.9792095,0.99350166,0.098821945,0.056468777,-0.10804241,0.9748676,0.19483335,,-0.035371635,0.45320433,-0.33390743,0.038200114,-0.38985336,-0.9200843,0.7494968,-0.5977987,0.28441384,-0.66090494,-0.70046484,0.26935786,,1.1942511344029525,0.43465857435997807,0.20771491702000003,2.434080863968359,-0.15986470472556533,-1.2275501075120343,0.5356051928543017,,-1.2069009708509322,0.35933876063766645,0.1843583638,-2.6695626705014797,-0.9676596913388492,0.9904813671646829,-0.14831641204992554,,-0.06645122960811911,-0.038497599975864924,0.0911007994,-0.0984527949168055,,2.6140362e-05,-3.2186508e-06,-1.1920929e-07,1.0,-1.5899539e-05,-1.45584345e-05,1.591444e-05,1.0,-2.413988e-06,1.45584345e-05,2.4735928e-06,1.0,576,1.762,0,0,0.0,False,0.7098684887431936,0.015304806461946097
1.7733478101436049,19:08:30.413812,19:07:10.858098,0,,0.114425525,0.027833246,0.028625593,-0.00058756024,0.30859855,-0.95119214,0.6537342,0.7199086,0.23315862,0.75672376,-0.6216901,-0.20216452,,0.04872085,0.047776368,0.03701532,-0.2007,0.36551028,0.90891236,-0.001581192,-0.92791003,0.37280086,0.9796514,0.07338399,0.18680944,,0.0836553,1.2900189,0.4269503,0.9935007,0.087872446,-0.07235172,0.015858455,-0.73629177,-0.6764784,-0.11271578,0.6709343,-0.7328999,,-0.09272184,0.25384653,-0.10898842,-0.035576165,-0.19950467,0.97925085,0.99352235,0.098758206,0.05621485,-0.107924186,0.9749075,0.19469893,,-0.03577327,0.45318425,-0.3340468,0.040002376,-0.38859895,-0.92053825,0.749665,-0.59741694,0.2847725,-0.6606074,-0.7014869,0.26742095,,1.1942588571358266,0.43463540616135543,0.20769158380000002,2.4338711740248744,-0.15972806822579988,-1.2276615254157306,0.5356051928543017,,-1.2091791770488285,0.35824213256952653,0.18428317898000002,-2.668514220784057,-0.9676596913388492,0.9902363309442612,-0.14782637985152272,,-0.06645122960811911,-0.038497599975864924,0.0911007994,-0.0984527949168055,,2.6140362e-05,-3.2186508e-06,-1.1920929e-07,1.0,-1.5899539e-05,-1.45584345e-05,1.591444e-05,1.0,-2.413988e-06,1.45584345e-05,2.4735928e-06,1.0,605,1.852,0,0,0.0,False,0.7092727115579831,0.015642767867402263
1.8032094750087708,19:08:30.511383,19:07:10.979167,0,,0.11441527,0.027750358,0.028701141,-0.00079132896,0.30795515,-0.9514005,0.6540818,0.71982133,0.23245215,0.7564232,-0.62211007,-0.20199758,,0.047754895,0.047605243,0.03750187,-0.19900945,0.36439374,0.90973204,-0.0017410219,-0.9284303,0.37150252,0.97999597,0.07234877,0.1854008,,0.0836553,1.2900189,0.4269503,0.9935007,0.087872446,-0.07235172,0.015858455,-0.73629177,-0.6764784,-0.11271578,0.6709343,-0.7328999,,-0.09272438,0.25383726,-0.10910062,-0.03532215,-0.19882879,0.9793975,0.9935781,0.09842418,0.0558148,-0.10749398,0.97507936,0.19407538,,-0.034901552,0.45353955,-0.33460623,0.03827588,-0.38733926,-0.92114234,0.74963,-0.59840715,0.2827786,-0.66074944,-0.70133954,0.26745656,,1.194274302601575,0.4345504560997389,0.20758010286000003,2.4336614840813895,-0.15931815872650357,-1.2282408153472417,0.5351151606558988,,-1.2052405832829738,0.360836970815266,0.1835417011,-2.673337089484201,-0.9668398723402566,0.9970005888748737,-0.14831641204992554,,-0.06645122960811911,-0.038497599975864924,0.0911007994,-0.0984527949168055,,2.6140362e-05,-3.2186508e-06,-1.1920929e-07,1.0,-1.5899539e-05,-1.45584345e-05,1.591444e-05,1.0,-2.413988e-06,1.45584345e-05,2.4735928e-06,1.0,613,1.876,0,0,0.0,False,0.7099280664617149,0.01578760846974081
1.9007786689326167,19:08:30.532098,19:07:10.979167,0,,0.11441274,0.027736835,0.028708473,-0.00079302303,0.30786312,-0.9514303,0.65410304,0.71982676,0.2323758,0.7564049,-0.62214935,-0.20194508,,0.047312755,0.047667112,0.037502766,-0.19737975,0.36500645,0.9098414,-0.001309216,-0.9281972,0.37208635,0.9803262,0.07225126,0.18368517,,0.0836553,1.2900189,0.4269503,0.9935007,0.087872446,-0.07235172,0.015858455,-0.73629177,-0.6764784,-0.11271578,0.6709343,-0.7328999,,-0.092723444,0.25383237,-0.109115385,-0.03531732,-0.19873309,0.9794171,0.99358124,0.09840365,0.05579511,-0.10746655,0.97510093,0.19398211,,-0.034464348,0.45362964,-0.33461305,0.03662199,-0.38792408,-0.92096347,0.74998105,-0.5983934,0.28187546,-0.66044474,-0.701028,0.26902136,,1.1942665798687009,0.43451956516824203,0.20756584367000003,2.4336614840813895,-0.15931815872650357,-1.228322494087382,0.5349518165897647,,-1.2029700998179518,0.3621498354038842,0.1834509608,-2.675014609032077,-0.9658834168418985,0.9985076682729346,-0.14733634765311987,,-0.06645122960811911,-0.038497599975864924,0.0911007994,-0.0984527949168055,,2.6140362e-05,-3.2186508e-06,-1.1920929e-07,1.0,-1.5899539e-05,-1.45584345e-05,1.591444e-05,1.0,-2.413988e-06,1.45584345e-05,2.4735928e-06,1.0,621,1.901,0,0,0.0,False,0.7090939784024202,0.015594487666623191
1.9214769119862467,19:08:30.560197,19:07:10.979167,0,,0.11440335,0.027730681,0.028715506,-0.0009765364,0.30778998,-0.95145375,0.65409935,0.7198845,0.23220727,0.7564078,-0.6221187,-0.20202829,,0.04679469,0.047791507,0.037478566,-0.19520679,0.3655441,0.9100944,-0.0021185577,-0.9281011,0.3723222,0.98075974,0.070751846,0.18194602,,0.0836553,1.2900189,0.4269503,0.9935007,0.087872446,-0.07235172,0.015858455,-0.73629177,-0.6764784,-0.11271578,0.6709343,-0.7328999,,-0.092715204,0.25383285,-0.109125756,-0.035135616,-0.19866002,0.9794384,0.9935849,0.098468535,0.055615515,-0.10749245,0.9751093,0.19392584,,-0.033947084,0.4537506,-0.33456564,0.034393847,-0.3882111,-0.9209285,0.7495309,-0.59950435,0.28070962,-0.66107523,-0.69991904,0.27035695,,1.194305193533072,0.43448867423674514,0.20755676964000003,2.433451794137905,-0.15931815872650357,-1.228322494087382,0.5349518165897647,,-1.2002516978462248,0.36384883663621354,0.18340429436000003,-2.6762727486929845,-0.9658834168418985,1.0002229218158865,-0.14847975611605982,,-0.06645122960811911,-0.038497599975864924,0.0911007994,-0.0984527949168055,,2.6140362e-05,-3.2186508e-06,-1.1920929e-07,1.0,-1.5899539e-05,-1.45584345e-05,1.591444e-05,1.0,-2.413988e-06,1.45584345e-05,2.4735928e-06,1.0,629,1.925,0,0,0.0,False,0.7092727115579831,0.016366970879094556
1.9495526070240885,19:08:30.582384,19:07:10.979167,0,,0.11439939,0.02773337,0.02871795,-0.00075285044,0.30772594,-0.9514747,0.65409064,0.7198624,0.23230033,0.75641555,-0.62217605,-0.20182268,,0.04654541,0.047876175,0.037448525,-0.19431742,0.36704805,0.9096793,-0.0021257997,-0.92751133,0.373789,0.9809363,0.07069996,0.18101186,,0.0836553,1.2900189,0.4269503,0.9935007,0.087872446,-0.07235172,0.015858455,-0.73629177,-0.6764784,-0.11271578,0.6709343,-0.7328999,,-0.09271134,0.25383657,-0.109126166,-0.03535905,-0.198592,0.9794442,0.9935785,0.09841486,0.055823904,-0.107478045,0.9751286,0.19383688,,-0.033694785,0.45381153,-0.33451223,0.03348764,-0.38967648,-0.92034274,0.74955964,-0.5993195,0.2810276,-0.6610892,-0.69926274,0.27201596,,1.194336084464569,0.43448867423674514,0.20755676964000003,2.4336614840813895,-0.15931815872650357,-1.2284041728275226,0.5351151606558988,,-1.1989465559904808,0.36473695091674935,0.18340818323000002,-2.677321198410407,-0.9654735073426023,0.9999703468449377,-0.1486431001821941,,-0.06645122960811911,-0.038497599975864924,0.0911007994,-0.0984527949168055,,2.6140362e-05,-3.2186508e-06,-1.1920929e-07,1.0,-1.5899539e-05,-1.45584345e-05,1.591444e-05,1.0,-2.413988e-06,1.45584345e-05,2.4735928e-06,1.0,637,1.951,0,0,0.0,False,0.7093322892765044,0.015739328268961295
1.9717818449717015,19:08:30.612998,19:07:11.087979,0,,0.11439173,0.027742103,0.02872397,-0.0007164115,0.3076948,-0.9514848,0.65405166,0.7198948,0.23230985,0.7564494,-0.622154,-0.20176408,,0.04629105,0.048006114,0.037408948,-0.19581974,0.3712136,0.9076646,-0.002262026,-0.9257525,0.37812316,0.9806372,0.07199094,0.18212025,,0.0836553,1.2900189,0.4269503,0.9935007,0.087872446,-0.07235172,0.015858455,-0.73629177,-0.6764784,-0.11271578,0.6709343,-0.7328999,,-0.09270381,0.25384724,-0.10912553,-0.035401046,-0.1985613,0.9794489,0.99357194,0.0984544,0.055870928,-0.10752486,0.97513086,0.19379954,,-0.03343516,0.45389572,-0.33441922,0.035015933,-0.3939646,-0.91845834,0.7494126,-0.59765786,0.28493118,-0.6611767,-0.6982814,0.2743145,,1.1944055890604368,0.4345041197024936,0.20755806593,2.4336614840813895,-0.15931815872650357,-1.2284041728275226,0.5351151606558988,,-1.1978035915250957,0.3657331834575243,0.18344836822000002,-2.6823537570540354,-0.9654735073426023,0.9998886681047973,-0.14782637985152272,,-0.06645122960811911,-0.038497599975864924,0.0911007994,-0.0984527949168055,,2.6140362e-05,-3.2186508e-06,-1.1920929e-07,1.0,-1.5899539e-05,-1.45584345e-05,1.591444e-05,1.0,-2.413988e-06,1.45584345e-05,2.4735928e-06,1.0,649,1.988,0,0,0.0,False,0.7092727115579831,0.015835888670520326
2.0023480451200157,19:08:30.643322,19:07:11.087979,0,,0.11438514,0.027750246,0.028726056,-0.0006877193,0.3077456,-0.9514684,0.65402365,0.7198996,0.23237363,0.75647354,-0.62212324,-0.20176807,,0.04617567,0.04812097,0.03737116,-0.19867858,0.37355244,0.90608245,-0.0018525422,-0.9246544,0.3808029,0.98006284,0.0739789,0.18440099,,0.0836553,1.2900189,0.4269503,0.9935007,0.087872446,-0.07235172,0.015858455,-0.73629177,-0.6764784,-0.11271578,0.6709343,-0.7328999,,-0.09269697,0.25385478,-0.1091223,-0.035433687,-0.19861458,0.97943693,0.99356717,0.09847754,0.0559146,-0.107558,0.9751176,0.1938475,,-0.03331322,0.453956,-0.33432212,0.037936646,-0.39657405,-0.9172185,0.74956983,-0.5957125,0.28856838,-0.66083723,-0.69846666,0.27466062,,1.1944596481905565,0.43451184243536783,0.20756195480000003,2.4336614840813895,-0.15931815872650357,-1.228322494087382,0.5349518165897647,,-1.19746379127863,0.3663278338888396,0.18351318272000003,-2.688434765415087,-0.9652002343430713,1.0021978732417618,-0.14798972391765697,,-0.06645122960811911,-0.038497599975864924,0.0911007994,-0.0984527949168055,,2.6140362e-05,-3.2186508e-06,-1.1920929e-07,1.0,-1.5899539e-05,-1.45584345e-05,1.591444e-05,1.0,-2.413988e-06,1.45584345e-05,2.4735928e-06,1.0,674,2.065,0,0,0.0,False,0.7098684887431936,0.016704932284550722
2.0327025970909745,19:08:30.715709,19:07:11.087979,0,,0.114352405,0.02778238,0.028721556,0.0018868987,0.30640367,-0.95189977,0.6556757,0.7183461,0.23252563,0.75504017,-0.62457645,-0.19954605,,0.046029016,0.04836824,0.037102938,-0.21285388,0.37532985,0.9021201,0.012560397,-0.9221505,0.3866272,0.9770032,0.09362614,0.191569,,0.0836553,1.2900189,0.4269503,0.9935007,0.087872446,-0.07235172,0.015858455,-0.73629177,-0.6764784,-0.11271578,0.6709343,-0.7328999,,-0.092662044,0.2538761,-0.109101065,-0.03774422,-0.19713005,0.9796505,0.99374515,0.095703565,0.0575452,-0.10509993,0.9756949,0.19228478,,-0.03312096,0.4539357,-0.33397976,0.05266766,-0.4014535,-0.9143638,0.7583561,-0.57964414,0.29817563,-0.6497093,-0.7091176,0.27391618,,1.1947608347726513,0.43455817883261316,0.20758399173000003,2.436177763403204,-0.15699533823049108,-1.2299715622297995,0.5351151606558988,,-1.1976336914018628,0.36693020705302914,0.1837361446,-2.7175816675594358,-0.9527663128644163,1.019911294393319,-0.14553956292564282,,-0.06645122960811911,-0.038497599975864924,0.0911007994,-0.0984527949168055,,2.6140362e-05,-3.2186508e-06,-1.1920929e-07,1.0,-1.5899539e-05,-1.45584345e-05,1.591444e-05,1.0,-2.413988e-06,1.45584345e-05,2.4735928e-06,1.0,682,2.089,0,0,0.0,False,0.7087960898098151,0.016077289674417905
2.1051058010198176,19:08:30.757895,19:07:11.236248,0,,0.11429219,0.027861804,0.028748497,0.00048260856,0.3046568,-0.952462,0.656238,0.7185875,0.23018163,0.7545536,-0.62515306,-0.19958062,,0.045946315,0.04866269,0.036891818,-0.21360745,0.37139082,0.9035711,0.016022861,-0.9234623,0.38335449,0.9767881,0.09636521,0.19130765,,0.0836553,1.2900189,0.4269503,0.9935007,0.087872446,-0.07235172,0.015858455,-0.73629177,-0.6764784,-0.11271578,0.6709343,-0.7328999,,-0.09260009,0.25395408,-0.10907389,-0.036266137,-0.1953224,0.9800683,0.9938605,0.09553028,0.055815175,-0.10452815,0.97607535,0.19065869,,-0.03300019,0.4539819,-0.33363134,0.05350601,-0.39803118,-0.91581017,0.7605619,-0.5780385,0.29566386,-0.647057,-0.7123501,0.27179882,,1.1953168715395954,0.43471263349009764,0.20761510269000003,2.434500243855328,-0.15576560973260212,-1.2313010383236294,0.5344617843913617,,-1.1971703274294092,0.36799594418967213,0.18402132840000002,-2.721146396598672,-0.948667217871453,1.0266969210598562,-0.14684631545471707,,-0.06645122960811911,-0.038497599975864924,0.0911007994,-0.0984527949168055,,2.6140362e-05,-3.2186508e-06,-1.1920929e-07,1.0,-1.5899539e-05,-1.45584345e-05,1.591444e-05,1.0,-2.413988e-06,1.45584345e-05,2.4735928e-06,1.0,698,2.138,0,0,0.0,False,0.7098089110246724,0.01520824606038751
2.147262919927016,19:08:30.794046,19:07:11.236248,0,,0.1142263,0.027933642,0.028787062,0.0011947751,0.30455086,-0.9524953,0.65585446,0.7187881,0.23064798,0.7548862,-0.6249741,-0.19888231,,0.045838583,0.048859026,0.036758065,-0.21281269,0.3712173,0.9038299,0.015288889,-0.9236409,0.38295388,0.97697335,0.09531608,0.19088699,,0.0836553,1.2900189,0.4269503,0.9935007,0.087872446,-0.07235172,0.015858455,-0.73629177,-0.6764784,-0.11271578,0.6709343,-0.7328999,,-0.092534125,0.25403452,-0.109060936,-0.037030425,-0.19522293,0.98005956,0.9937881,0.095801465,0.056632314,-0.10494707,0.9760687,0.19046265,,-0.03286891,0.45402375,-0.33340985,0.05267917,-0.39769384,-0.91600466,0.7601283,-0.5789175,0.2950584,-0.647634,-0.7118245,0.27180144,,1.1958729083065396,0.4347975835517141,0.20763454704000003,2.4349196237422968,-0.15590224623236756,-1.231189620419933,0.5344617843913617,,-1.1964521132721064,0.3688068311414657,0.18421317932000003,-2.721146396598672,-0.9488038543712184,1.027461768884677,-0.14684631545471707,,-0.06645122960811911,-0.038497599975864924,0.0911007994,-0.0984527949168055,,2.6140362e-05,-3.2186508e-06,-1.1920929e-07,1.0,-1.5899539e-05,-1.45584345e-05,1.591444e-05,1.0,-2.413988e-06,1.45584345e-05,2.4735928e-06,1.0,706,2.164,0,0,0.0,False,0.7093322892765044,0.01622213027675601
2.1834382449742407,19:08:30.823635,19:07:11.236248,0,,0.11410992,0.028010257,0.028810903,-0.0013521723,0.30123594,-0.95354867,0.65768236,0.7185718,0.22607169,0.75329393,-0.62682664,-0.19908929,,0.045689467,0.04904228,0.036625862,-0.21262681,0.37110725,0.9039188,0.014170349,-0.9238036,0.38260433,0.97703075,0.094160885,0.19116665,,0.0836553,1.2900189,0.4269503,0.9935007,0.087872446,-0.07235172,0.015858455,-0.73629177,-0.6764784,-0.11271578,0.6709343,-0.7328999,,-0.09241626,0.25410968,-0.109039895,-0.034228403,-0.19175768,0.9808453,0.9941081,0.094462916,0.05315897,-0.102847144,0.97688574,0.18739454,,-0.03269726,0.4540626,-0.3332041,0.052467108,-0.39740175,-0.9161436,0.75941306,-0.5798719,0.29502615,-0.64848983,-0.71121055,0.27136788,,1.1967224089227042,0.4348207517503368,0.20766565800000003,2.4319839645335133,-0.15289624323752785,-1.233722493041395,0.5349518165897644,,-1.1955408307929478,0.3696177180932593,0.18438947476,-2.72240453625958,-0.9494870368700457,1.0292440395052675,-0.14635628325631422,,-0.06645122960811911,-0.038497599975864924,0.0911007994,-0.0984527949168055,,2.6140362e-05,-3.2186508e-06,-1.1920929e-07,1.0,-1.5899539e-05,-1.45584345e-05,1.591444e-05,1.0,-2.413988e-06,1.45584345e-05,2.4735928e-06,1.0,718,2.201,0,0,0.0,False,0.7099876441802353,0.016173850075976492
2.213004622142762,19:08:30.854419,19:07:11.362236,0,,0.11391008,0.028131165,0.028879464,-0.00023529027,0.30121484,-0.95355624,0.6570804,0.7188568,0.2269145,0.7538203,-0.62650996,-0.19809158,,0.045402613,0.04918293,0.036486447,-0.211392,0.36978716,0.90474904,0.0127744675,-0.92454356,0.38086224,0.97731787,0.09206903,0.19071725,,0.0836723,1.2900137,0.4269545,0.99350095,0.08786211,-0.072361216,0.015844505,-0.73629296,-0.6764774,-0.11271578,0.6709343,-0.7328999,,-0.09223206,0.2542422,-0.10902986,-0.035418298,-0.19174096,0.9808063,0.9939977,0.09489111,0.054445226,-0.10350918,0.9768475,0.18722919,,-0.032404087,0.45407474,-0.33304182,0.051179808,-0.39578724,-0.916915,0.7585689,-0.58176744,0.29346183,-0.64957976,-0.7105625,0.27045715,,1.1980043825798254,0.43473580168872034,0.20769936154000002,2.4324033444204827,-0.1530328797372933,-1.2329576452165738,0.5356051928543017,,-1.1942511344029525,0.37046721870942395,0.1845657702,-2.72240453625958,-0.9504434923684038,1.0314941821536727,-0.14602959512404565,,-0.06645122960811911,-0.038497599975864924,0.0911007994,-0.0984527949168055,,4.247576e-05,5.00679e-06,-8.34465e-07,1.0,-2.618134e-05,-2.3975968e-05,2.6203692e-05,1.0,-3.993511e-06,2.3983419e-05,4.0233135e-06,1.0,743,2.278,0,0,0.0,False,0.7098089110246724,0.016366970879094556
2.2438058571424335,19:08:30.928312,19:07:11.362236,0,,0.11367534,0.028196484,0.02895403,-0.00093888026,0.30009446,-0.953909,0.6565917,0.71966726,0.22575709,0.7542454,-0.626117,-0.19771528,,0.045149196,0.04919613,0.036357343,-0.21062993,0.37214234,0.90396076,0.013832092,-0.9234787,0.38340044,0.97746795,0.093259305,0.18936472,,0.0836723,1.2900137,0.4269545,0.99350095,0.08786211,-0.072361216,0.015844505,-0.73629296,-0.6764774,-0.11271578,0.6709343,-0.7328999,,-0.092002474,0.2543463,-0.10906707,-0.034792542,-0.19061825,0.9810475,0.9939444,0.095779,0.05385986,-0.10423042,0.97698057,0.18613155,,-0.032132976,0.4540153,-0.3329784,0.050421957,-0.39828473,-0.91587496,0.75929403,-0.58043903,0.29421604,-0.6487913,-0.71025336,0.27314836,,1.199324969901318,0.4343496650450091,0.20769288009000003,2.430935514816091,-0.15316951623705874,-1.2328462273128775,0.5356051928543017,,-1.1926061923007425,0.3707761280243929,0.18460077003000003,-2.724082055807456,-0.9496236733698111,1.030498959770932,-0.14668297138858277,,-0.06645122960811911,-0.038497599975864924,0.0911007994,-0.0984527949168055,,4.247576e-05,5.00679e-06,-8.34465e-07,1.0,-2.618134e-05,-2.3975968e-05,2.6203692e-05,1.0,-3.993511e-06,2.3983419e-05,4.0233135e-06,1.0,751,2.302,0,0,0.0,False,0.7098684887431936,0.01622213027675601
2.317709129070863,19:08:30.966201,19:07:11.362236,0,,0.113615274,0.02810236,0.028943628,-0.0021503875,0.29934752,-0.9541417,0.65645957,0.72019035,0.22446938,0.75435793,-0.62587297,-0.1980583,,0.045069456,0.049105592,0.036357224,-0.21081,0.3735243,0.9033487,0.015088081,-0.9227629,0.38507286,0.9774105,0.09480703,0.18889183,,0.0836723,1.2900137,0.4269545,0.99350095,0.08786211,-0.072361216,0.015844505,-0.73629296,-0.6764774,-0.11271578,0.6709343,-0.7328999,,-0.09194756,0.2542716,-0.10913012,-0.033608988,-0.189869,0.981234,0.99395245,0.09634615,0.05268762,-0.10454187,0.9770707,0.18548267,,-0.032055847,0.45396432,-0.33305585,0.050630715,-0.3998856,-0.9151656,0.76009923,-0.5789679,0.29503435,-0.6478315,-0.7105545,0.27463916,,1.1992786335040726,0.4338399646753103,0.20764232478000003,2.4296773751551837,-0.1537160622361205,-1.233135664359357,0.5354418487881674,,-1.1921196601296664,0.3705444460381662,0.18452040005,-2.725340195468363,-0.9488038543712184,1.0297487736086128,-0.1465196273224485,,-0.06645122960811911,-0.038497599975864924,0.0911007994,-0.0984527949168055,,4.247576e-05,5.00679e-06,-8.34465e-07,1.0,-2.618134e-05,-2.3975968e-05,2.6203692e-05,1.0,-3.993511e-06,2.3983419e-05,4.0233135e-06,1.0,763,2.339,0,0,0.0,False,0.7095706001505886,0.015884168871299842
2.355597310932353,19:08:30.991324,19:07:11.362236,0,,0.11362178,0.027941369,0.028923899,-0.0027926462,0.2984708,-0.9544146,0.6567552,0.72027576,0.22332768,0.7540984,-0.62619334,-0.19803381,,0.045056283,0.04901696,0.036405265,-0.21080348,0.3742548,0.9030477,0.016280204,-0.92233485,0.38604844,0.97739285,0.09608218,0.18833843,,0.0836723,1.2900137,0.4269545,0.99350095,0.08786211,-0.072361216,0.015844505,-0.73629296,-0.6764774,-0.11271578,0.6709343,-0.7328999,,-0.09196193,0.25413993,-0.10922398,-0.03292688,-0.18896085,0.98143244,0.9940083,0.09621189,0.051873025,-0.10422743,0.97726,0.1846607,,-0.032052137,0.45394304,-0.3331552,0.05064783,-0.40080464,-0.9147625,0.76087135,-0.5778177,0.29529905,-0.6469232,-0.71097285,0.27569556,,1.1987689331343738,0.43333026430561145,0.20755288077000003,2.4292579952682147,-0.1539893352356514,-1.2339746521737915,0.5346251284574961,,-1.1920887691981696,0.37031276405193947,0.18442058572000003,-2.725549885411848,-0.9478473988728604,1.0288054908024569,-0.1465196273224485,,-0.06645122960811911,-0.038497599975864924,0.0911007994,-0.0984527949168055,,4.247576e-05,5.00679e-06,-8.34465e-07,1.0,-2.618134e-05,-2.3975968e-05,2.6203692e-05,1.0,-3.993511e-06,2.3983419e-05,4.0233135e-06,1.0,771,2.365,0,0,0.0,False,0.7089748229653781,0.016463531280653587
2.3806788690853864,19:08:31.029813,19:07:11.362236,0,,0.11368158,0.027634636,0.02892989,-0.0039169593,0.29688132,-0.9549063,0.65719897,0.72049475,0.22130677,0.7537067,-0.62669677,-0.19793233,,0.04505761,0.048902787,0.036506236,-0.21123147,0.37513727,0.90258145,0.01747942,-0.92182,0.38722405,0.9772797,0.09757054,0.18816017,,0.0836723,1.2900137,0.4269545,0.99350095,0.08786211,-0.072361216,0.015844505,-0.73629296,-0.6764774,-0.11271578,0.6709343,-0.7328999,,-0.09204076,0.25391755,-0.10942898,-0.03174366,-0.18731827,0.98178625,0.9940944,0.09606814,0.050470773,-0.10377247,0.97759026,0.18316248,,-0.03207172,0.45394278,-0.3333064,0.051109217,-0.40190655,-0.91425323,0.761625,-0.5764682,0.29599285,-0.6459994,-0.71144605,0.27663925,,1.1977031959977307,0.43261205014830856,0.20734806695000002,2.4286289254377613,-0.15453588123471315,-1.235734306542801,0.5338084081268246,,-1.1922663920542766,0.3700579138670901,0.18426891979,-2.7261789552423012,-0.9468909433745023,1.0279438867364412,-0.14635628325631422,,-0.06645122960811911,-0.038497599975864924,0.0911007994,-0.0984527949168055,,4.247576e-05,5.00679e-06,-8.34465e-07,1.0,-2.618134e-05,-2.3975968e-05,2.6203692e-05,1.0,-3.993511e-06,2.3983419e-05,4.0233135e-06,1.0,783,2.401,0,0,0.0,False,0.7091535561209414,0.01651181148143266
2.4192078879568726,19:08:31.055560,19:07:11.550875,0,,0.11374207,0.027423084,0.028956622,-0.004482543,0.29593092,-0.95519876,0.6570402,0.72095513,0.22027636,0.753842,-0.62661684,-0.1976703,,0.04504061,0.04879514,0.03660029,-0.21150866,0.37666065,0.9018819,0.018916339,-0.9210079,0.38908464,0.977193,0.09935507,0.18767606,,0.0836723,1.2900137,0.4269545,0.99350095,0.08786211,-0.072361216,0.015844505,-0.73629296,-0.6764774,-0.11271578,0.6709343,-0.7328999,,-0.09211653,0.25377905,-0.10958458,-0.031205429,-0.1863543,0.98198694,0.99408305,0.09648262,0.049899586,-0.10404367,0.9777337,0.18224086,,-0.03207198,0.4539436,-0.33345035,0.05142165,-0.40368348,-0.9134525,0.7625384,-0.574773,0.29693645,-0.64489615,-0.71181154,0.27826837,,1.1971780501622835,0.43234175449771073,0.20724047488000003,2.4286289254377613,-0.1550824272337749,-1.2365954947702642,0.5357685369204359,,-1.1923358966501447,0.36986484554523447,0.18411984644,-2.7268080250727547,-0.9456612148766134,1.0263693744221896,-0.14651962732244844,,-0.06645122960811911,-0.038497599975864924,0.0911007994,-0.0984527949168055,,4.247576e-05,5.00679e-06,-8.34465e-07,1.0,-2.618134e-05,-2.3975968e-05,2.6203692e-05,1.0,-3.993511e-06,2.3983419e-05,4.0233135e-06,1.0,808,2.478,0,0,0.0,False,0.7093322892765044,0.01689805308766834
2.444938528118655,19:08:31.129674,19:07:11.550875,0,,0.11383845,0.027077354,0.029058874,-0.004174674,0.29426998,-0.95571315,0.6570143,0.7212998,0.21922275,0.7538664,-0.62700224,-0.19635084,,0.0450032,0.048462965,0.036812603,-0.21187621,0.37984216,0.90046006,0.022636205,-0.919224,0.39308363,0.9770343,0.10366809,0.18616351,,0.0836723,1.2900137,0.4269545,0.99350095,0.08786211,-0.072361216,0.015844505,-0.73629296,-0.6764774,-0.11271578,0.6709343,-0.7328999,,-0.09224379,0.25359255,-0.109881714,-0.0315152,-0.18464491,0.98229986,0.99407333,0.09651299,0.050034672,-0.10404335,0.97805494,0.18050896,,-0.032075074,0.4538866,-0.33384222,0.05187451,-0.40748757,-0.9117362,0.7649133,-0.5707389,0.2986045,-0.64204097,-0.71288913,0.28208587,,1.19581884917642,0.43169304493627586,0.20688658771000001,2.4292579952682147,-0.15658542873119474,-1.2391271198760694,0.5351151606558988,,-1.1923745103145158,0.369023067661944,0.18372966315000003,-2.7278564747901775,-0.9427918483815391,1.0226410598621751,-0.14602959512404567,,-0.06645122960811911,-0.038497599975864924,0.0911007994,-0.0984527949168055,,4.247576e-05,5.00679e-06,-8.34465e-07,1.0,-2.618134e-05,-2.3975968e-05,2.6203692e-05,1.0,-3.993511e-06,2.3983419e-05,4.0233135e-06,1.0,816,2.503,0,0,0.0,False,0.7092727115579831,0.016415251079873627
2.5190324729774147,19:08:31.159901,19:07:11.550875,0,,0.11386015,0.026925176,0.02913633,-0.00432593,0.29151702,-0.95655584,0.657263,0.7217495,0.21698576,0.75364864,-0.62777036,-0.19472565,,0.044994242,0.048247762,0.036920488,-0.21173544,0.38077706,0.90009826,0.02501151,-0.9185668,0.3944736,0.9770069,0.10603687,0.1849693,,0.0836723,1.2900137,0.4269545,0.99350095,0.08786211,-0.072361216,0.015844505,-0.73629296,-0.6764774,-0.11271578,0.6709343,-0.7328999,,-0.092282504,0.25353298,-0.11003849,-0.031327758,-0.18180613,0.98283523,0.99411154,0.09638622,0.049516838,-0.10373424,0.97859913,0.177716,,-0.032087363,0.45382592,-0.33407497,0.051781263,-0.40878075,-0.91116244,0.7664436,-0.5686466,0.29867253,-0.640221,-0.7138203,0.28386214,,1.195509939861451,0.43149225388154605,0.20672844033,2.4292579952682147,-0.15658542873119474,-1.2420675545211297,0.5341350962590932,,-1.1923745103145158,0.3683743581005091,0.18350410869000003,-2.7278564747901775,-0.9410155738845883,1.0209475908937,-0.14619293919017992,,-0.06645122960811911,-0.038497599975864924,0.0911007994,-0.0984527949168055,,4.247576e-05,5.00679e-06,-8.34465e-07,1.0,-2.618134e-05,-2.3975968e-05,2.6203692e-05,1.0,-3.993511e-06,2.3983419e-05,4.0233135e-06,1.0,824,2.527,0,0,0.0,False,0.709451444713546,0.017091173890786404
2.549267621943727,19:08:31.181809,19:07:11.550875,0,,0.11388422,0.026763983,0.029197812,-0.0032457672,0.28932935,-0.9572241,0.6568231,0.7224074,0.2161268,0.75403744,-0.62802565,-0.19238302,,0.044985354,0.048049428,0.037025034,-0.21269837,0.3816186,0.8995147,0.026010573,-0.91804194,0.3956292,0.9767716,0.10754663,0.1853399,,0.0836723,1.2900137,0.4269545,0.99350095,0.08786211,-0.072361216,0.015844505,-0.73629296,-0.6764774,-0.11271578,0.6709343,-0.7328999,,-0.092322506,0.25345588,-0.110189475,-0.03246661,-0.17956758,0.9832097,0.9940274,0.09674709,0.050493132,-0.10418961,0.9789767,0.17535403,,-0.0320989,0.4537739,-0.33429295,0.05278674,-0.4098455,-0.9106263,0.7670332,-0.56727016,0.29977426,-0.63943225,-0.7143047,0.28442076,,1.1951006350191171,0.4311910672994513,0.20657807069000003,2.4305161349291216,-0.15767852072931826,-1.244606718377462,0.5356051928543015,,-1.1924285694446355,0.36772564853907425,0.18330188745,-2.729324304394569,-0.9407423008850574,1.020724755086307,-0.14619293919017992,,-0.06645122960811911,-0.038497599975864924,0.0911007994,-0.0984527949168055,,4.247576e-05,5.00679e-06,-8.34465e-07,1.0,-2.618134e-05,-2.3975968e-05,2.6203692e-05,1.0,-3.993511e-06,2.3983419e-05,4.0233135e-06,1.0,832,2.553,0,0,0.0,False,0.7089748229653781,0.015835888670520326
2.571156234946102,19:08:31.212015,19:07:11.550875,0,,0.113914415,0.026579097,0.029236317,-0.0030589951,0.28626227,-0.9581464,0.65618795,0.7235902,0.21408977,0.75459105,-0.62806946,-0.1900554,,0.044982355,0.047882862,0.03713274,-0.2151607,0.38249233,0.8985574,0.024925947,-0.91765696,0.39659107,0.9762604,0.10772827,0.18790969,,0.0836723,1.2900137,0.4269545,0.99350095,0.08786211,-0.072361216,0.015844505,-0.73629296,-0.6764774,-0.11271578,0.6709343,-0.7328999,,-0.09236774,0.25334567,-0.110339105,-0.032746945,-0.1764449,0.98376566,0.9939329,0.097657464,0.0506009,-0.10500033,0.97945404,0.1721764,,-0.03211621,0.45374453,-0.3344884,0.055280052,-0.4107303,-0.91007954,0.7662087,-0.5669773,0.30242503,-0.6402096,-0.71402895,0.2833626,,1.1945291527864246,0.43077403972424316,0.20643029363,2.430935514816091,-0.15918152222673815,-1.247955130884673,0.535115160655899,,-1.1926139150336168,0.36712327537488476,0.18313336975000002,-2.7326793434903216,-0.9426552118817736,1.022284605738057,-0.14619293919017992,,-0.06645122960811911,-0.038497599975864924,0.0911007994,-0.0984527949168055,,4.247576e-05,5.00679e-06,-8.34465e-07,1.0,-2.618134e-05,-2.3975968e-05,2.6203692e-05,1.0,-3.993511e-06,2.3983419e-05,4.0233135e-06,1.0,844,2.59,0,0,0.0,False,0.7087960898098151,0.015594487666623191
2.601379255997017,19:08:31.240106,19:07:11.749466,0,,0.113979734,0.026334018,0.029206127,-0.0014436776,0.28410393,-0.9587924,0.6557349,0.72414887,0.21358837,0.7549896,-0.6284055,-0.18734239,,0.04501448,0.047728904,0.037258446,-0.21832232,0.3836419,0.8973039,0.023149818,-0.9171901,0.39777684,0.97560203,0.10761607,0.1913618,,0.0836723,1.2900137,0.4269545,0.99350095,0.08786211,-0.072361216,0.015844505,-0.73629296,-0.6764774,-0.11271578,0.6709343,-0.7328999,,-0.09244461,0.25314382,-0.11047543,-0.03441899,-0.17423344,0.98410267,0.99383307,0.097890005,0.05209054,-0.105409734,0.9798266,0.16978967,,-0.03217086,0.453733,-0.33468184,0.058475167,-0.41183844,-0.90937877,0.7648957,-0.5668794,0.3059123,-0.6414945,-0.7134682,0.2818651,,1.1934865838484041,0.43010988469705985,0.20629547947000001,2.433032414250936,-0.16095779672368885,-1.2507539926239288,0.5351151606558988,,-1.1930772790060702,0.366513179477821,0.18297262979,-2.7366634524165274,-0.945251305377317,1.0240748309477268,-0.14684631545471702,,-0.06645122960811911,-0.038497599975864924,0.0911007994,-0.0984527949168055,,4.247576e-05,5.00679e-06,-8.34465e-07,1.0,-2.618134e-05,-2.3975968e-05,2.6203692e-05,1.0,-3.993511e-06,2.3983419e-05,4.0233135e-06,1.0,873,2.679,0,0,0.0,True,0.7090939784024202,0.016753212485330238
2.629324257140979,19:08:31.331461,19:07:11.749466,0,,0.1141705,0.025959753,0.029135227,-0.0007632347,0.28186253,-0.9594545,0.65573514,0.7245205,0.21232349,0.75499034,-0.62898624,-0.18538022,,0.045108486,0.0476448,0.037416458,-0.21974206,0.3833826,0.89706814,0.022559345,-0.91730076,0.39755553,0.9752971,0.10759705,0.19292061,,0.0836723,1.2900137,0.4269545,0.99350095,0.08786211,-0.072361216,0.015844505,-0.73629296,-0.6764774,-0.11271578,0.6709343,-0.7328999,,-0.09264989,0.2528166,-0.11065507,-0.035094734,-0.17192629,0.9844845,0.99381775,0.097821176,0.05251053,-0.10533137,0.980241,0.16743039,,-0.032290556,0.45378467,-0.33483633,0.059915043,-0.4115814,-0.9094014,0.7644357,-0.566938,0.3069517,-0.64190984,-0.71356994,0.2806594,,1.1914709505682315,0.4293685023411343,0.20610492484,2.4347099337988123,-0.1627340712206396,-1.2541246055441684,0.5346251284574961,,-1.1939499478208577,0.36627377475872,0.18283133418000003,-2.7375022121904653,-0.9459344878761442,1.02479527794649,-0.14684631545471707,,-0.06645122960811911,-0.038497599975864924,0.0911007994,-0.0984527949168055,,4.247576e-05,5.00679e-06,-8.34465e-07,1.0,-2.618134e-05,-2.3975968e-05,2.6203692e-05,1.0,-3.993511e-06,2.3983419e-05,4.0233135e-06,1.0,881,2.704,0,0,0.0,True,0.7074258022838311,0.016415251079873627
2.7208522229921073,19:08:31.355181,19:07:11.749466,0,,0.11423286,0.025907911,0.029102653,-0.0010196138,0.28204775,-0.95939976,0.6559604,0.7243392,0.2122467,0.7547944,-0.629112,-0.18575078,,0.04513612,0.04765085,0.037442505,-0.21995088,0.38341668,0.89700234,0.022474349,-0.91728485,0.39759713,0.97525203,0.10761148,0.19314049,,0.0836723,1.2900137,0.4269545,0.99350095,0.08786211,-0.072361216,0.015844505,-0.73629296,-0.6764774,-0.11271578,0.6709343,-0.7328999,,-0.09271172,0.25275496,-0.11065925,-0.03480655,-0.1721087,0.98446286,0.9938559,0.097598314,0.052201275,-0.1050662,0.98023117,0.16765419,,-0.032321922,0.45380503,-0.33484536,0.060126893,-0.4116171,-0.90937126,0.7643691,-0.5669205,0.30714992,-0.6419694,-0.71356326,0.28054023,,1.19093808199991,0.42935305687538583,0.20609066565000003,2.4347099337988123,-0.1627340712206396,-1.254206284284309,0.5347884725236303,,-1.1941816298070844,0.36630466569021697,0.18282226015000003,-2.7375022121904653,-0.9459344878761442,1.0247135992063494,-0.14668297138858274,,-0.06645122960811911,-0.038497599975864924,0.0911007994,-0.0984527949168055,,4.247576e-05,5.00679e-06,-8.34465e-07,1.0,-2.618134e-05,-2.3975968e-05,2.6203692e-05,1.0,-3.993511e-06,2.3983419e-05,4.0233135e-06,1.0,889,2.728,0,0,0.0,True,0.7077236908764362,0.01631869067831504
2.7445715360809118,19:08:31.387326,19:07:11.749466,0,,0.11425187,0.025899649,0.029103428,-0.001077055,0.28213075,-0.9593753,0.6559816,0.7243137,0.21226797,0.7547759,-0.62910414,-0.18585277,,0.045137037,0.047653265,0.03744811,-0.21996814,0.38342112,0.89699626,0.022446722,-0.9172851,0.39759815,0.9752487,0.107593566,0.19316688,,0.0836723,1.2900137,0.4269545,0.99350095,0.08786211,-0.072361216,0.015844505,-0.73629296,-0.6764774,-0.11271578,0.6709343,-0.7328999,,-0.09273118,0.25274897,-0.1106632,-0.034746338,-0.17219345,0.98445016,0.99386024,0.09758303,0.052147042,-0.10504501,0.9802178,0.16774558,,-0.032323692,0.45381066,-0.3348471,0.06014396,-0.41161862,-0.90936947,0.7643503,-0.56693447,0.30717087,-0.6419901,-0.7135513,0.28052312,,1.1908917456026646,0.4293762250740085,0.20608807307000002,2.4347099337988123,-0.1627340712206396,-1.254206284284309,0.5347884725236303,,-1.1942047980057071,0.3663278338888396,0.18281966757,-2.7375022121904653,-0.9459344878761442,1.0247135992063494,-0.14668297138858274,,-0.06645122960811911,-0.038497599975864924,0.0911007994,-0.0984527949168055,,4.247576e-05,5.00679e-06,-8.34465e-07,1.0,-2.618134e-05,-2.3975968e-05,2.6203692e-05,1.0,-3.993511e-06,2.3983419e-05,4.0233135e-06,1.0,901,2.766,0,0,0.0,True,0.7074258022838311,0.01622213027675601
2.776708174031228,19:08:31.421837,19:07:11.908152,0,,0.11423544,0.025912806,0.029118538,-0.001210615,0.28203025,-0.95940465,0.65590304,0.7244259,0.21212739,0.75484395,-0.62902,-0.18586159,,0.04513242,0.047651567,0.037446916,-0.21993956,0.38342804,0.8970003,0.022454143,-0.9172826,0.39760345,0.975255,0.10759011,0.19313711,,0.0836723,1.2900137,0.4269545,0.99350095,0.08786211,-0.072361216,0.015844505,-0.73629296,-0.6764774,-0.11271578,0.6709343,-0.7328999,,-0.09271559,0.2527693,-0.11066719,-0.034625392,-0.17209527,0.98447156,0.993852,0.09772495,0.05203859,-0.10516303,0.9802209,0.16765346,,-0.032318972,0.4538092,-0.33484814,0.060114864,-0.41162485,-0.9093686,0.76435673,-0.56693614,0.3071518,-0.64198524,-0.71354634,0.28054693,,1.1910307547944008,0.4293993932726312,0.20608548049000003,2.434500243855328,-0.1627340712206396,-1.254206284284309,0.5347884725236303,,-1.1941739070742101,0.3663278338888396,0.18281837128000003,-2.7375022121904653,-0.9459344878761442,1.0247135992063494,-0.14668297138858274,,-0.06645122960811911,-0.038497599975864924,0.0911007994,-0.0984527949168055,,4.247576e-05,5.00679e-06,-8.34465e-07,1.0,-2.618134e-05,-2.3975968e-05,2.6203692e-05,1.0,-3.993511e-06,2.3983419e-05,4.0233135e-06,1.0,913,2.803,0,0,0.0,True,0.708379045780168,0.01684977288688927
2.8112317849881947,19:08:31.459210,19:07:11.908152,0,,0.1141928,0.025933951,0.029143155,-0.0012574857,0.2818149,-0.95946795,0.65577984,0.7245848,0.21196559,0.7549509,-0.6289334,-0.18571979,,0.04512769,0.04764045,0.03744173,-0.2198993,0.38341773,0.8970145,0.022518665,-0.917282,0.39760113,0.97526264,0.10763183,0.1930756,,0.0836723,1.2900137,0.4269545,0.99350095,0.08786211,-0.072361216,0.015844505,-0.73629296,-0.6764774,-0.11271578,0.6709343,-0.7328999,,-0.09267443,0.2528025,-0.11067569,-0.034597207,-0.17188038,0.9845101,0.99383533,0.0979053,0.052017674,-0.10532958,0.98024064,0.16743354,,-0.03231366,0.4537985,-0.33485368,0.06007505,-0.41162136,-0.90937275,0.7644005,-0.5669036,0.30710292,-0.64193684,-0.71357423,0.2805868,,1.1913242186436213,0.4293839478068827,0.20608159162000003,2.434290553911843,-0.1627340712206396,-1.254206284284309,0.5347884725236303,,-1.1941198479440907,0.36627377475872,0.18281448241,-2.7375022121904653,-0.9459344878761442,1.0247135992063494,-0.14668297138858274,,-0.06645122960811911,-0.038497599975864924,0.0911007994,-0.0984527949168055,,4.247576e-05,5.00679e-06,-8.34465e-07,1.0,-2.618134e-05,-2.3975968e-05,2.6203692e-05,1.0,-3.993511e-06,2.3983419e-05,4.0233135e-06,1.0,934,2.867,0,0,0.0,True,0.7079024240319991,0.015884168871299842
2.8485942650586367,19:08:31.521263,19:07:11.908152,0,,0.114195086,0.025929384,0.029142588,-0.0012693861,0.2818238,-0.95946527,0.6557944,0.72457296,0.2119613,0.7549383,-0.6289431,-0.18573833,,0.045128964,0.04763893,0.037442684,-0.21990784,0.3834128,0.89701456,0.022524178,-0.9172832,0.39759815,0.97526056,0.10763952,0.19308165,,0.0836723,1.2900137,0.4269545,0.99350095,0.08786211,-0.072361216,0.015844505,-0.73629296,-0.6764774,-0.11271578,0.6709343,-0.7328999,,-0.092676915,0.2527987,-0.11067812,-0.03458323,-0.17188899,0.9845091,0.9938377,0.09788984,0.05200186,-0.10531199,0.98024064,0.16744442,,-0.032315094,0.45379806,-0.3348553,0.060083903,-0.41161776,-0.9093738,0.7644035,-0.5668981,0.30710545,-0.64193237,-0.71358067,0.2805806,,1.1913010504449986,0.4293762250740085,0.20607899904000002,2.434290553911843,-0.1627340712206396,-1.254206284284309,0.5347884725236303,,-1.1941275706769647,0.36626605202584583,0.18281318612000003,-2.7375022121904653,-0.9459344878761442,1.0247135992063494,-0.14668297138858274,,-0.06645122960811911,-0.038497599975864924,0.0911007994,-0.0984527949168055,,4.247576e-05,5.00679e-06,-8.34465e-07,1.0,-2.618134e-05,-2.3975968e-05,2.6203692e-05,1.0,-3.993511e-06,2.3983419e-05,4.0233135e-06,1.0,942,2.892,0,0,0.0,True,0.7078428463134787,0.01622213027675601
