AlexandreBanks6/ExpertPlaybackApp/resources/Motions/P_09/PC1/Data_PC1_3.csv
Task Time,PC1 Time,PC2 Time,Gaze Calib,s_T_psm1,Tx,Ty,Tz,R00,R01,R02,R10,R11,R12,R20,R21,R22,s_T_psm3,Tx,Ty,Tz,R00,R01,R02,R10,R11,R12,R20,R21,R22,cart_T_ecm,Tx,Ty,Tz,R00,R01,R02,R10,R11,R12,R20,R21,R22,ecm_T_psm1,Tx,Ty,Tz,R00,R01,R02,R10,R11,R12,R20,R21,R22,ecm_T_psm3,Tx,Ty,Tz,R00,R01,R02,R10,R11,R12,R20,R21,R22,psm1_joints,q1,q2,q3,q4,q5,q6,jaw,psm3_joints,q1,q2,q3,q4,q5,q6,jaw,ecm_joints,q1,q2,q3,q4,ecmi_T_ecm,Tx,Ty,Tz,R00,R01,R02,R10,R11,R12,R20,R21,R22,Sample #,Task Duration (s),Collisions (binary),Collisions (increments),Cumulative Collision Time (s),Clutch Press,MTMR Angle,MTML Angle
""
lci_T_si,,,,,-0.06340535,0.054754253,0.18611735,0.99153084,-0.022042563,0.12798724,0.07037211,-0.7370862,-0.67212474,0.10915297,0.6754392,-0.7292925
rci_T_si,,,,,-0.07167363,0.05759123,0.1936862,0.9901677,-0.04165475,0.13353959,0.0629946,-0.71957815,-0.6915482,0.12489843,0.693161,-0.709879
ecm_T_lc,,,,,-4.4061628e-05,-0.00034663224,-0.01840835,-0.99912,0.030754527,0.028518902,-0.031987965,-0.99852574,-0.043852776,0.027128186,-0.04472645,0.9986309
ecm_T_rc,,,,,-0.0043358393,0.01870579,-0.007592615,-0.99555075,-0.052743673,-0.078081585,0.04863213,-0.9973746,0.053654674,-0.08070653,0.04961868,0.9955021
cart_T_ecmi,,,,,0.0836296,1.290016,0.4269553,0.99350035,0.08788843,-0.07233704,0.015880011,-0.73628986,-0.67647994,-0.11271578,0.6709343,-0.7328999
ecmac_T_ecmrep_psm1,,,,,0.023195708,-0.2631036,-0.30022871,0.99664557,0.07921609,0.02055357,-0.078295335,0.99603295,-0.04228661,-0.023821812,0.040535513,0.9988941
ecmac_T_ecmrep_psm3,,,,,0.022281613,-0.4507852,-0.5326207,0.99995744,0.002629678,0.008843231,-0.0032003638,0.99787027,0.06515156,-0.008653069,-0.06517708,0.9978362
""
0,18:58:38.719892,18:57:19.206318,0,,0.09520404,0.017962582,0.034024492,-0.31192392,0.93612224,-0.16241488,0.9449651,0.32342994,0.049334973,0.09871325,-0.13808766,-0.9854884,,0.06684067,0.020758398,0.031721354,0.35815522,0.24532536,0.9008553,0.540691,-0.84110326,0.014089525,0.76116884,0.48203814,-0.43389073,,0.08363735,1.2900152,0.42695066,0.9935006,0.08787917,-0.07234554,0.01586753,-0.73629093,-0.67647904,-0.11271578,0.6709343,-0.7328999,,-0.07476885,0.25072196,-0.121821545,0.3578333,-0.8957758,0.26370636,0.7677131,0.121453285,-0.6291786,0.53157496,0.42759186,0.73115885,,-0.053250596,0.42943868,-0.34876364,-0.46681076,-0.33440667,-0.818694,0.88322985,-0.2230216,-0.41251224,-0.0446396,-0.91566014,0.39946684,,1.289487876207889,0.37326284800989323,0.20028069387000003,2.110738971115222,0.6174603424400255,-0.229301976152261,-0.41277045512132365,,-1.2731542961789042,0.20428945272186094,0.17735062006000002,-2.2067769652311346,-0.24334960608224945,0.7565461178637882,0.8328913932186899,,-0.06792385116448932,-0.039368082940297096,0.0911007994,-0.09583610933762131,,8.203089e-06,-1.7881393e-06,3.4570694e-06,1.0,-9.201467e-06,-8.426607e-06,9.223819e-06,1.0,-1.3709068e-06,8.426607e-06,1.4007092e-06,1.0,40,0.12,0,0,0.0,False,-0.2588652144088064,1.006738729468127
0.13218313991092145,18:58:38.759874,18:57:19.206318,0,,0.09621946,0.017734624,0.03525366,-0.30048063,0.9397362,-0.16311762,0.9476622,0.31350386,0.060427755,0.107924014,-0.13642308,-0.9847543,,0.06684297,0.020756878,0.03172165,0.3584755,0.24504638,0.90080386,0.54044753,-0.8412649,0.013778448,0.76119095,0.48189795,-0.43400753,,0.08363735,1.2900152,0.42695066,0.9935006,0.08787917,-0.07234554,0.01586753,-0.73629093,-0.67647904,-0.11271578,0.6709343,-0.7328999,,-0.075915135,0.25136542,-0.12275203,0.3457067,-0.9001421,0.26501158,0.7756768,0.11521563,-0.6205247,0.5280269,0.42008287,0.7380501,,-0.053252943,0.42943767,-0.3487647,-0.4671346,-0.33411157,-0.8186298,0.88305056,-0.22320172,-0.41279855,-0.04479881,-0.915724,0.39930266,,1.2878815477700503,0.378861829343706,0.1990323666,2.12269129789384,0.6109017904512842,-0.22452566795581658,-0.4135871754519951,,-1.2731620189117785,0.20428172998898672,0.17735062006000002,-2.2063575853441653,-0.24334960608224945,0.7566277966039288,0.8327280491525555,,-0.06792385116448932,-0.039368082940297096,0.0911007994,-0.09583610933762131,,8.203089e-06,-1.7881393e-06,3.4570694e-06,1.0,-9.201467e-06,-8.426607e-06,9.223819e-06,1.0,-1.3709068e-06,8.426607e-06,1.4007092e-06,1.0,51,0.154,0,0,0.0,False,-0.259282258438454,1.0075594928813778
0.1721391079481691,18:58:38.791705,18:57:19.206318,0,,0.0970956,0.01758372,0.03609033,-0.2918062,0.9420997,-0.16521907,0.9496491,0.30597144,0.06743863,0.11408606,-0.13722116,-0.98394847,,0.0668414,0.020757832,0.031721413,0.35847953,0.24505466,0.9008,0.5404459,-0.84126586,0.013784766,0.76119024,0.4818921,-0.43401533,,0.08363735,1.2900152,0.42695066,0.9935006,0.08787917,-0.07234554,0.01586753,-0.73629093,-0.67647904,-0.11271578,0.6709343,-0.7328999,,-0.07687881,0.2518022,-0.123361126,0.33659354,-0.90287125,0.2674477,0.7811144,0.10909138,-0.614784,0.5258946,0.41583955,0.7419652,,-0.053251337,0.42943826,-0.348764,-0.46713844,-0.33411884,-0.8186246,0.88304853,-0.22320758,-0.41279978,-0.044799037,-0.9157199,0.39931202,,1.2860049236816138,0.3833796280751273,0.19816644488000001,2.1314982755201903,0.6063927859590248,-0.22370763303875443,-0.4137505195181293,,-1.2731542961789042,0.20428945272186094,0.17735062006000002,-2.2063575853441653,-0.24334960608224945,0.7566277966039288,0.8327280491525555,,-0.06792385116448932,-0.039368082940297096,0.0911007994,-0.09583610933762131,,8.203089e-06,-1.7881393e-06,3.4570694e-06,1.0,-9.201467e-06,-8.426607e-06,9.223819e-06,1.0,-1.3709068e-06,8.426607e-06,1.4007092e-06,1.0,59,0.178,0,0,0.0,False,-0.2586269035347226,1.0069801304720243
0.2039728770032525,18:58:38.821127,18:57:19.206318,0,,0.09804804,0.017441198,0.036843732,-0.2831375,0.9442442,-0.1680361,0.95133895,0.2987226,0.07562283,0.121602476,-0.13844772,-0.98287594,,0.06684297,0.020756878,0.03172165,0.3584755,0.24504638,0.90080386,0.54044753,-0.8412649,0.013778448,0.76119095,0.48189795,-0.43400753,,0.08363735,1.2900152,0.42695066,0.9935006,0.08787917,-0.07234554,0.01586753,-0.73629093,-0.67647904,-0.11271578,0.6709343,-0.7328999,,-0.07790932,0.25218678,-0.12389517,0.32733122,-0.9053223,0.2706396,0.78725386,0.10288942,-0.6079844,0.5225759,0.41207436,0.74639744,,-0.053252943,0.42943767,-0.3487647,-0.4671346,-0.33411157,-0.8186298,0.88305056,-0.22320172,-0.41279855,-0.04479881,-0.915724,0.39930266,,1.283502758230365,0.3879978223339136,0.19735626363000003,2.14030525314654,0.6001075069698145,-0.22380984883771493,-0.4134238313858608,,-1.2731620189117785,0.20428172998898672,0.17735062006000002,-2.2063575853441653,-0.24334960608224945,0.7566277966039288,0.8327280491525555,,-0.06792385116448932,-0.039368082940297096,0.0911007994,-0.09583610933762131,,8.203089e-06,-1.7881393e-06,3.4570694e-06,1.0,-9.201467e-06,-8.426607e-06,9.223819e-06,1.0,-1.3709068e-06,8.426607e-06,1.4007092e-06,1.0,71,0.214,0,0,0.0,False,-0.25910352528289105,1.0069318502712448
0.23340397188439965,18:58:38.848858,18:57:19.346964,0,,0.09943464,0.017187707,0.037649557,-0.27044374,0.9479505,-0.16807789,0.9542375,0.28708532,0.083741754,0.12763557,-0.13773882,-0.98221034,,0.06684202,0.020754732,0.031720042,0.35881078,0.24485406,0.9007226,0.54020995,-0.84142137,0.013536155,0.7612017,0.4817224,-0.43418366,,0.08363735,1.2900152,0.42695066,0.9935006,0.08787917,-0.07234554,0.01586753,-0.73629093,-0.67647904,-0.11271578,0.6709343,-0.7328999,,-0.07938307,0.2525153,-0.1244922,0.3142958,-0.909789,0.27111268,0.793178,0.09474504,-0.60157466,0.52161944,0.404113,0.7514026,,-0.05325177,0.4294351,-0.34876534,-0.46747127,-0.33389622,-0.81852543,0.882865,-0.22341435,-0.4130804,-0.04494434,-0.9157507,0.3992251,,1.2789849594989438,0.39404472217443137,0.19639830532000002,2.1533060296425806,0.5949153199787277,-0.2212912220402028,-0.41391386358426363,,-1.27314657344603,0.2042740072561125,0.17735062006000002,-2.2059382054571963,-0.24334960608224945,0.7566277966039288,0.8327280491525555,,-0.06792385116448932,-0.039368082940297096,0.0911007994,-0.09583610933762131,,8.203089e-06,-1.7881393e-06,3.4570694e-06,1.0,-9.201467e-06,-8.426607e-06,9.223819e-06,1.0,-1.3709068e-06,8.426607e-06,1.4007092e-06,1.0,82,0.247,0,0,0.0,False,-0.25910352528289105,1.00644904826345
0.26114473189227283,18:58:38.886638,18:57:19.346964,0,,0.10088767,0.016896322,0.038236305,-0.2596841,0.9518516,-0.16291912,0.95669574,0.27655336,0.09083727,0.13151929,-0.13227512,-0.98244894,,0.06684369,0.020754643,0.031722367,0.35880074,0.24462454,0.90078896,0.54020596,-0.84142727,0.013329953,0.76120925,0.48182878,-0.43405235,,0.08363735,1.2900152,0.42695066,0.9935006,0.08787917,-0.07234554,0.01586753,-0.73629093,-0.67647904,-0.11271578,0.6709343,-0.7328999,,-0.08090301,0.25266567,-0.12494786,0.30337077,-0.91486096,0.26645,0.7973651,0.09063592,-0.5966523,0.521704,0.3934648,0.7569745,,-0.0532538,0.4294366,-0.34876674,-0.46746263,-0.333687,-0.8186157,0.8828691,-0.22331387,-0.41312593,-0.044953488,-0.9158515,0.39899284,,1.2734632054938733,0.39970548537123796,0.19559201294000003,2.164000216760291,0.5908162249857646,-0.21582503768565553,-0.4135871754519951,,-1.2731620189117785,0.2042740072561125,0.17734932377,-2.2059382054571963,-0.24334960608224945,0.7568728328243506,0.8322380169541527,,-0.06792385116448932,-0.039368082940297096,0.0911007994,-0.09583610933762131,,8.203089e-06,-1.7881393e-06,3.4570694e-06,1.0,-9.201467e-06,-8.426607e-06,9.223819e-06,1.0,-1.3709068e-06,8.426607e-06,1.4007092e-06,1.0,94,0.284,0,0,0.0,False,-0.2589843698458485,1.006545608665009
0.2989297900348902,18:58:38.921742,18:57:19.346964,0,,0.1016054,0.016708434,0.038441643,-0.2548231,0.9538117,-0.15908676,0.95794415,0.2714476,0.09305379,0.13193935,-0.12868404,-0.98286945,,0.06684673,0.020755358,0.031722605,0.35895273,0.24444357,0.9007776,0.5400793,-0.84151155,0.013143241,0.7612275,0.48177353,-0.4340817,,0.08363735,1.2900152,0.42695066,0.9935006,0.08787917,-0.07234554,0.01586753,-0.73629093,-0.67647904,-0.11271578,0.6709343,-0.7328999,,-0.08164797,0.25265032,-0.12514125,0.29857808,-0.9174831,0.26282302,0.7984517,0.08928213,-0.595402,0.52280587,0.38762546,0.75922364,,-0.05325683,0.42943698,-0.34876603,-0.46761775,-0.33350095,-0.8186029,0.88278246,-0.22339061,-0.41326964,-0.04504239,-0.9159005,0.3988702,,1.270397280542806,0.402184482623864,0.19523942206000003,2.1688230854604353,0.5898597694874064,-0.2125130714154231,-0.414730583914935,,-1.2731774643775269,0.2042740072561125,0.17735062006000002,-2.205728515513712,-0.24334960608224945,0.7569545115644911,0.8320746728880184,,-0.06792385116448932,-0.039368082940297096,0.0911007994,-0.09583610933762131,,8.203089e-06,-1.7881393e-06,3.4570694e-06,1.0,-9.201467e-06,-8.426607e-06,9.223819e-06,1.0,-1.3709068e-06,8.426607e-06,1.4007092e-06,1.0,105,0.317,0,0,0.0,False,-0.2590439475643693,1.0060628066572144
0.3340220940299332,18:58:38.953801,18:57:19.346964,0,,0.10306488,0.016230151,0.038795367,-0.24251217,0.95861673,-0.1491371,0.96108794,0.25835198,0.09779632,0.13227886,-0.119617105,-0.9839685,,0.06684385,0.020756163,0.031720042,0.35912883,0.24436204,0.90072954,0.539959,-0.8415904,0.013031572,0.7612297,0.48167703,-0.43418485,,0.08363735,1.2900152,0.42695066,0.9935006,0.08787917,-0.07234554,0.01586753,-0.73629093,-0.67647904,-0.11271578,0.6709343,-0.7328999,,-0.08316229,0.25250518,-0.12555322,0.2865122,-0.9239735,0.25334513,0.8006985,0.08571749,-0.5929034,0.5261109,0.3727271,0.7643833,,-0.053253565,0.42943588,-0.3487641,-0.46779397,-0.33340633,-0.8185408,0.8826854,-0.22350542,-0.41341472,-0.045113213,-0.91590697,0.3988474,,1.2636244438121111,0.40684901327989564,0.19451868482,2.1818238619564756,0.5880834949904556,-0.2019982985117673,-0.4148939279810693,,-1.2731542961789042,0.20428172998898672,0.17735191635000003,-2.205518825570227,-0.24334960608224945,0.7569545115644911,0.8320746728880184,,-0.06792385116448932,-0.039368082940297096,0.0911007994,-0.09583610933762131,,8.203089e-06,-1.7881393e-06,3.4570694e-06,1.0,-9.201467e-06,-8.426607e-06,9.223819e-06,1.0,-1.3709068e-06,8.426607e-06,1.4007092e-06,1.0,116,0.35,0,0,0.0,False,-0.2588652144088064,1.0064973284642296
0.3660445399582386,18:58:38.993726,18:57:19.482760,0,,0.10412676,0.015829705,0.03902091,-0.23602174,0.96135336,-0.14175147,0.96281576,0.2510835,0.099713504,0.13145119,-0.11294605,-0.98486733,,0.06684303,0.020754822,0.0317173,0.35930195,0.24426827,0.90068585,0.5398439,-0.8416662,0.012907237,0.76122963,0.48159227,-0.43427902,,0.08363735,1.2900152,0.42695066,0.9935006,0.08787917,-0.07234554,0.01586753,-0.73629093,-0.67647904,-0.11271578,0.6709343,-0.7328999,,-0.08426409,0.25233948,-0.12586531,0.28025678,-0.9278103,0.24621964,0.8012511,0.08485007,-0.5922813,0.52863294,0.3632746,0.76718885,,-0.053252336,0.42943305,-0.3487634,-0.4679668,-0.33330145,-0.8184847,0.8825905,-0.2236081,-0.41356194,-0.045179024,-0.9159201,0.39880985,,1.2584888264507519,0.4099535518953339,0.19399498366,2.188324250204496,0.5874003124916285,-0.1962137696242891,-0.4152206161133378,,-1.2731388507131558,0.2042740072561125,0.17735321264,-2.2053091356267425,-0.24334960608224945,0.7569545115644911,0.8320746728880184,,-0.06792385116448932,-0.039368082940297096,0.0911007994,-0.09583610933762131,,8.203089e-06,-1.7881393e-06,3.4570694e-06,1.0,-9.201467e-06,-8.426607e-06,9.223819e-06,1.0,-1.3709068e-06,8.426607e-06,1.4007092e-06,1.0,131,0.395,0,0,0.0,False,-0.2598184579051428,1.0057731254525375
0.4060183360707015,18:58:39.029097,18:57:19.482760,0,,0.105469055,0.015312627,0.039318725,-0.22761886,0.9646172,-0.13305444,0.96508366,0.2416669,0.1010474,0.12962672,-0.1054084,-0.98594415,,0.0668439,0.02075512,0.031716287,0.35946396,0.24416961,0.900648,0.53972125,-0.8417467,0.012789249,0.7612402,0.48150152,-0.4343611,,0.08363735,1.2900152,0.42695066,0.9935006,0.08787917,-0.07234554,0.01586753,-0.73629093,-0.67647904,-0.11271578,0.6709343,-0.7328999,,-0.085658796,0.2521307,-0.12627645,0.27223605,-0.93239,0.237774,0.8014779,0.08298263,-0.59223896,0.5324666,0.35179943,0.76988083,,-0.053253017,0.4294324,-0.34876242,-0.46813047,-0.33319086,-0.81843615,0.8824996,-0.22371778,-0.41369656,-0.045258794,-0.9159335,0.3987699,,1.2519708399049063,0.4139075911269368,0.19332869060000002,2.196711847943877,0.5874003124916285,-0.18976114915318468,-0.4155473042456064,,-1.2731388507131558,0.2042740072561125,0.17735450893000002,-2.2050994456832584,-0.24334960608224945,0.7569545115644911,0.8324013610202871,,-0.06792385116448932,-0.039368082940297096,0.0911007994,-0.09583610933762131,,8.203089e-06,-1.7881393e-06,3.4570694e-06,1.0,-9.201467e-06,-8.426607e-06,9.223819e-06,1.0,-1.3709068e-06,8.426607e-06,1.4007092e-06,1.0,142,0.427,0,0,0.0,False,-0.25910352528289105,1.0055800046494199
0.44138506706804037,18:58:39.061084,18:57:19.482760,0,,0.106337965,0.014974594,0.039605096,-0.22048487,0.9665364,-0.13112569,0.9669021,0.23427895,0.10106236,0.12840027,-0.104503006,-0.98620105,,0.06684534,0.02075506,0.031716943,0.3596209,0.2439194,0.9006531,0.5395965,-0.8418305,0.0125338435,0.7612545,0.48148185,-0.43435782,,0.08363735,1.2900152,0.42695066,0.9935006,0.08787917,-0.07234554,0.01586753,-0.73629093,-0.67647904,-0.11271578,0.6709343,-0.7328999,,-0.08657127,0.25205663,-0.12661286,0.2653874,-0.9348409,0.23588558,0.80181104,0.07813161,-0.5924479,0.5354144,0.34636384,0.7703009,,-0.05325456,0.4294327,-0.34876272,-0.4682898,-0.33294222,-0.81844616,0.8824107,-0.22376019,-0.41386315,-0.04534315,-0.91601354,0.3985764,,1.2479550188103097,0.4167495568246514,0.19283091524,2.2040509959658356,0.5879468584906902,-0.18840988848487802,-0.4140772076503979,,-1.27314657344603,0.2042740072561125,0.17735450893000002,-2.2048897557397735,-0.24334960608224945,0.7571178690447722,0.8320746728880185,,-0.06792385116448932,-0.039368082940297096,0.0911007994,-0.09583610933762131,,8.203089e-06,-1.7881393e-06,3.4570694e-06,1.0,-9.201467e-06,-8.426607e-06,9.223819e-06,1.0,-1.3709068e-06,8.426607e-06,1.4007092e-06,1.0,149,0.449,0,0,0.0,False,-0.2589247921273281,1.0058214056533172
0.4733772750478238,18:58:39.086728,18:57:19.482760,0,,0.10714514,0.014721133,0.03997089,-0.21154466,0.96876246,-0.1294148,0.96889645,0.22526067,0.102455586,0.128407,-0.10371566,-0.98628324,,0.0668467,0.020754226,0.031715512,0.3597839,0.24374321,0.9006358,0.5394773,-0.84190977,0.012340814,0.761262,0.48143247,-0.43439943,,0.08363735,1.2900152,0.42695066,0.9935006,0.08787917,-0.07234554,0.01586753,-0.73629093,-0.67647904,-0.11271578,0.6709343,-0.7328999,,-0.08742526,0.25210002,-0.12695694,0.25663155,-0.93768483,0.23428054,0.80306804,0.07199704,-0.59152186,0.5377936,0.3399464,0.7715015,,-0.053255677,0.4294309,-0.34876227,-0.4684539,-0.3327618,-0.81842566,0.88231975,-0.22382975,-0.41401947,-0.045418147,-0.9160621,0.39845622,,1.2445801845442734,0.4198927091044608,0.19233184359000002,2.213487043422639,0.5880834949904556,-0.18558087174351423,-0.4140772076503979,,-1.27314657344603,0.20426628452323828,0.17735580522000002,-2.204680065796289,-0.24334960608224945,0.7571995477849127,0.8319113288218842,,-0.06792385116448932,-0.039368082940297096,0.0911007994,-0.09583610933762131,,8.203089e-06,-1.7881393e-06,3.4570694e-06,1.0,-9.201467e-06,-8.426607e-06,9.223819e-06,1.0,-1.3709068e-06,8.426607e-06,1.4007092e-06,1.0,164,0.493,0,0,0.0,False,-0.25868648125324345,1.0058696858540968
0.49901095195673406,18:58:39.132148,18:57:19.604557,0,,0.10810004,0.014470451,0.04053332,-0.20071569,0.9712602,-0.1279333,0.9712743,0.21433513,0.10337573,0.12782511,-0.10350925,-0.9863806,,0.06684892,0.02075366,0.03171307,0.36010876,0.2435418,0.9005604,0.53923523,-0.8420683,0.012098581,0.7612799,0.48125708,-0.4345625,,0.08363735,1.2900152,0.42695066,0.9935006,0.08787917,-0.07234554,0.01586753,-0.73629093,-0.67647904,-0.11271578,0.6709343,-0.7328999,,-0.08844561,0.2522755,-0.12742503,0.24608316,-0.94085705,0.23287573,0.80416214,0.06406219,-0.59094775,0.5410788,0.33269215,0.7723663,,-0.053257477,0.42942846,-0.34876084,-0.4687816,-0.3325375,-0.81832916,0.8821377,-0.22404264,-0.41429213,-0.045572955,-0.91609156,0.39837092,,1.2410972320179983,0.4241479349181585,0.19168369859,2.224600610427319,0.5895864964878755,-0.1829675678975685,-0.4135871754519951,,-1.27314657344603,0.20425856179036406,0.1773583978,-2.20426068590932,-0.24334960608224945,0.7571995477849127,0.8319113288218842,,-0.06792385116448932,-0.039368082940297096,0.0911007994,-0.09583610933762131,,8.203089e-06,-1.7881393e-06,3.4570694e-06,1.0,-9.201467e-06,-8.426607e-06,9.223819e-06,1.0,-1.3709068e-06,8.426607e-06,1.4007092e-06,1.0,175,0.526,0,0,0.0,False,-0.2594609915940169,1.0057731254525375
0.5443694470450282,18:58:39.162538,18:57:19.604557,0,,0.108705975,0.01432807,0.040996954,-0.19385666,0.9727358,-0.12729776,0.9725698,0.20756438,0.1049996,0.12855917,-0.10345113,-0.9862912,,0.066848814,0.020752825,0.031710982,0.36011484,0.24346875,0.9005778,0.5392408,-0.8420658,0.012023509,0.761273,0.48129845,-0.43452865,,0.08363735,1.2900152,0.42695066,0.9935006,0.08787917,-0.07234554,0.01586753,-0.73629093,-0.67647904,-0.11271578,0.6709343,-0.7328999,,-0.08910281,0.25247157,-0.12778838,0.23927763,-0.94274414,0.2323354,0.80544937,0.059099123,-0.58971065,0.5422154,0.32823896,0.77347374,,-0.05325705,0.42942637,-0.3487601,-0.46878636,-0.33247203,-0.81835306,0.8821356,-0.22400217,-0.41431838,-0.045563586,-0.9161252,0.3982946,,1.2391897169980648,0.4271675234719803,0.19120018242000003,2.2315203785623083,0.5898597694874064,-0.18147515016200946,-0.4150572720472036,,-1.2731388507131558,0.20425083905748984,0.17735969409000002,-2.20426068590932,-0.24334960608224945,0.7572812265250534,0.83174798475575,,-0.06792385116448932,-0.039368082940297096,0.0911007994,-0.09583610933762131,,8.203089e-06,-1.7881393e-06,3.4570694e-06,1.0,-9.201467e-06,-8.426607e-06,9.223819e-06,1.0,-1.3709068e-06,8.426607e-06,1.4007092e-06,1.0,186,0.559,0,0,0.0,False,-0.259282258438454,1.005676565050979
0.5748320498969406,18:58:39.186737,18:57:19.604557,0,,0.10928081,0.014146984,0.041486666,-0.18700112,0.9741457,-0.12677073,0.9739368,0.20071015,0.10565269,0.12836507,-0.10370956,-0.9862894,,0.066849455,0.020751454,0.031708837,0.36044472,0.24319808,0.9005189,0.53900063,-0.84222394,0.011712521,0.76128703,0.48115855,-0.43465903,,0.08363735,1.2900152,0.42695066,0.9935006,0.08787917,-0.07234554,0.01586753,-0.73629093,-0.67647904,-0.11271578,0.6709343,-0.7328999,,-0.089734145,0.2526577,-0.12820049,0.23257363,-0.9445391,0.231852,0.80615884,0.053861406,-0.58924264,0.54407483,0.32395184,0.7739753,,-0.053257365,0.42942384,-0.3487597,-0.46911827,-0.33218515,-0.8182793,0.8819514,-0.2241807,-0.41461393,-0.045713846,-0.9161856,0.39813843,,1.2374057657041189,0.4300558255669403,0.19068037013000003,2.238440146697297,0.5910894979852953,-0.18010922783120098,-0.4155473042456064,,-1.2731311279802815,0.20424311632461561,0.17736099038000003,-2.2038413060223507,-0.24334960608224945,0.7573629052651939,0.8315846406896157,,-0.06792385116448932,-0.039368082940297096,0.0911007994,-0.09583610933762131,,8.203089e-06,-1.7881393e-06,3.4570694e-06,1.0,-9.201467e-06,-8.426607e-06,9.223819e-06,1.0,-1.3709068e-06,8.426607e-06,1.4007092e-06,1.0,197,0.591,0,0,0.0,False,-0.25963972474957986,1.005676565050979
0.598929937928915,18:58:39.226472,18:57:19.604557,0,,0.10992022,0.013849109,0.042049065,-0.17772014,0.9760602,-0.12538788,0.9756746,0.19138458,0.10691506,0.1283527,-0.10333684,-0.9863301,,0.06685182,0.02075348,0.031704664,0.36060655,0.2430993,0.90048075,0.53887767,-0.8423042,0.011594564,0.7612973,0.48106796,-0.4347412,,0.08363735,1.2900152,0.42695066,0.9935006,0.08787917,-0.07234554,0.01586753,-0.73629093,-0.67647904,-0.11271578,0.6709343,-0.7328999,,-0.0904441,0.25280598,-0.128737,0.22346562,-0.9470507,0.23056047,0.8072066,0.04722716,-0.5883767,0.54633385,0.31759188,0.77501917,,-0.053258993,0.4294218,-0.3487552,-0.4692818,-0.33207443,-0.8182305,0.88186026,-0.22429018,-0.41474858,-0.04579367,-0.91619897,0.39809853,,1.2351275595062228,0.43305224592213937,0.19002703997,2.2482955740410704,0.5920459534836535,-0.1765601799296262,-0.4153839601794721,,-1.2731311279802815,0.20424311632461561,0.17736617554,-2.2036316160788667,-0.24334960608224945,0.7573629052651939,0.8315846406896157,,-0.06792385116448932,-0.039368082940297096,0.0911007994,-0.09583610933762131,,8.203089e-06,-1.7881393e-06,3.4570694e-06,1.0,-9.201467e-06,-8.426607e-06,9.223819e-06,1.0,-1.3709068e-06,8.426607e-06,1.4007092e-06,1.0,208,0.624,0,0,0.0,False,-0.26017592421626956,1.0058696858540968
0.6387446869630367,18:58:39.262837,18:57:19.733628,0,,0.110296786,0.0135509,0.042418674,-0.175136,0.9767901,-0.12332288,0.9760947,0.18864067,0.10795289,0.1287109,-0.101468414,-0.98647743,,0.06685592,0.020758815,0.031698406,0.36060047,0.2430988,0.90048337,0.5388721,-0.8423077,0.011600941,0.76130414,0.48106205,-0.43473572,,0.08363735,1.2900152,0.42695066,0.9935006,0.08787917,-0.07234554,0.01586753,-0.73629093,-0.67647904,-0.11271578,0.6709343,-0.7328999,,-0.09087363,0.25282928,-0.12916395,0.22088921,-0.9481325,0.22858854,0.80769706,0.04646551,-0.58776397,0.5466566,0.314461,0.77606755,,-0.053261932,0.4294202,-0.3487466,-0.469277,-0.33207306,-0.81823385,0.88186234,-0.2242968,-0.4147406,-0.04580304,-0.91619784,0.39810005,,1.2335675674656295,0.4344268923737513,0.1895305609,2.2508118533628845,0.5916360439843571,-0.17491906637628782,-0.4157106483117407,,-1.2731388507131558,0.20425083905748984,0.17737524957,-2.2036316160788667,-0.24334960608224945,0.7573629052651939,0.8315846406896157,,-0.06792385116448932,-0.039368082940297096,0.0911007994,-0.09583610933762131,,8.203089e-06,-1.7881393e-06,3.4570694e-06,1.0,-9.201467e-06,-8.426607e-06,9.223819e-06,1.0,-1.3709068e-06,8.426607e-06,1.4007092e-06,1.0,219,0.657,0,0,0.0,False,-0.2598780356236645,1.0058696858540968
0.6751027449499816,18:58:39.291496,18:57:19.733628,0,,0.110560074,0.013195738,0.042782888,-0.17143804,0.9775135,-0.122785404,0.9766427,0.18501067,0.10926992,0.1295293,-0.1011845,-0.9863994,,0.06686049,0.020758547,0.031692386,0.36108804,0.24279436,0.90037006,0.5385103,-0.84254396,0.011234641,0.7613291,0.48080185,-0.43497983,,0.08363735,1.2900152,0.42695066,0.9935006,0.08787917,-0.07234554,0.01586753,-0.73629093,-0.67647904,-0.11271578,0.6709343,-0.7328999,,-0.091193624,0.25280982,-0.12963866,0.21716827,-0.9491025,0.22812785,0.8085677,0.043977905,-0.58675736,0.54686034,0.3118819,0.77696425,,-0.05326548,0.42941505,-0.34874237,-0.46976835,-0.3317348,-0.81808907,0.8815887,-0.2246126,-0.4151512,-0.046033,-0.91624296,0.39796957,,1.2322855938085082,0.4352223338597965,0.18900556345000002,2.2550056522325748,0.5906795884859991,-0.17324067490886674,-0.415873992377875,,-1.2731388507131558,0.2042353935917414,0.17738173102000002,-2.203002546248413,-0.24334960608224945,0.7573629052651939,0.8315846406896157,,-0.06792385116448932,-0.039368082940297096,0.0911007994,-0.09583610933762131,,8.203089e-06,-1.7881393e-06,3.4570694e-06,1.0,-9.201467e-06,-8.426607e-06,9.223819e-06,1.0,-1.3709068e-06,8.426607e-06,1.4007092e-06,1.0,230,0.69,0,0,0.0,False,-0.2596993024681016,1.0056282848501994
0.7037877088878304,18:58:39.325848,18:57:19.733628,0,,0.11067734,0.01274059,0.043165818,-0.16566217,0.9785095,-0.1227815,0.9774521,0.17944771,0.11129099,0.130932,-0.10157637,-0.9861739,,0.06686486,0.020760693,0.031688213,0.3607075,0.24198654,0.9007401,0.53804934,-0.84284204,0.01096651,0.7618352,0.4806868,-0.4342201,,0.08363735,1.2900152,0.42695066,0.9935006,0.08787917,-0.07234554,0.01586753,-0.73629093,-0.67647904,-0.11271578,0.6709343,-0.7328999,,-0.091376655,0.25273314,-0.13021152,0.21134104,-0.9503937,0.22822538,0.8099779,0.039606728,-0.5851215,0.5470565,0.3085177,0.7781684,,-0.05326908,0.42941284,-0.3487375,-0.4694825,-0.33092427,-0.8185813,0.8817031,-0.2248058,-0.41480362,-0.046753224,-0.91648865,0.39731935,,1.231351143130727,0.4352609475241676,0.18840667747,2.262135110311049,0.5890399504888139,-0.16961665534057396,-0.41587399237787503,,-1.2731079597816588,0.20419677992737026,0.17739210134000002,-2.2032122361918973,-0.24457933458013842,0.7585290238787428,0.8309312644250785,,-0.06792385116448932,-0.039368082940297096,0.0911007994,-0.09583610933762131,,8.203089e-06,-1.7881393e-06,3.4570694e-06,1.0,-9.201467e-06,-8.426607e-06,9.223819e-06,1.0,-1.3709068e-06,8.426607e-06,1.4007092e-06,1.0,241,0.722,0,0,0.0,False,-0.259282258438454,1.0059662462556558
0.738106369972229,18:58:39.360338,18:57:19.733628,0,,0.1106484,0.012457378,0.04345356,-0.1621555,0.9790312,-0.12330301,0.97794974,0.17611265,0.11224279,0.1316042,-0.10238339,-0.986001,,0.0668686,0.02075953,0.031682372,0.360361,0.24137762,0.90104204,0.53795344,-0.84290713,0.01065594,0.76206684,0.48087865,-0.43360078,,0.08363735,1.2900152,0.42695066,0.9935006,0.08787917,-0.07234554,0.01586753,-0.73629093,-0.67647904,-0.11271578,0.6709343,-0.7328999,,-0.09139434,0.25272143,-0.13061576,0.2078217,-0.9510352,0.22878426,0.81071675,0.036599483,-0.5842934,0.54731023,0.30690807,0.7786263,,-0.05327185,0.4294074,-0.34873414,-0.46917966,-0.33035547,-0.81898457,0.88185024,-0.2246391,-0.414581,-0.047016848,-0.9167347,0.39672014,,1.231389756795098,0.43506015646943774,0.18800353128000002,2.2665385991242237,0.588493404489752,-0.1673740514426958,-0.416527368642412,,-1.2731002370487847,0.20416588899587337,0.17739599021000002,-2.2032122361918973,-0.24457933458013842,0.758692381359024,0.8309312644250786,,-0.06792385116448932,-0.039368082940297096,0.0911007994,-0.09583610933762131,,8.203089e-06,-1.7881393e-06,3.4570694e-06,1.0,-9.201467e-06,-8.426607e-06,9.223819e-06,1.0,-1.3709068e-06,8.426607e-06,1.4007092e-06,1.0,252,0.755,0,0,0.0,False,-0.25910352528289105,1.0059179660548763
0.7726103169843554,18:58:39.383204,18:57:19.884621,0,,0.110532254,0.012243338,0.043832257,-0.15804026,0.98011184,-0.12001699,0.97802615,0.172111,0.11765447,0.13597065,-0.09878563,-0.98577553,,0.066869095,0.020760186,0.0316813,0.360361,0.24130401,0.9010618,0.53795344,-0.842908,0.010587066,0.76206684,0.48091412,-0.43356153,,0.08363735,1.2900152,0.42695066,0.9935006,0.08787917,-0.07234554,0.01586753,-0.73629093,-0.67647904,-0.11271578,0.6709343,-0.7328999,,-0.09133035,0.25282428,-0.13104938,0.20329954,-0.952717,0.22583094,0.8136408,0.036081053,-0.5802472,0.54466313,0.30170926,0.7825047,,-0.05327216,0.42940694,-0.34873295,-0.46917966,-0.3302886,-0.81901157,0.88185024,-0.22460523,-0.41459936,-0.047016848,-0.9167671,0.39664528,,1.2321543073496464,0.4349443154763244,0.18756408897000001,2.271780847711337,0.584804218996085,-0.1597100798548804,-0.4153839601794721,,-1.2731002370487847,0.20416588899587337,0.17739728650000003,-2.2032122361918973,-0.24457933458013842,0.7587740600991646,0.8310946084912129,,-0.06792385116448932,-0.039368082940297096,0.0911007994,-0.09583610933762131,,8.203089e-06,-1.7881393e-06,3.4570694e-06,1.0,-9.201467e-06,-8.426607e-06,9.223819e-06,1.0,-1.3709068e-06,8.426607e-06,1.4007092e-06,1.0,263,0.788,0,0,0.0,False,-0.2593418361569748,1.0058214056533172
0.7954808550421149,18:58:39.420461,18:57:19.884621,0,,0.11044127,0.012187101,0.044040397,-0.15557876,0.9806519,-0.1188151,0.97782063,0.16995889,0.12239534,0.14022079,-0.097137794,-0.98534375,,0.06687187,0.020758577,0.031681776,0.36019123,0.2413863,0.9011076,0.53807956,-0.84282625,0.010692567,0.76205814,0.48101625,-0.4334636,,0.08363735,1.2900152,0.42695066,0.9935006,0.08787917,-0.07234554,0.01586753,-0.73629093,-0.67647904,-0.11271578,0.6709343,-0.7328999,,-0.09126445,0.2529265,-0.1312493,0.20041396,-0.9535517,0.22488515,0.8163181,0.0356083,-0.576504,0.5417186,0.29911727,0.7855379,,-0.053275,0.42940596,-0.3487341,-0.4690085,-0.33038485,-0.81907076,0.88194555,-0.22448438,-0.41446203,-0.046936613,-0.91676205,0.39666653,,1.2328107396439554,0.4349443154763244,0.18735538628,2.2749261968636048,0.5811150335024182,-0.15555829409310917,-0.41538396017947216,,-1.273115682514533,0.2041504435301249,0.17739728650000003,-2.203421926135382,-0.24457933458013842,0.7587740600991646,0.8310946084912129,,-0.06792385116448932,-0.039368082940297096,0.0911007994,-0.09583610933762131,,8.203089e-06,-1.7881393e-06,3.4570694e-06,1.0,-9.201467e-06,-8.426607e-06,9.223819e-06,1.0,-1.3709068e-06,8.426607e-06,1.4007092e-06,1.0,274,0.821,0,0,0.0,False,-0.25975888018662197,1.005483444247861
0.8327122039627284,18:58:39.461334,18:57:19.884621,0,,0.110267,0.012139581,0.04443507,-0.15233612,0.9815164,-0.11584188,0.97686803,0.16732967,0.13315174,0.15007421,-0.092878446,-0.9843024,,0.06687107,0.020758994,0.03167838,0.3603631,0.24136978,0.9010433,0.53796065,-0.8429028,0.010643303,0.76206076,0.4808904,-0.43359846,,0.08363735,1.2900152,0.42695066,0.9935006,0.08787917,-0.07234554,0.01586753,-0.73629093,-0.67647904,-0.11271578,0.6709343,-0.7328999,,-0.09113412,0.25316375,-0.13158861,0.19614168,-0.95500124,0.22248845,0.8222338,0.036551196,-0.567975,0.5342846,0.2943411,0.7924035,,-0.053273655,0.42940378,-0.3487317,-0.46918058,-0.33034956,-0.8189864,0.88185024,-0.22462662,-0.41458774,-0.047007278,-0.9167399,0.3967093,,1.23420855429419,0.4350447110036893,0.1869898325,2.279119995733295,0.57237029751743,-0.14769243959527317,-0.41554730424560643,,-1.2731002370487847,0.2041504435301249,0.17739987908000002,-2.2032122361918973,-0.24457933458013842,0.758692381359024,0.8312579525573471,,-0.06792385116448932,-0.039368082940297096,0.0911007994,-0.09583610933762131,,8.203089e-06,-1.7881393e-06,3.4570694e-06,1.0,-9.201467e-06,-8.426607e-06,9.223819e-06,1.0,-1.3709068e-06,8.426607e-06,1.4007092e-06,1.0,285,0.853,0,0,0.0,False,-0.2603546573718325,1.005676565050979
0.8736241918522865,18:58:39.485822,18:57:19.884621,0,,0.11013747,0.012100197,0.0447049,-0.15067074,0.9822309,-0.111896604,0.9763827,0.16558313,0.13877624,0.15483838,-0.08834443,-0.98398185,,0.06686998,0.020758785,0.031677723,0.36036813,0.24137416,0.90104014,0.5379627,-0.84290147,0.010643274,0.762057,0.48089045,-0.43360507,,0.08363735,1.2900152,0.42695066,0.9935006,0.08787917,-0.07234554,0.01586753,-0.73629093,-0.67647904,-0.11271578,0.6709343,-0.7328999,,-0.091035135,0.25332114,-0.13182643,0.1939776,-0.95627534,0.21888396,0.82507354,0.038331766,-0.5637236,0.53068477,0.28994513,0.796433,,-0.053272482,0.42940328,-0.34873158,-0.4691849,-0.3303539,-0.8189822,0.8818482,-0.22462621,-0.41459233,-0.047002696,-0.91673845,0.3967132,,1.2352820141637073,0.4350910474009346,0.18674612998,2.2812168951681406,0.5684078390242323,-0.14103081330217332,-0.41718074490694923,,-1.2730925143159104,0.2041504435301249,0.17739987908000002,-2.2032122361918973,-0.24457933458013842,0.758692381359024,0.8312579525573471,,-0.06792385116448932,-0.039368082940297096,0.0911007994,-0.09583610933762131,,8.203089e-06,-1.7881393e-06,3.4570694e-06,1.0,-9.201467e-06,-8.426607e-06,9.223819e-06,1.0,-1.3709068e-06,8.426607e-06,1.4007092e-06,1.0,296,0.886,0,0,0.0,False,-0.2599971910607066,1.0057731254525375
0.8980419558938593,18:58:39.524381,18:57:19.884621,0,,0.11002645,0.0121313855,0.044877514,-0.14889562,0.9828503,-0.10879087,0.97547626,0.16402449,0.14677137,0.16209847,-0.08426933,-0.98316973,,0.06685811,0.020764269,0.03166896,0.36038223,0.24136965,0.9010357,0.53796947,-0.84289736,0.010626912,0.76204556,0.4808999,-0.43361467,,0.08363735,1.2900152,0.42695066,0.9935006,0.08787917,-0.07234554,0.01586753,-0.73629093,-0.67647904,-0.11271578,0.6709343,-0.7328999,,-0.090940386,0.25346386,-0.13194369,0.19142698,-0.95739716,0.21620919,0.8292967,0.03994081,-0.55737936,0.52499783,0.285999,0.801612,,-0.05325926,0.42940167,-0.34872317,-0.46919686,-0.33035088,-0.8189766,0.8818426,-0.22461598,-0.4146098,-0.046988517,-0.916742,0.39670658,,1.2360929011155009,0.4351064928666831,0.18660872324000002,2.2835234845464703,0.5617126505357257,-0.13491790609992418,-0.41620068051014353,,-1.2730925143159104,0.20413499806437646,0.17739987908000002,-2.2032122361918973,-0.24457933458013842,0.758692381359024,0.8312579525573471,,-0.06792385116448932,-0.039368082940297096,0.0911007994,-0.09583610933762131,,8.203089e-06,-1.7881393e-06,3.4570694e-06,1.0,-9.201467e-06,-8.426607e-06,9.223819e-06,1.0,-1.3709068e-06,8.426607e-06,1.4007092e-06,1.0,307,0.919,0,0,0.0,False,-0.259282258438454,1.005676565050979
0.9366686220746487,18:58:39.553668,18:57:19.884621,0,,0.109965935,0.012234919,0.04497221,-0.14698286,0.98344713,-0.10596086,0.9738542,0.1626383,0.1586087,0.17321628,-0.079877734,-0.98163927,,0.06683784,0.020755228,0.031672716,0.36071908,0.2410677,0.9009818,0.5377138,-0.84306467,0.01029101,0.76206654,0.48075825,-0.43373495,,0.083661854,1.290023,0.42695612,0.993501,0.087858446,-0.07236459,0.015839556,-0.73629344,-0.676477,-0.11271578,0.6709343,-0.7328999,,-0.0909046,0.25360698,-0.13193758,0.1883336,-0.95851177,0.21397576,0.8356089,0.041912537,-0.5477236,0.51603127,0.2819548,0.8088345,,-0.053261608,0.42940065,-0.34872422,-0.46951976,-0.33005494,-0.81891084,0.8816622,-0.2247945,-0.41489658,-0.047147997,-0.91680485,0.39654243,,1.2365639878208285,0.4351991656611738,0.18655168648,2.2860397638682843,0.5509183670542559,-0.12872961139240482,-0.4168540567746807,,-1.2731002370487847,0.20412727533150224,0.17739987908000002,-2.2027928563049284,-0.24457933458013842,0.7587740600991646,0.8310946084912129,,-0.06792385116448932,-0.039368082940297096,0.0911007994,-0.09583610933762131,,3.2063574e-05,-1.7285347e-06,-7.5101852e-06,1.0,-2.9832125e-05,-2.7321279e-05,2.9854476e-05,1.0,-4.5597553e-06,2.7321279e-05,4.5895576e-06,1.0,315,0.944,0,0,0.0,False,-0.2598184579051428,1.0057248452517584
0.9659106349572539,18:58:39.582057,18:57:20.051238,0,,0.1099218,0.01243452,0.045048535,-0.14301491,0.98440915,-0.102398135,0.97051334,0.15977076,0.18049073,0.1940366,-0.073565975,-0.97823197,,0.066838816,0.020752903,0.03167188,0.36072114,0.24105985,0.900983,0.5377211,-0.84306026,0.010278344,0.7620605,0.48077,-0.43373257,,0.083661854,1.290023,0.42695612,0.993501,0.087858446,-0.07236459,0.015839556,-0.73629344,-0.676477,-0.11271578,0.6709343,-0.7328999,,-0.09085621,0.2538063,-0.13186313,0.18208814,-0.9602799,0.21143912,0.84720254,0.044071987,-0.52943885,0.49909094,0.2755363,0.82157654,,-0.053262476,0.42939842,-0.3487253,-0.4695207,-0.330049,-0.8189127,0.88166225,-0.22478202,-0.4149033,-0.04713843,-0.9168101,0.39653155,,1.2367107197454388,0.43539995671590365,0.18653094584000002,2.291072322511913,0.530149619089909,-0.11939021286362116,-0.4183241533698891,,-1.2731002370487847,0.2041118298657538,0.17739987908000002,-2.2027928563049284,-0.24457933458013842,0.7587740600991646,0.8310946084912129,,-0.06792385116448932,-0.039368082940297096,0.0911007994,-0.09583610933762131,,3.2063574e-05,-1.7285347e-06,-7.5101852e-06,1.0,-2.9832125e-05,-2.7321279e-05,2.9854476e-05,1.0,-4.5597553e-06,2.7321279e-05,4.5895576e-06,1.0,333,0.997,0,0,0.0,False,-0.26053339052739544,1.0059662462556558
0.9943411590065807,18:58:39.629969,18:57:20.051238,0,,NaN,NaN,NaN,NaN,NaN,NaN,NaN,NaN,NaN,NaN,NaN,NaN,,NaN,NaN,NaN,NaN,NaN,NaN,NaN,NaN,NaN,NaN,NaN,NaN,,NaN,NaN,NaN,NaN,NaN,NaN,NaN,NaN,NaN,NaN,NaN,NaN,,-0.09084598,0.2539838,-0.13163805,0.1729073,-0.96220636,0.21038525,0.8627662,0.044925813,-0.5036031,0.4751184,0.26858994,0.83792716,,-0.05325501,0.429396,-0.3487229,-0.46726844,-0.3320472,-0.819393,0.88294727,-0.22288786,-0.41318893,-0.045434512,-0.91655093,0.39732864,,1.2361237920469976,0.43552352044189124,0.18661909356000003,2.2984114705338716,0.5004994986408083,-0.10966966476637718,-0.41522061611333794,,-1.2731002370487847,0.20410410713287958,0.17739987908000002,-2.2059382054571963,-0.24403278858107663,0.7585734247048004,0.831257952557347,,-0.06792385116448932,-0.039368082940297096,0.0911007994,-0.09583610933762131,,NaN,NaN,NaN,NaN,NaN,NaN,NaN,NaN,NaN,NaN,NaN,NaN,345,1.034,0,0,0.0,False,-0.2604738128088746,1.005676565050979
1.0422601539175957,18:58:39.673005,18:57:20.051238,0,,0.10997397,0.012955517,0.044770777,-0.13427609,0.9858505,-0.100343,0.96249825,0.15383905,0.22345155,0.23572624,-0.066575825,-0.96953636,,0.066832386,0.020750966,0.03166485,0.35881674,0.24205674,0.901476,0.54020524,-0.84146243,0.010923147,0.76120216,0.48306274,-0.4326911,,0.083661854,1.290023,0.42695612,0.993501,0.087858446,-0.07236459,0.015839556,-0.73629344,-0.676477,-0.11271578,0.6709343,-0.7328999,,-0.090847984,0.2539987,-0.13130258,0.16871308,-0.9627807,0.21116157,0.8694256,0.04443265,-0.4920619,0.46436524,0.26660654,0.84456253,,-0.053255033,0.42939264,-0.34872293,-0.46745995,-0.33137476,-0.81955594,0.88287115,-0.22213289,-0.4137578,-0.04494145,-0.9169775,0.39639944,,1.2353901324239465,0.4354926295103943,0.18689261075000002,2.3017665096296236,0.48697248516402974,-0.10705220253490941,-0.4157106483117407,,-1.273115682514533,0.20410410713287958,0.17739987908000002,-2.2059382054571963,-0.24348624258201487,0.7595979704125448,0.8315846406896157,,-0.06792385116448932,-0.039368082940297096,0.0911007994,-0.09583610933762131,,3.2063574e-05,-1.7285347e-06,-7.5101852e-06,1.0,-2.9832125e-05,-2.7321279e-05,2.9854476e-05,1.0,-4.5597553e-06,2.7321279e-05,4.5895576e-06,1.0,370,1.111,0,0,0.0,False,-0.2607121236829584,1.005483444247861
1.0852843548636883,18:58:39.744872,18:57:20.182352,0,,0.11005658,0.013981581,0.04384482,-0.126941,0.98604906,-0.107672565,0.9514829,0.15172224,0.2676945,0.280296,-0.068467274,-0.95746875,,0.06683233,0.020748105,0.03166145,0.3591393,0.24198273,0.9013675,0.54060245,-0.8412135,0.010436982,0.76076794,0.48353308,-0.43292925,,0.083661854,1.290023,0.42695612,0.993501,0.087858446,-0.07236459,0.015839556,-0.73629344,-0.676477,-0.11271578,0.6709343,-0.7328999,,-0.09077357,0.2541208,-0.12992541,0.156257,-0.96291715,0.21994172,0.89143634,0.041590445,-0.4512333,0.42535278,0.26657242,0.8648781,,-0.053254474,0.4293882,-0.3487229,-0.4677013,-0.33137327,-0.81941885,0.8827746,-0.22161077,-0.41424352,-0.044322822,-0.91710436,0.39617553,,1.2333976673423965,0.43543084764740053,0.18807223465000003,2.310363797312489,0.4396962562451874,-0.10591047084032511,-0.41865084150215776,,-1.2731311279802815,0.20410410713287958,0.17739987908000002,-2.2059382054571963,-0.24280306008318767,0.7598576682954685,0.8309312644250786,,-0.06792385116448932,-0.039368082940297096,0.0911007994,-0.09583610933762131,,3.2063574e-05,-1.7285347e-06,-7.5101852e-06,1.0,-2.9832125e-05,-2.7321279e-05,2.9854476e-05,1.0,-4.5597553e-06,2.7321279e-05,4.5895576e-06,1.0,378,1.136,0,0,0.0,False,-0.26011634649774784,1.0059179660548763
1.1571639250032604,18:58:39.775223,18:57:20.182352,0,,0.1101006,0.014576636,0.043371707,-0.12750591,0.9849822,-0.11641472,0.94362783,0.15661804,0.29161128,0.3054643,-0.07267006,-0.9494264,,0.06683332,0.020747509,0.03166002,0.3591403,0.2419788,0.90136814,0.540606,-0.84121126,0.010430694,0.7607649,0.48353893,-0.4329281,,0.083661854,1.290023,0.42695612,0.993501,0.087858446,-0.07236459,0.015839556,-0.73629344,-0.676477,-0.11271578,0.6709343,-0.7328999,,-0.090732984,0.2542351,-0.12917364,0.15379672,-0.961133,0.2292814,0.90277714,0.04235371,-0.4280182,0.40167153,0.2728178,0.8742027,,-0.05325522,0.42938662,-0.34872228,-0.46770176,-0.3313703,-0.8194198,0.8827746,-0.22160453,-0.41424686,-0.044318028,-0.9171069,0.3961701,,1.2325481667262317,0.4354540158460232,0.18871778707000003,2.3097347274820357,0.4127788657913956,-0.11230366664090519,-0.41456723984880073,,-1.2731311279802815,0.20409638440000535,0.17740117537000002,-2.2059382054571963,-0.24280306008318767,0.7598576682954685,0.8309312644250786,,-0.06792385116448932,-0.039368082940297096,0.0911007994,-0.09583610933762131,,3.2063574e-05,-1.7285347e-06,-7.5101852e-06,1.0,-2.9832125e-05,-2.7321279e-05,2.9854476e-05,1.0,-4.5597553e-06,2.7321279e-05,4.5895576e-06,1.0,386,1.161,0,0,0.0,False,-0.2607121236829584,1.005676565050979
1.1875143379438668,18:58:39.798951,18:57:20.182352,0,,0.11013143,0.014974371,0.043007463,-0.12769622,0.98430073,-0.1218429,0.9392102,0.1594842,0.30405396,0.31871232,-0.075609595,-0.944831,,0.06683464,0.020744916,0.031659186,0.35930446,0.2418725,0.90133125,0.5404905,-0.8412871,0.010299861,0.7607695,0.48346016,-0.43300802,,0.083661854,1.290023,0.42695612,0.993501,0.087858446,-0.07236459,0.015839556,-0.73629344,-0.676477,-0.11271578,0.6709343,-0.7328999,,-0.090702415,0.25427884,-0.12863609,0.152378,-0.9599837,0.23497276,0.9085366,0.042476542,-0.4156405,0.38902727,0.2768158,0.8786528,,-0.053256452,0.42938417,-0.34872356,-0.46786648,-0.33125404,-0.8193728,0.88268375,-0.2217014,-0.4143885,-0.04438822,-0.9171255,0.39611924,,1.2319689617606648,0.4354617385788974,0.18920130324,2.309525037538551,0.39843203331602434,-0.11653214108019058,-0.41799746523762055,,-1.2731311279802815,0.20408093893425688,0.17740117537000002,-2.205728515513712,-0.24280306008318767,0.7598576682954685,0.8309312644250786,,-0.06792385116448932,-0.039368082940297096,0.0911007994,-0.09583610933762131,,3.2063574e-05,-1.7285347e-06,-7.5101852e-06,1.0,-2.9832125e-05,-2.7321279e-05,2.9854476e-05,1.0,-4.5597553e-06,2.7321279e-05,4.5895576e-06,1.0,394,1.185,0,0,0.0,False,-0.2602355019347904,1.0054351640470816
1.2112370270770043,18:58:39.827522,18:57:20.182352,0,,0.11017665,0.015517846,0.042445153,-0.12772343,0.983965,-0.12449712,0.93432283,0.161483,0.31774825,0.3327571,-0.07573667,-0.9399662,,0.066835016,0.02074125,0.03165728,0.35931265,0.24186516,0.90132993,0.54050326,-0.8412791,0.010280877,0.76075655,0.48347777,-0.4330111,,0.083661854,1.290023,0.42695612,0.993501,0.087858446,-0.07236459,0.015839556,-0.73629344,-0.676477,-0.11271578,0.6709343,-0.7328999,,-0.09065722,0.2542947,-0.12785424,0.15068805,-0.9595147,0.23795936,0.9144886,0.043864716,-0.40222692,0.37550464,0.2782219,0.8840751,,-0.053256575,0.4293803,-0.34872505,-0.46787223,-0.3312495,-0.81937134,0.88268167,-0.22168228,-0.4144032,-0.044369258,-0.9171318,0.39610684,,1.2311349066102486,0.435446293113149,0.18992722564000003,2.309525037538551,0.3829921088425296,-0.11790898252653106,-0.4175074330392178,,-1.2731234052474074,0.20405777073563422,0.17740117537000002,-2.205728515513712,-0.24280306008318767,0.7598576682954685,0.8309312644250786,,-0.06792385116448932,-0.039368082940297096,0.0911007994,-0.09583610933762131,,3.2063574e-05,-1.7285347e-06,-7.5101852e-06,1.0,-2.9832125e-05,-2.7321279e-05,2.9854476e-05,1.0,-4.5597553e-06,2.7321279e-05,4.5895576e-06,1.0,402,1.21,0,0,0.0,False,-0.26112916771260597,1.0055317244486406
1.239815565990284,18:58:39.858868,18:57:20.182352,0,,0.11022192,0.016133301,0.041824043,-0.12868866,0.983235,-0.12918255,0.92880714,0.165149,0.3317271,0.34749976,-0.07729624,-0.9344887,,0.06684061,0.02073517,0.031656325,0.35953128,0.24186811,0.9012419,0.5404727,-0.84130013,0.010171354,0.76067495,0.4834397,-0.4331968,,0.083661854,1.290023,0.42695612,0.993501,0.087858446,-0.07236459,0.015839556,-0.73629344,-0.676477,-0.11271578,0.6709343,-0.7328999,,-0.09060169,0.2543234,-0.12698089,0.14982061,-0.95840716,0.24291863,0.92047566,0.04551263,-0.38814065,0.3609409,0.28175214,0.88900924,,-0.053262044,0.42937496,-0.3487283,-0.46807536,-0.33124664,-0.8192564,0.88257676,-0.22172472,-0.41460386,-0.044313263,-0.91712254,0.39613447,,1.230324019658455,0.43546946131177167,0.19074388834000003,2.308476587821129,0.3667323653704421,-0.12163942993589388,-0.415873992377875,,-1.27314657344603,0.20401915707126309,0.17740117537000002,-2.205518825570227,-0.24266642358342222,0.759746250391772,0.8309312644250786,,-0.06792385116448932,-0.039368082940297096,0.0911007994,-0.09583610933762131,,3.2063574e-05,-1.7285347e-06,-7.5101852e-06,1.0,-2.9832125e-05,-2.7321279e-05,2.9854476e-05,1.0,-4.5597553e-06,2.7321279e-05,4.5895576e-06,1.0,418,1.259,0,0,0.0,False,-0.26041423509035333,1.0057248452517584
1.2711207349784672,18:58:39.893620,18:57:20.356303,0,,0.11024825,0.017094642,0.040972263,-0.13147856,0.9814402,-0.13960138,0.9181631,0.17365633,0.3561176,0.37375054,-0.08135508,-0.9239545,,0.06684473,0.020732757,0.03165537,0.35952434,0.24184756,0.90125024,0.5404794,-0.841296,0.0101524,0.7606735,0.4834572,-0.43318,,0.083661854,1.290023,0.42695612,0.993501,0.087858446,-0.07236459,0.015839556,-0.73629344,-0.676477,-0.11271578,0.6709343,-0.7328999,,-0.090482846,0.25444973,-0.125708,0.14928916,-0.9556927,0.253701,0.93055767,0.049040575,-0.36284626,0.33432788,0.29025245,0.8966484,,-0.053266,0.4293722,-0.348729,-0.46806815,-0.3312291,-0.8192677,0.8825809,-0.22170678,-0.41460475,-0.04430804,-0.9171333,0.39611033,,1.2294745190422904,0.43552352044189124,0.19192610482000003,2.305331238668861,0.3379020639199342,-0.13031167587133047,-0.4162006805101435,,-1.2731620189117785,0.20399598887264042,0.17740247166,-2.205518825570227,-0.24266642358342222,0.759746250391772,0.8309312644250786,,-0.06792385116448932,-0.039368082940297096,0.0911007994,-0.09583610933762131,,3.2063574e-05,-1.7285347e-06,-7.5101852e-06,1.0,-2.9832125e-05,-2.7321279e-05,2.9854476e-05,1.0,-4.5597553e-06,2.7321279e-05,4.5895576e-06,1.0,426,1.284,0,0,0.0,False,-0.26011634649774784,1.0062076472595527
1.3059128830209374,18:58:39.918034,18:57:20.356303,0,,0.11026274,0.017903566,0.040296286,-0.1346305,0.9800932,-0.14591794,0.9090078,0.18077582,0.37553275,0.39443517,-0.082082465,-0.9152504,,0.06684776,0.020728316,0.031654418,0.35952348,0.24175385,0.9012757,0.5404918,-0.84128916,0.010058463,0.7606651,0.4835159,-0.43312916,,0.083661854,1.290023,0.42695612,0.993501,0.087858446,-0.07236459,0.015839556,-0.73629344,-0.676477,-0.11271578,0.6709343,-0.7328999,,-0.090379335,0.25458384,-0.12466739,0.14977011,-0.9538442,0.26028866,0.93796074,0.05380199,-0.34254193,0.31272757,0.2954431,0.90272635,,-0.053268902,0.42936823,-0.34873134,-0.46806574,-0.33114597,-0.8193026,0.8825829,-0.22164834,-0.4146317,-0.04429344,-0.9171774,0.39600974,,1.2289648186725917,0.4356779750993757,0.19289961861000002,2.3017665096296236,0.3150837684591057,-0.13539172059479118,-0.41342383138586075,,-1.2731697416446526,0.20396509794114354,0.17740247166,-2.205518825570227,-0.24266642358342222,0.7598279291319125,0.8310946084912127,,-0.06792385116448932,-0.039368082940297096,0.0911007994,-0.09583610933762131,,3.2063574e-05,-1.7285347e-06,-7.5101852e-06,1.0,-2.9832125e-05,-2.7321279e-05,2.9854476e-05,1.0,-4.5597553e-06,2.7321279e-05,4.5895576e-06,1.0,455,1.374,0,0,0.0,False,-0.259282258438454,1.0051937630431842
1.330323580885306,18:58:40.006927,18:57:20.356303,0,,0.110391945,0.020385139,0.038315862,-0.15081638,0.97488344,-0.16388036,0.8809953,0.20774776,0.42507416,0.44844323,-0.08026977,-0.89019966,,0.066849515,0.020721968,0.03164971,0.35976228,0.24162726,0.90121436,0.5404691,-0.8413067,0.009811461,0.7605684,0.48354882,-0.43326247,,0.083661854,1.290023,0.42695612,0.993501,0.087858446,-0.07236459,0.015839556,-0.73629344,-0.676477,-0.11271578,0.6709343,-0.7328999,,-0.090155385,0.25505674,-0.12153321,0.15867384,-0.9471961,0.27864337,0.954464,0.074945115,-0.28875887,0.25262833,0.31177357,0.91595644,,-0.053269994,0.42936036,-0.3487329,-0.46828613,-0.33102667,-0.8192249,0.8824697,-0.22162145,-0.41488692,-0.04421918,-0.91722697,0.39590326,,1.2276596768168477,0.4368981668935032,0.19585904868,2.283942864433439,0.2544171625632501,-0.152163629607576,-0.41571064831174065,,-1.2731620189117785,0.2039264842767724,0.17740376795,-2.2053091356267425,-0.2425297870836568,0.7598798687084973,0.8307679203589442,,-0.06792385116448932,-0.039368082940297096,0.0911007994,-0.09583610933762131,,3.2063574e-05,-1.7285347e-06,-7.5101852e-06,1.0,-2.9832125e-05,-2.7321279e-05,2.9854476e-05,1.0,-4.5597553e-06,2.7321279e-05,4.5895576e-06,1.0,463,1.398,0,0,0.0,False,-0.2602355019347904,1.005386883846302
1.4192148440051824,18:58:40.038603,18:57:20.520975,0,,0.11046584,0.021441914,0.037564993,-0.15602182,0.97152174,-0.17833337,0.8680457,0.22101137,0.44457892,0.47133148,-0.08543761,-0.87780803,,0.066851586,0.02072164,0.031648874,0.35975823,0.24161887,0.90121824,0.54047066,-0.84130573,0.009805143,0.76056904,0.4835546,-0.43325466,,0.083661854,1.290023,0.42695612,0.993501,0.087858446,-0.07236459,0.015839556,-0.73629344,-0.676477,-0.11271578,0.6709343,-0.7328999,,-0.09008807,0.25532046,-0.12026358,0.16073845,-0.9425216,0.2929441,0.96062803,0.081246614,-0.26569295,0.2266206,0.32411742,0.9184721,,-0.053271912,0.4293593,-0.34873238,-0.46828228,-0.33101934,-0.8192301,0.88247174,-0.2216156,-0.4148857,-0.04421897,-0.917231,0.3958939,,1.2272272037758911,0.43772449931104523,0.19705811693000003,2.2780715460158727,0.22845622760781642,-0.16538097750443265,-0.4181608093037549,,-1.2731774643775269,0.20391876154389818,0.17740506424000002,-2.2053091356267425,-0.2425297870836568,0.7598798687084973,0.8307679203589442,,-0.06792385116448932,-0.039368082940297096,0.0911007994,-0.09583610933762131,,3.2063574e-05,-1.7285347e-06,-7.5101852e-06,1.0,-2.9832125e-05,-2.7321279e-05,2.9854476e-05,1.0,-4.5597553e-06,2.7321279e-05,4.5895576e-06,1.0,475,1.435,0,0,0.0,False,-0.2602950796533112,1.005676565050979
1.4508701839949936,18:58:40.077295,18:57:20.520975,0,,0.1105981,0.02288711,0.036560178,-0.1606642,0.96734655,-0.19602959,0.8519738,0.23619533,0.46728182,0.49832457,-0.09193666,-0.86210227,,0.06685109,0.020721015,0.031649947,0.35975823,0.24169254,0.90119845,0.54047066,-0.84130496,0.009873867,0.76056904,0.4835192,-0.43329412,,0.083661854,1.290023,0.42695612,0.993501,0.087858446,-0.07236459,0.015839556,-0.73629344,-0.676477,-0.11271578,0.6709343,-0.7328999,,-0.090029255,0.25569534,-0.118539706,0.16163808,-0.936787,0.31032762,0.96727526,0.08807228,-0.23795353,0.19558051,0.33863455,0.9203667,,-0.0532716,0.42935973,-0.34873354,-0.46828228,-0.33108628,-0.819203,0.88247174,-0.22164948,-0.41486758,-0.04421897,-0.91719866,0.3959688,,1.226709780673318,0.4391686503585252,0.19869792378,2.272619607485275,0.19771301516059234,-0.1813146767233001,-0.4175074330392178,,-1.2731697416446526,0.20391876154389818,0.17740376795,-2.2053091356267425,-0.2425297870836568,0.7597981899683567,0.8309312644250785,,-0.06792385116448932,-0.039368082940297096,0.0911007994,-0.09583610933762131,,3.2063574e-05,-1.7285347e-06,-7.5101852e-06,1.0,-2.9832125e-05,-2.7321279e-05,2.9854476e-05,1.0,-4.5597553e-06,2.7321279e-05,4.5895576e-06,1.0,483,1.46,0,0,0.0,False,-0.2598780356236645,1.0051454828424047
1.4895575160626322,18:58:40.105157,18:57:20.520975,0,,0.11070447,0.02397269,0.03582385,-0.16138735,0.964136,-0.21070337,0.84061104,0.24615115,0.48247546,0.5170365,-0.099254236,-0.8501892,,0.06685169,0.020722415,0.03165102,0.35975218,0.24161842,0.90122074,0.5404651,-0.8413093,0.009811431,0.7605759,0.48354867,-0.43324915,,0.083661854,1.290023,0.42695612,0.993501,0.087858446,-0.07236459,0.015839556,-0.73629344,-0.676477,-0.11271578,0.6709343,-0.7328999,,-0.08999389,0.2559893,-0.11725739,0.15977053,-0.932249,0.3246309,0.971662,0.0904835,-0.2183705,0.17420194,0.35032067,0.92028755,,-0.05327234,0.42936137,-0.34873313,-0.46827748,-0.33101797,-0.81923336,0.8824738,-0.22162224,-0.41487774,-0.044228338,-0.9172299,0.3958954,,1.2263854258926006,0.4403811194197784,0.19992421412000003,2.271361467824368,0.1763977211971836,-0.1943179750789475,-0.41783412117148633,,-1.2731774643775269,0.2039264842767724,0.17740376795,-2.2053091356267425,-0.2425297870836568,0.7598798687084973,0.8307679203589442,,-0.06792385116448932,-0.039368082940297096,0.0911007994,-0.09583610933762131,,3.2063574e-05,-1.7285347e-06,-7.5101852e-06,1.0,-2.9832125e-05,-2.7321279e-05,2.9854476e-05,1.0,-4.5597553e-06,2.7321279e-05,4.5895576e-06,1.0,495,1.497,0,0,0.0,False,-0.26011634649774784,1.0046144006338307
1.5173524739220738,18:58:40.165719,18:57:20.520975,0,,0.110935435,0.026314475,0.03447458,-0.15866174,0.95306045,-0.2578802,0.8117663,0.27459595,0.51539534,0.5620156,-0.12756509,-0.81723046,,0.06684836,0.02072167,0.03165543,0.3600791,0.24121287,0.9011988,0.54021436,-0.84147525,0.009381622,0.7605994,0.48346242,-0.43330434,,0.083661854,1.290023,0.42695612,0.993501,0.087858446,-0.07236459,0.015839556,-0.73629344,-0.676477,-0.11271578,0.6709343,-0.7328999,,-0.08994324,0.25678584,-0.11466493,0.15075466,-0.9166474,0.37017643,0.9809778,0.092389785,-0.17072429,0.12229345,0.38887236,0.91313887,,-0.05326978,0.42936453,-0.34873697,-0.46860823,-0.33060676,-0.8192103,0.88228995,-0.22175121,-0.41519976,-0.044393025,-0.917347,0.39560547,,1.226053348379009,0.44337753977497757,0.20239883173,2.272619607485275,0.1246124877860817,-0.2370364793241885,-0.4140772076503979,,-1.2731697416446526,0.20394192974252084,0.17739858279,-2.2048897557397735,-0.2425297870836568,0.7601249049289189,0.8302778881605414,,-0.06792385116448932,-0.039368082940297096,0.0911007994,-0.09583610933762131,,3.2063574e-05,-1.7285347e-06,-7.5101852e-06,1.0,-2.9832125e-05,-2.7321279e-05,2.9854476e-05,1.0,-4.5597553e-06,2.7321279e-05,4.5895576e-06,1.0,528,1.599,0,0,0.0,False,-0.25963972474957986,1.0040833184252567
1.5779558490030468,18:58:40.237748,18:57:20.520975,0,,0.11123192,0.029128857,0.032912284,-0.14859806,0.94077533,-0.3047302,0.7863349,0.29927137,0.5404757,0.5996631,-0.15930644,-0.78423566,,0.06683015,0.020711567,0.03166473,0.36018988,0.2409492,0.90122503,0.540309,-0.8414184,0.009015769,0.7604797,0.48369265,-0.43325746,,0.083661854,1.290023,0.42695612,0.993501,0.087858446,-0.07236459,0.015839556,-0.73629344,-0.676477,-0.11271578,0.6709343,-0.7328999,,-0.08990711,0.25778288,-0.1115902,0.13540131,-0.89973027,0.414912,0.98764634,0.08922943,-0.1288133,0.07887486,0.4272278,0.90069705,,-0.05325349,0.4293668,-0.34875277,-0.4686966,-0.33038273,-0.8192501,0.88225114,-0.22151355,-0.415409,-0.044231053,-0.9174851,0.3953032,,1.2264626532213427,0.44766365652017215,0.20537640986000003,2.281007205224656,0.08198189985926427,-0.2810940776065476,-0.4137505195181293,,-1.2731002370487847,0.20394965247539507,0.17737913844000003,-2.2048897557397735,-0.24239315058389135,0.7605035594660658,0.8292978237637356,,-0.06792385116448932,-0.039368082940297096,0.0911007994,-0.09583610933762131,,3.2063574e-05,-1.7285347e-06,-7.5101852e-06,1.0,-2.9832125e-05,-2.7321279e-05,2.9854476e-05,1.0,-4.5597553e-06,2.7321279e-05,4.5895576e-06,1.0,540,1.636,0,0,0.0,False,-0.25963972474957986,1.0041798788268157
1.6500347980763763,18:58:40.275881,18:57:20.520975,0,,0.11141387,0.03033831,0.032372653,-0.14406554,0.9359273,-0.32138026,0.77765816,0.3079175,0.54811895,0.6119579,-0.17095909,-0.772192,,0.0668183,0.020708647,0.031668603,0.35891852,0.24183208,0.9014958,0.5413007,-0.8407693,0.010030121,0.7603755,0.48438036,-0.43267155,,0.083661854,1.290023,0.42695612,0.993501,0.087858446,-0.07236459,0.015839556,-0.73629344,-0.676477,-0.11271578,0.6709343,-0.7328999,,-0.089959025,0.25829953,-0.11035836,0.12912723,-0.8932095,0.4307005,0.98952234,0.08777454,-0.11463472,0.064588286,0.44099027,0.8951849,,-0.05324248,0.4293691,-0.3487589,-0.46740803,-0.33135357,-0.81959414,0.8829674,-0.22067116,-0.4143342,-0.04356968,-0.917338,0.39571786,,1.2269414626595447,0.4501040401084271,0.20656510779,2.2847816242073775,0.06872815938201654,-0.29764891889508305,-0.41456723984880073,,-1.2730616233844134,0.20394965247539507,0.17737006441000003,-2.2065672752876497,-0.24239315058389135,0.7604218807259253,0.82946116782987,,-0.06792385116448932,-0.039368082940297096,0.0911007994,-0.09583610933762131,,3.2063574e-05,-1.7285347e-06,-7.5101852e-06,1.0,-2.9832125e-05,-2.7321279e-05,2.9854476e-05,1.0,-4.5597553e-06,2.7321279e-05,4.5895576e-06,1.0,548,1.66,0,0,0.0,False,-0.2596993024681016,1.0036005164174622
1.6881694509647787,18:58:40.304918,18:57:20.520975,0,,0.11162135,0.031647123,0.031891674,-0.13854402,0.93088126,-0.33803204,0.7684171,0.3163668,0.5562796,0.6247722,-0.18268049,-0.759136,,0.06680605,0.020701226,0.03167337,0.35889336,0.24187654,0.90149397,0.54124016,-0.8408071,0.010120988,0.7604305,0.4842924,-0.4326734,,0.083661854,1.290023,0.42695612,0.993501,0.087858446,-0.07236459,0.015839556,-0.73629344,-0.676477,-0.11271578,0.6709343,-0.7328999,,-0.09003611,0.25892833,-0.10909896,0.12178397,-0.8864973,0.4464204,0.9913137,0.08613318,-0.099389024,0.049656495,0.45464665,0.8892866,,-0.053231277,0.42936906,-0.348769,-0.4673931,-0.3313839,-0.8195904,0.88297117,-0.22076645,-0.41427544,-0.043653853,-0.9173041,0.39578715,,1.227706013214093,0.4530155104020097,0.20777843523000003,2.2893948029640367,0.05520114590523794,-0.3143893180769285,-0.4168540567746807,,-1.2729998415214197,0.20394192974252084,0.1773583978,-2.2065672752876497,-0.2425297870836568,0.7603699411493405,0.8297878559621386,,-0.06792385116448932,-0.039368082940297096,0.0911007994,-0.09583610933762131,,3.2063574e-05,-1.7285347e-06,-7.5101852e-06,1.0,-2.9832125e-05,-2.7321279e-05,2.9854476e-05,1.0,-4.5597553e-06,2.7321279e-05,4.5895576e-06,1.0,560,1.697,0,0,0.0,False,-0.26041423509035333,1.0033108352127853
1.7172022599261254,18:58:40.342342,18:57:20.825665,0,,0.111892805,0.03331536,0.031464785,-0.13193665,0.92561424,-0.35472676,0.7562381,0.3253458,0.56767404,0.64085585,-0.193361,-0.74290997,,0.06679121,0.020696219,0.03168434,0.3587582,0.2423077,0.9014319,0.541364,-0.8407224,0.010532886,0.76040614,0.48422408,-0.43279266,,0.083661854,1.290023,0.42695612,0.993501,0.087858446,-0.07236459,0.015839556,-0.73629344,-0.676477,-0.11271578,0.6709343,-0.7328999,,-0.09016008,0.25985605,-0.107628286,0.11285214,-0.8796381,0.462062,0.99314404,0.085592516,-0.07961701,0.0304851,0.46787906,0.88326657,,-0.05321849,0.42937553,-0.34878165,-0.46725368,-0.33179685,-0.81950283,0.8830495,-0.22080877,-0.4140858,-0.043561045,-0.91714466,0.39616674,,1.2291424415286987,0.45715489522259406,0.20919268762,2.29463705155115,0.0385314929338542,-0.33126250389839484,-0.4166907127085464,,-1.2729535051241745,0.20396509794114354,0.17734154603000002,-2.2067769652311346,-0.2425297870836568,0.7600432261887784,0.8291344796976015,,-0.06792385116448932,-0.039368082940297096,0.0911007994,-0.09583610933762131,,3.2063574e-05,-1.7285347e-06,-7.5101852e-06,1.0,-2.9832125e-05,-2.7321279e-05,2.9854476e-05,1.0,-4.5597553e-06,2.7321279e-05,4.5895576e-06,1.0,572,1.734,0,0,0.0,False,-0.2599971910607066,1.0033591154135648
1.754627798916772,18:58:40.373254,18:57:20.825665,0,,0.1121304,0.034562804,0.031249642,-0.1269409,0.92310417,-0.36299425,0.7493027,0.32903212,0.5747028,0.649947,-0.19903935,-0.73345226,,0.06678076,0.020689573,0.031700075,0.35837638,0.24245648,0.9015438,0.54152936,-0.8406124,0.010804385,0.7604685,0.48434037,-0.432553,,0.083661854,1.290023,0.42695612,0.993501,0.087858446,-0.07236459,0.015839556,-0.73629344,-0.676477,-0.11271578,0.6709343,-0.7328999,,-0.090297654,0.26061958,-0.10660021,0.106548175,-0.8763463,0.46974963,0.9941112,0.08450039,-0.067842804,0.019759763,0.47421187,0.880189,,-0.05321084,0.42938402,-0.3487981,-0.4668841,-0.33196053,-0.81964713,0.88324684,-0.22066619,-0.41374078,-0.043522783,-0.91711974,0.39622864,,1.230486197048814,0.4606919068789889,0.21017786802000002,2.2986211604773557,0.030196666448162338,-0.340148329879901,-0.41603733644400925,,-1.2729380596584259,0.20397282067401776,0.17732210168,-2.207196345118103,-0.24266642358342222,0.7600729653523344,0.8286444474991987,,-0.06792385116448932,-0.039368082940297096,0.0911007994,-0.09583610933762131,,3.2063574e-05,-1.7285347e-06,-7.5101852e-06,1.0,-2.9832125e-05,-2.7321279e-05,2.9854476e-05,1.0,-4.5597553e-06,2.7321279e-05,4.5895576e-06,1.0,580,1.759,0,0,0.0,False,-0.2604738128088746,1.002731472803432
1.7855254970490932,18:58:40.398674,18:57:20.825665,0,,0.11228679,0.035366982,0.031119317,-0.12463243,0.9218457,-0.36697048,0.7457133,0.3310024,0.5782292,0.65450597,-0.20158878,-0.72868633,,0.066774264,0.020682152,0.031713724,0.35837638,0.24245648,0.9015438,0.54152936,-0.8406124,0.010804385,0.7604685,0.48434037,-0.432553,,0.083661854,1.290023,0.42695612,0.993501,0.087858446,-0.07236459,0.015839556,-0.73629344,-0.676477,-0.11271578,0.6709343,-0.7328999,,-0.09039037,0.26111743,-0.105943166,0.10357546,-0.87471837,0.4734341,0.99451905,0.08424443,-0.06192544,0.014283136,0.4772532,0.8786498,,-0.053206753,0.42939,-0.34881333,-0.4668841,-0.33196053,-0.81964713,0.88324684,-0.22066619,-0.41374078,-0.043522783,-0.91711974,0.39622864,,1.231420647726595,0.46303189493987895,0.21080916125000002,2.300298680025232,0.026507480954495448,-0.3447361693131699,-0.4142405517165322,,-1.2729380596584259,0.20397282067401776,0.17730524991000002,-2.207196345118103,-0.24266642358342222,0.7600729653523344,0.8286444474991987,,-0.06792385116448932,-0.039368082940297096,0.0911007994,-0.09583610933762131,,3.2063574e-05,-1.7285347e-06,-7.5101852e-06,1.0,-2.9832125e-05,-2.7321279e-05,2.9854476e-05,1.0,-4.5597553e-06,2.7321279e-05,4.5895576e-06,1.0,609,1.849,0,0,0.0,False,-0.26095043455704303,1.0023452311971963
1.8109142039902508,18:58:40.489288,18:57:20.825665,0,,0.11315645,0.038901657,0.030641317,-0.11468341,0.91415745,-0.38879806,0.7238486,0.34494713,0.5975405,0.6803606,-0.21290302,-0.7012715,,0.066757284,0.020666238,0.031748176,0.3583743,0.24246433,0.9015425,0.5415221,-0.84061694,0.010816991,0.76047456,0.48432872,-0.43255532,,0.083661854,1.290023,0.42695612,0.993501,0.087858446,-0.07236459,0.015839556,-0.73629344,-0.676477,-0.11271578,0.6709343,-0.7328999,,-0.09098851,0.26336575,-0.10310309,0.08974461,-0.86508584,0.4935306,0.99579924,0.08697384,-0.028625958,-0.01816034,0.4940264,0.8692572,,-0.053195834,0.429407,-0.34884965,-0.46688315,-0.33196646,-0.8196453,0.8832469,-0.22067867,-0.41373408,-0.04353239,-0.9171146,0.3962395,,1.2346719182666435,0.47368926630630875,0.21352618509000001,2.3076378280471905,0.0016396379971852853,-0.36978981161843333,-0.4150572720472036,,-1.2729380596584259,0.2039882661397662,0.17726376863,-2.207196345118103,-0.24266642358342222,0.7600729653523344,0.8286444474991987,,-0.06792385116448932,-0.039368082940297096,0.0911007994,-0.09583610933762131,,3.2063574e-05,-1.7285347e-06,-7.5101852e-06,1.0,-2.9832125e-05,-2.7321279e-05,2.9854476e-05,1.0,-4.5597553e-06,2.7321279e-05,4.5895576e-06,1.0,617,1.873,0,0,0.0,False,-0.26101001227556386,1.0017658687878426
1.9015793839935213,18:58:40.513917,18:57:20.825665,0,,0.113537505,0.03993413,0.030484408,-0.112943605,0.91168743,-0.3950566,0.7166533,0.3501471,0.60316247,0.68822336,-0.21499541,-0.69291085,,0.06675528,0.020663973,0.031752408,0.3583743,0.24231705,0.90158206,0.5415221,-0.8406187,0.010679722,0.76047456,0.48439935,-0.43247622,,0.083661854,1.290023,0.42695612,0.993501,0.087858446,-0.07236459,0.015839556,-0.73629344,-0.676477,-0.11271578,0.6709343,-0.7328999,,-0.09128761,0.26400775,-0.102246255,0.08678173,-0.8621025,0.4992476,0.9958183,0.08942644,-0.018676262,-0.028545085,0.49878067,0.8662581,,-0.053194575,0.42940885,-0.34885433,-0.46688315,-0.33183256,-0.81969947,0.8832469,-0.22061108,-0.4137701,-0.04353239,-0.91717935,0.39608967,,1.2350194412459836,0.4770795460380933,0.21433507005000002,2.3088959677080974,-0.006558551988741141,-0.3776435531416681,-0.4144038957826665,,-1.2729380596584259,0.2039882661397662,0.17725858347,-2.207196345118103,-0.24266642358342222,0.7602363228326154,0.8283177593669302,,-0.06792385116448932,-0.039368082940297096,0.0911007994,-0.09583610933762131,,3.2063574e-05,-1.7285347e-06,-7.5101852e-06,1.0,-2.9832125e-05,-2.7321279e-05,2.9854476e-05,1.0,-4.5597553e-06,2.7321279e-05,4.5895576e-06,1.0,629,1.91,0,0,0.0,False,-0.2604738128088746,1.0015244677839454
1.9261688608676195,18:58:40.545334,18:57:21.012213,0,,0.113981396,0.040859893,0.030335486,-0.11233773,0.90940005,-0.40046442,0.71099323,0.3551058,0.60695004,0.69416744,-0.21654418,-0.6864693,,0.06674629,0.02065539,0.031770706,0.35837328,0.24224731,0.9016013,0.5415185,-0.84062177,0.010617375,0.7604776,0.48442882,-0.43243778,,0.083661854,1.290023,0.42695612,0.993501,0.087858446,-0.07236459,0.015839556,-0.73629344,-0.676477,-0.11271578,0.6709343,-0.7328999,,-0.09165648,0.2645754,-0.10146014,0.085232735,-0.8593702,0.50420064,0.9956876,0.09206683,-0.011395638,-0.036627084,0.5029976,0.8635114,,-0.0531888,0.42941782,-0.3488737,-0.4668827,-0.33176857,-0.8197257,0.8832469,-0.22058353,-0.41378477,-0.043537192,-0.9172091,0.39602017,,1.2349422139172412,0.48043893483838096,0.21506617761000002,2.3093153475950667,-0.01257055797842052,-0.385156333880391,-0.41603733644400925,,-1.2729380596584259,0.20399598887264042,0.17723654654,-2.207196345118103,-0.24266642358342222,0.760318001572756,0.8278277271685273,,-0.06792385116448932,-0.039368082940297096,0.0911007994,-0.09583610933762131,,3.2063574e-05,-1.7285347e-06,-7.5101852e-06,1.0,-2.9832125e-05,-2.7321279e-05,2.9854476e-05,1.0,-4.5597553e-06,2.7321279e-05,4.5895576e-06,1.0,641,1.947,0,0,0.0,False,-0.2602355019347904,1.0010899459769305
1.9575679569970816,18:58:40.584013,18:57:21.012213,0,,0.114751935,0.042200975,0.030130655,-0.111699075,0.9063473,-0.40750226,0.70038414,0.36270854,0.6147393,0.7049717,-0.21674238,-0.67530566,,0.06672731,0.02063721,0.03180933,0.3583712,0.24188694,0.9016988,0.5415113,-0.84063053,0.010286659,0.7604837,0.48459372,-0.43224227,,0.083661854,1.290023,0.42695612,0.993501,0.087858446,-0.07236459,0.015839556,-0.73629344,-0.676477,-0.11271578,0.6709343,-0.7328999,,-0.09231854,0.2654021,-0.10031455,0.08285683,-0.8558515,0.5105419,0.9952253,0.09758237,0.0020660427,-0.051588118,0.507933,0.8598504,,-0.053176623,0.42943665,-0.3489147,-0.46688175,-0.3314397,-0.81985927,0.8832469,-0.220427,-0.41386813,-0.043546796,-0.9173656,0.39565644,,1.2342162770270642,0.4855899976654887,0.21612006138000003,2.30994441742552,-0.024731206457544723,-0.39541478926612833,-0.41456723984880073,,-1.2729380596584259,0.20401143433838886,0.17718988010000003,-2.207196345118103,-0.24266642358342222,0.7607263952734588,0.8270110068378558,,-0.06792385116448932,-0.039368082940297096,0.0911007994,-0.09583610933762131,,3.2063574e-05,-1.7285347e-06,-7.5101852e-06,1.0,-2.9832125e-05,-2.7321279e-05,2.9854476e-05,1.0,-4.5597553e-06,2.7321279e-05,4.5895576e-06,1.0,674,2.049,0,0,0.0,False,-0.2602950796533112,1.0003174627644589
1.9962515549268574,18:58:40.685240,18:57:21.140061,0,,0.1163791,0.044034354,0.02970986,-0.11346988,0.90410787,-0.41196316,0.6861337,0.3711941,0.6256481,0.7185714,-0.21166967,-0.6624583,,0.066585094,0.020546794,0.031930864,0.3569839,0.24300212,0.9019493,0.54260963,-0.8399059,0.011526138,0.76035327,0.48529175,-0.43168813,,0.08368185,1.290016,0.42695054,0.9935011,0.087851994,-0.072370514,0.015830852,-0.7362942,-0.67647636,-0.11271578,0.6709343,-0.7328999,,-0.093798466,0.2664205,-0.09858664,0.08237372,-0.8536142,0.51435137,0.99404585,0.10731164,0.018896587,-0.071326286,0.5097323,0.85737133,,-0.053077135,0.42947984,-0.34908584,-0.46546727,-0.3326469,-0.8201745,0.8840296,-0.2195515,-0.41266063,-0.04280028,-0.9171386,0.39626375,,1.23042441518582,0.49407728109426147,0.21763542439000003,2.3097347274820357,-0.041127586429397574,-0.4067116203450076,-0.4165273686424121,,-1.2728994459940548,0.20401915707126309,0.1770472882,-2.2090835546094643,-0.24266642358342222,0.7603996803128965,0.8257042543087816,,-0.06792385116448932,-0.039368082940297096,0.0911007994,-0.09583610933762131,,5.2452087e-05,1.4305115e-06,-2.3841858e-07,1.0,-3.6254525e-05,-3.3199787e-05,3.6269426e-05,1.0,-5.543232e-06,3.3199787e-05,5.6028366e-06,1.0,682,2.074,0,0,0.0,False,-0.2602950796533112,0.9992552983473109
2.0975244098808616,18:58:40.705903,18:57:21.140061,0,,0.11687104,0.04430779,0.02964212,-0.112173155,0.9059397,-0.40827727,0.68432504,0.36834002,0.629305,0.72049713,-0.20880333,-0.66127527,,0.066583276,0.02054444,0.031939864,0.35697278,0.24307084,0.9019352,0.5426021,-0.8399098,0.01160109,0.760364,0.4852506,-0.43171564,,0.08368185,1.290016,0.42695054,0.9935011,0.087851994,-0.072370514,0.015830852,-0.7362942,-0.67647636,-0.11271578,0.6709343,-0.7328999,,-0.09426332,0.26656353,-0.0982954,0.08078068,-0.85589784,0.5107968,0.99399596,0.10712086,0.022296222,-0.07380028,0.5059289,0.8594123,,-0.053076845,0.4294852,-0.3490937,-0.46545818,-0.33270815,-0.82015485,0.88403374,-0.21959223,-0.41263014,-0.04281422,-0.9171066,0.39633623,,1.2288644231452266,0.49608519164155984,0.2178674603,2.3118316269168813,-0.043450406925410065,-0.4047358372420279,-0.4160373364440092,,-1.2729148914598032,0.20402687980413733,0.17703821417,-2.2090835546094643,-0.24266642358342222,0.760318001572756,0.8255409102426472,,-0.06792385116448932,-0.039368082940297096,0.0911007994,-0.09583610933762131,,5.2452087e-05,1.4305115e-06,-2.3841858e-07,1.0,-3.6254525e-05,-3.3199787e-05,3.6269426e-05,1.0,-5.543232e-06,3.3199787e-05,5.6028366e-06,1.0,690,2.099,0,0,0.0,False,-0.2608312791200009,0.9987242161387369
2.118176724994555,18:58:40.744685,18:57:21.140061,0,,0.11793758,0.04469849,0.02949883,-0.09872965,0.9084638,-0.40613535,0.68418646,0.35832983,0.63520753,0.7225933,-0.21515857,-0.6569366,,0.06657121,0.020528972,0.03196895,0.3571301,0.24259993,0.9019997,0.5424778,-0.83999634,0.011139572,0.7603787,0.48533645,-0.431593,,0.08368185,1.290016,0.42695054,0.9935011,0.087851994,-0.072370514,0.015830852,-0.7362942,-0.67647636,-0.11271578,0.6709343,-0.7328999,,-0.09528393,0.26672778,-0.0978034,0.06721132,-0.8583785,0.50859505,0.995001,0.0954013,0.0295227,-0.07386228,0.5040683,0.86049956,,-0.0530699,0.429498,-0.34912562,-0.46561795,-0.33225885,-0.8202463,0.88394547,-0.2195336,-0.4128503,-0.04289846,-0.91728354,0.3959175,,1.225126620434102,0.49999289447591744,0.21823042150000002,2.327348682734736,-0.0449534084228299,-0.4072674623478331,-0.41603733644400925,,-1.2729226141926775,0.20402687980413733,0.17700321434000002,-2.20887386466598,-0.24266642358342222,0.7607263952734588,0.8250508780442445,,-0.06792385116448932,-0.039368082940297096,0.0911007994,-0.09583610933762131,,5.2452087e-05,1.4305115e-06,-2.3841858e-07,1.0,-3.6254525e-05,-3.3199787e-05,3.6269426e-05,1.0,-5.543232e-06,3.3199787e-05,5.6028366e-06,1.0,702,2.135,0,0,0.0,False,-0.2611887454311268,0.9977103319223684
2.1569748709443957,18:58:40.775915,18:57:21.140061,0,,0.11869008,0.04498063,0.029398724,-0.09102238,0.90596765,-0.41344592,0.67777085,0.36053568,0.6408126,0.7296173,-0.2218934,-0.64685535,,0.06656638,0.020518929,0.03199041,0.35704967,0.24222758,0.90213156,0.5423951,-0.84005296,0.010887593,0.76047546,0.48542437,-0.43132365,,0.08368185,1.290016,0.42695054,0.9935011,0.087851994,-0.072370514,0.015830852,-0.7362942,-0.67647636,-0.11271578,0.6709343,-0.7328999,,-0.096003726,0.26684907,-0.0974526,0.05845523,-0.85508496,0.5151822,0.994882,0.092505194,0.040653083,-0.082418874,0.5101691,0.856116,,-0.05306876,0.42950782,-0.34914765,-0.4655556,-0.33190656,-0.82042426,0.8839718,-0.21946466,-0.41283062,-0.04303294,-0.91742754,0.39556906,,1.222199704674771,0.5025027826600404,0.21849745724000003,2.336575040248055,-0.05465459990617618,-0.4180612226775759,-0.41554730424560643,,-1.2729457823913002,0.20401915707126309,0.17697988112000002,-2.20887386466598,-0.24280306008318767,0.7610828493975769,0.824234157713573,,-0.06792385116448932,-0.039368082940297096,0.0911007994,-0.09583610933762131,,5.2452087e-05,1.4305115e-06,-2.3841858e-07,1.0,-3.6254525e-05,-3.3199787e-05,3.6269426e-05,1.0,-5.543232e-06,3.3199787e-05,5.6028366e-06,1.0,710,2.16,0,0,0.0,False,-0.2613079008681689,0.9968895685091173
2.1882037459872663,18:58:40.804399,18:57:21.140061,0,,0.11929084,0.045230307,0.029273823,-0.08293374,0.9028899,-0.4217961,0.66861784,0.3642649,0.6482756,0.73896676,-0.22825652,-0.63389826,,0.066562735,0.020513296,0.032001257,0.3569437,0.24237724,0.90213335,0.54259366,-0.8399236,0.010977358,0.76038367,0.48557347,-0.43131772,,0.08368185,1.290016,0.42695054,0.9935011,0.087851994,-0.072370514,0.015830852,-0.7362942,-0.67647636,-0.11271578,0.6709343,-0.7328999,,-0.09657235,0.2669333,-0.09712332,0.048917614,-0.8511577,0.52262574,0.9943247,0.090992875,0.05512414,-0.094474554,0.5169631,0.8507783,,-0.05306701,0.42951256,-0.34915936,-0.46543276,-0.33207607,-0.8204254,0.884046,-0.21928492,-0.4127672,-0.042836796,-0.9174092,0.39563292,,1.2195739754975345,0.5043021794197347,0.21877097443000001,2.3460110877048583,-0.06845488638248566,-0.429269667942892,-0.4163640245762778,,-1.2729612278570486,0.20401915707126309,0.17696691822000002,-2.2090835546094643,-0.24266642358342222,0.761053110234021,0.8230907492506332,,-0.06792385116448932,-0.039368082940297096,0.0911007994,-0.09583610933762131,,5.2452087e-05,1.4305115e-06,-2.3841858e-07,1.0,-3.6254525e-05,-3.3199787e-05,3.6269426e-05,1.0,-5.543232e-06,3.3199787e-05,5.6028366e-06,1.0,722,2.197,0,0,0.0,False,-0.26112916771260597,0.9967447279067789
2.216646713903174,18:58:40.832920,18:57:21.300105,0,,0.1197249,0.045395628,0.02907087,-0.07817021,0.90428215,-0.41971797,0.6656972,0.3607407,0.65323305,0.74211615,-0.22834182,-0.63017744,,0.066559695,0.020506471,0.032018542,0.35676122,0.24253128,0.90216404,0.54270786,-0.8398473,0.011164486,0.7603878,0.48562855,-0.43124852,,0.08368185,1.290016,0.42695054,0.9935011,0.087851994,-0.072370514,0.015830852,-0.7362942,-0.67647636,-0.11271578,0.6709343,-0.7328999,,-0.09697273,0.26690656,-0.09681363,0.043690264,-0.8527483,0.5204916,0.9942082,0.08831643,0.061239157,-0.09818955,0.5148015,0.85166794,,-0.05306692,0.4295213,-0.34917608,-0.4652514,-0.3322356,-0.82046366,0.8841445,-0.21921065,-0.41259575,-0.042775378,-0.9173692,0.39573234,,1.2176201240803557,0.5053756392892519,0.21902893614000002,2.3518824061224253,-0.0729638908747452,-0.42869666924625144,-0.4179974652376206,,-1.2729921187885456,0.20401915707126309,0.17694877016000002,-2.2092932445529483,-0.24266642358342222,0.7609714314938805,0.8229274051844988,,-0.06792385116448932,-0.039368082940297096,0.0911007994,-0.09583610933762131,,5.2452087e-05,1.4305115e-06,-2.3841858e-07,1.0,-3.6254525e-05,-3.3199787e-05,3.6269426e-05,1.0,-5.543232e-06,3.3199787e-05,5.6028366e-06,1.0,747,2.275,0,0,0.0,False,-0.2607717014014801,0.9963102060997637
2.2451176568865776,18:58:40.908655,18:57:21.300105,0,,0.12017333,0.045763776,0.028584495,-0.065634705,0.9120468,-0.40479964,0.6616287,0.3434524,0.6665492,0.74695325,-0.22407836,-0.62597895,,0.066534616,0.020470977,0.032084584,0.35680354,0.24212354,0.90225685,0.54278165,-0.8398054,0.010717869,0.7603152,0.4859043,-0.4310657,,0.08368185,1.290016,0.42695054,0.9935011,0.087851994,-0.072370514,0.015830852,-0.7362942,-0.67647636,-0.11271578,0.6709343,-0.7328999,,-0.097346336,0.2668358,-0.096158944,0.030504558,-0.86195123,0.5060727,0.99421257,0.07834418,0.073508896,-0.10300893,0.50090146,0.8593526,,-0.05305344,0.42954978,-0.34924856,-0.46528015,-0.33187702,-0.82059246,0.88413453,-0.21893305,-0.41276443,-0.042667784,-0.9175652,0.39528912,,1.2153341951495853,0.5062483081040393,0.21963948873000003,2.365721942392404,-0.0800689888625481,-0.41440834927941905,-0.4160373364440093,,-1.2730307324529166,0.20401143433838886,0.17686969647,-2.2092932445529483,-0.2425297870836568,0.7614317647711679,0.8217839967215588,,-0.06792385116448932,-0.039368082940297096,0.0911007994,-0.09583610933762131,,5.2452087e-05,1.4305115e-06,-2.3841858e-07,1.0,-3.6254525e-05,-3.3199787e-05,3.6269426e-05,1.0,-5.543232e-06,3.3199787e-05,5.6028366e-06,1.0,755,2.299,0,0,0.0,False,-0.2604738128088746,0.9956825634896309
2.3208916180301458,18:58:40.935461,18:57:21.300105,0,,0.12030545,0.04599969,0.028395727,-0.06006658,0.91471523,-0.39960992,0.6597051,0.33681783,0.6718206,0.74912006,-0.22327082,-0.6236739,,0.06651769,0.02044791,0.032128513,0.35697657,0.2422867,0.9021447,0.5430087,-0.83965975,0.010638028,0.7600718,0.48607486,-0.43130255,,0.08368185,1.290016,0.42695054,0.9935011,0.087851994,-0.072370514,0.015830852,-0.7362942,-0.67647636,-0.11271578,0.6709343,-0.7328999,,-0.09744399,0.26687762,-0.09584675,0.024638627,-0.8650902,0.50101084,0.9941414,0.07396187,0.07881947,-0.10524166,0.49613363,0.8618443,,-0.053044226,0.4295691,-0.34929645,-0.4654077,-0.332063,-0.8204449,0.88408417,-0.21872804,-0.4129809,-0.042318624,-0.91754687,0.39536935,,1.2148553857113833,0.5066885038778701,0.21994152430000002,2.3715932608099703,-0.08293835535762235,-0.4094548536172963,-0.4157106483117407,,-1.2730693461172877,0.20401915707126309,0.17681654858,-2.2092932445529483,-0.2421198775843605,0.7613425472805004,0.8216206526554246,,-0.06792385116448932,-0.039368082940297096,0.0911007994,-0.09583610933762131,,5.2452087e-05,1.4305115e-06,-2.3841858e-07,1.0,-3.6254525e-05,-3.3199787e-05,3.6269426e-05,1.0,-5.543232e-06,3.3199787e-05,5.6028366e-06,1.0,767,2.336,0,0,0.0,False,-0.26041423509035333,0.9953446020841747
2.3477190260309726,18:58:40.968730,18:57:21.455957,0,,0.120575614,0.046407767,0.028156951,-0.050507598,0.91821635,-0.39284575,0.65710825,0.32676843,0.6792872,0.752102,-0.22383311,-0.619872,,0.06650047,0.020418912,0.032190382,0.35722047,0.24197459,0.90213186,0.5430232,-0.8396559,0.010194093,0.7599469,0.486237,-0.43133998,,0.08368185,1.290016,0.42695054,0.9935011,0.087851994,-0.072370514,0.015830852,-0.7362942,-0.67647636,-0.11271578,0.6709343,-0.7328999,,-0.0976631,0.2670085,-0.09536572,0.014686182,-0.86912775,0.49436954,0.9940358,0.06612425,0.08672022,-0.10806076,0.49014744,0.86491525,,-0.05303771,0.42959785,-0.3493604,-0.46562797,-0.3317811,-0.820434,0.88397396,-0.21857059,-0.41330004,-0.042197593,-0.91768634,0.39505842,,1.2141217260883321,0.5078314683432553,0.22040041096000001,2.3816583780972276,-0.0864909043515238,-0.4036992322162696,-0.415873992377875,,-1.27314657344603,0.20402687980413733,0.17674654892000002,-2.2090835546094643,-0.2418466045848296,0.761609783913951,0.8209672763908875,,-0.06792385116448932,-0.039368082940297096,0.0911007994,-0.09583610933762131,,5.2452087e-05,1.4305115e-06,-2.3841858e-07,1.0,-3.6254525e-05,-3.3199787e-05,3.6269426e-05,1.0,-5.543232e-06,3.3199787e-05,5.6028366e-06,1.0,779,2.373,0,0,0.0,False,-0.2608312791200009,0.994765239674821
2.381004953989759,18:58:40.999386,18:57:21.455957,0,,0.12085268,0.046749808,0.028010234,-0.043636084,0.92004573,-0.38937333,0.6554751,0.32049578,0.6838383,0.7539549,-0.22538464,-0.6170525,,0.066490695,0.020397425,0.03222567,0.35720876,0.24262969,0.90196055,0.5440091,-0.83901674,0.010250509,0.75924695,0.48701322,-0.43169683,,0.08368185,1.290016,0.42695054,0.9935011,0.087851994,-0.072370514,0.015830852,-0.7362942,-0.67647636,-0.11271578,0.6709343,-0.7328999,,-0.097902395,0.26715332,-0.09499552,0.0075755003,-0.8711735,0.4909168,0.9939339,0.06042533,0.09189215,-0.10971782,0.48724273,0.86634666,,-0.05303413,0.42961103,-0.3494006,-0.4654864,-0.3325416,-0.82020634,0.88410467,-0.21764393,-0.41350943,-0.041003853,-0.9176313,0.3953119,,1.213465293794023,0.5091057192675024,0.22074652039000003,2.388997526119186,-0.08840381534823998,-0.4015676303835357,-0.41669071270854646,,-1.2732315235076466,0.20402687980413733,0.17670247506000003,-2.2097126244399177,-0.24075351258670605,0.7614535493456446,0.8208039323247532,,-0.06792385116448932,-0.039368082940297096,0.0911007994,-0.09583610933762131,,5.2452087e-05,1.4305115e-06,-2.3841858e-07,1.0,-3.6254525e-05,-3.3199787e-05,3.6269426e-05,1.0,-5.543232e-06,3.3199787e-05,5.6028366e-06,1.0,808,2.463,0,0,0.0,False,-0.260652545964438,0.9953446020841747
2.4115669298917055,18:58:41.094542,18:57:21.455957,0,,0.121594466,0.04783546,0.027551755,-0.0326186,0.92399657,-0.3810071,0.6498295,0.30924365,0.69432706,0.7593797,-0.22494173,-0.6105274,,0.06649226,0.020355463,0.032327116,0.3570229,0.24242684,0.90208864,0.5445867,-0.83864677,0.009844422,0.7589202,0.48775083,-0.4314385,,0.08368185,1.290016,0.42695054,0.9935011,0.087851994,-0.072370514,0.015830852,-0.7362942,-0.67647636,-0.11271578,0.6709343,-0.7328999,,-0.098526016,0.26762104,-0.09384165,-0.0042590206,-0.8758329,0.48259568,0.99321586,0.052377272,0.10382163,-0.11620744,0.47976384,0.869668,,-0.05305278,0.42965865,-0.3494978,-0.46524027,-0.332454,-0.8203815,0.8842629,-0.21682909,-0.41359907,-0.040379927,-0.9178559,0.39485437,,1.2119361926849266,0.5127508491841363,0.22184188544000003,2.4011595428412886,-0.09441582133791936,-0.39650188514061213,-0.41669071270854635,,-1.2735327100897411,0.20400371160551464,0.17660136444000002,-2.2101320043268866,-0.24007033008787887,0.7618766047088492,0.820150556060216,,-0.06792385116448932,-0.039368082940297096,0.0911007994,-0.09583610933762131,,5.2452087e-05,1.4305115e-06,-2.3841858e-07,1.0,-3.6254525e-05,-3.3199787e-05,3.6269426e-05,1.0,-5.543232e-06,3.3199787e-05,5.6028366e-06,1.0,816,2.488,0,0,0.0,False,-0.2599376133421849,0.9950066406787184
2.5068312869407237,18:58:41.125572,18:57:21.590168,0,,0.12180035,0.04840567,0.027199492,-0.029341752,0.92520815,-0.37832382,0.64712936,0.30604413,0.69825536,0.7618152,-0.22433649,-0.6077094,,0.06650716,0.020350933,0.032349646,0.35693476,0.24226534,0.9021669,0.54455787,-0.83866644,0.00976333,0.75898236,0.4877972,-0.43127662,,0.08368185,1.290016,0.42695054,0.9935011,0.087851994,-0.072370514,0.015830852,-0.7362942,-0.67647636,-0.11271578,0.6709343,-0.7328999,,-0.09865989,0.26779535,-0.09317585,-0.00792454,-0.87729377,0.4798884,0.99281144,0.05041223,0.108554214,-0.119426176,0.47729895,0.8705878,,-0.053071186,0.42967078,-0.349514,-0.46516383,-0.33230245,-0.82048625,0.8842999,-0.2167898,-0.41354075,-0.040452447,-0.91792005,0.39469776,,1.2116118379042091,0.5138320317865277,0.22249651189000003,2.404724271880525,-0.09742182433275903,-0.3947041211804153,-0.4163640245762778,,-1.2736717192814773,0.2039882661397662,0.17658710525000001,-2.2101320043268866,-0.24007033008787887,0.7619582834489897,0.8203139001263504,,-0.06792385116448932,-0.039368082940297096,0.0911007994,-0.09583610933762131,,5.2452087e-05,1.4305115e-06,-2.3841858e-07,1.0,-3.6254525e-05,-3.3199787e-05,3.6269426e-05,1.0,-5.543232e-06,3.3199787e-05,5.6028366e-06,1.0,824,2.512,0,0,0.0,False,-0.2607717014014801,0.9945238386709241
2.5375091459136456,18:58:41.147265,18:57:21.590168,0,,0.121852495,0.0486959,0.027001157,-0.027520867,0.92565626,-0.37736344,0.64501166,0.3048463,0.7007345,0.7636769,-0.22411904,-0.6054487,,0.06652579,0.020350218,0.032367706,0.35690182,0.24230671,0.9021688,0.5446015,-0.83863777,0.009796649,0.75896645,0.48782605,-0.4312719,,0.08368185,1.290016,0.42695054,0.9935011,0.087851994,-0.072370514,0.015830852,-0.7362942,-0.67647636,-0.11271578,0.6709343,-0.7328999,,-0.09867382,0.2678724,-0.0928292,-0.0100506265,-0.87783426,0.4788591,0.99247897,0.049670454,0.111885644,-0.1220022,0.4763821,0.8707328,,-0.05309249,0.42968166,-0.34952405,-0.46512803,-0.33234742,-0.82048833,0.88432044,-0.21675396,-0.41351548,-0.040413305,-0.91791224,0.39471996,,1.211573224239838,0.5142181684302389,0.22301373160000001,2.40682117131537,-0.10111100982642593,-0.3939011637644071,-0.41652736864241213,,-1.2738261739389618,0.20398054340689198,0.17657932751000002,-2.2101320043268866,-0.23993369358811342,0.7618468655452935,0.8203139001263504,,-0.06792385116448932,-0.039368082940297096,0.0911007994,-0.09583610933762131,,5.2452087e-05,1.4305115e-06,-2.3841858e-07,1.0,-3.6254525e-05,-3.3199787e-05,3.6269426e-05,1.0,-5.543232e-06,3.3199787e-05,5.6028366e-06,1.0,836,2.549,0,0,0.0,False,-0.26017592421626956,0.9945721188717032
2.559556650929153,18:58:41.186770,18:57:21.590168,0,,0.12187201,0.049211733,0.026538387,-0.02567136,0.92589676,-0.37690338,0.64225906,0.30419606,0.7035396,0.76605743,-0.22400887,-0.60247487,,0.066540554,0.020349264,0.032384038,0.35682267,0.24223162,0.9022203,0.5445731,-0.8386563,0.009790391,0.75902414,0.4878314,-0.43116435,,0.08368185,1.290016,0.42695054,0.9935011,0.087851994,-0.072370514,0.015830852,-0.7362942,-0.67647636,-0.11271578,0.6709343,-0.7328999,,-0.09861482,0.26793614,-0.09214139,-0.012296477,-0.8781242,0.47827476,0.99203235,0.049262535,0.11595243,-0.12538166,0.47588986,0.87052184,,-0.053109705,0.42969155,-0.34953362,-0.4650597,-0.33227456,-0.8205566,0.8843533,-0.21675393,-0.4134453,-0.040481504,-0.91793865,0.39465162,,1.2115886697055864,0.5142336138959874,0.22353872905000002,2.408498690863247,-0.10357046682220386,-0.3936108950408233,-0.4170174008408149,,-1.2739497376649493,0.20397282067401776,0.17657154977000003,-2.2101320043268866,-0.23993369358811342,0.7618468655452935,0.8203139001263504,,-0.06792385116448932,-0.039368082940297096,0.0911007994,-0.09583610933762131,,5.2452087e-05,1.4305115e-06,-2.3841858e-07,1.0,-3.6254525e-05,-3.3199787e-05,3.6269426e-05,1.0,-5.543232e-06,3.3199787e-05,5.6028366e-06,1.0,848,2.586,0,0,0.0,False,-0.260652545964438,0.99486180007638
2.599037857959047,18:58:41.219941,18:57:21.590168,0,,0.12185114,0.049722992,0.026010439,-0.024420049,0.92541516,-0.3781671,0.63995993,0.30508414,0.7052481,0.7680199,-0.22478966,-0.599679,,0.06654775,0.0203484,0.032395184,0.35677752,0.24211797,0.90226865,0.54455507,-0.8386688,0.009721905,0.7590583,0.48786634,-0.43106467,,0.08368185,1.290016,0.42695054,0.9935011,0.087851994,-0.072370514,0.015830852,-0.7362942,-0.67647636,-0.11271578,0.6709343,-0.7328999,,-0.09850942,0.26795325,-0.091413945,-0.013878284,-0.87751263,0.47935262,0.9916487,0.049395245,0.11913429,-0.12821959,0.47700277,0.8694987,,-0.053118628,0.42969853,-0.34954062,-0.46502095,-0.33216822,-0.82062155,0.88437176,-0.21672365,-0.41342163,-0.040522568,-0.91798425,0.39454126,,1.2116041151713348,0.514048268307006,0.22427631806000004,2.409756830524154,-0.10671310631680898,-0.3948871840424121,-0.4168540567746806,,-1.2740192422608174,0.20397282067401776,0.17656506832000002,-2.2101320043268866,-0.23993369358811342,0.761928544285434,0.820150556060216,,NaN,NaN,NaN,NaN,,5.2452087e-05,1.4305115e-06,-2.3841858e-07,1.0,-3.6254525e-05,-3.3199787e-05,3.6269426e-05,1.0,-5.543232e-06,3.3199787e-05,5.6028366e-06,1.0,873,2.664,0,0,0.0,False,-0.26041423509035333,0.9939444762615703
2.632186433998868,18:58:41.296509,18:57:21.736969,0,,0.12183434,0.050587736,0.02511336,-0.022744648,0.9241511,-0.3813495,0.63797027,0.30710295,0.706174,0.76972485,-0.22722806,-0.5965661,,0.0665458,0.020347744,0.03239441,0.35664535,0.24256751,0.90220016,0.54503405,-0.83835495,0.009946644,0.75877655,0.4881824,-0.4312029,,0.08368185,1.290016,0.42695054,0.9935011,0.087851994,-0.072370514,0.015830852,-0.7362942,-0.67647636,-0.11271578,0.6709343,-0.7328999,,-0.0983491,0.2679789,-0.09017847,-0.015836215,-0.87588733,0.4822557,0.99130714,0.049250435,0.12200246,-0.13061172,0.47999558,0.86749345,,-0.053116586,0.4296977,-0.34954086,-0.46483678,-0.33265737,-0.8205278,0.8844926,-0.21633114,-0.41336873,-0.039995562,-0.9178997,0.39479166,,1.2116272833699575,0.5138629227180247,0.22552464533000002,2.41143435007203,-0.10944583631211781,-0.39829465903818245,-0.41603733644400914,,-1.2740269649936915,0.20398054340689198,0.17656377203,-2.210551384213856,-0.23952378408881708,0.7617576480546258,0.8198238679279475,,-0.06792385116448932,-0.039368082940297096,0.0911007994,-0.09583610933762131,,5.2452087e-05,1.4305115e-06,-2.3841858e-07,1.0,-3.6254525e-05,-3.3199787e-05,3.6269426e-05,1.0,-5.543232e-06,3.3199787e-05,5.6028366e-06,1.0,881,2.688,0,0,0.0,False,-0.2603546573718325,0.9945238386709241
2.7087929318659008,18:58:41.333151,18:57:21.736969,0,,0.12180415,0.05096347,0.024770752,-0.022655979,0.9234166,-0.38312978,0.6362423,0.3089224,0.706939,0.7711564,-0.22774705,-0.59451574,,0.0665506,0.020347506,0.032396615,0.35662633,0.24254581,0.90221345,0.54502964,-0.83835787,0.009940326,0.75878865,0.4881881,-0.43117505,,0.08368185,1.290016,0.42695054,0.9935011,0.087851994,-0.072370514,0.015830852,-0.7362942,-0.67647636,-0.11271578,0.6709343,-0.7328999,,-0.098261476,0.2680227,-0.08967861,-0.016174866,-0.87499386,0.48386374,0.9910093,0.050250255,0.123997934,-0.13281171,0.48151913,0.86631423,,-0.053121682,0.42969865,-0.3495419,-0.46482006,-0.33263692,-0.82054555,0.88450074,-0.21632645,-0.41335368,-0.040008996,-0.91790825,0.39477047,,1.2118049062260647,0.5138011408550308,0.22603408730000002,2.41143435007203,-0.11163202030836485,-0.4000241584050839,-0.4148939279810693,,-1.2740578559251885,0.20397282067401776,0.17656377203,-2.210551384213856,-0.23952378408881708,0.7617576480546258,0.8198238679279475,,-0.06792385116448932,-0.039368082940297096,0.0911007994,-0.09583610933762131,,5.2452087e-05,1.4305115e-06,-2.3841858e-07,1.0,-3.6254525e-05,-3.3199787e-05,3.6269426e-05,1.0,-5.543232e-06,3.3199787e-05,5.6028366e-06,1.0,893,2.725,0,0,0.0,False,-0.26005676877922745,0.994330717867806
2.7453881988767534,18:58:41.361863,18:57:21.736969,0,,0.12173169,0.051360525,0.024440154,-0.022377757,0.92197776,-0.38659564,0.6360456,0.3114704,0.70599735,0.77132684,-0.23009388,-0.59339,,0.066556595,0.02034998,0.032400966,0.35659522,0.24244937,0.9022518,0.545014,-0.8383687,0.009878159,0.7588146,0.48821735,-0.4310965,,0.08368185,1.290016,0.42695054,0.9935011,0.087851994,-0.072370514,0.015830852,-0.7362942,-0.67647636,-0.11271578,0.6709343,-0.7328999,,-0.098131776,0.2680912,-0.08917791,-0.016480416,-0.87317175,0.48713392,0.9909741,0.05055998,0.124153145,-0.13303651,0.4847832,0.86445737,,-0.053128254,0.42970288,-0.3495421,-0.46479377,-0.33254665,-0.82059705,0.88451314,-0.21630125,-0.41334042,-0.04004118,-0.9179469,0.39467734,,1.2122991611300151,0.5137625271906597,0.22654741814,2.41143435007203,-0.11163202030836485,-0.40345466549098746,-0.4155473042456064,,-1.2741041923224339,0.20398054340689198,0.17656377203,-2.210551384213856,-0.23952378408881708,0.7618393267947664,0.8196605238618133,,-0.06792385116448932,-0.039368082940297096,0.0911007994,-0.09583610933762131,,5.2452087e-05,1.4305115e-06,-2.3841858e-07,1.0,-3.6254525e-05,-3.3199787e-05,3.6269426e-05,1.0,-5.543232e-06,3.3199787e-05,5.6028366e-06,1.0,901,2.75,0,0,0.0,False,-0.2599376133421849,0.9940893168639089
2.7741519059054554,18:58:41.388080,18:57:21.736969,0,,0.12167069,0.051625274,0.024238363,-0.022149906,0.9214991,-0.3877484,0.6355656,0.31236258,0.7060354,0.7717289,-0.23080102,-0.59259206,,0.066571265,0.020352483,0.03240913,0.35659134,0.24252126,0.90223396,0.5450661,-0.83833444,0.009917706,0.7587789,0.48824057,-0.43113285,,0.08368185,1.290016,0.42695054,0.9935011,0.087851994,-0.072370514,0.015830852,-0.7362942,-0.67647636,-0.11271578,0.6709343,-0.7328999,,-0.09803457,0.26814985,-0.08885908,-0.016776728,-0.8725702,0.4882005,0.99088967,0.050745673,0.12475008,-0.13362727,0.4858457,0.8637695,,-0.053144015,0.429709,-0.34954384,-0.4647833,-0.33262074,-0.8205729,0.8845214,-0.21626928,-0.41333944,-0.03997945,-0.91792756,0.3947285,,1.212708465972349,0.5137316362591628,0.2268766758,2.41143435007203,-0.11204192980766116,-0.40442727162214714,-0.415873992377875,,-1.274212310582673,0.20398054340689198,0.17656377203,-2.210551384213856,-0.23938714758905166,0.76172790889107,0.8196605238618133,,-0.06792385116448932,-0.039368082940297096,0.0911007994,-0.09583610933762131,,5.2452087e-05,1.4305115e-06,-2.3841858e-07,1.0,-3.6254525e-05,-3.3199787e-05,3.6269426e-05,1.0,-5.543232e-06,3.3199787e-05,5.6028366e-06,1.0,913,2.787,0,0,0.0,False,-0.26011634649774784,0.9929788722459814
2.800370624056086,18:58:41.426624,18:57:21.736969,0,,0.12148619,0.052195422,0.023894742,-0.020186704,0.9208813,-0.38932016,0.63396245,0.31289613,0.7072394,0.77310014,-0.23253761,-0.5901206,,0.06658471,0.020354003,0.03241664,0.35653225,0.24216917,0.9023519,0.5450456,-0.838351,0.009637535,0.75882137,0.48838687,-0.43089235,,0.08368185,1.290016,0.42695054,0.9935011,0.087851994,-0.072370514,0.015830852,-0.7362942,-0.67647636,-0.11271578,0.6709343,-0.7328999,,-0.097781666,0.2683392,-0.08824479,-0.018963028,-0.8717488,0.48958597,0.9905983,0.049972437,0.12734874,-0.13548191,0.48739797,0.8626053,,-0.053158447,0.42971408,-0.3495459,-0.4647322,-0.3322972,-0.82073295,0.884546,-0.21613264,-0.41335827,-0.040029377,-0.91807693,0.39437598,,1.2139981623623444,0.5137084680605402,0.22752093193000003,2.412692489732937,-0.11340829480531558,-0.4054367398288376,-0.4158739923778749,,-1.2743049833771636,0.20397282067401776,0.17656377203,-2.210551384213856,-0.23938714758905166,0.7620546238516323,0.8193338357295448,,-0.06792385116448932,-0.039368082940297096,0.0911007994,-0.09583610933762131,,5.2452087e-05,1.4305115e-06,-2.3841858e-07,1.0,-3.6254525e-05,-3.3199787e-05,3.6269426e-05,1.0,-5.543232e-06,3.3199787e-05,5.6028366e-06,1.0,934,2.852,0,0,0.0,False,-0.26017592421626956,0.9922546692342893
2.8389148109126836,18:58:41.487917,18:57:21.935436,0,,0.1210654,0.053278856,0.023437425,-0.01682372,0.9198489,-0.39191186,0.6287024,0.3145157,0.7112055,0.7774638,-0.23443085,-0.58360267,,0.066592194,0.02035284,0.032428622,0.35660875,0.2418766,0.9024001,0.54518014,-0.8382679,0.009243578,0.7586888,0.48867428,-0.43079996,,0.08368185,1.290016,0.42695054,0.9935011,0.087851994,-0.072370514,0.015830852,-0.7362942,-0.67647636,-0.11271578,0.6709343,-0.7328999,,-0.0972511,0.26883346,-0.08722782,-0.023065915,-0.8704332,0.4917459,0.98962295,0.049899437,0.13474579,-0.14182505,0.48975104,0.8602497,,-0.0531678,0.42972142,-0.34955367,-0.46478397,-0.3320534,-0.8208023,0.8845277,-0.21583198,-0.41355455,-0.03983319,-0.91823584,0.39402565,,1.2170872555120342,0.5138551999851504,0.22860851924000003,2.4143700092808134,-0.11832720879687143,-0.40657145592462185,-0.41538396017947216,,-1.27438993343878,0.20398054340689198,0.17655599429000002,-2.210551384213856,-0.23911387458952077,0.7624035392252233,0.8172103628697991,,-0.06792385116448932,-0.039368082940297096,0.0911007994,-0.09583610933762131,,5.2452087e-05,1.4305115e-06,-2.3841858e-07,1.0,-3.6254525e-05,-3.3199787e-05,3.6269426e-05,1.0,-5.543232e-06,3.3199787e-05,5.6028366e-06,1.0,942,2.877,0,0,0.0,False,-0.259580147031059,0.9897440987937576
2.900205339072272,18:58:41.513788,18:57:21.935436,0,,0.12074863,0.05401898,0.023168817,-0.011790052,0.9186704,-0.39484888,0.62486506,0.31504813,0.7143447,0.7806435,-0.23830521,-0.5777597,,0.066595346,0.020349056,0.032438636,0.35670632,0.24167162,0.90241647,0.5453262,-0.8381766,0.008911848,0.758538,0.48893237,-0.4307727,,0.08368185,1.290016,0.42695054,0.9935011,0.087851994,-0.072370514,0.015830852,-0.7362942,-0.67647636,-0.11271578,0.6709343,-0.7328999,,-0.09686397,0.26920158,-0.08656837,-0.028620914,-0.86883944,0.494266,0.98884815,0.0476869,0.14108597,-0.14615107,0.49279204,0.85778546,,-0.0531726,0.42972606,-0.34956264,-0.4648534,-0.33189118,-0.82082856,0.88450104,-0.2155572,-0.41375482,-0.039613947,-0.91835904,0.3937606,,1.2194040753743016,0.5139555955125154,0.22932147874000003,2.4181444282635347,-0.12187975779077288,-0.40882035105737036,-0.4155473042456064,,-1.2744439925688997,0.20398054340689198,0.17654692026000002,-2.210551384213856,-0.2388406015899899,0.7626707758586738,0.8152502340761878,,-0.06792385116448932,-0.039368082940297096,0.0911007994,-0.09583610933762131,,5.2452087e-05,1.4305115e-06,-2.3841858e-07,1.0,-3.6254525e-05,-3.3199787e-05,3.6269426e-05,1.0,-5.543232e-06,3.3199787e-05,5.6028366e-06,1.0,954,2.914,0,0,0.0,False,-0.2594014138754961,0.988006011565697
2.926078764954582,18:58:41.550095,18:57:21.935436,0,,0.120529935,0.054538243,0.023005411,-0.009627318,0.9183122,-0.39573967,0.6218138,0.31543273,0.7168331,0.7831058,-0.23917529,-0.57405615,,0.06659211,0.020344883,0.03244573,0.35660502,0.24167752,0.9024549,0.5455264,-0.8380468,0.008864313,0.7584417,0.48915184,-0.4306931,,0.08368185,1.290016,0.42695054,0.9935011,0.087851994,-0.072370514,0.015830852,-0.7362942,-0.67647636,-0.11271578,0.6709343,-0.7328999,,-0.0965984,0.26947674,-0.08612346,-0.031204402,-0.8683724,0.49492997,0.98823047,0.047386676,0.1454477,-0.14975585,0.4936435,0.85667336,,-0.053170614,0.4297289,-0.34957075,-0.46473444,-0.33193016,-0.8208802,0.8845725,-0.21530904,-0.4137312,-0.03941307,-0.91840315,0.39367783,,1.2210490174765114,0.5140868819713772,0.22980499491000003,2.419402567924442,-0.12474912428584713,-0.4090126160241029,-0.4157106483117407,,-1.274451715301774,0.20398054340689198,0.17653784623000002,-2.2107610741573405,-0.23870396509022446,0.762804394175399,0.8147602018777849,,-0.06792385116448932,-0.039368082940297096,0.0911007994,-0.09583610933762131,,5.2452087e-05,1.4305115e-06,-2.3841858e-07,1.0,-3.6254525e-05,-3.3199787e-05,3.6269426e-05,1.0,-5.543232e-06,3.3199787e-05,5.6028366e-06,1.0,962,2.938,0,0,0.0,False,-0.2594609915940169,0.9876197699594613
2.9623709169682115,18:58:41.579110,18:57:21.935436,0,,0.120355375,0.055090778,0.022753522,-0.006361522,0.9180236,-0.39647472,0.61982137,0.314753,0.7188546,0.78471696,-0.24117057,-0.57101315,,0.066587344,0.020337313,0.032456517,0.35650474,0.24182689,0.90245456,0.5457301,-0.83791333,0.008947372,0.7583422,0.4893068,-0.4306922,,0.08368185,1.290016,0.42695054,0.9935011,0.087851994,-0.072370514,0.015830852,-0.7362942,-0.67647636,-0.11271578,0.6709343,-0.7328999,,-0.09636569,0.26971522,-0.08558662,-0.03473231,-0.8679263,0.49547717,0.9877858,0.04553986,0.14901458,-0.15189764,0.49460092,0.8557435,,-0.05316779,0.42973247,-0.34958404,-0.46461588,-0.33210024,-0.8208785,0.8846439,-0.21512218,-0.41367573,-0.039207377,-0.9183855,0.39373964,,1.2224313866609977,0.5142490593617359,0.23037406622000003,2.421918847246256,-0.12638876228303242,-0.40939085472269765,-0.4145672398488009,,-1.2744594380346481,0.20397282067401776,0.17652358704,-2.2109707641008245,-0.23856732859045904,0.7627746550118433,0.814270169679382,,-0.06792385116448932,-0.039368082940297096,0.0911007994,-0.09583610933762131,,5.2452087e-05,1.4305115e-06,-2.3841858e-07,1.0,-3.6254525e-05,-3.3199787e-05,3.6269426e-05,1.0,-5.543232e-06,3.3199787e-05,5.6028366e-06,1.0,995,3.041,0,0,0.0,False,-0.2588652144088064,0.9864610451407545
2.9913896590005606,18:58:41.668847,18:57:22.088922,0,,0.12010456,0.056600623,0.02190794,-0.00056936964,0.9162381,-0.40063363,0.6081855,0.31833822,0.7271665,0.7937945,-0.24324566,-0.55742425,,0.06659265,0.0202955,0.03257686,0.35417828,0.2432755,0.9029811,0.54759216,-0.83667785,0.010629207,0.75809,0.49070075,-0.42954883,,0.08368185,1.290016,0.42695054,0.9935011,0.087851994,-0.072370514,0.015830852,-0.7362942,-0.67647636,-0.11271578,0.6709343,-0.7328999,,-0.09593855,0.2702547,-0.08397912,-0.042114686,-0.86572367,0.4987473,0.9852763,0.0468033,0.16443864,-0.16570145,0.49832916,0.8510059,,-0.053193152,0.4297938,-0.34969288,-0.4622472,-0.33373302,-0.8215533,0.8859399,-0.2134302,-0.4117743,-0.037921604,-0.91818833,0.3943249,,1.2246632564616484,0.5147201460670636,0.23205276177000003,2.4265320260029157,-0.1395058662605147,-0.41347858793328296,-0.4153839601794721,,-1.2748455746783594,0.20394192974252084,0.17640951352,-2.213906423309608,-0.2381574190911627,0.7625220800408945,0.8121466968196365,,-0.06792385116448932,-0.039368082940297096,0.0911007994,-0.09583610933762131,,5.2452087e-05,1.4305115e-06,-2.3841858e-07,1.0,-3.6254525e-05,-3.3199787e-05,3.6269426e-05,1.0,-5.543232e-06,3.3199787e-05,5.6028366e-06,1.0,1007,3.078,0,0,0.0,False,-0.259282258438454,0.985785122329842
