AlexandreBanks6/ExpertPlaybackApp/resources/Motions/P_09/PC1/Data_PC1_9.csv
Task Time,PC1 Time,PC2 Time,Gaze Calib,s_T_psm1,Tx,Ty,Tz,R00,R01,R02,R10,R11,R12,R20,R21,R22,s_T_psm3,Tx,Ty,Tz,R00,R01,R02,R10,R11,R12,R20,R21,R22,cart_T_ecm,Tx,Ty,Tz,R00,R01,R02,R10,R11,R12,R20,R21,R22,ecm_T_psm1,Tx,Ty,Tz,R00,R01,R02,R10,R11,R12,R20,R21,R22,ecm_T_psm3,Tx,Ty,Tz,R00,R01,R02,R10,R11,R12,R20,R21,R22,psm1_joints,q1,q2,q3,q4,q5,q6,jaw,psm3_joints,q1,q2,q3,q4,q5,q6,jaw,ecm_joints,q1,q2,q3,q4,ecmi_T_ecm,Tx,Ty,Tz,R00,R01,R02,R10,R11,R12,R20,R21,R22,Sample #,Task Duration (s),Collisions (binary),Collisions (increments),Cumulative Collision Time (s),Clutch Press,MTMR Angle,MTML Angle
""
lci_T_si,,,,,-0.050271697,0.02801373,0.20952441,0.9876041,-0.040957443,0.15152769,0.07601939,-0.7197842,-0.690023,0.13732882,0.6929886,-0.7077483
rci_T_si,,,,,-0.05940767,0.031849217,0.21847901,0.982422,-0.06086812,0.17647123,0.08398677,-0.7001403,-0.7090485,0.16671307,0.7114061,-0.6827211
ecm_T_lc,,,,,-4.4061628e-05,-0.00034663224,-0.01840835,-0.99912,0.030754527,0.028518902,-0.031987965,-0.99852574,-0.043852776,0.027128186,-0.04472645,0.9986309
ecm_T_rc,,,,,-0.0043358393,0.01870579,-0.007592615,-0.99555075,-0.052743673,-0.078081585,0.04863213,-0.9973746,0.053654674,-0.08070653,0.04961868,0.9955021
cart_T_ecmi,,,,,0.08371291,1.2899014,0.4270729,0.99237305,0.09959992,-0.072632946,0.024148555,-0.7348722,-0.67777556,-0.12088232,0.67085224,-0.7316726
ecmac_T_ecmrep_psm1,,,,,0.023195708,-0.2631036,-0.30022871,0.99664557,0.07921609,0.02055357,-0.078295335,0.99603295,-0.04228661,-0.023821812,0.040535513,0.9988941
ecmac_T_ecmrep_psm3,,,,,0.022281613,-0.4507852,-0.5326207,0.99995744,0.002629678,0.008843231,-0.0032003638,0.99787027,0.06515156,-0.008653069,-0.06517708,0.9978362
""
0,19:59:55.521692,19:58:36.063876,0,,0.13054785,0.0024551898,0.028207302,-0.7557045,-0.4276013,-0.49605215,-0.42562938,-0.2549938,0.86822677,-0.49774504,0.86725736,0.010700196,,0.07391682,0.00539127,0.07133877,0.7326882,-0.11921252,0.6700421,-0.43360177,0.677077,0.594606,-0.52455455,-0.7261923,0.4443955,,0.08369647,1.2898974,0.42707533,0.9923721,0.099630184,-0.07260503,0.02418943,-0.7348681,-0.67777854,-0.12088232,0.67085224,-0.7316726,,-0.12199825,0.26155213,-0.09612126,0.77506423,0.29567194,0.5584385,-0.62965536,0.43552622,0.6433126,-0.053005118,-0.8502323,0.52373224,,-0.08141656,0.4719517,-0.3549308,-0.6386503,0.27636355,-0.7181567,-0.76262367,-0.10285878,0.6386119,0.102620326,0.95553297,0.27645218,,1.1154715363529881,0.5624620806955195,0.21720375982,0.19291474800576242,-0.04235731492728654,1.0043929105749267,-0.42208106689097746,,-1.5365767145187021,0.34716001089501436,0.16835307117,-0.11197442982073601,0.45937191221141077,-1.0317741353983325,0.776211002270095,,-0.07327110366028695,-0.03740458753180348,0.09109008376,-0.10826536583874626,,-1.6696751e-05,2.9802322e-06,2.1457672e-06,1.0,3.0130148e-05,2.7626753e-05,-3.0130148e-05,1.0,4.976988e-06,-2.7634203e-05,-4.976988e-06,1.0,37,0.11,0,0,0.0,False,-0.25922268071993226,0.950202614355381
0.1287982719950378,19:59:55.554333,19:58:36.063876,0,,0.13063577,0.0026641637,0.028705567,-0.7421089,-0.44695115,-0.49950883,-0.42584386,-0.26110888,0.8663019,-0.5176208,0.8556032,0.0034397542,,0.073935494,0.0053854883,0.07134515,0.73259646,-0.119152054,0.67015314,-0.4336916,0.6771191,0.59449255,-0.52460855,-0.72616297,0.44437978,,0.08369647,1.2898974,0.42707533,0.9923721,0.099630184,-0.07260503,0.02418943,-0.7348681,-0.67777854,-0.12088232,0.67085224,-0.7316726,,-0.12213007,0.2620468,-0.09631501,0.7640512,0.31576347,0.5626004,-0.64408344,0.42358738,0.63696957,-0.037178673,-0.84903896,0.52702045,,-0.08143629,0.47195056,-0.35493645,-0.63855356,0.27630028,-0.718267,-0.7627112,-0.10281675,0.63851416,0.10257175,0.9555558,0.27639133,,1.1168693510032228,0.564060686400484,0.21700542745,0.1738329631486707,-0.028147118951680733,0.9993397478017436,-0.4211010024941718,,-1.5366848327789413,0.34709050629914634,0.16835566375000002,-0.11176473987725148,0.45937191221141077,-1.031692456658192,0.7763743463362291,,-0.07327110366028695,-0.03740458753180348,0.09109008376,-0.10826536583874626,,-1.6696751e-05,2.9802322e-06,2.1457672e-06,1.0,3.0130148e-05,2.7626753e-05,-3.0130148e-05,1.0,4.976988e-06,-2.7634203e-05,-4.976988e-06,1.0,48,0.143,0,0,0.0,False,-0.2585077480976805,0.9499612133514836
0.16145840310491621,19:59:55.584431,19:58:36.063876,0,,0.13074666,0.0028654486,0.02913189,-0.73025805,-0.470138,-0.49567485,-0.4209786,-0.26175624,0.86848176,-0.53805214,0.84288436,-0.0067685544,,0.073957965,0.0053803325,0.071357846,0.7326497,-0.118934765,0.6701334,-0.43374258,0.6771757,0.5943908,-0.52449185,-0.72614574,0.44454554,,0.08369647,1.2898974,0.42707533,0.9923721,0.099630184,-0.07260503,0.02418943,-0.7348681,-0.67777854,-0.12088232,0.67085224,-0.7316726,,-0.12227635,0.26248515,-0.096460104,0.75523674,0.34021688,0.5602409,-0.6552134,0.41493076,0.6312906,-0.017685488,-0.84385127,0.53628564,,-0.0814609,0.47195426,-0.35494506,-0.6386293,0.27608582,-0.7182821,-0.76266176,-0.1027932,0.638577,0.102467544,0.9556203,0.27620685,,1.1180045927357338,0.5653272145918568,0.21685765039000002,0.15873528721778493,-0.009974464482877154,0.98746160125518,-0.4224077550232461,,-1.5368470101693001,0.34702872443615257,0.16835696004,-0.11176473987725148,0.45937191221141077,-1.0317741353983325,0.7758843141378264,,-0.07327110366028695,-0.03740458753180348,0.09109008376,-0.10826536583874626,,-1.6696751e-05,2.9802322e-06,2.1457672e-06,1.0,3.0130148e-05,2.7626753e-05,-3.0130148e-05,1.0,4.976988e-06,-2.7634203e-05,-4.976988e-06,1.0,59,0.175,0,0,0.0,False,-0.2589843698458485,0.950830256965514
0.19155697501264513,19:59:55.618055,19:58:36.172229,0,,0.13094062,0.0031120405,0.029595137,-0.7093411,-0.50475687,-0.4919916,-0.41275844,-0.26834676,0.8704139,-0.5713717,0.8204942,-0.01799336,,0.07398177,0.0053708553,0.07136494,0.7326825,-0.11871515,0.67013663,-0.43382847,0.6772113,0.5942876,-0.524375,-0.7261485,0.4446789,,0.08369647,1.2898974,0.42707533,0.9923721,0.099630184,-0.07260503,0.02418943,-0.7348681,-0.67777854,-0.12088232,0.67085224,-0.7316726,,-0.12250575,0.2629792,-0.09658781,0.7393117,0.37669882,0.55813634,-0.6732065,0.39560863,0.62472934,0.014531251,-0.8376108,0.5460742,,-0.08148593,0.4719507,-0.35495323,-0.6386863,0.27587196,-0.71831363,-0.7626321,-0.10279851,0.6386116,0.10233347,0.9556815,0.27604482,,1.11903943894088,0.5665087927216131,0.21673191026000002,0.133572493999642,0.020768747964346947,0.9746443839445695,-0.4227344431555148,,-1.536986019361036,0.34692832890878766,0.16835955262000002,-0.11176473987725148,0.45937191221141077,-1.0318558141384733,0.7757209700716923,,-0.07327110366028695,-0.03740458753180348,0.09109008376,-0.10826536583874626,,-1.6696751e-05,2.9802322e-06,2.1457672e-06,1.0,3.0130148e-05,2.7626753e-05,-3.0130148e-05,1.0,4.976988e-06,-2.7634203e-05,-4.976988e-06,1.0,70,0.207,0,0,0.0,False,-0.2589247921273281,0.9506371361623962
0.22517975117079914,19:59:55.652634,19:58:36.172229,0,,0.13100573,0.0031791553,0.029776067,-0.6955324,-0.52420264,-0.49137184,-0.41107917,-0.27056527,0.8705218,-0.5892779,0.8074689,-0.027301997,,0.07399912,0.0053606927,0.0713653,0.73268855,-0.118654236,0.67014074,-0.43391585,0.6771369,0.59430856,-0.5242943,-0.7262279,0.4446445,,0.08369647,1.2898974,0.42707533,0.9923721,0.099630184,-0.07260503,0.02418943,-0.7348681,-0.67777854,-0.12088232,0.67085224,-0.7316726,,-0.12258714,0.2631516,-0.0966595,0.72799563,0.39736453,0.5586804,-0.68491125,0.3855036,0.6182908,0.030313516,-0.8327595,0.55280435,,-0.08150342,0.47194245,-0.35495877,-0.6387104,0.27582404,-0.7183106,-0.76262754,-0.102913596,0.6385985,0.102216884,0.95568293,0.276083,,1.1193946846530942,0.5667250292420914,0.21666450318000002,0.11679729852088007,0.03607203593807628,0.9659228007770362,-0.4227344431555148,,-1.5370632466897785,0.3468279333814227,0.1683621452,-0.11176473987725148,0.45937191221141077,-1.0317741353983325,0.7758843141378264,,-0.07327110366028695,-0.03740458753180348,0.09109008376,-0.10826536583874626,,-1.6696751e-05,2.9802322e-06,2.1457672e-06,1.0,3.0130148e-05,2.7626753e-05,-3.0130148e-05,1.0,4.976988e-06,-2.7634203e-05,-4.976988e-06,1.0,81,0.24,0,0,0.0,False,-0.2594014138754961,0.9500577737530425
0.25974722811952233,19:59:55.685612,19:58:36.172229,0,,0.13111356,0.0032371134,0.029925346,-0.6721068,-0.5556949,-0.48936248,-0.40778947,-0.27385005,0.8710418,-0.6180454,0.78499,-0.042550176,,0.07401621,0.0053439736,0.07136297,0.7325545,-0.11854458,0.6703067,-0.43406862,0.6771872,0.5941397,-0.5243551,-0.7261989,0.44462,,0.08369647,1.2898974,0.42707533,0.9923721,0.099630184,-0.07260503,0.02418943,-0.7348681,-0.67777854,-0.12088232,0.67085224,-0.7316726,,-0.122707605,0.26329407,-0.09670903,0.7086351,0.4310277,0.55861557,-0.7033287,0.36839253,0.6079602,0.056257904,-0.82371235,0.56421006,,-0.0815204,0.47192794,-0.35496762,-0.63857317,0.27571285,-0.7184753,-0.76275563,-0.10287245,0.63845205,0.10211812,0.9557195,0.2759931,,1.1194641892489623,0.566501069988739,0.21662561448000003,0.0895376058678919,0.06175969789397908,0.9511838191327917,-0.4230611312877832,,-1.537117305819898,0.34668892418968666,0.1683621452,-0.11155504993376697,0.45937191221141077,-1.0317741353983325,0.776211002270095,,-0.07327110366028695,-0.03740458753180348,0.09109008376,-0.10826536583874626,,-1.6696751e-05,2.9802322e-06,2.1457672e-06,1.0,3.0130148e-05,2.7626753e-05,-3.0130148e-05,1.0,4.976988e-06,-2.7634203e-05,-4.976988e-06,1.0,92,0.273,0,0,0.0,False,-0.25922268071993226,0.9503474549577193
0.2927349591627717,19:59:55.714297,19:58:36.172229,0,,0.13119876,0.0032816678,0.030035913,-0.658068,-0.57253784,-0.4890265,-0.40218943,-0.28178173,0.8711157,-0.6365454,0.7699347,-0.044837177,,0.07402471,0.0053345263,0.07136065,0.7325435,-0.11848444,0.67032933,-0.43413672,0.67715967,0.59412134,-0.52431417,-0.7262343,0.44461054,,0.08369647,1.2898974,0.42707533,0.9923721,0.099630184,-0.07260503,0.02418943,-0.7348681,-0.67777854,-0.12088232,0.67085224,-0.7316726,,-0.122801974,0.2634006,-0.096743874,0.6974766,0.44891465,0.55857134,-0.71264946,0.35270593,0.60640687,0.075213484,-0.8210202,0.5659229,,-0.08152865,0.4719191,-0.35497212,-0.63857245,0.27565932,-0.71849644,-0.7627669,-0.10292407,0.63843036,0.102038704,0.95572937,0.27598828,,1.1194719119818364,0.5663620607970029,0.21660228126000003,0.07464961988049067,0.08061553486160986,0.9481416381839103,-0.4225710990893803,,-1.5371404740185206,0.34661169686094445,0.1683621452,-0.11155504993376697,0.45937191221141077,-1.0317741353983325,0.776211002270095,,-0.07327110366028695,-0.03740458753180348,0.09109008376,-0.10826536583874626,,-1.6696751e-05,2.9802322e-06,2.1457672e-06,1.0,3.0130148e-05,2.7626753e-05,-3.0130148e-05,1.0,4.976988e-06,-2.7634203e-05,-4.976988e-06,1.0,103,0.306,0,0,0.0,False,-0.259282258438454,0.9494784113436892
0.3213975930120796,19:59:55.749960,19:58:36.292273,0,,0.1313749,0.0034041926,0.030305147,-0.63057,-0.6060523,-0.48485267,-0.3848496,-0.29834226,0.87343144,-0.6739971,0.7373551,-0.045113444,,0.07403431,0.0053197443,0.07135123,0.7325065,-0.11836919,0.67039007,-0.43424666,0.6771549,0.5940464,-0.52427477,-0.7262576,0.44461894,,0.08369647,1.2898974,0.42707533,0.9923721,0.099630184,-0.07260503,0.02418943,-0.7348681,-0.67777854,-0.12088232,0.67085224,-0.7316726,,-0.12299968,0.263671,-0.09682341,0.6762773,0.48476812,0.5546611,-0.72719616,0.3191056,0.60774773,0.11762128,-0.8143534,0.5683254,,-0.0815369,0.47190136,-0.3549762,-0.6385475,0.27555028,-0.71856046,-0.7628031,-0.102958485,0.63838154,0.10192432,0.9557571,0.2759345,,1.1196031984406982,0.5661226560779019,0.21656079998000002,0.048228687001440604,0.1229728497888964,0.9420262896069354,-0.4225710990893804,,-1.5371327512856463,0.34648813313495685,0.16836344149000002,-0.11155504993376697,0.45937191221141077,-1.031855814138473,0.7753942819394235,,-0.07327110366028695,-0.03740458753180348,0.09109008376,-0.10826536583874626,,-1.6696751e-05,2.9802322e-06,2.1457672e-06,1.0,3.0130148e-05,2.7626753e-05,-3.0130148e-05,1.0,4.976988e-06,-2.7634203e-05,-4.976988e-06,1.0,114,0.338,0,0,0.0,False,-0.2594014138754961,0.9495266915444687
0.3570703670848161,19:59:55.786417,19:58:36.292273,0,,0.13144185,0.0035036057,0.030543268,-0.6073595,-0.6296663,-0.4843912,-0.37680322,-0.30845705,0.8734263,-0.69938093,0.7130039,-0.04991603,,0.07404098,0.005313188,0.07135028,0.7325018,-0.118266866,0.6704134,-0.43429422,0.6771856,0.5939767,-0.52424204,-0.72624564,0.4446771,,0.08369647,1.2898974,0.42707533,0.9923721,0.099630184,-0.07260503,0.02418943,-0.7348681,-0.67777854,-0.12088232,0.67085224,-0.7316726,,-0.12308736,0.26390636,-0.09691275,0.6570905,0.5103261,0.5547967,-0.7398422,0.29556832,0.60437816,0.14444959,-0.8075931,0.57177585,,-0.08154351,0.47189566,-0.35497966,-0.63855064,0.27544868,-0.71859664,-0.76280814,-0.102941856,0.6383782,0.10186676,0.95578814,0.27584806,,1.119973889618661,0.5660994878792792,0.21650505951000001,0.02453372338768935,0.1496169672431573,0.9347569353910128,-0.4230611312877832,,-1.537155919484269,0.3464340740048373,0.16836344149000002,-0.11155504993376697,0.45937191221141077,-1.0319374928786136,0.7752309378732893,,-0.07327110366028695,-0.03740458753180348,0.09109008376,-0.10826536583874626,,-1.6696751e-05,2.9802322e-06,2.1457672e-06,1.0,3.0130148e-05,2.7626753e-05,-3.0130148e-05,1.0,4.976988e-06,-2.7634203e-05,-4.976988e-06,1.0,125,0.372,0,0,0.0,False,-0.2599376133421849,0.949140449938233
0.39354014699347317,19:59:55.807511,19:58:36.292273,0,,0.13143317,0.003576696,0.030796826,-0.58969,-0.6482139,-0.48175144,-0.3702337,-0.31316411,0.87455994,-0.71776915,0.69408,-0.055321008,,0.07404434,0.0053115785,0.07135159,0.7323847,-0.11830926,0.6705338,-0.43433803,0.677231,0.59389293,-0.5243693,-0.7261964,0.44460744,,0.08369647,1.2898974,0.42707533,0.9923721,0.099630184,-0.07260503,0.02418943,-0.7348681,-0.67777854,-0.12088232,0.67085224,-0.7316726,,-0.12310426,0.2641359,-0.09704212,0.642404,0.5306331,0.55294263,-0.7484984,0.2795389,0.6013387,0.16452122,-0.80017906,0.5767549,,-0.08154712,0.47189525,-0.35498124,-0.6384137,0.27548292,-0.7187051,-0.7629189,-0.10287043,0.6382574,0.10189551,0.955786,0.27584502,,1.120622599180096,0.5661303788107761,0.21640654147000002,0.0067100781915047794,0.16956589620891158,0.9255959718435642,-0.4238778516184546,,-1.5371713649500176,0.34641862853908884,0.16836344149000002,-0.11134535999028242,0.45937191221141077,-1.031855814138473,0.7753942819394235,,-0.07327110366028695,-0.03740458753180348,0.09109008376,-0.10826536583874626,,-1.6696751e-05,2.9802322e-06,2.1457672e-06,1.0,3.0130148e-05,2.7626753e-05,-3.0130148e-05,1.0,4.976988e-06,-2.7634203e-05,-4.976988e-06,1.0,136,0.405,0,0,0.0,False,-0.2598780356236645,0.9486093677296588
0.41462216107174754,19:59:55.847553,19:58:36.292273,0,,0.13133624,0.003669791,0.031205654,-0.5636954,-0.6728598,-0.47906926,-0.36161208,-0.32042795,0.87553555,-0.74261975,0.6667726,-0.062690556,,0.074047565,0.0053119063,0.071354985,0.7323981,-0.11833945,0.6705138,-0.4343373,0.6771889,0.5939414,-0.52435124,-0.72623074,0.44457263,,0.08369647,1.2898974,0.42707533,0.9923721,0.099630184,-0.07260503,0.02418943,-0.7348681,-0.67777854,-0.12088232,0.67085224,-0.7316726,,-0.12305142,0.26449072,-0.09727982,0.6204432,0.5578032,0.5512765,-0.7604428,0.25600845,0.59681356,0.19177307,-0.78950316,0.58301616,,-0.08155089,0.4718976,-0.35498258,-0.6384302,0.27551734,-0.71867734,-0.7629063,-0.10291982,0.6382644,0.10188677,0.95577073,0.27590102,,1.1219200183029656,0.5660994878792792,0.21621857942000003,-0.019710854687545288,0.19675655966223426,0.9127351853840002,-0.4238778516184547,,-1.5372022558815144,0.34641862853908884,0.16836344149000002,-0.11134535999028242,0.45937191221141077,-1.0317741353983325,0.7742508734764836,,-0.07327110366028695,-0.03740458753180348,0.09109008376,-0.10826536583874626,,-1.6696751e-05,2.9802322e-06,2.1457672e-06,1.0,3.0130148e-05,2.7626753e-05,-3.0130148e-05,1.0,4.976988e-06,-2.7634203e-05,-4.976988e-06,1.0,147,0.438,0,0,0.0,False,-0.26041423509035333,0.9486576479304383
0.4546681691426784,19:59:55.874717,19:58:36.292273,0,,0.1312234,0.0037188008,0.031559676,-0.5426943,-0.69050866,-0.47820586,-0.3565963,-0.3260665,0.87551105,-0.7604748,0.64566123,-0.06927857,,0.07405113,0.00531134,0.07135755,0.7322864,-0.11827034,0.670648,-0.43437406,0.67733616,0.59374654,-0.52447677,-0.7261047,0.44463044,,0.08369647,1.2898974,0.42707533,0.9923721,0.099630184,-0.07260503,0.02418943,-0.7348681,-0.67777854,-0.12088232,0.67085224,-0.7316726,,-0.12297956,0.26477623,-0.09751174,0.6022718,0.5774171,0.55123335,-0.76993686,0.23775923,0.5921721,0.21086948,-0.7810634,0.5877704,,-0.08155489,0.4718988,-0.35498413,-0.63829863,0.27543163,-0.718827,-0.7630118,-0.10273806,0.63816756,0.10192064,0.955815,0.27573514,,1.1230475373026023,0.5661149333450277,0.21602672850000001,-0.041518608809935825,0.21574903312963048,0.9025572148793344,-0.42306113128778333,,-1.537225424080137,0.3464109058062146,0.16836344149000002,-0.1111356700467979,0.45937191221141077,-1.031855814138473,0.7740875294103493,,-0.07327110366028695,-0.03740458753180348,0.09109008376,-0.10826536583874626,,-1.6696751e-05,2.9802322e-06,2.1457672e-06,1.0,3.0130148e-05,2.7626753e-05,-3.0130148e-05,1.0,4.976988e-06,-2.7634203e-05,-4.976988e-06,1.0,162,0.482,0,0,0.0,False,-0.2602950796533112,0.948078285521085
0.4817634751088917,19:59:55.921243,19:58:36.448508,0,,0.13102552,0.0037855878,0.031938583,-0.52207756,-0.7066269,-0.4776125,-0.35354334,-0.33031407,0.8751569,-0.77617145,0.6257565,-0.07737377,,0.0740592,0.0053039193,0.07135701,0.7322829,-0.11821237,0.67066205,-0.43442822,0.6773167,0.5937291,-0.5244368,-0.7261322,0.44463265,,0.08369647,1.2898974,0.42707533,0.9923721,0.099630184,-0.07260503,0.02418943,-0.7348681,-0.67777854,-0.12088232,0.67085224,-0.7316726,,-0.12282528,0.26509434,-0.097761124,0.58405817,0.5954786,0.551617,-0.7793173,0.22130227,0.58625066,0.22702561,-0.77228916,0.59332013,,-0.08156299,0.47189265,-0.35498828,-0.6383046,0.2753791,-0.71884185,-0.76301575,-0.10277825,0.63815635,0.10185362,0.9558258,0.2757224,,1.1250091114526555,0.5661226560779019,0.21576098905000002,-0.07360117016306805,0.23938714758905166,0.8849971710828052,-0.4238778516184546,,-1.537256315011634,0.3463491239432208,0.16836344149000002,-0.1111356700467979,0.45937191221141077,-1.031855814138473,0.7740875294103493,,-0.07327110366028695,-0.03740458753180348,0.09109008376,-0.10826536583874626,,-1.6696751e-05,2.9802322e-06,2.1457672e-06,1.0,3.0130148e-05,2.7626753e-05,-3.0130148e-05,1.0,4.976988e-06,-2.7634203e-05,-4.976988e-06,1.0,173,0.516,0,0,0.0,False,-0.26041423509035333,0.9489473291351151
0.5283613440115005,19:59:55.952749,19:58:36.448508,0,,0.130894,0.0038646236,0.032332033,-0.49613544,-0.7277164,-0.47358078,-0.34584105,-0.33467203,0.8765777,-0.79639405,0.5986849,-0.08563167,,0.074072406,0.0052981675,0.07135612,0.73228735,-0.118077025,0.67068106,-0.43448865,0.67734736,0.59364986,-0.52438056,-0.7261256,0.44470978,,0.08369647,1.2898974,0.42707533,0.9923721,0.099630184,-0.07260503,0.02418943,-0.7348681,-0.67777854,-0.12088232,0.67085224,-0.7316726,,-0.12273745,0.2654294,-0.09800271,0.5615052,0.619333,0.54876095,-0.7886876,0.19991061,0.5813842,0.25036728,-0.7592512,0.6007111,,-0.08157601,0.47188672,-0.35499024,-0.6383216,0.27524608,-0.71887773,-0.76301235,-0.10276963,0.63816184,0.101772755,0.955865,0.27561626,,1.12585861206882,0.5661149333450277,0.21563265634000003,-0.08974729581137643,0.25510034506207735,0.8755329405034797,-0.42404119568458876,,-1.5373103741417535,0.3462796193473528,0.16836733036,-0.1111356700467979,0.45937191221141077,-1.0319374928786136,0.7742508734764837,,-0.07327110366028695,-0.03740458753180348,0.09109008376,-0.10826536583874626,,-1.6696751e-05,2.9802322e-06,2.1457672e-06,1.0,3.0130148e-05,2.7626753e-05,-3.0130148e-05,1.0,4.976988e-06,-2.7634203e-05,-4.976988e-06,1.0,184,0.548,0,0,0.0,False,-0.2589247921273281,0.9489956093358944
0.559873903170228,19:59:55.987437,19:58:36.448508,0,,0.13084026,0.003879957,0.032529294,-0.48040503,-0.7387752,-0.4726757,-0.34322494,-0.33759427,0.87648535,-0.80709827,0.5833021,-0.09138414,,0.07408585,0.005293876,0.07135934,0.73218304,-0.118000746,0.67080843,-0.43456548,0.67743635,0.59349203,-0.5244625,-0.726055,0.44472837,,0.08369647,1.2898974,0.42707533,0.9923721,0.099630184,-0.07260503,0.02418943,-0.7348681,-0.67777854,-0.12088232,0.67085224,-0.7316726,,-0.122707404,0.26557964,-0.09813896,0.54747415,0.63193756,0.5485681,-0.79475164,0.18740886,0.5772762,0.26199597,-0.75201917,0.6048349,,-0.08158996,0.4718848,-0.35499355,-0.63820684,0.27516142,-0.719012,-0.7631114,-0.10266809,0.63805974,0.10174984,0.9559003,0.2755023,,1.1262910851097767,0.5660994878792792,0.21552636056000002,-0.10589342145968479,0.26671444754213974,0.8670425635709708,-0.4237145075523203,,-1.5373798787376216,0.3462255602172332,0.16836992294000003,-0.11092598010331338,0.45937191221141077,-1.0319374928786136,0.7742508734764837,,-0.07327110366028695,-0.03740458753180348,0.09109008376,-0.10826536583874626,,-1.6696751e-05,2.9802322e-06,2.1457672e-06,1.0,3.0130148e-05,2.7626753e-05,-3.0130148e-05,1.0,4.976988e-06,-2.7634203e-05,-4.976988e-06,1.0,195,0.581,0,0,0.0,False,-0.26011634649774784,0.949043889536674
0.5945623312145472,19:59:56.019667,19:58:36.448508,0,,0.13074654,0.0038756505,0.032817543,-0.4566364,-0.75541854,-0.4699213,-0.33877236,-0.3407656,0.8769903,-0.8226277,0.55966216,-0.100309074,,0.07411961,0.005281836,0.07137233,0.7304319,-0.117914766,0.67272985,-0.43545097,0.67842287,0.59171355,-0.5261671,-0.72514737,0.44419557,,0.08369647,1.2898974,0.42707533,0.9923721,0.099630184,-0.07260503,0.02418943,-0.7348681,-0.67777854,-0.12088232,0.67085224,-0.7316726,,-0.12265061,0.26578054,-0.09835876,0.5262335,0.65106505,0.546985,-0.8031071,0.1691303,0.5713265,0.279459,-0.7399387,0.611877,,-0.08162597,0.47188294,-0.35500595,-0.6362048,0.27494574,-0.7208664,-0.7647641,-0.1013577,0.6362881,0.101879336,0.95610225,0.27475286,,1.1268702900753436,0.565952755954669,0.21535395399,-0.1300077649604051,0.2843405560118816,0.8527513327342731,-0.42420453975072325,,-1.5375111651964835,0.34610971922411987,0.16837121923,-0.10799032089453005,0.45896200271211446,-1.0316032391675245,0.7742508734764837,,-0.07327110366028695,-0.03740458753180348,0.09109008376,-0.10826536583874626,,-1.6696751e-05,2.9802322e-06,2.1457672e-06,1.0,3.0130148e-05,2.7626753e-05,-3.0130148e-05,1.0,4.976988e-06,-2.7634203e-05,-4.976988e-06,1.0,206,0.614,0,0,0.0,False,-0.260652545964438,0.9478851647179671
0.6267900241073221,19:59:56.056932,19:58:36.602879,0,,0.13068171,0.0038523078,0.03299871,-0.44079128,-0.7668125,-0.46658504,-0.3350288,-0.34169367,0.8780666,-0.8327417,0.5433636,-0.10628879,,0.074144974,0.0052720904,0.07137835,0.73058575,-0.11745687,0.6726428,-0.43551338,0.6785529,0.5915184,-0.5259017,-0.7250999,0.4445871,,0.08369647,1.2898974,0.42707533,0.9923721,0.099630184,-0.07260503,0.02418943,-0.7348681,-0.67777854,-0.12088232,0.67085224,-0.7316726,,-0.122610696,0.2658922,-0.09851207,0.5121058,0.6642727,0.54450834,-0.80795586,0.15742604,0.56782424,0.29147038,-0.7307248,0.61732185,,-0.08165235,0.47187826,-0.35501346,-0.6364073,0.27449208,-0.7208605,-0.76462096,-0.10129276,0.6364704,0.101688124,0.95623946,0.27434584,,1.127163753924564,0.5657519648999392,0.21523469531000003,-0.14573451072174443,0.29663784099077123,0.8418252552600488,-0.424041195684589,,-1.5376578971210937,0.3460016009638807,0.1683751081,-0.10820001083801457,0.45896200271211446,-1.0320116328682272,0.7737608412780808,,-0.07327110366028695,-0.03740458753180348,0.09109008376,-0.10826536583874626,,-1.6696751e-05,2.9802322e-06,2.1457672e-06,1.0,3.0130148e-05,2.7626753e-05,-3.0130148e-05,1.0,4.976988e-06,-2.7634203e-05,-4.976988e-06,1.0,214,0.637,0,0,0.0,False,-0.2594014138754961,0.9478368845171876
0.664023278048262,19:59:56.079284,19:58:36.602879,0,,0.13059282,0.0038305297,0.033151776,-0.4262183,-0.7754576,-0.46583638,-0.33396292,-0.34369355,0.8776921,-0.840718,0.5296606,-0.11248571,,0.07417336,0.0052616596,0.07138634,0.73074746,-0.11730595,0.6724934,-0.43558216,0.6783946,0.5916494,-0.5256199,-0.72527254,0.4446388,,0.08369647,1.2898974,0.42707533,0.9923721,0.099630184,-0.07260503,0.02418943,-0.7348681,-0.67777854,-0.12088232,0.67085224,-0.7316726,,-0.12254339,0.26598608,-0.09864792,0.49875972,0.67435575,0.54450256,-0.8131908,0.14668556,0.5632087,0.2999324,-0.7236903,0.6215408,,-0.08168209,0.4718743,-0.3550223,-0.63662076,0.2743699,-0.7207185,-0.7644705,-0.10154296,0.6366112,0.10148308,0.956248,0.27439207,,1.1275267223696526,0.5655588965780836,0.21512451066000002,-0.1610418765961147,0.30524594047599396,0.8332540312645036,-0.42355116348618604,,-1.5378277972443266,0.3458857599707673,0.16837899697000003,-0.10840970078149909,0.45896200271211446,-1.0319299541280866,0.7735974972119466,,-0.07327110366028695,-0.03740458753180348,0.09109008376,-0.10826536583874626,,-1.6696751e-05,2.9802322e-06,2.1457672e-06,1.0,3.0130148e-05,2.7626753e-05,-3.0130148e-05,1.0,4.976988e-06,-2.7634203e-05,-4.976988e-06,1.0,232,0.692,0,0,0.0,False,-0.2598184579051428,0.9478851647179671
0.6864040039945394,19:59:56.127623,19:58:36.602879,0,,0.13042948,0.0038542151,0.033334374,-0.40098158,-0.78814244,-0.46695328,-0.33247566,-0.3497678,0.8758552,-0.8536238,0.50645244,-0.121787846,,0.07421248,0.005243808,0.07139403,0.730787,-0.11698492,0.6725064,-0.43574172,0.67840886,0.59151554,-0.52543277,-0.7253109,0.44479722,,0.08369647,1.2898974,0.42707533,0.9923721,0.099630184,-0.07260503,0.02418943,-0.7348681,-0.67777854,-0.12088232,0.67085224,-0.7316726,,-0.12240246,0.2661353,-0.09878378,0.4755072,0.6892834,0.546609,-0.8218799,0.12651455,0.55543447,0.31369773,-0.71336,0.6266667,,-0.08172259,0.47186404,-0.35503507,-0.6367001,0.27406225,-0.7207655,-0.7644354,-0.10160112,0.6366441,0.10124954,0.95633,0.27419233,,1.1281754319310875,0.5651495917357496,0.21503247407000003,-0.1876724994186493,0.3193194999518343,0.8212879147429288,-0.42420453975072325,,-1.5380363110319306,0.34570041438178595,0.16838418213,-0.10840970078149909,0.45896200271211446,-1.0320116328682272,0.7734341531458123,,-0.07327110366028695,-0.03740458753180348,0.09109008376,-0.10826536583874626,,-1.6696751e-05,2.9802322e-06,2.1457672e-06,1.0,3.0130148e-05,2.7626753e-05,-3.0130148e-05,1.0,4.976988e-06,-2.7634203e-05,-4.976988e-06,1.0,243,0.724,0,0,0.0,False,-0.2607121236829584,0.946098797289127
0.7347477672155946,19:59:56.166205,19:58:36.602879,0,,0.13023013,0.003896743,0.03354737,-0.38213888,-0.80027515,-0.46209273,-0.32542372,-0.35147452,0.8778182,-0.8649099,0.4858245,-0.12611657,,0.07424456,0.005233258,0.07140088,0.7307048,-0.11673176,0.6726397,-0.4358841,0.6785346,0.5912663,-0.5254289,-0.72523415,0.444927,,0.08369647,1.2898974,0.42707533,0.9923721,0.099630184,-0.07260503,0.02418943,-0.7348681,-0.67777854,-0.12088232,0.67085224,-0.7316726,,-0.12222817,0.2663203,-0.09893319,0.4588223,0.703694,0.5424913,-0.8252683,0.111253075,0.5536741,0.3292633,-0.70173895,0.63178176,,-0.08175575,0.47185865,-0.35504273,-0.63662535,0.2738041,-0.7209296,-0.764514,-0.101492256,0.63656706,0.10112589,0.95641553,0.2739396,,1.129187109937611,0.5646707822975477,0.21493654861000003,-0.20612521444528742,0.33557924342392176,0.8079475054629142,-0.42436788381685764,,-1.5382062111551635,0.34556912792292416,0.16839066358000002,-0.10820001083801457,0.45896200271211446,-1.0320933116083677,0.7716373684183352,,-0.07327110366028695,-0.03740458753180348,0.09109008376,-0.10826536583874626,,-1.6696751e-05,2.9802322e-06,2.1457672e-06,1.0,3.0130148e-05,2.7626753e-05,-3.0130148e-05,1.0,4.976988e-06,-2.7634203e-05,-4.976988e-06,1.0,251,0.748,0,0,0.0,False,-0.25826943722359585,0.9447952318680815
0.7733277180232108,19:59:56.187559,19:58:36.602879,0,,0.13008793,0.0039211586,0.03361723,-0.37148583,-0.80289054,-0.46622437,-0.32739377,-0.3566201,0.87500584,-0.86879885,0.4776913,-0.13038212,,0.074255556,0.0052275956,0.07140392,0.73068535,-0.116591856,0.6726851,-0.4360448,0.6784594,0.59123415,-0.5253226,-0.725327,0.4449011,,0.08369647,1.2898974,0.42707533,0.9923721,0.099630184,-0.07260503,0.02418943,-0.7348681,-0.67777854,-0.12088232,0.67085224,-0.7316726,,-0.122094184,0.2663907,-0.09898596,0.44860783,0.70687515,0.5468808,-0.8297067,0.10197168,0.5488064,0.33217126,-0.6999495,0.63224435,,-0.08176732,0.47185606,-0.35504737,-0.63663185,0.27368107,-0.7209706,-0.76453406,-0.10162751,0.6365214,0.10093341,0.9564364,0.2739378,,1.1298049285675489,0.5644313775784467,0.21489636362000003,-0.21849692111087438,0.338448609918996,0.8056894082254298,-0.42420453975072325,,-1.5382679930181573,0.3455227915256788,0.16839066358000002,-0.10820001083801457,0.45882536621234904,-1.032063572444812,0.7718007124844696,,-0.07327110366028695,-0.03740458753180348,0.09109008376,-0.10826536583874626,,-1.6696751e-05,2.9802322e-06,2.1457672e-06,1.0,3.0130148e-05,2.7626753e-05,-3.0130148e-05,1.0,4.976988e-06,-2.7634203e-05,-4.976988e-06,1.0,258,0.769,0,0,0.0,False,-0.2602950796533112,0.9441193090571693
0.7946850100997835,19:59:56.214783,19:58:36.602879,0,,0.12989847,0.0039760023,0.033749312,-0.35720503,-0.8099445,-0.46518233,-0.32495987,-0.3591591,0.8748747,-0.8756743,0.46367526,-0.13490608,,0.074264124,0.0052198768,0.0714013,0.73067635,-0.116316035,0.6727426,-0.43610594,0.67862827,0.59099525,-0.5252844,-0.72521335,0.4451315,,0.08369647,1.2898974,0.42707533,0.9923721,0.099630184,-0.07260503,0.02418943,-0.7348681,-0.67777854,-0.12088232,0.67085224,-0.7316726,,-0.12191872,0.26652774,-0.099068314,0.43552375,0.71538,0.5463978,-0.8331859,0.09058002,0.54552406,0.34076425,-0.6928396,0.6354943,,-0.08177554,0.4718481,-0.35505038,-0.6366323,0.27339545,-0.7210785,-0.7645432,-0.101465784,0.63653624,0.10086131,0.9565352,0.27361903,,1.1310560112931733,0.5639448454073706,0.2148341417,-0.24135312495068753,0.35019934889882387,0.794555572444867,-0.42436788381685775,,-1.53829116121678,0.34545328692981075,0.16839195987000002,-0.10820001083801457,0.45882536621234904,-1.032390287405374,0.7688605192940525,,-0.07327110366028695,-0.03740458753180348,0.09109008376,-0.10826536583874626,,-1.6696751e-05,2.9802322e-06,2.1457672e-06,1.0,3.0130148e-05,2.7626753e-05,-3.0130148e-05,1.0,4.976988e-06,-2.7634203e-05,-4.976988e-06,1.0,273,0.814,0,0,0.0,False,-0.260652545964438,0.9437330674509334
0.8218942780513316,19:59:56.253373,19:58:36.807118,0,,0.12965402,0.004071556,0.0339299,-0.33331886,-0.8196825,-0.46585312,-0.32192394,-0.36546528,0.8733842,-0.8861509,0.44108483,-0.14205906,,0.074278235,0.0052272864,0.07139552,0.72980857,-0.11634284,0.67367935,-0.436397,0.679253,0.5900619,-0.5262482,-0.7246239,0.44495296,,0.0836759,1.2899004,0.42707777,0.9923721,0.099630095,-0.07260511,0.02418931,-0.7348681,-0.67777854,-0.12088232,0.67085224,-0.7316726,,-0.12167093,0.266732,-0.09916214,0.41343057,0.727298,0.54782546,-0.83903146,0.0705871,0.5394846,0.35369667,-0.6826823,0.6394088,,-0.08176739,0.47184938,-0.35503665,-0.6356127,0.27333602,-0.7219999,-0.7653578,-0.1006152,0.63569176,0.10111331,0.95664203,0.27315217,,1.1319595710394574,0.5636204906266532,0.21480562332000003,-0.2589670802033876,0.3605837228809973,0.7852710243625334,-0.4243678838168575,,-1.53829116121678,0.3454378414640623,0.16839325616,-0.1067321812336229,0.45868872971258356,-1.0323605482418183,0.7690238633601867,,-0.07327110366028695,-0.03740458753180348,0.09109008376,-0.10826536583874626,,-3.734231e-05,3.5762787e-07,-2.3841858e-07,1.0,3.0040741e-05,2.7552247e-05,-3.0040741e-05,1.0,4.9471855e-06,-2.7552247e-05,-4.976988e-06,1.0,280,0.835,0,0,0.0,False,-0.2607717014014801,0.9439261882540513
0.8604837621096522,19:59:56.284760,19:58:36.807118,0,,0.1294883,0.004142396,0.0340534,-0.31587005,-0.82713264,-0.46484149,-0.31828797,-0.3691604,0.87316275,-0.89382255,0.42375952,-0.14665967,,0.07428833,0.0052198656,0.07139772,0.7285828,-0.11607462,0.675051,-0.43718195,0.67988116,0.58875585,-0.5272941,-0.7240775,0.44460413,,0.0836759,1.2899004,0.42707777,0.9923721,0.099630095,-0.07260511,0.02418931,-0.7348681,-0.67777854,-0.12088232,0.67085224,-0.7316726,,-0.12151661,0.26687378,-0.099223904,0.39740676,0.7365112,0.5473748,-0.8422998,0.05607004,0.53608507,0.36414132,-0.6740975,0.64264584,,-0.08177799,0.4718451,-0.35504222,-0.63424474,0.27299488,-0.7233308,-0.7665087,-0.09983004,0.6344276,0.10098534,0.9568217,0.2725696,,1.1327241215940058,0.5632961358459357,0.21478358639000003,-0.2772101052865412,0.371651279361998,0.7753477080215769,-0.42420453975072314,,-1.53829116121678,0.3453992277996912,0.16839066358000002,-0.10484497174226218,0.45814218371352183,-1.0323232703277354,0.7698405836908582,,-0.07327110366028695,-0.03740458753180348,0.09109008376,-0.10826536583874626,,-3.734231e-05,3.5762787e-07,-2.3841858e-07,1.0,3.0040741e-05,2.7552247e-05,-3.0040741e-05,1.0,4.9471855e-06,-2.7552247e-05,-4.976988e-06,1.0,291,0.868,0,0,0.0,False,-0.2607121236829584,0.9439744684548308
0.891881809104234,19:59:56.311664,19:58:36.807118,0,,0.12936755,0.0041861907,0.03413926,-0.300469,-0.8334253,-0.46381104,-0.31488508,-0.37233782,0.87304735,-0.9003142,0.40837097,-0.15055734,,0.074293986,0.0052097626,0.07139653,0.7285704,-0.11585927,0.67510134,-0.43724325,0.6799996,0.5885735,-0.52726036,-0.7240008,0.44476897,,0.0836759,1.2899004,0.42707777,0.9923721,0.099630095,-0.07260511,0.02418931,-0.7348681,-0.67777854,-0.12088232,0.67085224,-0.7316726,,-0.121404275,0.2669686,-0.099271454,0.3832443,0.7443815,0.5468272,-0.8448509,0.043241106,0.5332515,0.37329715,-0.66635305,0.6454633,,-0.081783704,0.47183704,-0.35504842,-0.6342411,0.2727736,-0.72341746,-0.7665209,-0.09972154,0.6344299,0.10091542,0.9568961,0.27233416,,1.1331411491692138,0.562994949263841,0.21477321607000002,-0.292727161104396,0.3809425613460479,0.7670361819089553,-0.4246945719491261,,-1.5383066066825286,0.34532972320382316,0.16838807100000003,-0.10484497174226218,0.45814218371352183,-1.032568306548157,0.7700039277569923,,-0.07327110366028695,-0.03740458753180348,0.09109008376,-0.10826536583874626,,-3.734231e-05,3.5762787e-07,-2.3841858e-07,1.0,3.0040741e-05,2.7552247e-05,-3.0040741e-05,1.0,4.9471855e-06,-2.7552247e-05,-4.976988e-06,1.0,306,0.913,0,0,0.0,False,-0.26053339052739544,0.9432502654431392
0.9187239562161267,19:59:56.354114,19:58:36.807118,0,,0.12923548,0.004218325,0.03421785,-0.27775642,-0.8405724,-0.46506923,-0.31172225,-0.37905905,0.8712883,-0.9086697,0.38697842,-0.15673909,,0.07430813,0.00519203,0.07139313,0.7284858,-0.11574122,0.67521286,-0.43759397,0.67972213,0.5886334,-0.5270863,-0.7242802,0.44452024,,0.0836759,1.2899004,0.42707777,0.9923721,0.099630095,-0.07260511,0.02418931,-0.7348681,-0.67777854,-0.12088232,0.67085224,-0.7316726,,-0.12128078,0.26705036,-0.09932357,0.36206043,0.7535559,0.5486946,-0.8490904,0.023711015,0.52771515,0.38465276,-0.6569561,0.6484219,,-0.08179761,0.47182143,-0.3550578,-0.63420314,0.272699,-0.72347885,-0.7666036,-0.10012523,0.6342664,0.10052532,0.9568752,0.27255177,,1.1333805538883148,0.5625624762228844,0.21476543833000003,-0.31621243477466277,0.39282993682564127,0.7571794668070855,-0.4243678838168573,,-1.5383452203468997,0.34520615947783556,0.16838547842,-0.10484497174226218,0.45786891071399094,-1.0323454707407642,0.7686971752279181,,-0.07327110366028695,-0.03740458753180348,0.09109008376,-0.10826536583874626,,-3.734231e-05,3.5762787e-07,-2.3841858e-07,1.0,3.0040741e-05,2.7552247e-05,-3.0040741e-05,1.0,4.9471855e-06,-2.7552247e-05,-4.976988e-06,1.0,317,0.946,0,0,0.0,False,-0.26112916771260597,0.941270777211181
0.9612197130918503,19:59:56.382702,19:58:36.807118,0,,0.12917759,0.004232511,0.03427042,-0.26242763,-0.8453446,-0.46532154,-0.30875695,-0.38330954,0.87048423,-0.9142214,0.37211046,-0.16041508,,0.07432312,0.005177278,0.07139999,0.7286219,-0.11565444,0.67508084,-0.43765104,0.6795562,0.58878255,-0.5268507,-0.72444975,0.44452327,,0.0836759,1.2899004,0.42707777,0.9923721,0.099630095,-0.07260511,0.02418931,-0.7348681,-0.67777854,-0.12088232,0.67085224,-0.7316726,,-0.121228874,0.26709893,-0.09935917,0.3478187,0.7597727,0.5493337,-0.85129637,0.010432788,0.52458143,0.3928316,-0.650105,0.6504205,,-0.08181415,0.4718154,-0.35507122,-0.6343824,0.272639,-0.7233442,-0.7664776,-0.10037052,0.63437986,0.10035426,0.9568666,0.272645,,1.1333651084225664,0.5623307942366577,0.21476154946000003,-0.3317294905925175,0.40143803631086405,0.7502418176143515,-0.4245312278829919,,-1.5384456158742645,0.34510576395047066,0.16838029326,-0.10505466168574669,0.45786891071399094,-1.0322637920006237,0.7675537667649782,,-0.07327110366028695,-0.03740458753180348,0.09109008376,-0.10826536583874626,,-3.734231e-05,3.5762787e-07,-2.3841858e-07,1.0,3.0040741e-05,2.7552247e-05,-3.0040741e-05,1.0,4.9471855e-06,-2.7552247e-05,-4.976988e-06,1.0,328,0.978,0,0,0.0,False,-0.2603546573718325,0.9412224970104015
0.9897554949857295,19:59:56.411666,19:58:36.807118,0,,0.12912178,0.0042571723,0.03433408,-0.24559873,-0.85055923,-0.46500567,-0.30587468,-0.3871938,0.86978245,-0.9198488,0.35585096,-0.16507024,,0.07434991,0.0051618405,0.0714156,0.72645307,-0.115338534,0.67746806,-0.43871903,0.68095005,0.58637244,-0.5289532,-0.72319025,0.44407713,,0.0836759,1.2899004,0.42707777,0.9923721,0.099630095,-0.07260511,0.02418931,-0.7348681,-0.67777854,-0.12088232,0.67085224,-0.7316726,,-0.12117957,0.26716265,-0.09939498,0.33209583,0.76662797,0.54953974,-0.8536588,-0.0035416456,0.5208207,0.40122193,-0.6420818,0.6532625,,-0.08184393,0.4718142,-0.3550889,-0.63190347,0.27214757,-0.7256954,-0.7684995,-0.09855946,0.632214,0.100531355,0.95719475,0.2714253,,1.1333496629568178,0.5621763395791732,0.21475895688000002,-0.34892406595824854,0.4101827722958522,0.7417225331953909,-0.4243678838168573,,-1.5385382886687553,0.34500536842310575,0.16837381181000002,-0.10148993264650978,0.4573223647149292,-1.0322265140865408,0.7667370464343068,,-0.07327110366028695,-0.03740458753180348,0.09109008376,-0.10826536583874626,,-3.734231e-05,3.5762787e-07,-2.3841858e-07,1.0,3.0040741e-05,2.7552247e-05,-3.0040741e-05,1.0,4.9471855e-06,-2.7552247e-05,-4.976988e-06,1.0,351,1.048,0,0,0.0,False,-0.2608908568385213,0.9398706513885768
1.018784664105624,19:59:56.486326,19:58:36.807118,0,,0.12891911,0.0044161007,0.034604326,-0.18721202,-0.86577815,-0.46409047,-0.29649836,-0.40060556,0.86695075,-0.93650424,0.29990578,-0.1817038,,0.07439484,0.0051362105,0.071449876,0.7262094,-0.11454339,0.677864,-0.43970203,0.68058133,0.58606416,-0.52847147,-0.7236635,0.44387963,,0.0836759,1.2899004,0.42707777,0.9923721,0.099630095,-0.07260511,0.02418931,-0.7348681,-0.67777854,-0.12088232,0.67085224,-0.7316726,,-0.12099978,0.26747096,-0.09950442,0.27714288,0.7875176,0.55046153,-0.86029905,-0.051738378,0.5071574,0.42787537,-0.6141166,0.66316175,,-0.08189532,0.47181842,-0.35512337,-0.63178957,0.27144048,-0.7260592,-0.768735,-0.099249035,0.6318197,0.09944077,0.9573242,0.2713703,,1.1336122358745415,0.5621300031819279,0.21476154946000003,-0.40952445962527606,0.43751007224894034,0.7115161146624721,-0.42420453975072325,,-1.5388858116480955,0.3448740819642439,0.16835825633,-0.10128024270302526,0.4563659092165711,-1.0320183399416498,0.7659203261036354,,-0.07327110366028695,-0.03740458753180348,0.09109008376,-0.10826536583874626,,-3.734231e-05,3.5762787e-07,-2.3841858e-07,1.0,3.0040741e-05,2.7552247e-05,-3.0040741e-05,1.0,4.9471855e-06,-2.7552247e-05,-4.976988e-06,1.0,359,1.072,0,0,0.0,False,-0.2602355019347904,0.9393878493807821
1.0934489390347153,19:59:56.522498,19:58:37.051524,0,,0.12876867,0.0045156553,0.03474538,-0.1550895,-0.87263554,-0.4630922,-0.29159367,-0.40744296,0.86542654,-0.9438857,0.26925343,-0.19126493,,0.07442851,0.0051241405,0.07148212,0.7248322,-0.113475576,0.6795158,-0.44055077,0.6819639,0.5838152,-0.529654,-0.72252923,0.44431764,,0.0836759,1.2899004,0.42707777,0.9923721,0.099630095,-0.07260511,0.02418931,-0.7348681,-0.67777854,-0.12088232,0.67085224,-0.7316726,,-0.12086046,0.2676451,-0.09955646,0.24666947,0.79753876,0.5505325,-0.8628902,-0.077823505,0.49936363,0.44110623,-0.5982269,0.6689917,,-0.0819348,0.47183114,-0.35514787,-0.63024986,0.27023336,-0.7278455,-0.7700125,-0.097629406,0.63051504,0.09932707,0.95783216,0.26961398,,NaN,NaN,NaN,NaN,NaN,NaN,NaN,,-1.5391252163671962,0.34481230010125014,0.16834788601,-0.0989736533246955,0.4558193632175093,-1.032879528169113,0.7634701651116211,,-0.07327110366028695,-0.03740458753180348,0.09109008376,-0.10826536583874626,,-3.734231e-05,3.5762787e-07,-2.3841858e-07,1.0,3.0040741e-05,2.7552247e-05,-3.0040741e-05,1.0,4.9471855e-06,-2.7552247e-05,-4.976988e-06,1.0,374,1.118,0,0,0.0,False,-0.26053339052739544,0.9346081095036158
1.1295959542039782,19:59:56.558730,19:58:37.051524,0,,0.12853755,0.004653327,0.034930184,-0.11489844,-0.88125396,-0.45846444,-0.2828142,-0.41340238,0.8655139,-0.952268,0.2291066,-0.20173198,,0.07445126,0.005105246,0.07148993,0.7248685,-0.11267987,0.67960936,-0.44141802,0.68142045,0.5837948,-0.52888167,-0.7231663,0.44420135,,0.0836759,1.2899004,0.42707777,0.9923721,0.099630095,-0.07260511,0.02418931,-0.7348681,-0.67777854,-0.12088232,0.67085224,-0.7316726,,-0.12064369,0.2678794,-0.09962449,0.20864671,0.8105432,0.5472534,-0.86364573,-0.1098557,0.4919835,0.4588928,-0.5752838,0.67710114,,-0.08195929,0.4718223,-0.3551639,-0.6304604,0.26954955,-0.7279167,-0.7699867,-0.09855519,0.63040257,0.09818475,0.95793,0.2696847,,1.1344849046893288,0.5620064394559402,0.21478617897000002,-0.48606128899712747,0.46948301319405333,0.6678833960672885,-0.4243678838168575,,-1.5392642255589324,0.3447196273067594,0.16834010827,-0.09939303321166454,0.4548629077191513,-1.0329163902446439,0.7623267566486813,,-0.07327110366028695,-0.03740458753180348,0.09109008376,-0.10826536583874626,,-3.734231e-05,3.5762787e-07,-2.3841858e-07,1.0,3.0040741e-05,2.7552247e-05,-3.0040741e-05,1.0,4.9471855e-06,-2.7552247e-05,-4.976988e-06,1.0,382,1.141,0,0,0.0,False,-0.25975888018662197,0.9333528242833498
1.1658429561648518,19:59:56.581889,19:58:37.051524,0,,0.12840971,0.0047234744,0.035016283,-0.09632328,-0.8851958,-0.45513764,-0.277456,-0.41526046,0.8663583,-0.9558974,0.20973125,-0.20560369,,0.07445821,0.0050941594,0.07149565,0.72487485,-0.11193721,0.67972535,-0.4414713,0.68197757,0.5831034,-0.52882844,-0.72275627,0.44493133,,0.0836759,1.2899004,0.42707777,0.9923721,0.099630095,-0.07260511,0.02418931,-0.7348681,-0.67777854,-0.12088232,0.67085224,-0.7316726,,-0.12052229,0.26799348,-0.09965493,0.191147,0.816685,0.5445075,-0.8628936,-0.124592885,0.48978695,0.4678434,-0.56347334,0.6808967,,-0.081967585,0.47181872,-0.35517493,-0.63047844,0.26876503,-0.72819114,-0.7699812,-0.09797529,0.6304996,0.09811151,0.9582099,0.26871535,,1.134824704935795,0.5619060439285753,0.21480043816000002,-0.5057721436846727,0.4789109316778688,0.6545597276425367,-0.42355116348618616,,-1.5393182846890519,0.34465784544376565,0.16833362682000003,-0.09939303321166454,0.4548629077191513,-1.0338965351263305,0.7590598753259956,,-0.07327110366028695,-0.03740458753180348,0.09109008376,-0.10826536583874626,,-3.734231e-05,3.5762787e-07,-2.3841858e-07,1.0,3.0040741e-05,2.7552247e-05,-3.0040741e-05,1.0,4.9471855e-06,-2.7552247e-05,-4.976988e-06,1.0,397,1.187,0,0,0.0,False,-0.26148663402373185,0.932821742074776
1.1890092410612851,19:59:56.622937,19:58:37.051524,0,,0.12809248,0.0048777163,0.035147205,-0.054154187,-0.89008534,-0.45256525,-0.27007362,-0.4232813,0.8648081,-0.9613155,0.16905904,-0.2174662,,0.07447316,0.0050654896,0.071493864,0.7246203,-0.1117935,0.68002033,-0.44201204,0.68166006,0.58306503,-0.5287256,-0.723078,0.44453067,,0.0836759,1.2899004,0.42707777,0.9923721,0.099630095,-0.07260511,0.02418931,-0.7348681,-0.67777854,-0.12088232,0.67085224,-0.7316726,,-0.120212376,0.26820457,-0.09968584,0.15069075,0.8259018,0.5433033,-0.86263806,-0.15857677,0.4803218,0.48285392,-0.5410542,0.6885583,,-0.081983,0.47179723,-0.35519364,-0.6302675,0.26867163,-0.72840816,-0.7702195,-0.09843982,0.63013613,0.09759534,0.9581885,0.26897955,,1.1358518284080668,0.5615971346136064,0.21486525266000003,-0.5605012189341336,0.49872322414385767,0.6205164875157725,-0.424041195684589,,-1.5393568983534232,0.34444160892328735,0.16832066392000003,-0.09918334326818003,0.4544529982198549,-1.0335622814152412,0.7584064990614585,,-0.07327110366028695,-0.03740458753180348,0.09109008376,-0.10826536583874626,,-3.734231e-05,3.5762787e-07,-2.3841858e-07,1.0,3.0040741e-05,2.7552247e-05,-3.0040741e-05,1.0,4.9471855e-06,-2.7552247e-05,-4.976988e-06,1.0,405,1.211,0,0,0.0,False,-0.2608908568385213,0.9331114232794526
1.2300430221948773,19:59:56.646707,19:58:37.051524,0,,0.12775925,0.005032979,0.035243228,-0.015223399,-0.8945218,-0.4467651,-0.26216757,-0.42761362,0.86510956,-0.9649023,0.1302973,-0.22800496,,0.07448648,0.0050368495,0.07148582,0.7245354,-0.11167331,0.6801305,-0.44230372,0.6814637,0.5830734,-0.528598,-0.7232816,0.4443511,,0.0836759,1.2899004,0.42707777,0.9923721,0.099630095,-0.07260511,0.02418931,-0.7348681,-0.67777854,-0.12088232,0.67085224,-0.7316726,,-0.119882256,0.26839253,-0.099693745,0.11325344,0.83472806,0.5388903,-0.86063397,-0.18860139,0.4730102,0.49647036,-0.51735735,0.69703555,,-0.08199564,0.47177115,-0.35520858,-0.6302185,0.26858395,-0.7284829,-0.7702995,-0.098734364,0.6299922,0.097279504,0.95818275,0.26911432,,1.13651598343525,0.5613577298945054,0.21491580797,-0.5955194394960491,0.508424415627204,0.6003540053322423,-0.42469457194912597,,-1.5393646210862972,0.3442948769986771,0.16831677505,-0.09918334326818003,0.4543163617200895,-1.033450863511545,0.7584064990614585,,-0.07327110366028695,-0.03740458753180348,0.09109008376,-0.10826536583874626,,-3.734231e-05,3.5762787e-07,-2.3841858e-07,1.0,3.0040741e-05,2.7552247e-05,-3.0040741e-05,1.0,4.9471855e-06,-2.7552247e-05,-4.976988e-06,1.0,420,1.257,0,0,0.0,False,-0.2607121236829584,0.9341253074958216
1.2537576612085104,19:59:56.692977,19:58:37.229667,0,,0.12751828,0.0051278546,0.035293713,0.0061633587,-0.8983749,-0.4391864,-0.2558077,-0.42599756,0.8678066,-0.96670794,0.10699871,-0.23243687,,0.074494295,0.005025346,0.07148057,0.7243887,-0.11163026,0.6802938,-0.44241446,0.6815211,0.58292234,-0.52870643,-0.72323424,0.44429934,,0.0836759,1.2899004,0.42707777,0.9923721,0.099630095,-0.07260511,0.02418931,-0.7348681,-0.67777854,-0.12088232,0.67085224,-0.7316726,,-0.11964257,0.26850277,-0.09969817,0.09282726,0.84154266,0.53215516,-0.85797524,-0.20359394,0.47162274,0.5052342,-0.50035536,0.7031237,,-0.08200278,0.4717589,-0.35521302,-0.63005847,0.26853505,-0.7286393,-0.7704353,-0.09866673,0.62983674,0.09724079,0.95820343,0.2690547,,1.1372264748596785,0.5610102069151652,0.21496247441000002,-0.6196337829967695,0.5177156976112539,0.5796273107182551,-0.42420453975072303,,-1.5393723438191715,0.34418675873843796,0.16831677505,-0.0989736533246955,0.4543163617200895,-1.0333691847714042,0.7595499075243985,,-0.07327110366028695,-0.03740458753180348,0.09109008376,-0.10826536583874626,,-3.734231e-05,3.5762787e-07,-2.3841858e-07,1.0,3.0040741e-05,2.7552247e-05,-3.0040741e-05,1.0,4.9471855e-06,-2.7552247e-05,-4.976988e-06,1.0,428,1.28,0,0,0.0,False,-0.2617249448978165,0.9354771531176462
1.300020739203319,19:59:56.723035,19:58:37.229667,0,,0.1272421,0.005218774,0.03533794,0.033975594,-0.8992822,-0.4360473,-0.25023532,-0.43005636,0.86742926,-0.9675887,0.07964304,-0.23964363,,0.07450047,0.0050219186,0.0714826,0.7242726,-0.111485094,0.6804412,-0.44246966,0.681706,0.58266413,-0.5288193,-0.7230823,0.4444123,,0.0836759,1.2899004,0.42707777,0.9923721,0.099630095,-0.07260511,0.02418931,-0.7348681,-0.67777854,-0.12088232,0.67085224,-0.7316726,,-0.119367614,0.26860684,-0.09970597,0.06586845,0.84549254,0.5299092,-0.85542387,-0.22556557,0.46622977,0.5137231,-0.4840068,0.7083968,,-0.082009345,0.4717575,-0.355216,-0.62992567,0.26837122,-0.7288145,-0.7705425,-0.09845025,0.6297395,0.09725199,0.95827156,0.26880777,,1.1379137980854845,0.5606704066686994,0.21500525198000003,-0.6515066544064172,0.5264604335962421,0.5599997176401781,-0.4237145075523203,,-1.5393955120177942,0.3441713132726895,0.16831677505,-0.09876396338121096,0.4543163617200895,-1.033614220991826,0.7600399397228015,,-0.07327110366028695,-0.03740458753180348,0.09109008376,-0.10826536583874626,,-3.734231e-05,3.5762787e-07,-2.3841858e-07,1.0,3.0040741e-05,2.7552247e-05,-3.0040741e-05,1.0,4.9471855e-06,-2.7552247e-05,-4.976988e-06,1.0,443,1.327,0,0,0.0,False,-0.2608908568385213,0.9394844097823412
1.330123784020543,19:59:56.763255,19:58:37.229667,0,,0.12674838,0.005349897,0.03544964,0.079829454,-0.89947057,-0.42962763,-0.2384086,-0.43572277,0.86793244,-0.96787834,0.03314042,-0.24922508,,0.07451233,0.0050198324,0.07148945,0.72423625,-0.11127961,0.68051356,-0.44272262,0.6815786,0.5826211,-0.5286573,-0.7232341,0.44435787,,0.0836759,1.2899004,0.42707777,0.9923721,0.099630095,-0.07260511,0.02418931,-0.7348681,-0.67777854,-0.12088232,0.67085224,-0.7316726,,-0.11888259,0.2687932,-0.099764764,0.021488208,0.8509658,0.5247814,-0.8485176,-0.26207328,0.4597124,0.5287307,-0.45516464,0.7164279,,-0.08202234,0.47175995,-0.35522014,-0.62992924,0.2681928,-0.72887707,-0.77057743,-0.09867142,0.6296621,0.0969515,0.9582988,0.26881933,,1.1391957717426058,0.560106647168881,0.21503895552000002,-0.7047679000514864,0.5420369945695022,0.5256532104815372,-0.42485791601526035,,-1.5394804620794107,0.3441558678069411,0.16831677505,-0.09876396338121096,0.4540430887205586,-1.0335547426647143,0.7642868854422926,,-0.07327110366028695,-0.03740458753180348,0.09109008376,-0.10826536583874626,,-3.734231e-05,3.5762787e-07,-2.3841858e-07,1.0,3.0040741e-05,2.7552247e-05,-3.0040741e-05,1.0,4.9471855e-06,-2.7552247e-05,-4.976988e-06,1.0,451,1.35,0,0,0.0,False,-0.2611887454311268,0.9424295020298881
1.3703554021194577,19:59:56.795514,19:58:37.229667,0,,0.1264263,0.0054417104,0.035584107,0.10506003,-0.8987131,-0.42576662,-0.22753239,-0.43850225,0.86945075,-0.9680864,0.0055312514,-0.25055546,,0.07451929,0.005020637,0.071496725,0.7241422,-0.111293375,0.6806114,-0.44274956,0.68164,0.58252865,-0.52876365,-0.72317404,0.4443292,,0.0836759,1.2899004,0.42707777,0.9923721,0.099630095,-0.07260511,0.02418931,-0.7348681,-0.67777854,-0.12088232,0.67085224,-0.7316726,,-0.11857326,0.26896226,-0.09984221,-0.002577908,0.85340184,0.5212472,-0.84162575,-0.28335565,0.4597561,0.54005504,-0.4375099,0.7189754,,-0.0820305,0.47176516,-0.35522306,-0.6298182,0.26819748,-0.7289713,-0.77066416,-0.098584816,0.62956953,0.096983455,0.9583064,0.26878068,,1.140230617947752,0.5598517969840316,0.21503377036000001,-0.7345438720262888,0.554061006548861,0.5055569136985412,-0.4251846041475288,,-1.5395422439424045,0.3441558678069411,0.16831677505,-0.09855427343772645,0.4540430887205586,-1.0334730639245737,0.7660836701697695,,-0.07327110366028695,-0.03740458753180348,0.09109008376,-0.10826536583874626,,-3.734231e-05,3.5762787e-07,-2.3841858e-07,1.0,3.0040741e-05,2.7552247e-05,-3.0040741e-05,1.0,4.9471855e-06,-2.7552247e-05,-4.976988e-06,1.0,466,1.396,0,0,0.0,False,-0.2602355019347904,0.9463884784938039
1.4026031061075628,19:59:56.832216,19:58:37.400058,0,,0.12609293,0.0055379122,0.035716817,0.12971279,-0.8958671,-0.42496672,-0.220653,-0.4439206,0.86847365,-0.9666885,-0.018881917,-0.25525805,,NaN,NaN,NaN,NaN,NaN,NaN,NaN,NaN,NaN,NaN,NaN,NaN,,0.0836759,1.2899004,0.42707777,0.9923721,0.099630095,-0.07260511,0.02418931,-0.7348681,-0.67777854,-0.12088232,0.67085224,-0.7316726,,-0.11825224,0.26913354,-0.099916995,-0.026588641,0.85316783,0.5209584,-0.8364555,-0.3043569,0.45575103,0.5473894,-0.42364073,0.7217294,,NaN,NaN,NaN,NaN,NaN,NaN,NaN,NaN,NaN,NaN,NaN,NaN,,1.1414662552076278,0.5597359559909182,0.21501043714,-0.7645295339445758,0.5611661045366639,0.48906326774791353,-0.42371450755232043,,-1.5396117485382725,0.3441404223411926,0.16831547876000003,-0.09855427343772645,0.4540430887205586,-1.0331463489640114,0.7703306158892609,,-0.07327110366028695,-0.03740458753180348,0.09109008376,-0.10826536583874626,,-3.734231e-05,3.5762787e-07,-2.3841858e-07,1.0,3.0040741e-05,2.7552247e-05,-3.0040741e-05,1.0,4.9471855e-06,-2.7552247e-05,-4.976988e-06,1.0,489,1.466,0,0,0.0,False,-0.2611887454311268,0.9511199381701905
1.4393163691274822,19:59:56.903352,19:58:37.400058,0,,0.1251569,0.0057877228,0.036199793,0.19895568,-0.88556796,-0.4197452,-0.19724888,-0.45572788,0.8679889,-0.95995283,-0.08989701,-0.26534706,,0.07453929,0.004997153,0.071533024,0.72403795,-0.11165567,0.6806629,-0.44308147,0.6809977,0.5830273,-0.52862823,-0.7237231,0.4435957,,0.0836759,1.2899004,0.42707777,0.9923721,0.099630095,-0.07260511,0.02418931,-0.7348681,-0.67777854,-0.12088232,0.67085224,-0.7316726,,-0.11736606,0.26967704,-0.1002189,-0.094050094,0.850803,0.5169998,-0.81705236,-0.36267766,0.4482079,0.5688409,-0.3802619,0.7292605,,-0.0820577,0.47177526,-0.3552608,-0.6297532,0.26863095,-0.7288678,-0.7707618,-0.0993699,0.6293265,0.09662906,0.9581039,0.26962897,,1.1450959396585134,0.5598363515182831,0.21486395637000003,-0.8507121007167153,0.5817982160012454,0.43785241469057734,-0.42355116348618593,,-1.5397893713943795,0.3440786404781988,0.16829084925,-0.09834458349424192,0.4537698157210277,-1.0323517619756346,0.7753942819394235,,-0.07327110366028695,-0.03740458753180348,0.09109008376,-0.10826536583874626,,-3.734231e-05,3.5762787e-07,-2.3841858e-07,1.0,3.0040741e-05,2.7552247e-05,-3.0040741e-05,1.0,4.9471855e-06,-2.7552247e-05,-4.976988e-06,1.0,497,1.489,0,0,0.0,False,-0.2607717014014801,0.9542098710200762
1.5104296780191362,19:59:56.934652,19:58:37.400058,0,,0.124648675,0.005917363,0.036491916,0.2277079,-0.88312495,-0.41017008,-0.18648356,-0.45299053,0.87179315,-0.9557055,-0.12202415,-0.26783788,,0.07455598,0.0049808808,0.07157576,0.7239016,-0.111723006,0.6807969,-0.4431589,0.68099403,0.5829729,-0.52875006,-0.72371626,0.44346166,,0.0836759,1.2899004,0.42707777,0.9923721,0.099630095,-0.07260511,0.02418931,-0.7348681,-0.67777854,-0.12088232,0.67085224,-0.7316726,,-0.116889074,0.2699887,-0.10040806,-0.12215825,0.8525683,0.5081384,-0.80723387,-0.38321614,0.44890854,0.57745206,-0.35534865,0.735035,,-0.08208259,0.4717953,-0.35529754,-0.62959963,0.26869568,-0.72897667,-0.7708877,-0.09935913,0.62917405,0.09662587,0.95808685,0.26969066,,1.1474359277194035,0.5599521925113965,0.21474599398000002,-0.8882466006004451,0.5894498599881101,0.4068643538209873,-0.42240775502324623,,-1.5400519443121032,0.3440477495467019,0.16826492345000002,-0.09792520360727286,0.4537698157210277,-1.031943368274932,0.7771910666669006,,-0.07327110366028695,-0.03740458753180348,0.09109008376,-0.10826536583874626,,-3.734231e-05,3.5762787e-07,-2.3841858e-07,1.0,3.0040741e-05,2.7552247e-05,-3.0040741e-05,1.0,4.9471855e-06,-2.7552247e-05,-4.976988e-06,1.0,512,1.535,0,0,0.0,False,-0.26053339052739544,0.9542581512208557
1.541770505020395,19:59:56.973590,19:58:37.400058,0,,0.12424834,0.0060324296,0.03669323,0.2463952,-0.8816562,-0.40245697,-0.17949024,-0.44958794,0.8750164,-0.9524036,-0.14336269,-0.26902512,,0.07458064,0.004972238,0.0716179,0.7230681,-0.11153315,0.68171316,-0.44371223,0.6813743,0.58210695,-0.5294261,-0.7233875,0.4431914,,0.0836759,1.2899004,0.42707777,0.9923721,0.099630095,-0.07260511,0.02418931,-0.7348681,-0.67777854,-0.12088232,0.67085224,-0.7316726,,-0.11650876,0.27022335,-0.10052777,-0.140494,0.85401917,0.5009119,-0.800477,-0.3957194,0.45015845,0.5826645,-0.3377239,0.73921895,,-0.08211493,0.47181877,-0.3553269,-0.6286766,0.26846257,-0.72985864,-0.7716561,-0.0988886,0.62830555,0.09650184,0.9582009,0.26932973,,1.1494052246023307,0.559967637977145,0.21467469803000003,-0.9134093938185882,0.5936855914808388,0.3844609310937878,-0.42371450755232043,,-1.5403222399627012,0.3440477495467019,0.16824677539000002,-0.09645737400288121,0.4533599062217314,-1.0316091145638424,0.7778444429314377,,-0.07327110366028695,-0.03740458753180348,0.09109008376,-0.10826536583874626,,-3.734231e-05,3.5762787e-07,-2.3841858e-07,1.0,3.0040741e-05,2.7552247e-05,-3.0040741e-05,1.0,4.9471855e-06,-2.7552247e-05,-4.976988e-06,1.0,520,1.559,0,0,0.0,False,-0.2602950796533112,0.9520855421857799
1.5806708210147917,19:59:57.005294,19:58:37.400058,0,,0.123863995,0.0061744973,0.036889568,0.25936782,-0.8801149,-0.3976506,-0.17161995,-0.4471897,0.8778199,-0.95040774,-0.15943342,-0.267032,,0.074622065,0.0049593933,0.0716688,0.72198045,-0.11054449,0.6830257,-0.44490606,0.6818518,0.5806347,-0.52990836,-0.7230893,0.44310176,,0.0836759,1.2899004,0.42707777,0.9923721,0.099630095,-0.07260511,0.02418931,-0.7348681,-0.67777854,-0.12088232,0.67085224,-0.7316726,,-0.116141506,0.2704734,-0.10062294,-0.15294611,0.85466826,0.49613473,-0.79383576,-0.40526643,0.4534136,0.58858496,-0.32450163,0.74045014,,-0.08216549,0.47184426,-0.35536247,-0.6275635,0.26745418,-0.73118556,-0.7726579,-0.098473676,0.62713856,0.0957283,0.95852554,0.26844904,,1.1514594715468744,0.5599367470456481,0.21463451304000003,-0.9318621088452262,0.5990144149716908,0.36802717930882417,-0.42273444315551467,,-1.5407006538735382,0.3440323040809535,0.16822733104,-0.09477985445500502,0.45226681422360787,-1.0316979162159579,0.7755576260055578,,-0.07327110366028695,-0.03740458753180348,0.09109008376,-0.10826536583874626,,-3.734231e-05,3.5762787e-07,-2.3841858e-07,1.0,3.0040741e-05,2.7552247e-05,-3.0040741e-05,1.0,4.9471855e-06,-2.7552247e-05,-4.976988e-06,1.0,535,1.605,0,0,0.0,False,-0.2598780356236645,0.9503474549577193
1.6123346691019833,19:59:57.052551,19:58:37.603130,0,,0.12322794,0.006409809,0.03716071,0.27646396,-0.87505895,-0.3972903,-0.16176912,-0.44987828,0.87831664,-0.94731116,-0.17855357,-0.2659327,,0.07467781,0.004939545,0.07174516,0.72231394,-0.10977255,0.68279773,-0.44505054,0.6819238,0.58043945,-0.52933234,-0.72313905,0.44370866,,0.0836759,1.2899004,0.42707777,0.9923721,0.099630095,-0.07260511,0.02418931,-0.7348681,-0.67777854,-0.12088232,0.67085224,-0.7316726,,-0.115527086,0.2708498,-0.10074236,-0.16945527,0.85181224,0.49568218,-0.7851308,-0.42068523,0.45452568,0.5956967,-0.31215355,0.74007136,,-0.08223508,0.47188282,-0.35541725,-0.62800276,0.26670796,-0.731081,-0.77235305,-0.09855685,0.62750083,0.095306434,0.9587249,0.26788667,,1.1549424240731496,0.5597050650594213,0.21459173547000002,-0.9572345920068536,0.6047531479618394,0.35240267617473914,-0.421754378758709,,-1.541318472503476,0.3439550767522112,0.16820010895,-0.09498954439848953,0.4521301777238424,-1.0319132132728237,0.773270809079678,,-0.07327110366028695,-0.03740458753180348,0.09109008376,-0.10826536583874626,,-3.734231e-05,3.5762787e-07,-2.3841858e-07,1.0,3.0040741e-05,2.7552247e-05,-3.0040741e-05,1.0,4.9471855e-06,-2.7552247e-05,-4.976988e-06,1.0,558,1.675,0,0,0.0,False,-0.260652545964438,0.9470644013047163
1.6596722260583192,19:59:57.115512,19:58:37.603130,0,,0.1225097,0.0064938217,0.037259743,0.29564384,-0.8735851,-0.3865795,-0.16100758,-0.4444461,0.88121736,-0.94163215,-0.19828421,-0.2720517,,0.07473831,0.0049053915,0.07178366,0.72141194,-0.10930896,0.68382484,-0.4456086,0.6826,0.57921517,-0.53009224,-0.722571,0.44372684,,0.0836759,1.2899004,0.42707777,0.9923721,0.099630095,-0.07260511,0.02418931,-0.7348681,-0.67777854,-0.12088232,0.67085224,-0.7316726,,-0.11482215,0.2710002,-0.10085718,-0.18906744,0.8532211,0.4860733,-0.7811881,-0.43061417,0.4520139,0.59497786,-0.29425353,0.7479413,,-0.08230288,0.47188297,-0.35545865,-0.6269972,0.2661727,-0.7321384,-0.77318007,-0.097747676,0.6266083,0.09522119,0.9589565,0.26708695,,1.1582631992090662,0.5586084369912815,0.21450358775000003,-0.9849136645468108,0.601200598967938,0.3261402314406654,-0.42338781942005166,,-1.5417200546129357,0.3437002265673618,0.16818844234000002,-0.09331202485061334,0.45199354122407703,-1.031883474109268,0.7714740243522009,,-0.07327110366028695,-0.03740458753180348,0.09109008376,-0.10826536583874626,,-3.734231e-05,3.5762787e-07,-2.3841858e-07,1.0,3.0040741e-05,2.7552247e-05,-3.0040741e-05,1.0,4.9471855e-06,-2.7552247e-05,-4.976988e-06,1.0,566,1.698,0,0,0.0,False,-0.26053339052739544,0.9446986714665229
1.7226338610053062,19:59:57.138168,19:58:37.603130,0,,0.12215437,0.0064462423,0.037250057,0.30762428,-0.87046117,-0.38427153,-0.15937781,-0.44528782,0.8810887,-0.938065,-0.20979989,-0.27571356,,0.07475953,0.0048785396,0.07178122,0.7203517,-0.10886532,0.68501216,-0.44655448,0.68290776,0.5781229,-0.5307377,-0.7223472,0.44331947,,0.0836759,1.2899004,0.42707777,0.9923721,0.099630095,-0.07260511,0.02418931,-0.7348681,-0.67777854,-0.12088232,0.67085224,-0.7316726,,-0.114473276,0.2709699,-0.10093449,-0.2012285,0.8514849,0.4842319,-0.7778857,-0.43934664,0.44929773,0.5953159,-0.28626552,0.750767,,-0.08232427,0.47186142,-0.35547462,-0.62587166,0.26570702,-0.7332697,-0.77415,-0.09743333,0.6254586,0.09474384,0.9591176,0.26667786,,1.1594293318730742,0.5577280454436199,0.21444136583,-1.001688860025573,0.6006540529688762,0.31474248573506947,-0.4232244753539176,,-1.5417509455444327,0.34353032644412884,0.16818196089,-0.09184419524622166,0.45131035872524977,-1.031816457031629,0.7695138955585894,,-0.07327110366028695,-0.03740458753180348,0.09109008376,-0.10826536583874626,,-3.734231e-05,3.5762787e-07,-2.3841858e-07,1.0,3.0040741e-05,2.7552247e-05,-3.0040741e-05,1.0,4.9471855e-06,-2.7552247e-05,-4.976988e-06,1.0,581,1.744,0,0,0.0,False,-0.26017592421626956,0.9418501396205348
1.7452439072076231,19:59:57.177691,19:58:37.603130,0,,0.1218348,0.0063451454,0.037174717,0.31969106,-0.8676332,-0.380802,-0.16046444,-0.44566303,0.88070166,-0.93383545,-0.22044723,-0.28169888,,0.07477407,0.004848618,0.07176709,0.7202816,-0.108308,0.6851742,-0.4467531,0.683188,0.57763815,-0.5306657,-0.7221659,0.44370088,,0.0836759,1.2899004,0.42707777,0.9923721,0.099630095,-0.07260511,0.02418931,-0.7348681,-0.67777854,-0.12088232,0.67085224,-0.7316726,,-0.1141559,0.2708544,-0.100997485,-0.21377286,0.8499715,0.48150766,-0.7760671,-0.44713044,0.44474065,0.5933136,-0.27860877,0.7552193,,-0.082337044,0.47182983,-0.35548657,-0.6258235,0.26513657,-0.7335172,-0.7742143,-0.09718233,0.62541807,0.094536275,0.9593009,0.26609153,,1.1602402188248677,0.5566854765055995,0.21437525504000002,-1.0180446756173656,0.5975114134742711,0.30317467547577,-0.4232244753539176,,-1.5417355000786843,0.34330636719077634,0.16817936831000002,-0.09184419524622166,0.45131035872524977,-1.0324698869527535,0.7672270786327096,,-0.07327110366028695,-0.03740458753180348,0.09109008376,-0.10826536583874626,,-3.734231e-05,3.5762787e-07,-2.3841858e-07,1.0,3.0040741e-05,2.7552247e-05,-3.0040741e-05,1.0,4.9471855e-06,-2.7552247e-05,-4.976988e-06,1.0,589,1.768,0,0,0.0,False,-0.2603546573718325,0.9393878493807821
1.7848170471843332,19:59:57.211917,19:58:37.748813,0,,0.12148529,0.0062205642,0.03704886,0.33466646,-0.86461854,-0.37474406,-0.1627051,-0.444721,0.88076675,-0.9281839,-0.23379026,-0.28951114,,0.07478444,0.0048290677,0.07175928,0.720207,-0.10828012,0.6852571,-0.4469967,0.6829656,0.5777127,-0.5305619,-0.7223804,0.44347572,,0.0836759,1.2899004,0.42707777,0.9923721,0.099630095,-0.07260511,0.02418931,-0.7348681,-0.67777854,-0.12088232,0.67085224,-0.7316726,,-0.113804564,0.27068773,-0.10104544,-0.2294616,0.8487108,0.47648445,-0.7741674,-0.45585895,0.43915537,0.5899256,-0.26810944,0.76164633,,-0.082346514,0.4718101,-0.35549518,-0.6257784,0.26514062,-0.73355424,-0.7742828,-0.09749089,0.62528527,0.094273664,0.95926845,0.2663015,,1.1611746695026488,0.5552181572594969,0.21430655167,-1.0467721978747455,0.5912261344850608,0.2835512407832149,-0.42404119568458887,,-1.5417355000786843,0.3431673579990403,0.16817677573,-0.09184419524622166,0.45117372222548435,-1.0322767903089167,0.7644502295084268,,-0.07327110366028695,-0.03740458753180348,0.09109008376,-0.10826536583874626,,-3.734231e-05,3.5762787e-07,-2.3841858e-07,1.0,3.0040741e-05,2.7552247e-05,-3.0040741e-05,1.0,4.9471855e-06,-2.7552247e-05,-4.976988e-06,1.0,604,1.814,0,0,0.0,False,-0.26112916771260597,0.935911674924661
1.8190369720105082,19:59:57.253284,19:58:37.748813,0,,0.12121685,0.006146498,0.0369031,0.3558776,-0.8577828,-0.3708906,-0.16615173,-0.4486255,0.87813926,-0.9196439,-0.25088596,-0.30217794,,0.07481344,0.0048107393,0.07176292,0.7183476,-0.107430845,0.68733937,-0.44798902,0.6844524,0.575179,-0.5322431,-0.72109884,0.4435469,,0.0836759,1.2899004,0.42707777,0.9923721,0.099630095,-0.07260511,0.02418931,-0.7348681,-0.67777854,-0.12088232,0.67085224,-0.7316726,,-0.11352694,0.27054092,-0.10103264,-0.25177085,0.84374774,0.47402656,-0.7712984,-0.47078717,0.42832026,0.58455986,-0.25777736,0.7693118,,-0.08237633,0.47179767,-0.35550725,-0.6236783,0.26412475,-0.7357061,-0.7759733,-0.09566687,0.62346876,0.09429082,0.95973223,0.2646191,,1.16156080614636,0.5547470705541692,0.21430007022000003,-1.0650152229578993,0.584804218996085,0.2729422066696777,-0.42371450755232054,,-1.541797281941678,0.34302062607443007,0.16817677573,-0.08890853603743833,0.45062717622642257,-1.0329746210560988,0.7618367244502784,,-0.07327110366028695,-0.03740458753180348,0.09109008376,-0.10826536583874626,,-3.734231e-05,3.5762787e-07,-2.3841858e-07,1.0,3.0040741e-05,2.7552247e-05,-3.0040741e-05,1.0,4.9471855e-06,-2.7552247e-05,-4.976988e-06,1.0,612,1.838,0,0,0.0,False,-0.2607717014014801,0.9380360037589575
1.8604057731572539,19:59:57.277784,19:58:37.748813,0,,0.12107526,0.0061278045,0.036847368,0.37372932,-0.8505393,-0.37001252,-0.16441792,-0.45335034,0.8760365,-0.9128489,-0.26656383,-0.30927432,,0.07482585,0.0048031695,0.07176316,0.7183962,-0.107136786,0.6873344,-0.44868368,0.6837011,0.5755308,-0.5315919,-0.7218549,0.44309777,,0.0836759,1.2899004,0.42707777,0.9923721,0.099630095,-0.07260511,0.02418931,-0.7348681,-0.67777854,-0.12088232,0.67085224,-0.7316726,,-0.113381505,0.27049282,-0.101026654,-0.27012956,0.83814126,0.4738663,-0.7658419,-0.48532474,0.42183656,0.58353764,-0.24895614,0.7729842,,-0.082388856,0.47179157,-0.3555114,-0.62387216,0.26394787,-0.73560524,-0.7759303,-0.096756645,0.62335414,0.09335831,0.9596717,0.2651689,,1.1617770426668383,0.55463895229393,0.21430136651,-1.088081116741197,0.5824813985000726,0.2621761063107298,-0.4220810668909776,,-1.5418590638046719,0.3429897351429331,0.16817547944000003,-0.08932791592440738,0.44980735722782994,-1.032551149854342,0.7621634125825469,,-0.07327110366028695,-0.03740458753180348,0.09109008376,-0.10826536583874626,,-3.734231e-05,3.5762787e-07,-2.3841858e-07,1.0,3.0040741e-05,2.7552247e-05,-3.0040741e-05,1.0,4.9471855e-06,-2.7552247e-05,-4.976988e-06,1.0,627,1.884,0,0,0.0,False,-0.26160578946077395,0.9390016077745469
1.8848780130501837,19:59:57.322327,19:58:37.872776,0,,0.12085812,0.0060945526,0.036633298,0.4197352,-0.8354743,-0.35468996,-0.16682428,-0.4551348,0.87465525,-0.8921838,-0.30795264,-0.33041358,,0.074869774,0.004803706,0.07179493,0.7165669,-0.10669868,0.68930924,-0.44947505,0.68506235,0.5732902,-0.5333891,-0.7206282,0.44293466,,0.0836759,1.2899004,0.42707777,0.9923721,0.099630095,-0.07260511,0.02418931,-0.7348681,-0.67777854,-0.12088232,0.67085224,-0.7316726,,-0.113142945,0.27032602,-0.100929946,-0.31837812,0.82820433,0.46120813,-0.7544972,-0.5159357,0.40564072,0.57390714,-0.21883312,0.78914046,,-0.08243784,0.47181082,-0.35552442,-0.6217728,0.26334128,-0.7375974,-0.77758366,-0.09500585,0.6215605,0.09360648,0.96001315,0.26384193,,1.1619855564544423,0.5547547932870435,0.21433636634000003,-1.1459555411429256,0.5681345660247014,0.2245410271539544,-0.4227344431555147,,-1.5421293594552696,0.34295112147856205,0.16817936831000002,-0.08618256677213951,0.4493974477285336,-1.0326252898439556,0.7664103583020382,,-0.07327110366028695,-0.03740458753180348,0.09109008376,-0.10826536583874626,,-3.734231e-05,3.5762787e-07,-2.3841858e-07,1.0,3.0040741e-05,2.7552247e-05,-3.0040741e-05,1.0,4.9471855e-06,-2.7552247e-05,-4.976988e-06,1.0,635,1.907,0,0,0.0,False,-0.2608312791200009,0.9536787888115019
1.9294443370308727,19:59:57.354902,19:58:37.872776,0,,0.120816305,0.006089166,0.036429837,0.44221994,-0.8311942,-0.33698314,-0.17526695,-0.44855776,0.8764001,-0.87961525,-0.32849956,-0.3440422,,0.07490446,0.004795868,0.071810186,0.7163195,-0.10647541,0.68960094,-0.44984508,0.68502617,0.5730433,-0.5334097,-0.7206957,0.4428001,,0.0836759,1.2899004,0.42707777,0.9923721,0.099630095,-0.07260511,0.02418931,-0.7348681,-0.67777854,-0.12088232,0.67085224,-0.7316726,,-0.11307691,0.2701814,-0.100796185,-0.34284177,0.8270291,0.4455136,-0.7524285,-0.5256981,0.39685372,0.56241524,-0.1991591,0.8025115,,-0.08247501,0.47181323,-0.35553485,-0.62153965,0.26313314,-0.7378682,-0.777807,-0.09510669,0.62126565,0.09329937,0.96006024,0.26377937,,1.1619932791873167,0.5548242978829114,0.21439729197000001,-1.1725861639654602,0.5531045510505029,0.19922477609590206,-0.42126434656030626,,-1.542345595975748,0.34285844868407134,0.16818325718000002,-0.08576318688517047,0.44912417472900273,-1.0324024540365628,0.7742508734764837,,-0.07327110366028695,-0.03740458753180348,0.09109008376,-0.10826536583874626,,-3.734231e-05,3.5762787e-07,-2.3841858e-07,1.0,3.0040741e-05,2.7552247e-05,-3.0040741e-05,1.0,4.9471855e-06,-2.7552247e-05,-4.976988e-06,1.0,650,1.953,0,0,0.0,False,-0.2611887454311268,0.9654108776009105
1.9620138450991362,19:59:57.391441,19:58:37.872776,0,,0.12068993,0.006108403,0.036024287,0.48529786,-0.8153874,-0.31564134,-0.18419906,-0.44824296,0.8747278,-0.854726,-0.3663626,-0.3677252,,0.074950054,0.0047591794,0.071855664,0.7154893,-0.10632287,0.6904857,-0.45062146,0.6850347,0.5724227,-0.5338684,-0.72071004,0.44222367,,0.08372481,1.2899023,0.42707092,0.9923737,0.099579945,-0.072651364,0.02412159,-0.7348749,-0.6777736,-0.12088232,0.67085224,-0.7316726,,-0.11294086,0.2699218,-0.100512244,-0.38924667,0.81605494,0.4272486,-0.742694,-0.5524102,0.37848192,0.54487854,-0.16999213,0.821103,,-0.082571685,0.47182116,-0.35558507,-0.620703,0.2630255,-0.73861045,-0.77852213,-0.09513539,0.62036484,0.09290378,0.9600869,0.263822,,1.1618928836599518,0.554878357013031,0.21454895790000003,-1.2250086498365913,0.530149619089909,0.1637083004635676,-0.4219177228248432,,-1.5428398508796983,0.3425418166362281,0.16819362750000003,-0.08429535728077879,0.4488509017294719,-1.0315261883080455,0.7892785275608374,,-0.07327110366028695,-0.03740458753180348,0.09109008376,-0.10826536583874626,,1.2069941e-05,-8.34465e-07,0.0,1.0,-1.98856e-05,-1.8239021e-05,1.9878149e-05,1.0,-3.2782555e-06,1.822412e-05,3.2782555e-06,1.0,658,1.977,1,1,0.016,False,-0.2602950796533112,0.9710113808913277
1.9985002141911536,19:59:57.419597,19:58:37.872776,0,,0.12067561,0.006106347,0.035809413,0.50568354,-0.80685717,-0.30539453,-0.19130117,-0.45004892,0.8722726,-0.8412419,-0.38267148,-0.38193524,,0.075015366,0.004735427,0.07187283,0.7155744,-0.10633257,0.690396,-0.45084956,0.68462324,0.57273525,-0.53356165,-0.72109944,0.44195896,,0.08372481,1.2899023,0.42707092,0.9923737,0.099579945,-0.072651364,0.02412159,-0.7348749,-0.6777736,-0.12088232,0.67085224,-0.7316726,,-0.11290035,0.26977077,-0.100364156,-0.4116406,0.80948555,0.41867065,-0.73896414,-0.56533736,0.36650467,0.53337044,-0.1585144,0.8308966,,-0.08263987,0.4718112,-0.3556044,-0.6208517,0.26309174,-0.73846185,-0.7784457,-0.09569332,0.620375,0.09254965,0.9600133,0.26421398,,1.1618619927284548,0.5548938024787795,0.21462932788000003,-1.2491229933373116,0.5156661501147722,0.14978979511111112,-0.4243678838168575,,-1.5432105420576612,0.3422715209856303,0.16820399782,-0.08429535728077879,0.4488509017294719,-1.0308727583869208,0.7935254732803287,,-0.07327110366028695,-0.03740458753180348,0.09109008376,-0.10826536583874626,,1.2069941e-05,-8.34465e-07,0.0,1.0,-1.98856e-05,-1.8239021e-05,1.9878149e-05,1.0,-3.2782555e-06,1.822412e-05,3.2782555e-06,1.0,670,2.014,1,1,0.053,False,-0.260652545964438,0.9694181342656054
2.026721851201728,19:59:57.446303,19:58:37.872776,0,,0.12074237,0.006175518,0.035209075,0.54713964,-0.79120505,-0.27319026,-0.2175543,-0.44957864,0.8663423,-0.8082749,-0.41457647,-0.41811246,,0.07522611,0.0046396125,0.07192862,0.71585184,-0.10520327,0.6902815,-0.45155448,0.68429476,0.5725724,-0.5325926,-0.7215768,0.44234866,,0.08372481,1.2899023,0.42707092,0.9923737,0.099579945,-0.072651364,0.02412159,-0.7348749,-0.6777736,-0.12088232,0.67085224,-0.7316726,,-0.11288681,0.26939926,-0.09988307,-0.4588055,0.7979771,0.3908069,-0.73595816,-0.58773184,0.33606085,0.49785855,-0.13343097,0.85693234,,-0.082860716,0.4717672,-0.3556819,-0.62132937,0.26205873,-0.7384274,-0.7781952,-0.09639972,0.6205798,0.09144416,0.96022516,0.2638288,,1.1618774381942032,0.5549092479445279,0.2148341417,-1.2822540044078663,0.48902203266051136,0.1270013729553069,-0.42322447535391755,,-1.5443998429202916,0.34129845664347797,0.16822603475,-0.08429535728077879,0.4489875382292373,-1.030494103849774,0.7922187207512544,,-0.07327110366028695,-0.03740458753180348,0.09109008376,-0.10826536583874626,,1.2069941e-05,-8.34465e-07,0.0,1.0,-1.98856e-05,-1.8239021e-05,1.9878149e-05,1.0,-3.2782555e-06,1.822412e-05,3.2782555e-06,1.0,678,2.038,1,1,0.077,False,-0.2616653671792948,0.9675352064352065
2.0534005500376225,19:59:57.480399,19:58:37.872776,0,,0.12090186,0.006240003,0.034732357,0.5791554,-0.78090775,-0.23401333,-0.24917069,-0.44288754,0.86125743,-0.7762041,-0.4404925,-0.45108017,,0.07542935,0.004535334,0.07198703,0.7158618,-0.10399635,0.6904539,-0.45232663,0.684237,0.57203174,-0.5319234,-0.7218064,0.4427789,,0.08372481,1.2899023,0.42707092,0.9923737,0.099579945,-0.072651364,0.02412159,-0.7348749,-0.6777736,-0.12088232,0.67085224,-0.7316726,,-0.11298062,0.26910797,-0.09947912,-0.49694887,0.7915219,0.35571742,-0.7371371,-0.60133743,0.30825675,0.45789817,-0.109024666,0.8822941,,-0.083074965,0.47172052,-0.35576856,-0.6214915,0.26091376,-0.73869634,-0.77818364,-0.096753985,0.62053925,0.09043541,0.96050125,0.2631706,,1.162217238440669,0.5553031073211133,0.21512321437,-1.3283857919744617,0.42575933326911247,0.09078321671564558,-0.4224077550232461,,-1.545550530118551,0.34030994683557725,0.16823770136000002,-0.08387597739380975,0.44912417472900273,-1.030278806792908,0.7915653444867173,,-0.07327110366028695,-0.03740458753180348,0.09109008376,-0.10826536583874626,,1.2069941e-05,-8.34465e-07,0.0,1.0,-1.98856e-05,-1.8239021e-05,1.9878149e-05,1.0,-3.2782555e-06,1.822412e-05,3.2782555e-06,1.0,715,2.153,1,1,0.192,False,-0.260652545964438,0.9672938054313094
2.08750034798868,19:59:57.588994,19:58:38.055997,0,,0.121204525,0.0067394376,0.033871397,0.651355,-0.7519756,-0.101337895,-0.36152416,-0.4249847,0.82987225,-0.6671108,-0.50390536,-0.5486734,,0.076219454,0.0041321684,0.07225394,0.7113153,-0.09875102,0.69590145,-0.456717,0.6876402,0.56441176,-0.5342661,-0.71930474,0.44402772,,0.08372481,1.2899023,0.42707092,0.9923737,0.099579945,-0.072651364,0.02412159,-0.7348749,-0.6777736,-0.12088232,0.67085224,-0.7316726,,-0.113134,0.26885542,-0.098481625,-0.5907732,0.7721532,0.23402236,-0.743504,-0.6336431,0.21377137,0.31335092,-0.04770616,0.94843835,,-0.08391518,0.47157097,-0.3561287,-0.6167563,0.25542632,-0.7445596,-0.7822347,-0.09329766,0.6159581,0.08786624,0.96231645,0.25734526,,1.1678084970416076,0.5573496315327828,0.21561710086000002,-1.402825721911468,0.2617955335505839,0.025270253948520012,-0.4264913566766031,,-1.5500065469869786,0.336587589590201,0.16826233087,-0.07464961988049067,0.4489875382292373,-1.0300857101490712,0.785521614039749,,-0.07327110366028695,-0.03740458753180348,0.09109008376,-0.10826536583874626,,1.2069941e-05,-8.34465e-07,0.0,1.0,-1.98856e-05,-1.8239021e-05,1.9878149e-05,1.0,-3.2782555e-06,1.822412e-05,3.2782555e-06,1.0,740,2.231,1,1,0.27,False,-0.2617249448978165,0.9563341998543722
2.1961167401168495,19:59:57.669094,19:58:38.180139,0,,0.12035688,0.007544391,0.03434749,0.68857604,-0.72516423,8.1181526e-05,-0.43461317,-0.41259515,0.80054754,-0.5804949,-0.55127305,-0.5992692,,0.0766784,0.003944354,0.07242179,0.70583326,-0.0955179,0.7019087,-0.46067384,0.69082665,0.5572595,-0.5381256,-0.71668327,0.44360584,,0.08372481,1.2899023,0.42707092,0.9923737,0.099579945,-0.072651364,0.02412159,-0.7348749,-0.6777736,-0.12088232,0.67085224,-0.7316726,,-0.11229018,0.26978865,-0.09838069,-0.644098,0.75246346,0.1376102,-0.73643655,-0.65863144,0.15448558,0.20687915,-0.001837325,0.97836477,,-0.0844039,0.47152358,-0.3563104,-0.610806,0.25188482,-0.7506465,-0.78704774,-0.08965072,0.61034304,0.086440146,0.96359575,0.25300458,,1.1832539627900567,0.5592880374842132,0.21559117506000003,-1.4577644871044133,0.12488576078561256,-0.022689264782324345,-0.4250212600813946,,-1.5525550488354727,0.3347495791661356,0.16829473812,-0.06500388248020254,0.44748453673181743,-1.0294318643893945,0.7657569820375012,,-0.07327110366028695,-0.03740458753180348,0.09109008376,-0.10826536583874626,,1.2069941e-05,-8.34465e-07,0.0,1.0,-1.98856e-05,-1.8239021e-05,1.9878149e-05,1.0,-3.2782555e-06,1.822412e-05,3.2782555e-06,1.0,773,2.333,1,1,0.372,False,-0.2611887454311268,0.9313250558506128
2.276214627083391,19:59:57.771166,19:58:38.324139,0,,0.11812517,0.00884226,0.035350785,0.7056923,-0.7030145,0.0881421,-0.5004579,-0.4065282,0.76437986,-0.5015378,-0.58352834,-0.63871306,,0.076984316,0.0038608778,0.07246262,0.69789267,-0.09172182,0.71030486,-0.466283,0.69459647,0.5478283,-0.5436232,-0.71352845,0.44198543,,0.08372481,1.2899023,0.42707092,0.9923737,0.099579945,-0.072651364,0.02412159,-0.7348749,-0.6777736,-0.12088232,0.67085224,-0.7316726,,-0.11010311,0.27148333,-0.098508656,-0.6760141,0.73501676,0.05249047,-0.7289394,-0.6774576,0.09848136,0.10794551,0.028312415,0.99375355,,-0.08471497,0.47146478,-0.35635507,-0.6021997,0.24771352,-0.75894237,-0.79387057,-0.085292175,0.6020754,0.08441038,0.9650716,0.24801539,,1.2024681221811273,0.558693387052898,0.21561969344,-1.4919439478923908,0.020222201965285187,-0.049488060763857505,-0.42763476513954307,,-1.5537752406296002,0.3337147329609895,0.16837251552000002,-0.053051555701584666,0.44352207823861967,-1.0296312522681017,0.7507293279531475,,-0.07327110366028695,-0.03740458753180348,0.09109008376,-0.10826536583874626,,1.2069941e-05,-8.34465e-07,0.0,1.0,-1.98856e-05,-1.8239021e-05,1.9878149e-05,1.0,-3.2782555e-06,1.822412e-05,3.2782555e-06,1.0,781,2.358,1,1,0.397,False,-0.26136747858668974,0.9196412472619837
2.37829267908819,19:59:57.793996,19:58:38.324139,0,,0.11734576,0.009235784,0.035357133,0.71297187,-0.68965393,0.12668279,-0.5177088,-0.39589322,0.7584497,-0.472915,-0.6063381,-0.6393008,,0.07707646,0.0038219858,0.072460055,0.69721967,-0.08921951,0.71128386,-0.46808985,0.6948288,0.5459898,-0.54293346,-0.7136196,0.44268557,,0.08372481,1.2899023,0.42707092,0.9923737,0.099579945,-0.072651364,0.02412159,-0.7348749,-0.6777736,-0.12088232,0.67085224,-0.7316726,,-0.10930158,0.27179226,-0.09835213,-0.6881201,0.7254623,0.013967881,-0.7215178,-0.68616337,0.092692666,0.076829284,0.053705614,0.99559677,,-0.08480643,0.471427,-0.35636976,-0.60173327,0.24528153,-0.7601014,-0.79442537,-0.08550914,0.60131234,0.0824952,0.96567345,0.24631156,,1.206136420296384,0.5579751728955951,0.21572469293000002,-1.506831933879792,0.0005465459990617618,-0.06913749207299855,-0.4211010024941719,,-1.554145931807563,0.3333285963172783,0.16839455245,-0.052632175814615614,0.44188244024143436,-1.0310713145885237,0.7489325432256704,,-0.07327110366028695,-0.03740458753180348,0.09109008376,-0.10826536583874626,,1.2069941e-05,-8.34465e-07,0.0,1.0,-1.98856e-05,-1.8239021e-05,1.9878149e-05,1.0,-3.2782555e-06,1.822412e-05,3.2782555e-06,1.0,810,2.448,0,1,0.403,False,-0.2607717014014801,0.9105645695154454
2.4010958541184664,19:59:57.885872,19:58:38.324139,0,,0.11428474,0.009870738,0.03508635,0.72687995,-0.6768133,0.11648714,-0.5067223,-0.4140623,0.7561645,-0.4635492,-0.6086674,-0.6439302,,0.07729838,0.0037419964,0.0724895,0.6876567,-0.08017151,0.721596,-0.4774565,0.6988064,0.5326395,-0.5469585,-0.71080387,0.44226053,,0.08372481,1.2899023,0.42707092,0.9923737,0.099579945,-0.072651364,0.02412159,-0.7348749,-0.6777736,-0.12088232,0.67085224,-0.7316726,,-0.10618978,0.27214774,-0.09816077,-0.7021581,0.7116014,0.0244422,-0.70752954,-0.7011673,0.08812668,0.07984914,0.044585284,0.9958094,,-0.085032776,0.47137177,-0.35641697,-0.5919452,0.23602286,-0.77064526,-0.8023465,-0.08189735,0.59121305,0.07642599,0.96829027,0.23785087,,1.2231573235511748,0.5484684887274247,0.21633394923000002,-1.5357691460806564,-0.025824298455668245,-0.07368935476442856,-0.4344952159171828,,-1.5549259278278598,0.3327880050160826,0.16841788567000002,-0.04067984903599772,0.4330010677566808,-1.0353458532080757,0.7250843095700654,,-0.07327110366028695,-0.03740458753180348,0.09109008376,-0.10826536583874626,,1.2069941e-05,-8.34465e-07,0.0,1.0,-1.98856e-05,-1.8239021e-05,1.9878149e-05,1.0,-3.2782555e-06,1.822412e-05,3.2782555e-06,1.0,822,2.485,0,1,0.403,False,-0.2611887454311268,0.897239234100315
2.492996131069958,19:59:57.929741,19:58:38.324139,0,,0.1135667,0.009784035,0.034831777,0.7290142,-0.67507035,0.11321831,-0.50524265,-0.4190966,0.754379,-0.4618094,-0.6071557,-0.6466019,,0.077335835,0.0037332345,0.072487056,0.68350357,-0.076414466,0.7259365,-0.48153794,0.7002071,0.5270969,-0.5485838,-0.7098386,0.4417976,,0.08372481,1.2899023,0.42707092,0.9923737,0.099579945,-0.072651364,0.02412159,-0.7348749,-0.6777736,-0.12088232,0.67085224,-0.7316726,,-0.10545501,0.27192917,-0.09814468,-0.7043661,0.70928985,0.027863067,-0.7053194,-0.70376545,0.08508062,0.07995588,0.040275544,0.99598444,,-0.08506945,0.47135988,-0.3564167,-0.5877175,0.23220672,-0.7750279,-0.8057022,-0.08071307,0.58679587,0.07370306,0.96931183,0.23452595,,1.2253737478860771,0.5453176137147411,0.21640913405000003,-1.539962944950347,-0.02760057295261897,-0.07224092201637508,-0.4344952159171828,,-1.5549490960264825,0.33284206414620215,0.16841918196000003,-0.03585698033585366,0.42876533626395213,-1.0372010163026233,0.72296083671032,,-0.07327110366028695,-0.03740458753180348,0.09109008376,-0.10826536583874626,,1.2069941e-05,-8.34465e-07,0.0,1.0,-1.98856e-05,-1.8239021e-05,1.9878149e-05,1.0,-3.2782555e-06,1.822412e-05,3.2782555e-06,1.0,847,2.562,0,1,0.403,False,-0.26148663402373185,0.8941975814512091
2.536848367191851,19:59:58.001160,19:58:38.507801,0,,0.11266364,0.009563893,0.03451605,0.73411494,-0.67102784,0.10390831,-0.49482805,-0.42388126,0.75859714,-0.46499497,-0.60831416,-0.6432212,,0.07739277,0.0037113,0.072475255,0.6736669,-0.068587616,0.73584557,-0.49001682,0.70389044,0.51421964,-0.55322385,-0.70698947,0.44057858,,0.08372481,1.2899023,0.42707092,0.9923737,0.099579945,-0.072651364,0.02412159,-0.7348749,-0.6777736,-0.12088232,0.67085224,-0.7316726,,-0.10454033,0.2715779,-0.098204695,-0.7081891,0.70505315,0.03699091,-0.7002417,-0.7081166,0.090732716,0.090165265,0.03835334,0.99518806,,-0.085123986,0.4713301,-0.3564178,-0.577514,0.22413018,-0.7850116,-0.8134885,-0.07711971,0.57644516,0.068658896,0.9715031,0.22686504,,1.227327599303256,0.5410932788325403,0.21642080066000002,-1.5475117829157896,-0.01912910996716166,-0.07392139267655722,-0.43547528031398847,,-1.554833255033369,0.3329810733379382,0.16841270051,-0.024114343500720302,0.42002060027896393,-1.0413419366054497,0.7157736978004117,,-0.07327110366028695,-0.03740458753180348,0.09109008376,-0.10826536583874626,,1.2069941e-05,-8.34465e-07,0.0,1.0,-1.98856e-05,-1.8239021e-05,1.9878149e-05,1.0,-3.2782555e-06,1.822412e-05,3.2782555e-06,1.0,855,2.587,1,2,0.418,False,-0.2608312791200009,0.8882591167553358
2.6082838701549917,19:59:58.031687,19:58:38.507801,0,,0.112537235,0.009585395,0.034533337,0.7348237,-0.67221683,0.090325564,-0.48305324,-0.425193,0.7654216,-0.47612345,-0.606082,-0.6371586,,0.07742151,0.0036924947,0.07246131,0.6705289,-0.06445211,0.73907846,-0.493914,0.70456517,0.5095458,-0.5535703,-0.7067064,0.44059747,,0.08372481,1.2899023,0.42707092,0.9923737,0.099579945,-0.072651364,0.02412159,-0.7348749,-0.6777736,-0.12088232,0.67085224,-0.7316726,,-0.10441571,0.27160907,-0.098220155,-0.70657945,0.7058493,0.050221846,-0.6996056,-0.707462,0.10024752,0.10628969,0.035697356,0.99369425,,-0.08515033,0.4713041,-0.35641932,-0.5745128,0.22004154,-0.78836334,-0.8158764,-0.07696297,0.57308143,0.065426946,0.9724497,0.22374293,,1.227126808248526,0.5407766467846971,0.21641820808000004,-1.5473020929723051,-0.002732729995308809,-0.0716909017532804,-0.4346585599833171,,-1.5548100868347463,0.3329887960708124,0.16841010793000002,-0.02117868429193696,0.4157848687862353,-1.0436871721408407,0.7126701605438606,,-0.07327110366028695,-0.03740458753180348,0.09109008376,-0.10826536583874626,,1.2069941e-05,-8.34465e-07,0.0,1.0,-1.98856e-05,-1.8239021e-05,1.9878149e-05,1.0,-3.2782555e-06,1.822412e-05,3.2782555e-06,1.0,880,2.665,1,2,0.496,False,-0.2612483231496481,0.8863761889249369
2.638758762041107,19:59:58.103391,19:58:38.507801,0,,0.11235914,0.009553403,0.034597382,0.741806,-0.6673144,0.06644927,-0.45873845,-0.43266314,0.7761195,-0.4891655,-0.6062128,-0.627075,,0.07741681,0.003705727,0.07246381,0.670314,-0.062050536,0.73947877,-0.4965392,0.7030474,0.50909054,-0.551478,-0.7084308,0.44045198,,0.08372481,1.2899023,0.42707092,0.9923737,0.099579945,-0.072651364,0.02412159,-0.7348749,-0.6777736,-0.12088232,0.67085224,-0.7316726,,-0.10424999,0.27163613,-0.09831314,-0.7099405,0.70042133,0.073447056,-0.69151783,-0.71304256,0.11564352,0.13337007,0.031310074,0.9905716,,-0.08514568,0.471315,-0.3564114,-0.5747858,0.21794544,-0.7887465,-0.81594604,-0.07952822,0.5726319,0.06207491,0.9727153,0.22354342,,1.2265630487487078,0.5402978373464952,0.21634691213,-1.556109070598655,0.024731206457544723,-0.06696855866959446,-0.4349852481155857,,-1.554833255033369,0.333251368988536,0.16840233019,-0.022436823952844107,0.4123689562920993,-1.0444139103744745,0.7098933114195776,,-0.07327110366028695,-0.03740458753180348,0.09109008376,-0.10826536583874626,,1.2069941e-05,-8.34465e-07,0.0,1.0,-1.98856e-05,-1.8239021e-05,1.9878149e-05,1.0,-3.2782555e-06,1.822412e-05,3.2782555e-06,1.0,909,2.755,1,2,0.586,False,-0.26202283349042155,0.8826586134649186
2.7105109840631485,19:59:58.190299,19:58:38.700200,0,,0.11193174,0.009199426,0.034442022,0.74063265,-0.6700341,0.050176635,-0.45328134,-0.44312274,0.77341974,-0.49598312,-0.59556395,-0.6319052,,0.0774136,0.0037095118,0.07246852,0.66983557,-0.060642183,0.74002904,-0.49784762,0.7027565,0.5082135,-0.5508795,-0.7088412,0.4405408,,0.08372481,1.2899023,0.42707092,0.9923737,0.099579945,-0.072651364,0.02412159,-0.7348749,-0.6777736,-0.12088232,0.67085224,-0.7316726,,-0.103836246,0.27128702,-0.09851072,-0.70750415,0.7009647,0.08992425,-0.6923375,-0.7130132,0.11081983,0.14179796,0.01614756,0.9897639,,-0.08514325,0.47132134,-0.3564119,-0.57447505,0.21662739,-0.7893358,-0.8162737,-0.08019279,0.572072,0.06062743,0.9729551,0.222896,,1.2265862169473305,0.5376952763678815,0.21617839443000003,-1.5542218611072944,0.03333930594276747,-0.05454834644901517,-0.43596531251239135,,-1.5548409777662433,0.3333749327145236,0.16839455245,-0.022436823952844107,0.410729318294914,-1.0451188640336313,0.7067897741630265,,-0.07327110366028695,-0.03740458753180348,0.09109008376,-0.10826536583874626,,1.2069941e-05,-8.34465e-07,0.0,1.0,-1.98856e-05,-1.8239021e-05,1.9878149e-05,1.0,-3.2782555e-06,1.822412e-05,3.2782555e-06,1.0,938,2.845,0,2,0.67,False,-0.261427056305211,0.8814998886462115
2.797413869993761,19:59:58.282324,19:58:38.839428,0,,0.111505315,0.008919761,0.034387246,0.73815423,-0.6738577,0.03231422,-0.4412257,-0.44598234,0.7787294,-0.51034117,-0.58908015,-0.62652725,,0.07742074,0.003698038,0.072464705,0.6690448,-0.058798283,0.7408925,-0.49897873,0.7032616,0.5064023,-0.55081695,-0.7084955,0.44117448,,0.08372481,1.2899023,0.42707092,0.9923737,0.099579945,-0.072651364,0.02412159,-0.7348749,-0.6777736,-0.12088232,0.67085224,-0.7316726,,-0.10342996,0.27106124,-0.09872753,-0.70232105,0.70371914,0.107352294,-0.69366086,-0.7104208,0.11889903,0.15993682,0.00903921,0.9870859,,-0.085149996,0.47131032,-0.3564173,-0.57375205,0.2147714,-0.79036814,-0.8168573,-0.07982558,0.57128984,0.059605118,0.9733967,0.22123767,,1.2265553260158335,0.5355251884302245,0.21600209899000003,-1.550447442124573,0.05192186991086737,-0.05009828371799355,-0.4356386243801228,,-1.554833255033369,0.333351764515901,0.16838936729,-0.021807754122390534,0.409499589797025,-1.046648143844721,0.7020527962451322,,-0.07327110366028695,-0.03740458753180348,0.09109008376,-0.10826536583874626,,1.2069941e-05,-8.34465e-07,0.0,1.0,-1.98856e-05,-1.8239021e-05,1.9878149e-05,1.0,-3.2782555e-06,1.822412e-05,3.2782555e-06,1.0,946,2.87,0,2,0.67,False,-0.26136747858668974,0.8756097041511177
2.8894212602172047,19:59:58.315645,19:58:38.839428,0,,0.11144742,0.008844145,0.034480825,0.73743206,-0.6748812,0.027007118,-0.43689293,-0.4461289,0.7810847,-0.51509076,-0.58779603,-0.62384075,,0.07742265,0.0036971737,0.072466314,0.66896677,-0.05873683,0.740968,-0.49920708,0.70307845,0.5064316,-0.55070484,-0.70868236,0.44101438,,0.08372481,1.2899023,0.42707092,0.9923737,0.099579945,-0.072651364,0.02412159,-0.7348749,-0.6777736,-0.12088232,0.67085224,-0.7316726,,-0.10339026,0.27107418,-0.09885436,-0.7006756,0.7045615,0.11245797,-0.69385475,-0.70959914,0.122615784,0.16619043,0.007884391,0.98606217,,-0.0851522,0.4713107,-0.35641867,-0.5737046,0.21473879,-0.7904115,-0.81690925,-0.080091946,0.5711782,0.059348516,0.973382,0.22137122,,1.2265167123514624,0.535409347437111,0.21588413660000003,-1.5493989924071505,0.05834378539984307,-0.049209019681183186,-0.43514859218171986,,-1.5548487004991174,0.3333594872487752,0.16838807100000003,-0.021807754122390534,0.40922631679749416,-1.0465069867774688,0.7012360759144608,,-0.07327110366028695,-0.03740458753180348,0.09109008376,-0.10826536583874626,,1.2069941e-05,-8.34465e-07,0.0,1.0,-1.98856e-05,-1.8239021e-05,1.9878149e-05,1.0,-3.2782555e-06,1.822412e-05,3.2782555e-06,1.0,971,2.948,0,2,0.67,False,-0.2613079008681689,0.8759476655565739
2.922732354141772,19:59:58.383889,19:58:38.839428,0,,0.111435354,0.008786321,0.034614787,0.7379709,-0.67466,0.015262723,-0.43234122,-0.45530486,0.7783176,-0.5181505,-0.5809744,-0.6276852,,0.07741821,0.0036963988,0.07246947,0.6686655,-0.058770582,0.74123704,-0.49933872,0.70315087,0.5062013,-0.5509513,-0.70860773,0.4408264,,0.08372481,1.2899023,0.42707092,0.9923737,0.099579945,-0.072651364,0.02412159,-0.7348749,-0.6777736,-0.12088232,0.67085224,-0.7316726,,-0.10339945,0.27112666,-0.09899072,-0.70046866,0.70277023,0.124329016,-0.6927497,-0.71140945,0.1182985,0.1715855,-0.0032644891,0.9851638,,-0.085148446,0.47131312,-0.3564219,-0.5733681,0.21476084,-0.7906496,-0.8171449,-0.07998499,0.5708561,0.05935743,0.97338593,0.22135156,,1.2264858214199654,0.5355946930260924,0.21575321131000003,-1.5502377521810884,0.06380924539046068,-0.037656702761489844,-0.43482190404945137,,-1.554833255033369,0.33338265544739787,0.16838288584000002,-0.021388374235421483,0.4090896802977287,-1.0463955688737723,0.7009093877821921,,-0.07327110366028695,-0.03740458753180348,0.09109008376,-0.10826536583874626,,1.2069941e-05,-8.34465e-07,0.0,1.0,-1.98856e-05,-1.8239021e-05,1.9878149e-05,1.0,-3.2782555e-06,1.822412e-05,3.2782555e-06,1.0,979,2.972,0,2,0.67,False,-0.2599971910607066,0.8765270279659276
2.9909887791145593,19:59:58.413764,19:58:38.839428,0,,0.111396894,0.008801416,0.034676537,0.7275006,-0.6860968,0.003776133,-0.43172008,-0.4534817,0.7797255,-0.5332547,-0.5688809,-0.6261102,,0.07741898,0.0036932994,0.072470665,0.66862273,-0.058703154,0.74128103,-0.49946287,0.7030748,0.50618446,-0.5508908,-0.70868874,0.44077182,,0.08372481,1.2899023,0.42707092,0.9923737,0.099579945,-0.072651364,0.02412159,-0.7348749,-0.6777736,-0.12088232,0.67085224,-0.7316726,,-0.10336783,0.2711817,-0.099029355,-0.6881988,0.71273607,0.13560887,-0.70253956,-0.70132667,0.12074367,0.18116449,-0.012174956,0.98337746,,-0.08514954,0.471312,-0.35642487,-0.57334185,0.21470678,-0.7906833,-0.8171734,-0.08010314,0.5707987,0.059218124,0.97338814,0.22137915,,1.2263159212967325,0.5356178612247151,0.21572728551000003,-1.5349303863067183,0.07433025587239961,-0.03030852701870465,-0.43465855998331704,,-1.5548409777662433,0.3333749327145236,0.16838029326,-0.021388374235421483,0.40895304379796327,-1.0463658297102165,0.7010727318483265,,-0.07327110366028695,-0.03740458753180348,0.09109008376,-0.10826536583874626,,1.2069941e-05,-8.34465e-07,0.0,1.0,-1.98856e-05,-1.8239021e-05,1.9878149e-05,1.0,-3.2782555e-06,1.822412e-05,3.2782555e-06,1.0,1004,3.05,0,2,0.67,False,-0.2594609915940169,0.8786996370010027
3.020881900098175,19:59:58.490648,19:58:38.984001,0,,0.111630246,0.008660898,0.034583658,0.65383154,-0.7566401,-0.00050999224,-0.47719,-0.41287464,0.7757732,-0.58719164,-0.50698155,-0.63101155,,0.07753037,0.0037028324,0.072469234,0.6679799,-0.058417663,0.7418829,-0.50024486,0.7028279,0.50575507,-0.550961,-0.7089573,0.4402517,,0.08373782,1.2899038,0.42706499,0.9923735,0.09958651,-0.072645314,0.024130445,-0.734874,-0.67777425,-0.12088232,0.67085224,-0.7316726,,-0.10361323,0.27101257,-0.0990305,-0.6122905,0.77811533,0.14013189,-0.7705545,-0.62698317,0.114620745,0.17704849,-0.03779807,0.98347604,,-0.08527294,0.47130734,-0.35640275,-0.57272154,0.21446157,-0.79119927,-0.8176554,-0.08049861,0.5700523,0.058563873,0.9734096,0.22145894,,1.2246555337287743,0.5353939019713626,0.21570006342000003,-1.4317629341123324,0.07651643986864665,-0.015265393008891598,-0.4330251193219743,,-1.5548487004991174,0.3334058236460205,0.16836603407,-0.020759304404967913,0.40799658829960517,-1.0461576555653254,0.7041762691048778,,-0.07327110366028695,-0.03740458753180348,0.09109008376,-0.10826536583874626,,2.5741756e-05,-4.529953e-06,2.3841858e-06,1.0,-1.335144e-05,-1.22487545e-05,1.3358891e-05,1.0,-2.1755695e-06,1.2233853e-05,2.2053719e-06,1.0,1025,3.115,0,2,0.67,False,-0.10682287674312985,0.8841552996890818
3.097749366192147,19:59:58.554444,19:58:38.984001,0,,0.111789614,0.008478694,0.034362406,0.583642,-0.8119572,-0.009356916,-0.51094645,-0.37618,0.7729309,-0.6311067,-0.446334,-0.63442117,,0.07748893,0.0036787223,0.07250583,0.66753936,-0.057234004,0.7423715,-0.50140053,0.702532,0.5050211,-0.5504441,-0.709347,0.44027054,,0.08373782,1.2899038,0.42706499,0.9923735,0.09958651,-0.072645314,0.024130445,-0.734874,-0.67777425,-0.12088232,0.67085224,-0.7316726,,-0.10375809,0.2707231,-0.098977976,-0.5401314,0.8282717,0.14907728,-0.8232911,-0.55676615,0.1104679,0.17449862,-0.06306682,0.9826356,,-0.08523989,0.47132456,-0.35645017,-0.5724273,0.21336019,-0.7917098,-0.8179516,-0.08112411,0.5695384,0.05729008,0.9735997,0.22095597,,1.2227943551060863,0.5345289558894495,0.21572598922000003,-1.3411768785270177,0.08088880786114075,0.0009354891868390142,-0.4114637025922494,,-1.5548255323004947,0.33356800103637924,0.16830251586000003,-0.020759304404967913,0.40649358680218534,-1.0467289909077573,0.7123434724115916,,-0.07327110366028695,-0.03740458753180348,0.09109008376,-0.10826536583874626,,2.5741756e-05,-4.529953e-06,2.3841858e-06,1.0,-1.335144e-05,-1.22487545e-05,1.3358891e-05,1.0,-2.1755695e-06,1.2233853e-05,2.2053719e-06,1.0,1042,3.169,0,2,0.67,False,0.4462966620061426,0.9024534957844965
3.1615663981065154,19:59:58.608846,19:58:38.984001,0,,0.111793,0.008221999,0.03402534,0.5512409,-0.83415484,-0.017865956,-0.522113,-0.361576,0.77243817,-0.65079284,-0.4164714,-0.63483864,,0.07742362,0.0036783945,0.07253301,0.66888255,-0.056332767,0.74123067,-0.5019729,0.7012233,0.5062699,-0.5482877,-0.71071285,0.44075838,,0.08373782,1.2899038,0.42706499,0.9923735,0.09958651,-0.072645314,0.024130445,-0.734874,-0.67777425,-0.12088232,0.67085224,-0.7316726,,-0.10374028,0.27030405,-0.0989179,-0.5065417,0.84770703,0.15750635,-0.84406686,-0.5248187,0.11007469,0.17597337,-0.07718846,0.981364,,-0.08518078,0.47135273,-0.35647696,-0.5741661,0.212679,-0.7906332,-0.8168419,-0.08310555,0.5708439,0.055700496,0.9735816,0.2214415,,1.220994958346392,0.5328145091913716,0.21577265566000003,-1.3009164093779892,0.08690081385082013,0.010326880948794852,-0.34008234569156937,,-1.5547251367731298,0.33388463308422245,0.16824677539000002,-0.02348527367026673,0.4052638583042964,-1.04727812583716,0.7321081044138396,,-0.07327110366028695,-0.03740458753180348,0.09109008376,-0.10826536583874626,,2.5741756e-05,-4.529953e-06,2.3841858e-06,1.0,-1.335144e-05,-1.22487545e-05,1.3358891e-05,1.0,-2.1755695e-06,1.2233853e-05,2.2053719e-06,1.0,1063,3.234,0,2,0.67,False,0.6689981738377648,0.9181445610378205
3.2158876650501043,19:59:58.675075,19:58:39.175231,0,,0.111732334,0.007977441,0.03353986,0.5320157,-0.84646606,-0.021319032,-0.52860147,-0.35169178,0.7725887,-0.6614678,-0.39975995,-0.63454884,,0.0773405,0.0037174951,0.07255936,0.6723947,-0.057560056,0.7379514,-0.5009823,0.69852334,0.5109617,-0.5448873,-0.7132685,0.44084677,,0.08373782,1.2899038,0.42706499,0.9923735,0.09958651,-0.072645314,0.024130445,-0.734874,-0.67777425,-0.12088232,0.67085224,-0.7316726,,-0.10363985,0.269792,-0.09875389,-0.48672444,0.85861,0.16089822,-0.85559386,-0.5057192,0.110486425,0.17623407,-0.0838871,0.9807673,,-0.08510258,0.4714076,-0.35647562,-0.57820714,0.21425654,-0.7872551,-0.81404424,-0.08662863,0.5743061,0.054850005,0.97292835,0.22450359,,1.219211007052446,0.5305980848564692,0.21592691417,-1.277221445764238,0.0908632723440179,0.013385024732421915,-0.21986111301673988,,-1.554624741245765,0.33437888798817283,0.16821047927000002,-0.02893721220086436,0.4054004948040618,-1.0460826838986075,0.7448489415723133,,-0.07327110366028695,-0.03740458753180348,0.09109008376,-0.10826536583874626,,2.5741756e-05,-4.529953e-06,2.3841858e-06,1.0,-1.335144e-05,-1.22487545e-05,1.3358891e-05,1.0,-2.1755695e-06,1.2233853e-05,2.2053719e-06,1.0,1084,3.3,0,2,0.67,False,0.8248534854887875,0.9261107941664313
3.28217003820464,19:59:58.735915,19:58:39.175231,0,,0.11174567,0.007743947,0.032884896,0.51429665,-0.8571943,-0.026774198,-0.5312664,-0.3429447,0.77469015,-0.673242,-0.38419628,-0.63177395,,0.077251494,0.0037848186,0.07258272,0.67522407,-0.059979483,0.73517,-0.49941343,0.69630873,0.5155002,-0.5428247,-0.71523196,0.44020987,,0.08373782,1.2899038,0.42706499,0.9923735,0.09958651,-0.072645314,0.024130445,-0.734874,-0.67777425,-0.12088232,0.67085224,-0.7316726,,-0.10359082,0.26916736,-0.09845205,-0.46795696,0.86799806,0.1661192,-0.8651968,-0.4882811,0.11408771,0.18014078,-0.09033767,0.9794837,,-0.08501699,0.47147903,-0.35645163,-0.58130884,0.21691337,-0.7842376,-0.8118099,-0.08925013,0.57706076,0.05517888,0.97210234,0.22797431,,1.2165157732793417,0.5281268103367173,0.21621339426000002,-1.2552040016983628,0.0993347353294752,0.01652359974053296,-0.04410289785625539,,-1.5544625638554062,0.33498898388523657,0.16819233121000002,-0.03292132112707032,0.40622031380265444,-1.0439741141560068,0.7559563380694443,,-0.07327110366028695,-0.03740458753180348,0.09109008376,-0.10826536583874626,,2.5741756e-05,-4.529953e-06,2.3841858e-06,1.0,-1.335144e-05,-1.22487545e-05,1.3358891e-05,1.0,-2.1755695e-06,1.2233853e-05,2.2053719e-06,1.0,1101,3.353,0,2,0.67,False,0.984998392873325,0.9405948544002687
3.3430414542090148,19:59:58.788997,19:58:39.175231,0,,0.11191586,0.0074444115,0.03189668,0.4901744,-0.87096894,-0.033798754,-0.53684473,-0.3322266,0.7755147,-0.68667793,-0.36199272,-0.6304241,,0.07715131,0.0038665663,0.07259059,0.6772477,-0.0584518,0.73342955,-0.5005256,0.6940259,0.5174961,-0.53926766,-0.71757334,0.44077086,,0.08373782,1.2899038,0.42706499,0.9923735,0.09958651,-0.072645314,0.024130445,-0.734874,-0.67777425,-0.12088232,0.67085224,-0.7316726,,-0.103661075,0.26825824,-0.09793839,-0.44288263,0.8797372,0.17296673,-0.87785554,-0.46470827,0.11582688,0.1822763,-0.1005421,0.9780934,,-0.08491702,0.4715492,-0.35640854,-0.58399487,0.21576117,-0.7825581,-0.8100644,-0.09267003,0.5789715,0.052399885,0.97203875,0.22889926,,1.2121833201369017,0.5250454399199017,0.21669042898000002,-1.2252183397800758,0.10821610781422884,0.02300346434388001,0.1708578931764561,,-1.554184545471934,0.3358462072342755,0.16817418315000002,-0.03732480994024533,0.4036242203071111,-1.044797608630835,0.7660836701697697,,-0.07327110366028695,-0.03740458753180348,0.09109008376,-0.10826536583874626,,2.5741756e-05,-4.529953e-06,2.3841858e-06,1.0,-1.335144e-05,-1.22487545e-05,1.3358891e-05,1.0,-2.1755695e-06,1.2233853e-05,2.2053719e-06,1.0,1122,3.419,0,2,0.67,False,1.0342691660902195,0.9469678409031572
