AlexandreBanks6/ExpertPlaybackApp/resources/Motions/P_09/PC1/Data_PC1_10.csv
Task Time,PC1 Time,PC2 Time,Gaze Calib,s_T_psm1,Tx,Ty,Tz,R00,R01,R02,R10,R11,R12,R20,R21,R22,s_T_psm3,Tx,Ty,Tz,R00,R01,R02,R10,R11,R12,R20,R21,R22,cart_T_ecm,Tx,Ty,Tz,R00,R01,R02,R10,R11,R12,R20,R21,R22,ecm_T_psm1,Tx,Ty,Tz,R00,R01,R02,R10,R11,R12,R20,R21,R22,ecm_T_psm3,Tx,Ty,Tz,R00,R01,R02,R10,R11,R12,R20,R21,R22,psm1_joints,q1,q2,q3,q4,q5,q6,jaw,psm3_joints,q1,q2,q3,q4,q5,q6,jaw,ecm_joints,q1,q2,q3,q4,ecmi_T_ecm,Tx,Ty,Tz,R00,R01,R02,R10,R11,R12,R20,R21,R22,Sample #,Task Duration (s),Collisions (binary),Collisions (increments),Cumulative Collision Time (s),Clutch Press,MTMR Angle,MTML Angle
""
lci_T_si,,,,,-0.050949458,0.027957806,0.20957685,0.9885936,-0.033787433,0.14676888,0.07700635,-0.72409666,-0.68538606,0.12943229,0.68887043,-0.7132355
rci_T_si,,,,,-0.06009054,0.031789362,0.21838434,0.9829442,-0.059414335,0.17404197,0.08224959,-0.70442206,-0.7049997,0.1644861,0.70729023,-0.6875208
ecm_T_lc,,,,,-4.4061628e-05,-0.00034663224,-0.01840835,-0.99912,0.030754527,0.028518902,-0.031987965,-0.99852574,-0.043852776,0.027128186,-0.04472645,0.9986309
ecm_T_rc,,,,,-0.0043358393,0.01870579,-0.007592615,-0.99555075,-0.052743673,-0.078081585,0.04863213,-0.9973746,0.053654674,-0.08070653,0.04961868,0.9955021
cart_T_ecmi,,,,,0.08373975,1.2898976,0.42707345,0.99237347,0.0995886,-0.072643384,0.024133272,-0.7348737,-0.6777744,-0.12088232,0.67085224,-0.7316726
ecmac_T_ecmrep_psm1,,,,,0.023195708,-0.2631036,-0.30022871,0.99664557,0.07921609,0.02055357,-0.078295335,0.99603295,-0.04228661,-0.023821812,0.040535513,0.9988941
ecmac_T_ecmrep_psm3,,,,,0.022281613,-0.4507852,-0.5326207,0.99995744,0.002629678,0.008843231,-0.0032003638,0.99787027,0.06515156,-0.008653069,-0.06517708,0.9978362
""
0,20:02:23.588588,20:01:04.085366,0,,0.13012092,0.010192484,0.01587446,-0.9806714,-0.1601896,-0.11235063,-0.0097791245,-0.533364,0.84582925,-0.19541682,0.8305795,0.52148825,,0.07837993,0.008667661,0.06500435,0.887727,0.33125633,0.31970266,-0.45892644,0.581804,0.6714839,0.036429077,-0.74281454,0.6685053,,0.083716646,1.2899002,0.42707235,0.99237293,0.09960418,-0.07262901,0.024154311,-0.7348716,-0.677776,-0.12088232,0.67085224,-0.7316726,,-0.118891254,0.25837615,-0.083218575,0.99363244,0.02115951,0.11066529,-0.11266428,0.1965004,0.9740094,-0.0011362144,-0.9802754,0.1976331,,-0.083665706,0.46857047,-0.3488048,-0.8929953,-0.17467208,-0.414788,-0.3740552,-0.22447345,0.8998302,-0.2502841,0.95869774,0.13511673,,1.1175721196947772,0.5404136783396085,0.23018480788000004,0.7607551149618544,0.0327927599437057,1.3794408933727782,-0.412933799187458,,-1.5286531905897478,0.3522647373248768,0.17438211596000003,-0.6666043303373029,0.1692926232093807,-1.3918154438374963,0.8408952524592697,,-0.07327110366028695,-0.03740458753180348,0.09109008376,-0.10826536583874626,,-2.2739172e-05,-5.066395e-06,7.1525574e-07,1.0,1.551956e-05,1.4215708e-05,-1.5512109e-05,1.0,2.5331974e-06,-1.4230609e-05,-2.592802e-06,1.0,39,0.115,0,0,0.0,False,-0.2585077480976805,1.016443049824798
0.12277603498660028,20:02:23.626252,20:01:04.085366,0,,0.13019088,0.01023519,0.016081497,-0.9799203,-0.16497917,-0.11197242,-0.0069462853,-0.5329903,0.8460928,-0.19926791,0.82988167,0.5211419,,0.078384146,0.008666379,0.06500888,0.88772047,0.33129066,0.31968522,-0.4589366,0.5818039,0.6714771,0.036460027,-0.7427993,0.66852057,,0.083716646,1.2899002,0.42707235,0.99237293,0.09960418,-0.07262901,0.024154311,-0.7348716,-0.677776,-0.12088232,0.67085224,-0.7316726,,-0.11898205,0.2585483,-0.08332679,0.9935522,0.026012495,0.110351086,-0.1133165,0.1964315,0.97394764,0.0036583778,-0.98017246,0.1981126,,-0.08367071,0.4685726,-0.34880805,-0.89299476,-0.17470859,-0.4147738,-0.37403762,-0.22446606,0.89983934,-0.2503123,0.9586928,0.13509943,,1.11794281087274,0.5411164470311629,0.23007332694000002,0.7599163551879162,0.037301764435965244,1.3782144647550134,-0.4142405517165322,,-1.528691804254119,0.35225701459200254,0.17438081967000002,-0.6666043303373029,0.1692926232093807,-1.3918154438374963,0.8408952524592697,,-0.07327110366028695,-0.03740458753180348,0.09109008376,-0.10826536583874626,,-2.2739172e-05,-5.066395e-06,7.1525574e-07,1.0,1.551956e-05,1.4215708e-05,-1.5512109e-05,1.0,2.5331974e-06,-1.4230609e-05,-2.592802e-06,1.0,50,0.147,0,0,0.0,False,-0.25910352528289105,1.016636170627916
0.16044154786504805,20:02:23.665179,20:01:04.209781,0,,0.1302575,0.010202579,0.016215429,-0.9786239,-0.17088616,-0.114424504,-0.006315629,-0.5311494,0.8472547,-0.2055606,0.8298666,0.5187161,,0.07839623,0.0086601805,0.06501305,0.88769555,0.33142376,0.3196164,-0.45897913,0.58188313,0.6713793,0.03653179,-0.7426778,0.6686516,,0.083716646,1.2899002,0.42707235,0.99237293,0.09960418,-0.07262901,0.024154311,-0.7348716,-0.677776,-0.12088232,0.67085224,-0.7316726,,-0.11906631,0.2586156,-0.08343544,0.9930623,0.031997338,0.113152,-0.11726362,0.19792643,0.97317743,0.008743319,-0.9796945,0.2003054,,-0.083683535,0.46857032,-0.34881374,-0.89298445,-0.17485899,-0.41473264,-0.37400794,-0.22433913,0.89988333,-0.25039345,0.9586951,0.1349327,,1.1179968700028595,0.541425356346132,0.22996314229000003,0.7559322462617103,0.0422206784275211,1.3755919588043315,-0.41505727204720344,,-1.528761308849987,0.352202955461883,0.17438081967000002,-0.6666043303373029,0.1692926232093807,-1.3919788013177774,0.841221940591538,,-0.07327110366028695,-0.03740458753180348,0.09109008376,-0.10826536583874626,,-2.2739172e-05,-5.066395e-06,7.1525574e-07,1.0,1.551956e-05,1.4215708e-05,-1.5512109e-05,1.0,2.5331974e-06,-1.4230609e-05,-2.592802e-06,1.0,65,0.191,0,0,0.0,False,-0.2586269035347226,1.017070692434931
0.19932788284495473,20:02:23.705452,20:01:04.209781,0,,0.1302916,0.010124899,0.016211972,-0.97830325,-0.17202523,-0.11545518,-0.0062423903,-0.5325477,0.84637696,-0.20708357,0.8287342,0.5199193,,0.07840972,0.008653952,0.06501621,0.8876153,0.331487,0.31977373,-0.45914137,0.58188736,0.67126465,0.03644325,-0.7426462,0.6686914,,0.083716646,1.2899002,0.42707235,0.99237293,0.09960418,-0.07262901,0.024154311,-0.7348716,-0.677776,-0.12088232,0.67085224,-0.7316726,,-0.11910529,0.25855622,-0.083481945,0.9929312,0.033158388,0.113965854,-0.118276305,0.19616917,0.97341067,0.0099201435,-0.98000926,0.19870433,,-0.08369754,0.46856707,-0.34881863,-0.8928944,-0.1749267,-0.41489792,-0.37416992,-0.22432005,0.89982074,-0.2504726,0.9586872,0.1348418,,1.1176802379550164,0.5412940698872701,0.22991647585000002,0.7550934864877722,0.043313770425644625,1.3774776927395393,-0.41473058391493534,,-1.528830813445855,0.3521411735988892,0.17438211596000003,-0.6663946403938183,0.1692926232093807,-1.3919788013177774,0.841221940591538,,-0.07327110366028695,-0.03740458753180348,0.09109008376,-0.10826536583874626,,-2.2739172e-05,-5.066395e-06,7.1525574e-07,1.0,1.551956e-05,1.4215708e-05,-1.5512109e-05,1.0,2.5331974e-06,-1.4230609e-05,-2.592802e-06,1.0,72,0.213,0,0,0.0,False,-0.2580907040680329,1.0159602478170033
0.23964134184643626,20:02:23.733525,20:01:04.209781,0,,0.13034233,0.010036759,0.0161791,-0.9781979,-0.17250153,-0.11563712,-0.00613577,-0.53256977,0.8463639,-0.20758389,0.8286211,0.51990014,,0.078425124,0.008649064,0.06502247,0.8875351,0.3315649,0.31991544,-0.45930225,0.5819009,0.6711429,0.03636837,-0.7426008,0.668746,,0.083716646,1.2899002,0.42707235,0.99237293,0.09960418,-0.07262901,0.024154311,-0.7348716,-0.677776,-0.12088232,0.67085224,-0.7316726,,-0.11915803,0.25846842,-0.0835125,0.99289405,0.0336419,0.11414736,-0.118549526,0.19608939,0.97339356,0.010363725,-0.9800088,0.19868422,,-0.08371396,0.4685668,-0.34882417,-0.8928068,-0.17501111,-0.4150507,-0.37432072,-0.22428627,0.89976645,-0.2505593,0.9586797,0.13473403,,1.117185983051066,0.5411318924969114,0.22988536489000003,0.7550934864877722,0.043587043425175505,1.377908286853271,-0.41440389578266656,,-1.5289234862403458,0.3520871144687696,0.17438341225,-0.6661849504503339,0.1692926232093807,-1.3919788013177774,0.841221940591538,,-0.07327110366028695,-0.03740458753180348,0.09109008376,-0.10826536583874626,,-2.2739172e-05,-5.066395e-06,7.1525574e-07,1.0,1.551956e-05,1.4215708e-05,-1.5512109e-05,1.0,2.5331974e-06,-1.4230609e-05,-2.592802e-06,1.0,83,0.246,0,0,0.0,False,-0.25791197091247,1.0163947696240185
0.26769357779994607,20:02:23.759266,20:01:04.209781,0,,0.13044217,0.009963945,0.016186193,-0.9774256,-0.17694674,-0.115450665,-0.0041190935,-0.53037274,0.84775454,-0.21123928,0.8290928,0.5176709,,0.07843932,0.008640928,0.06502652,0.8875044,0.33163315,0.31993017,-0.45935512,0.5818051,0.6711898,0.036451846,-0.74264544,0.6686919,,0.083716646,1.2899002,0.42707235,0.99237293,0.09960418,-0.07262901,0.024154311,-0.7348716,-0.677776,-0.12088232,0.67085224,-0.7316726,,-0.119263016,0.25841787,-0.08355421,0.9927103,0.038147207,0.1143287,-0.11965451,0.19813372,0.9728442,0.014458916,-0.9794324,0.20125388,,-0.08372889,0.46856293,-0.34883097,-0.8927932,-0.17507301,-0.41505402,-0.3742882,-0.22438988,0.89975417,-0.25065657,0.95864415,0.13480599,,1.1167226190786126,0.5411396152297856,0.22984258732,0.7542547267138341,0.04741286541860784,1.3755236942110365,-0.41391386358426363,,-1.529031604500585,0.35200216440715315,0.17438341225,-0.6661849504503339,0.1692926232093807,-1.391897122577637,0.8413852846576723,,-0.07327110366028695,-0.03740458753180348,0.09109008376,-0.10826536583874626,,-2.2739172e-05,-5.066395e-06,7.1525574e-07,1.0,1.551956e-05,1.4215708e-05,-1.5512109e-05,1.0,2.5331974e-06,-1.4230609e-05,-2.592802e-06,1.0,94,0.278,0,0,0.0,False,-0.25779281547542787,1.0167810112302544
0.2934456008952111,20:02:23.794135,20:01:04.209781,0,,0.13051483,0.009892635,0.016223177,-0.9771197,-0.17792948,-0.11652492,-0.0042033484,-0.53160155,0.84698415,-0.21264826,0.8280949,0.51869035,,0.078451626,0.008635892,0.065032065,0.8874811,0.33174264,0.319881,-0.45939407,0.5818364,0.6711359,0.036526024,-0.742572,0.66876936,,0.083716646,1.2899002,0.42707235,0.99237293,0.09960418,-0.07262901,0.024154311,-0.7348716,-0.677776,-0.12088232,0.67085224,-0.7316726,,-0.11934455,0.25838995,-0.08361982,0.99256873,0.039149784,0.115215346,-0.120701134,0.196587,0.97302866,0.015444023,-0.97970444,0.19985154,,-0.08374214,0.4685624,-0.34883663,-0.89278483,-0.17519294,-0.41502124,-0.37425458,-0.22432727,0.89978373,-0.25073633,0.9586369,0.13470922,,1.116328759702027,0.5412477334900248,0.22977518024000002,0.753415966939896,0.04809604791743504,1.3770902519362087,-0.41391386358426363,,-1.5290779408978303,0.35197127347565627,0.17438341225,-0.6661849504503339,0.1692926232093807,-1.3919788013177774,0.841221940591538,,-0.07327110366028695,-0.03740458753180348,0.09109008376,-0.10826536583874626,,-2.2739172e-05,-5.066395e-06,7.1525574e-07,1.0,1.551956e-05,1.4215708e-05,-1.5512109e-05,1.0,2.5331974e-06,-1.4230609e-05,-2.592802e-06,1.0,105,0.311,0,0,0.0,False,-0.2583290149421176,1.0163947696240185
0.3283050658646971,20:02:23.817436,20:01:04.361814,0,,0.13058364,0.009815998,0.01630275,-0.97642714,-0.18158245,-0.11669512,-0.0027491134,-0.53013235,0.84791046,-0.2158295,0.8282438,0.51713634,,0.07846675,0.008631481,0.065038264,0.88729894,0.33189926,0.3202238,-0.45975882,0.58181345,0.670906,0.036362723,-0.74252,0.66883606,,0.083716646,1.2899002,0.42707235,0.99237293,0.09960418,-0.07262901,0.024154311,-0.7348716,-0.677776,-0.12088232,0.67085224,-0.7316726,,-0.11942771,0.2583878,-0.083719924,0.99236673,0.042856086,0.11563592,-0.121880054,0.19785939,0.9726237,0.018803196,-0.9792931,0.20157237,,-0.08375825,0.46856242,-0.34884176,-0.8925871,-0.17535698,-0.4153771,-0.37459156,-0.22432138,0.899645,-0.25093699,0.95860827,0.13453914,,1.1160275731199323,0.5414021881475093,0.22962092173,0.7525772071659579,0.05219514291039825,1.375299610887987,-0.4134238313858607,,-1.5291628909594468,0.3519249370784109,0.17438470854000002,-0.6657655705633648,0.16915598670961526,-1.3919490621542217,0.8413852846576726,,-0.07327110366028695,-0.03740458753180348,0.09109008376,-0.10826536583874626,,-2.2739172e-05,-5.066395e-06,7.1525574e-07,1.0,1.551956e-05,1.4215708e-05,-1.5512109e-05,1.0,2.5331974e-06,-1.4230609e-05,-2.592802e-06,1.0,116,0.344,0,0,0.0,False,-0.25779281547542787,1.0169741320333723
0.35159381199628115,20:02:23.857834,20:01:04.361814,0,,0.13061725,0.009732537,0.016393319,-0.9760665,-0.1835632,-0.11661234,-0.0015510693,-0.5303291,0.8477905,-0.21746604,0.82768106,0.5173517,,0.078471884,0.008632166,0.06504339,0.8872941,0.33193606,0.32019895,-0.45976543,0.5818204,0.67089546,0.036396146,-0.74249816,0.66885847,,0.083716646,1.2899002,0.42707235,0.99237293,0.09960418,-0.07262901,0.024154311,-0.7348716,-0.677776,-0.12088232,0.67085224,-0.7316726,,-0.119477816,0.25838947,-0.08383734,0.9922912,0.04487016,0.11551962,-0.12216265,0.19738787,0.9726841,0.02084232,-0.97929806,0.20134772,,-0.0837642,0.4685661,-0.34884378,-0.8925886,-0.17539689,-0.41535702,-0.37457004,-0.22430481,0.8996581,-0.2509638,0.9586049,0.1345135,,1.1159735139898128,0.5414485245447546,0.22955610723000003,0.7521578272789889,0.05315159840875633,1.3755815091839392,-0.41326048731972653,,-1.529209227356692,0.3519249370784109,0.17438470854000002,-0.6657655705633648,0.16915598670961526,-1.3919490621542217,0.8413852846576726,,-0.07327110366028695,-0.03740458753180348,0.09109008376,-0.10826536583874626,,-2.2739172e-05,-5.066395e-06,7.1525574e-07,1.0,1.551956e-05,1.4215708e-05,-1.5512109e-05,1.0,2.5331974e-06,-1.4230609e-05,-2.592802e-06,1.0,127,0.377,0,0,0.0,False,-0.25868648125324345,1.0172638132380487
0.3920236718840897,20:02:23.889708,20:01:04.361814,0,,0.13068508,0.0095344335,0.016631648,-0.9755215,-0.18563722,-0.11788328,-0.0014310218,-0.53069746,0.84756017,-0.21989906,0.826982,0.51744103,,0.07847594,0.00863154,0.06504625,0.8872884,0.33199042,0.3201585,-0.45977455,0.581874,0.6708428,0.036421537,-0.7424319,0.66893065,,0.083716646,1.2899002,0.42707235,0.99237293,0.09960418,-0.07262901,0.024154311,-0.7348716,-0.677776,-0.12088232,0.67085224,-0.7316726,,-0.119587705,0.25840995,-0.084134236,0.99204946,0.046980303,0.11675082,-0.123779245,0.19670118,0.9726188,0.0227289,-0.9793373,0.20095249,,-0.083768725,0.46856743,-0.3488455,-0.89258784,-0.17546067,-0.41533184,-0.37455606,-0.22422668,0.89968336,-0.25098753,0.9586115,0.13442215,,1.115672327407718,0.5417497111268493,0.22925666424000002,0.7506899976745972,0.05465459990617618,1.3759078083059493,-0.41375051951812947,,-1.529240118288189,0.3519172143455367,0.17438470854000002,-0.6657655705633648,0.16915598670961526,-1.3920307408943622,0.8418753168560752,,-0.07327110366028695,-0.03740458753180348,0.09109008376,-0.10826536583874626,,-2.2739172e-05,-5.066395e-06,7.1525574e-07,1.0,1.551956e-05,1.4215708e-05,-1.5512109e-05,1.0,2.5331974e-06,-1.4230609e-05,-2.592802e-06,1.0,135,0.4,0,0,0.0,False,-0.2586269035347226,1.0171189726357106
0.4238876898307353,20:02:23.919049,20:01:04.361814,0,,0.13076565,0.009434052,0.016756281,-0.97488695,-0.18795979,-0.11944112,-0.0015426744,-0.5306207,0.8476081,-0.22269414,0.82650656,0.5170052,,0.07848039,0.008630617,0.06504887,0.88712513,0.33205342,0.32054538,-0.4601071,0.58181614,0.6706649,0.036198184,-0.74244905,0.6689238,,0.083716646,1.2899002,0.42707235,0.99237293,0.09960418,-0.07262901,0.024154311,-0.7348716,-0.677776,-0.12088232,0.67085224,-0.7316726,,-0.119689606,0.2584216,-0.08428116,0.99174535,0.04934234,0.11834876,-0.12581639,0.19649757,0.9723986,0.024725175,-0.979262,0.20108365,,-0.08377361,0.4685683,-0.34884727,-0.8923969,-0.17552127,-0.41571623,-0.37491983,-0.22428438,0.8995175,-0.2511231,0.9585869,0.1343443,,1.115363418092749,0.542012284044573,0.22910759089000002,0.7488027881832365,0.056294237903361466,1.37571429582356,-0.41440389578266634,,-1.5292632864868116,0.35190949161266244,0.17438470854000002,-0.6653461906763958,0.16901935020984984,-1.3919193229906657,0.8418753168560752,,-0.07327110366028695,-0.03740458753180348,0.09109008376,-0.10826536583874626,,-2.2739172e-05,-5.066395e-06,7.1525574e-07,1.0,1.551956e-05,1.4215708e-05,-1.5512109e-05,1.0,2.5331974e-06,-1.4230609e-05,-2.592802e-06,1.0,146,0.433,0,0,0.0,False,-0.2589843698458485,1.0174086538403875
0.4532365899067372,20:02:23.954462,20:01:04.361814,0,,0.13088487,0.009329274,0.016867653,-0.97460884,-0.18915969,-0.11981692,-0.0010402035,-0.5312718,0.8472008,-0.2239116,0.8258141,0.5175854,,0.07848313,0.008627696,0.06504828,0.88711673,0.33209676,0.32052377,-0.46012217,0.5818546,0.6706213,0.03621298,-0.74239945,0.66897786,,0.083716646,1.2899002,0.42707235,0.99237293,0.09960418,-0.07262901,0.024154311,-0.7348716,-0.677776,-0.12088232,0.67085224,-0.7316726,,-0.11982849,0.25841972,-0.08441642,0.99165106,0.050565578,0.11862236,-0.12630689,0.19558519,0.9725189,0.025975201,-0.9793822,0.20033905,,-0.08377627,0.46856558,-0.34884873,-0.8923918,-0.17557164,-0.415706,-0.37491736,-0.22422738,0.8995327,-0.2511451,0.958591,0.13427383,,1.1148305495244275,0.5423675297567874,0.22896888786000003,0.748593098239752,0.056977420402188665,1.3765457448874674,-0.4148939279810693,,-1.529271009219686,0.3518863234140398,0.17438470854000002,-0.6653461906763958,0.16901935020984984,-1.3920010017308064,0.8420386609222096,,-0.07327110366028695,-0.03740458753180348,0.09109008376,-0.10826536583874626,,-2.2739172e-05,-5.066395e-06,7.1525574e-07,1.0,1.551956e-05,1.4215708e-05,-1.5512109e-05,1.0,2.5331974e-06,-1.4230609e-05,-2.592802e-06,1.0,157,0.466,0,0,0.0,False,-0.2590439475643693,1.0177466152458434
0.4886258579790592,20:02:23.989279,20:01:04.541738,0,,0.13101564,0.009219535,0.016947165,-0.9741493,-0.19033855,-0.121672854,-0.0019158144,-0.531622,0.84697956,-0.22589682,0.82531786,0.5175144,,0.078488365,0.008620663,0.065045655,0.88709813,0.33212858,0.3205422,-0.46015579,0.5818149,0.6706326,0.03624013,-0.7424164,0.6689577,,0.083716646,1.2899002,0.42707235,0.99237293,0.09960418,-0.07262901,0.024154311,-0.7348716,-0.677776,-0.12088232,0.67085224,-0.7316726,,-0.11997542,0.25839183,-0.08453089,0.9913685,0.05176653,0.12045257,-0.12832752,0.19502491,0.97236687,0.026844807,-0.9794312,0.19998461,,-0.08378115,0.46855843,-0.3488517,-0.8923794,-0.17560107,-0.41572013,-0.37491637,-0.22426954,0.8995226,-0.25119048,0.9585757,0.1342978,,1.1141586717643701,0.542668716338882,0.22885092547000002,0.7469155786918757,0.057250693401719545,1.3770580177413398,-0.41375051951812925,,-1.52927873195256,0.3518322642839202,0.17438470854000002,-0.6653461906763958,0.16901935020984984,-1.3920010017308064,0.8420386609222096,,-0.07327110366028695,-0.03740458753180348,0.09109008376,-0.10826536583874626,,-2.2739172e-05,-5.066395e-06,7.1525574e-07,1.0,1.551956e-05,1.4215708e-05,-1.5512109e-05,1.0,2.5331974e-06,-1.4230609e-05,-2.592802e-06,1.0,175,0.52,1,1,0.003,False,-0.2589843698458485,1.0171672528364901
0.5234647849574685,20:02:24.027245,20:01:04.541738,0,,0.13121073,0.009058706,0.01692693,-0.97389525,-0.19110143,-0.12250762,-0.002109563,-0.5320443,0.8467139,-0.2269877,0.8248693,0.5177522,,0.078493915,0.008613123,0.065042436,0.88697493,0.3322427,0.32076484,-0.46039784,0.58173275,0.6705377,0.036181897,-0.7424297,0.6689461,,0.083716646,1.2899002,0.42707235,0.99237293,0.09960418,-0.07262901,0.024154311,-0.7348716,-0.677776,-0.12088232,0.67085224,-0.7316726,,-0.12017787,0.25825605,-0.084600955,0.9912325,0.052544642,0.12123164,-0.12923093,0.19443303,0.97236574,0.027521176,-0.97950745,0.19951876,,-0.08378627,0.46855053,-0.3488547,-0.89225495,-0.17571332,-0.4159398,-0.3751019,-0.22434612,0.89942616,-0.25135562,0.9585372,0.13426353,,1.112884420840123,0.5427768345991212,0.22877703694,0.7467058887483912,0.057114056901954105,1.3782312592668635,-0.41456723984880073,,-1.52927873195256,0.35177820515380065,0.17438470854000002,-0.6651365007329113,0.1688827137100844,-1.3919712625672505,0.8422020049883437,,-0.07327110366028695,-0.03740458753180348,0.09109008376,-0.10826536583874626,,-2.2739172e-05,-5.066395e-06,7.1525574e-07,1.0,1.551956e-05,1.4215708e-05,-1.5512109e-05,1.0,2.5331974e-06,-1.4230609e-05,-2.592802e-06,1.0,187,0.556,1,1,0.039,False,-0.25815028178655464,1.0174569340411665
0.5613956728484482,20:02:24.070499,20:01:04.541738,0,,0.13130035,0.00898046,0.016888306,-0.97359496,-0.19188002,-0.123672105,-0.0028071236,-0.53164726,0.8469612,-0.22826487,0.82494456,0.51707035,,0.078498535,0.008607073,0.06504035,0.8869589,0.33227086,0.32078,-0.46042687,0.5816989,0.6705472,0.036205962,-0.7424436,0.66892934,,0.083716646,1.2899002,0.42707235,0.99237293,0.09960418,-0.07262901,0.024154311,-0.7348716,-0.677776,-0.12088232,0.67085224,-0.7316726,,-0.1202677,0.2581702,-0.084615305,0.99103636,0.053335525,0.12248379,-0.13062769,0.19479479,0.9721067,0.027988618,-0.9793928,0.20001581,,-0.0837906,0.46854448,-0.3488573,-0.8922444,-0.1757395,-0.41595143,-0.37510055,-0.22438183,0.8994178,-0.25139517,0.9585241,0.13428345,,1.112235711278688,0.5427304982018759,0.22876148146000003,0.7456574390309686,0.057250693401719545,1.378119841363167,-0.41456723984880073,,-1.5292864546854343,0.3517318687565553,0.17438470854000002,-0.6651365007329113,0.1688827137100844,-1.3919712625672505,0.8422020049883437,,-0.07327110366028695,-0.03740458753180348,0.09109008376,-0.10826536583874626,,-2.2739172e-05,-5.066395e-06,7.1525574e-07,1.0,1.551956e-05,1.4215708e-05,-1.5512109e-05,1.0,2.5331974e-06,-1.4230609e-05,-2.592802e-06,1.0,198,0.59,1,1,0.073,False,-0.2588652144088064,1.0174569340411665
0.6046856159809977,20:02:24.106426,20:01:04.664921,0,,0.13135518,0.008858152,0.016879782,-0.9727003,-0.19709876,-0.12249896,0.00023702346,-0.5287097,0.8488027,-0.23206435,0.8256018,0.5143227,,0.07850142,0.00860448,0.06504017,0.88684434,0.3322454,0.3211229,-0.46067187,0.5817636,0.6703227,0.035894066,-0.7424042,0.6689898,,0.083716646,1.2899002,0.42707235,0.99237293,0.09960418,-0.07262901,0.024154311,-0.7348716,-0.677776,-0.12088232,0.67085224,-0.7316726,,-0.12032988,0.25807455,-0.084686205,0.99082315,0.0586385,0.12178244,-0.13109633,0.1975246,0.9714925,0.032911833,-0.97854257,0.20339924,,-0.0837935,0.46854237,-0.3488588,-0.89208287,-0.17571963,-0.4163061,-0.37548044,-0.22430733,0.89927787,-0.25140128,0.95854515,0.13412143,,1.111826406436354,0.5424215888869068,0.22869277809000002,0.7454477490874841,0.0621696073932754,1.3750889417117826,-0.41391386358426385,,-1.5292941774183086,0.35170870055793263,0.17438470854000002,-0.6647171208459423,0.1688827137100844,-1.3919712625672505,0.8422020049883437,,-0.07327110366028695,-0.03740458753180348,0.09109008376,-0.10826536583874626,,-2.2739172e-05,-5.066395e-06,7.1525574e-07,1.0,1.551956e-05,1.4215708e-05,-1.5512109e-05,1.0,2.5331974e-06,-1.4230609e-05,-2.592802e-06,1.0,206,0.613,1,1,0.096,False,-0.25820985950507547,1.016636170627916
0.6406125877983868,20:02:24.132570,20:01:04.664921,0,,0.13136558,0.008735232,0.016939804,-0.9715546,-0.2021785,-0.12331018,0.002423605,-0.52916324,0.8485166,-0.23680301,0.82408154,0.5146008,,0.07850487,0.008603109,0.06504148,0.88678765,0.33237106,0.3211493,-0.46077323,0.5816782,0.67032725,0.035991833,-0.74241495,0.6689727,,0.083716646,1.2899002,0.42707235,0.99237293,0.09960418,-0.07262901,0.024154311,-0.7348716,-0.677776,-0.12088232,0.67085224,-0.7316726,,-0.12035623,0.25802732,-0.084812276,0.9904107,0.063816525,0.122531906,-0.1328412,0.19629873,0.971504,0.037945148,-0.97846526,0.20289384,,-0.08379715,0.468542,-0.34886017,-0.8920478,-0.17584375,-0.41632882,-0.37546533,-0.22438544,0.8992647,-0.2515482,0.95850414,0.13413931,,1.1117337336418636,0.5421590159691833,0.22856963054,0.7437702295396078,0.06736179438436214,1.3757557857797522,-0.41456723984880073,,-1.529309622884057,0.3517009778250584,0.17438470854000002,-0.6647171208459423,0.16874607721031895,-1.3919415234036947,0.8423653490544781,,-0.07327110366028695,-0.03740458753180348,0.09109008376,-0.10826536583874626,,-2.2739172e-05,-5.066395e-06,7.1525574e-07,1.0,1.551956e-05,1.4215708e-05,-1.5512109e-05,1.0,2.5331974e-06,-1.4230609e-05,-2.592802e-06,1.0,218,0.65,1,1,0.133,False,-0.25785239319394915,1.0162982092224597
0.6667584090027958,20:02:24.163032,20:01:04.664921,0,,0.13140896,0.0085629895,0.017093584,-0.969755,-0.21139826,-0.12200783,0.008411255,-0.52851504,0.8488823,-0.2439352,0.8221818,0.51430804,,0.07850526,0.008600963,0.065039575,0.8867834,0.33239847,0.32113272,-0.46078146,0.5817202,0.6702851,0.03599246,-0.74236983,0.66902274,,0.083716646,1.2899002,0.42707235,0.99237293,0.09960418,-0.07262901,0.024154311,-0.7348716,-0.677776,-0.12088232,0.67085224,-0.7316726,,-0.12042997,0.25800854,-0.08503456,0.9899113,0.073219314,0.12130361,-0.13352774,0.19572921,0.9715248,0.04739172,-0.9779208,0.20353137,,-0.08379727,0.46853918,-0.3488606,-0.89204395,-0.17587762,-0.4163228,-0.37546965,-0.2243276,0.8992773,-0.25155544,0.9585115,0.13407336,,1.1116951199774925,0.5419891158459503,0.22835185382000003,0.7431411597091544,0.07692634936794297,1.3751442616533724,-0.4148939279810695,,-1.5293019001511827,0.35168553235930994,0.17438470854000002,-0.6647171208459423,0.16874607721031895,-1.3920232021438352,0.8418753168560752,,-0.07327110366028695,-0.03740458753180348,0.09109008376,-0.10826536583874626,,-2.2739172e-05,-5.066395e-06,7.1525574e-07,1.0,1.551956e-05,1.4215708e-05,-1.5512109e-05,1.0,2.5331974e-06,-1.4230609e-05,-2.592802e-06,1.0,265,0.794,1,1,0.277,False,-0.2584481703791588,1.0170224122341516
0.6972075789235532,20:02:24.302193,20:01:04.784950,0,,0.13177846,0.0075833425,0.018439874,-0.9539093,-0.27088517,-0.12914367,0.035457812,-0.52906746,0.84783864,-0.29799265,0.8041822,0.51428735,,0.07851443,0.008594824,0.06504029,0.8865044,0.3326953,0.3215952,-0.46132135,0.5814749,0.6701265,0.03594847,-0.74242896,0.66895944,,0.083716646,1.2899002,0.42707235,0.99237293,0.09960418,-0.07262901,0.024154311,-0.7348716,-0.677776,-0.12088232,0.67085224,-0.7316726,,-0.12102705,0.25822502,-0.086617395,0.98261046,0.13422605,0.12829658,-0.15200292,0.1846644,0.9709759,0.10663845,-0.9735925,0.20185593,,-0.08380659,0.46853468,-0.34886447,-0.89177775,-0.17616612,-0.41677085,-0.37581813,-0.22456567,0.8990723,-0.2519785,0.9584027,0.13405626,,1.1119422474294676,0.5424061434211584,0.22680797243000003,0.7240593748520626,0.13636322676590956,1.3749496089685014,-0.414077207650398,,-1.5293250683498054,0.3516469186949388,0.17438470854000002,-0.6642977409589732,0.1683361677110226,-1.391852305913027,0.8422020049883437,,-0.07327110366028695,-0.03740458753180348,0.09109008376,-0.10826536583874626,,-2.2739172e-05,-5.066395e-06,7.1525574e-07,1.0,1.551956e-05,1.4215708e-05,-1.5512109e-05,1.0,2.5331974e-06,-1.4230609e-05,-2.592802e-06,1.0,273,0.818,0,1,0.28,False,-0.2586269035347226,1.0177466152458434
0.8363509029150009,20:02:24.334372,20:01:04.784950,0,,0.13206361,0.007519014,0.019183084,-0.94269556,-0.2976746,-0.15071368,0.03402911,-0.5351288,0.84408486,-0.33191386,0.79058665,0.51459306,,0.078518726,0.008591099,0.06504029,0.88643944,0.33270097,0.32176846,-0.46145704,0.5814944,0.67001617,0.035808533,-0.7424112,0.6689867,,0.083716646,1.2899002,0.42707235,0.99237293,0.09960418,-0.07262901,0.024154311,-0.7348716,-0.677776,-0.12088232,0.67085224,-0.7316726,,-0.12140245,0.25868517,-0.08715135,0.9754352,0.16193055,0.14934741,-0.17688575,0.1716905,0.96914077,0.13129197,-0.97175145,0.19611616,,-0.08381092,0.46853176,-0.34886667,-0.8916927,-0.17617427,-0.41694933,-0.37600356,-0.22454038,0.89900106,-0.2520028,0.95840716,0.13397887,,1.1126218479223993,0.5441900947151043,0.22629204901000002,0.6976384419730125,0.16041125072462709,1.3778833901967262,-0.4147305839149349,,-1.5293405138155538,0.3516160277634419,0.17438470854000002,-0.6640880510154886,0.1683361677110226,-1.391852305913027,0.8422020049883437,,-0.07327110366028695,-0.03740458753180348,0.09109008376,-0.10826536583874626,,-2.2739172e-05,-5.066395e-06,7.1525574e-07,1.0,1.551956e-05,1.4215708e-05,-1.5512109e-05,1.0,2.5331974e-06,-1.4230609e-05,-2.592802e-06,1.0,285,0.855,0,1,0.28,False,-0.25815028178655464,1.0174569340411665
0.8685320289805532,20:02:24.373158,20:01:04.922448,0,,0.13229375,0.0075675994,0.019710883,-0.9331243,-0.31818283,-0.1674472,0.03353695,-0.5406998,0.84054685,-0.35798627,0.77871925,0.51521087,,0.07852891,0.0085854065,0.065041125,0.88641685,0.33278972,0.3217389,-0.46149623,0.5815151,0.66997117,0.03586352,-0.7423552,0.6690459,,0.083716646,1.2899002,0.42707235,0.99237293,0.09960418,-0.07262901,0.024154311,-0.7348716,-0.677776,-0.12088232,0.67085224,-0.7316726,,-0.121689565,0.259079,-0.08746177,0.96902114,0.18324524,0.16558746,-0.1956037,0.16007647,0.9675302,0.15078865,-0.96994674,0.19096093,,-0.08382127,0.46852753,-0.3488702,-0.89168155,-0.17627099,-0.4169323,-0.37598467,-0.22449526,0.89902025,-0.25207052,0.95839995,0.1339031,,1.1132628347509599,0.5456805821598296,0.22600038376000003,0.6772985174550137,0.1794037241920233,1.3806923393744097,-0.4147305839149349,,-1.5293868502127992,0.35156196863332234,0.17438600483000002,-0.6640880510154886,0.1683361677110226,-1.3919339846531675,0.8423653490544779,,-0.07327110366028695,-0.03740458753180348,0.09109008376,-0.10826536583874626,,-2.2739172e-05,-5.066395e-06,7.1525574e-07,1.0,1.551956e-05,1.4215708e-05,-1.5512109e-05,1.0,2.5331974e-06,-1.4230609e-05,-2.592802e-06,1.0,293,0.88,0,1,0.28,False,-0.25856732581620134,1.017070692434931
0.9073300918098539,20:02:24.403394,20:01:04.922448,0,,0.13243206,0.007666625,0.020177469,-0.9271789,-0.32780063,-0.18134455,0.028644808,-0.54469615,0.8381441,-0.3735219,0.7719152,0.5144205,,0.07854464,0.0085781645,0.06504536,0.8863852,0.33289015,0.32172233,-0.46155018,0.5814752,0.66996866,0.03595251,-0.7423414,0.6690564,,0.083716646,1.2899002,0.42707235,0.99237293,0.09960418,-0.07262901,0.024154311,-0.7348716,-0.677776,-0.12088232,0.67085224,-0.7316726,,-0.12187481,0.25946954,-0.08770634,0.96462554,0.19328806,0.17926884,-0.21007629,0.1527748,0.9656748,0.15926565,-0.9691747,0.1879757,,-0.083837695,0.46852413,-0.34887615,-0.891668,-0.17637342,-0.41691795,-0.37594858,-0.22452256,0.89902854,-0.25217223,0.9583747,0.13389225,,1.1139810489082629,0.5472405742004229,0.2257618664,0.6613620817501898,0.18719200467865343,1.3816109267362235,-0.4139138635842634,,-1.5294718002744156,0.3514924640374543,0.17438730112,-0.6640880510154886,0.1683361677110226,-1.3919339846531675,0.8423653490544779,,-0.07327110366028695,-0.03740458753180348,0.09109008376,-0.10826536583874626,,-2.2739172e-05,-5.066395e-06,7.1525574e-07,1.0,1.551956e-05,1.4215708e-05,-1.5512109e-05,1.0,2.5331974e-06,-1.4230609e-05,-2.592802e-06,1.0,324,0.974,0,1,0.28,False,-0.25815028178655464,1.0176500548442844
0.9375771889463067,20:02:24.476215,20:01:05.037208,0,,NaN,NaN,NaN,NaN,NaN,NaN,NaN,NaN,NaN,NaN,NaN,NaN,,NaN,NaN,NaN,NaN,NaN,NaN,NaN,NaN,NaN,NaN,NaN,NaN,,NaN,NaN,NaN,NaN,NaN,NaN,NaN,NaN,NaN,NaN,NaN,NaN,,-0.121937774,0.25996387,-0.08781539,0.9509254,0.2154514,0.22208446,-0.25540814,0.14139654,0.956438,0.17466395,-0.9662234,0.18948561,,-0.08387963,0.46851322,-0.34890798,-0.8914802,-0.17702068,-0.41704527,-0.37594497,-0.22467758,0.8989913,-0.2528408,0.958219,0.13374558,,1.1153865862913717,0.5485071023917958,0.22566723723,0.6120849450313266,0.20249529265238275,1.376483208134875,-0.41424055171653196,,-1.5299119960482466,0.35113721832524003,0.17439248628,-0.6638783610720042,0.1681995312112572,-1.3919042454896118,0.8425286931206125,,-0.07327110366028695,-0.03740458753180348,0.09109008376,-0.10826536583874626,,NaN,NaN,NaN,NaN,NaN,NaN,NaN,NaN,NaN,NaN,NaN,NaN,361,1.088,0,1,0.28,False,-0.25785239319394915,1.0177466152458434
1.0104073178954422,20:02:24.596530,20:01:05.037208,0,,0.13242133,0.008031853,0.020689338,-0.8850286,-0.37550926,-0.27516764,-0.019094348,-0.5612985,0.8273932,-0.465145,0.7375208,0.48959494,,0.078720674,0.008497506,0.0651021,0.8858837,0.3340937,0.321856,-0.4624507,0.58105385,0.669713,0.036731318,-0.7421306,0.669248,,0.0836664,1.2899003,0.427077,0.99237174,0.09963976,-0.0725962,0.024202356,-0.7348668,-0.6777795,-0.12088232,0.67085224,-0.7316726,,-0.12185446,0.26008582,-0.08782224,0.9303175,0.2434423,0.2743086,-0.3092152,0.1184436,0.94358736,0.19721897,-0.9626562,0.18546622,,-0.08397821,0.46849498,-0.34894925,-0.89132035,-0.17763036,-0.4171276,-0.3759125,-0.2247901,0.89897674,-0.25345173,0.95807976,0.13358653,,1.1162669778390333,0.5475880971797631,0.22570612593000003,0.5527426910252061,0.22654331661110025,1.3780284507807106,-0.41440389578266656,,-1.5304371418836937,0.35072019075003186,0.17439507886000002,-0.6636686711285196,0.1681995312112572,-1.3919042454896118,0.8425286931206125,,-0.07327110366028695,-0.03740458753180348,0.09109008376,-0.10826536583874626,,-7.315725e-05,-6.9737434e-06,8.34465e-07,1.0,5.093217e-05,4.670024e-05,-5.093962e-05,1.0,8.404255e-06,-4.670024e-05,-8.434057e-06,1.0,369,1.113,0,1,0.28,False,-0.25773323775690704,1.0178914558481817
1.1306935418397188,20:02:24.625796,20:01:05.170407,0,,0.13241744,0.008089334,0.020739555,-0.88029945,-0.37857255,-0.28592935,-0.02551502,-0.5640431,0.825351,-0.47373176,0.7338518,0.48686746,,0.07872224,0.008496791,0.0651027,0.8858272,0.3340822,0.32202357,-0.46257126,0.5810897,0.6695987,0.03657651,-0.7421076,0.66928184,,0.0836664,1.2899003,0.427077,0.99237174,0.09963976,-0.0725962,0.024202356,-0.7348668,-0.6777795,-0.12088232,0.67085224,-0.7316726,,-0.12185241,0.26016214,-0.08781882,0.92618954,0.2467128,0.28514153,-0.319935,0.11401713,0.9405539,0.19953568,-0.962358,0.18453354,,-0.08397988,0.4684948,-0.34894997,-0.8912405,-0.17762212,-0.41730183,-0.37610042,-0.22474836,0.89890856,-0.25345394,0.9580911,0.13350107,,1.1164832143595116,0.5477116609057506,0.22571390367000002,0.5407903642465883,0.22886613710711273,1.3783396724016668,-0.41358717545199486,,-1.530444864616568,0.35071246801715766,0.17439507886000002,-0.663458981185035,0.1681995312112572,-1.3919042454896118,0.8425286931206125,,-0.07327110366028695,-0.03740458753180348,0.09109008376,-0.10826536583874626,,-7.315725e-05,-6.9737434e-06,8.34465e-07,1.0,5.093217e-05,4.670024e-05,-5.093962e-05,1.0,8.404255e-06,-4.670024e-05,-8.434057e-06,1.0,398,1.203,0,1,0.28,False,-0.2590439475643693,1.0175534944427256
1.159987241961062,20:02:24.713961,20:01:05.170407,0,,0.13229087,0.008336708,0.020825267,-0.8787424,-0.37376502,-0.29683575,-0.03458315,-0.57041657,0.8206271,-0.4760418,0.73138547,0.48832315,,0.078720085,0.008496314,0.06510258,0.88566893,0.33405882,0.32248265,-0.4629135,0.58131826,0.66916364,0.036075026,-0.7419391,0.6694959,,0.0836664,1.2899003,0.427077,0.99237174,0.09963976,-0.0725962,0.024202356,-0.7348668,-0.6777795,-0.12088232,0.67085224,-0.7316726,,-0.12171931,0.26040354,-0.08772625,0.9242644,0.2417829,0.2954258,-0.32811397,0.1075714,0.93849325,0.19513227,-0.9643492,0.17875676,,-0.08397775,0.46849462,-0.3489505,-0.89100474,-0.17762272,-0.41780466,-0.3766809,-0.2244709,0.8987348,-0.2534207,0.95815605,0.13309754,,1.1176570697563937,0.5482908658713175,0.22579945881000002,0.5313543167897846,0.2243571326148532,1.3830782868454756,-0.41505727204720344,,-1.5304294191508194,0.35071246801715766,0.17439378257000002,-0.6628299113545815,0.1681995312112572,-1.392067602969893,0.8428553812528811,,-0.07327110366028695,-0.03740458753180348,0.09109008376,-0.10826536583874626,,-7.315725e-05,-6.9737434e-06,8.34465e-07,1.0,5.093217e-05,4.670024e-05,-5.093962e-05,1.0,8.404255e-06,-4.670024e-05,-8.434057e-06,1.0,406,1.228,0,1,0.28,False,-0.2590439475643693,1.0167810112302544
1.2481314369942993,20:02:24.743779,20:01:05.170407,0,,0.1322106,0.00840582,0.020845026,-0.8816916,-0.3715168,-0.29085267,-0.03140311,-0.5688668,0.8218299,-0.47078004,0.73373425,0.4898982,,0.07872242,0.008495539,0.06510377,0.8856649,0.33402205,0.32253218,-0.46292037,0.5812054,0.66925687,0.036089227,-0.7420441,0.6693788,,0.0836664,1.2899003,0.427077,0.99237174,0.09963976,-0.0725962,0.024202356,-0.7348668,-0.6777795,-0.12088232,0.67085224,-0.7316726,,-0.12163715,0.26046947,-0.08770352,0.92678994,0.23938979,0.28940105,-0.32208684,0.110247046,0.94026893,0.19318517,-0.964644,0.17928016,,-0.08398029,0.46849474,-0.34895158,-0.89100343,-0.17757101,-0.41782948,-0.37667412,-0.22461858,0.8987008,-0.25343546,0.958131,0.1332495,,1.1182362747219605,0.5483758159329339,0.22582019945,0.5376450150943204,0.22258085811790249,1.3823213936097343,-0.41456723984880095,,-1.530444864616568,0.3507047452842834,0.17439378257000002,-0.6628299113545815,0.1681995312112572,-1.3919042454896118,0.842855381252881,,-0.07327110366028695,-0.03740458753180348,0.09109008376,-0.10826536583874626,,-7.315725e-05,-6.9737434e-06,8.34465e-07,1.0,5.093217e-05,4.670024e-05,-5.093962e-05,1.0,8.404255e-06,-4.670024e-05,-8.434057e-06,1.0,439,1.33,0,1,0.28,False,-0.2585077480976805,1.016539610226357
1.2779489399399608,20:02:24.838684,20:01:05.313591,0,,0.13201842,0.0085386485,0.020885527,-0.8896082,-0.36885905,-0.2693331,-0.01543422,-0.5650897,0.8248851,-0.4564637,0.73798156,0.49701524,,0.07872164,0.008495569,0.06510317,0.8856123,0.33407372,0.32262287,-0.4630341,0.58140874,0.66900164,0.035920218,-0.7418615,0.6695902,,0.0836664,1.2899003,0.427077,0.99237174,0.09963976,-0.0725962,0.024202356,-0.7348668,-0.6777795,-0.12088232,0.67085224,-0.7316726,,-0.12144203,0.26059905,-0.087666765,0.9340859,0.23652704,0.26746675,-0.30042237,0.11583017,0.94674695,0.19295053,-0.964696,0.17925334,,-0.08397942,0.46849442,-0.34895125,-0.8909247,-0.17764868,-0.4179643,-0.37686878,-0.22435574,0.89868486,-0.2534229,0.95817816,0.13293383,,1.1197035939680633,0.5483526477343114,0.22586168073000001,0.5600818390471646,0.22312740411696425,1.381957400735089,-0.4147305839149351,,-1.5304371418836937,0.3507047452842834,0.17439378257000002,-0.662620221411097,0.1681995312112572,-1.3921492817100336,0.842365349054478,,-0.07327110366028695,-0.03740458753180348,0.09109008376,-0.10826536583874626,,-7.315725e-05,-6.9737434e-06,8.34465e-07,1.0,5.093217e-05,4.670024e-05,-5.093962e-05,1.0,8.404255e-06,-4.670024e-05,-8.434057e-06,1.0,447,1.355,0,1,0.28,False,-0.2589247921273281,1.0171189726357106
1.3728691628202796,20:02:24.868799,20:01:05.313591,0,,0.13187867,0.008585021,0.020902723,-0.88989216,-0.36836988,-0.26906404,-0.015389711,-0.5652524,0.8247744,-0.4559112,0.73810124,0.4973445,,0.078722894,0.008493513,0.06510216,0.8856072,0.33405474,0.32265663,-0.46304333,0.58134246,0.66905284,0.035926387,-0.74192214,0.66952276,,0.0836664,1.2899003,0.427077,0.99237174,0.09963976,-0.0725962,0.024202356,-0.7348668,-0.6777795,-0.12088232,0.67085224,-0.7316726,,-0.12130232,0.2606486,-0.08766597,0.9343047,0.23601662,0.26715317,-0.2999987,0.1157811,0.94688725,0.19254984,-0.9648269,0.17897952,,-0.08398053,0.4684922,-0.34895203,-0.89092106,-0.17762105,-0.41798383,-0.3768695,-0.22444198,0.898663,-0.25343457,0.95816314,0.13302012,,1.120452699056863,0.5481132430152104,0.2258655696,0.5600818390471646,0.2232640406167297,1.3818459828313925,-0.4147305839149351,,-1.5304371418836937,0.35068929981853497,0.17439378257000002,-0.662620221411097,0.1681995312112572,-1.392067602969893,0.8422020049883439,,-0.07327110366028695,-0.03740458753180348,0.09109008376,-0.10826536583874626,,-7.315725e-05,-6.9737434e-06,8.34465e-07,1.0,5.093217e-05,4.670024e-05,-5.093962e-05,1.0,8.404255e-06,-4.670024e-05,-8.434057e-06,1.0,476,1.445,1,2,0.311,False,-0.2589843698458485,1.0175534944427256
1.4029280638787895,20:02:24.954917,20:01:05.438299,0,,0.13176054,0.00864619,0.020943612,-0.8895486,-0.3682329,-0.27038437,-0.016301066,-0.5658959,0.8243155,-0.45654958,0.73767644,0.49738926,,0.078723356,0.008493364,0.065102756,0.8856032,0.33393383,0.32279265,-0.46306938,0.5814604,0.6689324,0.035688072,-0.74188405,0.6695776,,0.0836664,1.2899003,0.427077,0.99237174,0.09963976,-0.0725962,0.024202356,-0.7348668,-0.6777795,-0.12088232,0.67085224,-0.7316726,,-0.12118576,0.2607246,-0.08766891,0.93397427,0.23588477,0.26842204,-0.30110794,0.11501906,0.94662803,0.1924215,-0.96495026,0.17845163,,-0.08398109,0.46849248,-0.34895244,-0.890875,-0.17750554,-0.41813105,-0.3770657,-0.2243228,0.8986105,-0.25330466,0.95821244,0.13291231,,1.1211863586799142,0.5480205702207197,0.2258655696,0.5584043194992884,0.22353731361626059,1.3818681832444213,-0.41456723984880073,,-1.530444864616568,0.3506815770856608,0.17439378257000002,-0.6624105314676124,0.1683361677110226,-1.3920973421334488,0.8423653490544781,,-0.07327110366028695,-0.03740458753180348,0.09109008376,-0.10826536583874626,,-7.315725e-05,-6.9737434e-06,8.34465e-07,1.0,5.093217e-05,4.670024e-05,-5.093962e-05,1.0,8.404255e-06,-4.670024e-05,-8.434057e-06,1.0,505,1.535,1,2,0.401,False,-0.25868648125324345,1.017360373639608
1.489055645884946,20:02:25.044452,20:01:05.585791,0,,0.13179155,0.00861536,0.020929635,-0.88953495,-0.36831325,-0.2703198,-0.016208753,-0.5658672,0.82433707,-0.45657933,0.7376584,0.49738866,,0.07872648,0.008491695,0.065101266,0.88549197,0.3339767,0.3230535,-0.46328783,0.5812978,0.66892236,0.035614267,-0.74199224,0.6694617,,0.0836664,1.2899003,0.427077,0.99237174,0.09963976,-0.0725962,0.024202356,-0.7348668,-0.6777795,-0.12088232,0.67085224,-0.7316726,,-0.12121704,0.26069176,-0.08767604,0.93397105,0.23596856,0.26835966,-0.30106252,0.11502969,0.9466412,0.19250822,-0.9649285,0.1784757,,-0.08398394,0.46848992,-0.34895235,-0.89075875,-0.177533,-0.41836694,-0.37724912,-0.22451442,0.8984856,-0.25344026,0.9581625,0.13301401,,1.1209469539608135,0.547997402022097,0.22585779186000002,0.5586140094427728,0.22353731361626059,1.3820315407247024,-0.4142405517165322,,-1.530444864616568,0.35066613161991234,0.17439507886000002,-0.662200841524128,0.1681995312112572,-1.3919042454896118,0.8425286931206125,,-0.07327110366028695,-0.03740458753180348,0.09109008376,-0.10826536583874626,,-7.315725e-05,-6.9737434e-06,8.34465e-07,1.0,5.093217e-05,4.670024e-05,-5.093962e-05,1.0,8.404255e-06,-4.670024e-05,-8.434057e-06,1.0,534,1.625,1,2,0.491,False,-0.2589843698458485,1.0175534944427256
1.5785954059101641,20:02:25.130022,20:01:05.585791,0,,0.13177232,0.008612074,0.021001458,-0.88686633,-0.36908403,-0.27793005,-0.021728203,-0.56756294,0.8230432,-0.46151495,0.73596835,0.49533278,,0.078728124,0.008491129,0.0651021,0.8853816,0.33402324,0.32330757,-0.4635229,0.58153796,0.6685506,0.035295933,-0.741783,0.66971034,,0.0836664,1.2899003,0.427077,0.99237174,0.09963976,-0.0725962,0.024202356,-0.7348668,-0.6777795,-0.12088232,0.67085224,-0.7316726,,-0.1212068,0.26073977,-0.08773198,0.9315147,0.23680975,0.2760463,-0.30853975,0.112660475,0.9445162,0.19257113,-0.96500194,0.1780101,,-0.08398573,0.46849,-0.3489531,-0.89059997,-0.17760935,-0.4186725,-0.37762797,-0.22420709,0.89840317,-0.25343415,0.9582203,0.13260855,,1.1210859631525494,0.5480900748165877,0.22580205139000004,0.5504361016468764,0.22353731361626059,1.3821132194648431,-0.41440389578266656,,-1.5304525873494421,0.3506584088870381,0.17439507886000002,-0.6617814616371589,0.1681995312112572,-1.3921492817100336,0.8426920371867467,,-0.07327110366028695,-0.03740458753180348,0.09109008376,-0.10826536583874626,,-7.315725e-05,-6.9737434e-06,8.34465e-07,1.0,5.093217e-05,4.670024e-05,-5.093962e-05,1.0,8.404255e-06,-4.670024e-05,-8.434057e-06,1.0,563,1.715,0,2,0.544,False,-0.25880563669028556,1.0175534944427256
1.6641588739585131,20:02:25.225700,20:01:05.702419,0,,0.13178502,0.008547053,0.021361053,-0.8756917,-0.3801142,-0.29778716,-0.032638565,-0.5686969,0.8218993,-0.48176628,0.7294499,0.4855967,,0.07873562,0.008482337,0.06509721,0.8852523,0.33409166,0.32359084,-0.46377382,0.5813344,0.66855365,0.03524375,-0.74191165,0.6695706,,0.0836664,1.2899003,0.427077,0.99237174,0.09963976,-0.0725962,0.024202356,-0.7348668,-0.6777795,-0.12088232,0.67085224,-0.7316726,,-0.121266834,0.26094183,-0.088030756,0.9220651,0.2484251,0.29678443,-0.33077452,0.10766151,0.9375485,0.20095833,-0.96264946,0.1814436,,-0.083992474,0.46847972,-0.34895566,-0.8904708,-0.17765948,-0.4189258,-0.37781388,-0.22444366,0.89826596,-0.2536107,0.9581556,0.1327383,,1.1215338816592544,0.5485379933232927,0.22551816388,0.5252733084287334,0.231735503602187,1.376898362565588,-0.41440389578266634,,-1.5304525873494421,0.35058890429117007,0.17439637515,-0.6615717716936743,0.16806289471149174,-1.3919561850661966,0.8428553812528811,,-0.07327110366028695,-0.03740458753180348,0.09109008376,-0.10826536583874626,,-7.315725e-05,-6.9737434e-06,8.34465e-07,1.0,5.093217e-05,4.670024e-05,-5.093962e-05,1.0,8.404255e-06,-4.670024e-05,-8.434057e-06,1.0,596,1.818,1,3,0.61,False,-0.25922268071993226,1.0171189726357106
1.7598897470161319,20:02:25.326565,20:01:05.825725,0,,0.13168266,0.008759335,0.022254199,-0.8502992,-0.411964,-0.32753152,-0.03217061,-0.5804813,0.81363785,-0.52531546,0.7023726,0.48032957,,0.0787393,0.008477837,0.065095484,0.88513577,0.33416808,0.32383087,-0.46400148,0.58121467,0.6684997,0.03517613,-0.741971,0.6695082,,0.0836664,1.2899003,0.427077,0.99237174,0.09963976,-0.0725962,0.024202356,-0.7348668,-0.6777795,-0.12088232,0.67085224,-0.7316726,,-0.121256255,0.2617169,-0.08853315,0.9021315,0.28232867,0.32626566,-0.36139745,0.08137624,0.92885405,0.23569183,-0.9558601,0.17544493,,-0.08399592,0.4684751,-0.3489575,-0.89035076,-0.17772746,-0.41915214,-0.37799796,-0.2245748,0.8981557,-0.25375795,0.95811224,0.13276972,,1.1247310930691834,0.5497272941859233,0.22509427705,0.4856419091101584,0.26726099354120153,1.3774157327952612,-0.4142405517165322,,-1.5304525873494421,0.3505580133596732,0.17439637515,-0.6613620817501898,0.1679262582117263,-1.3918447671625003,0.8428553812528811,,-0.07327110366028695,-0.03740458753180348,0.09109008376,-0.10826536583874626,,-7.315725e-05,-6.9737434e-06,8.34465e-07,1.0,5.093217e-05,4.670024e-05,-5.093962e-05,1.0,8.404255e-06,-4.670024e-05,-8.434057e-06,1.0,625,1.908,1,3,0.7,False,-0.25815028178655464,1.0173120934388282
1.8607447079848498,20:02:25.410782,20:01:05.825725,0,,0.13139397,0.00902313,0.022871286,-0.83408695,-0.4249681,-0.3517116,-0.039196894,-0.59031284,0.8062222,-0.5502386,0.68624556,0.47571477,,0.078744546,0.008469164,0.06509346,0.8850608,0.3342088,0.32399347,-0.4641544,0.5812642,0.6683506,0.03504291,-0.741914,0.6695786,,0.0836664,1.2899003,0.427077,0.99237174,0.09963976,-0.0725962,0.024202356,-0.7348668,-0.6777795,-0.12088232,0.67085224,-0.7316726,,-0.12102459,0.26234338,-0.088829026,0.88853055,0.29641,0.35022068,-0.3842269,0.06351359,0.92105144,0.25076506,-0.95294654,0.17032245,,-0.08400097,0.46846732,-0.3489621,-0.89025766,-0.17777632,-0.41932908,-0.37818825,-0.2245046,0.89809316,-0.25380102,0.95811963,0.13263403,,1.1278974135476154,0.5504995674733457,0.22484409308000003,0.4556562471918714,0.28297419101422716,1.3783247022137872,-0.4142405517165322,,-1.5304603100823164,0.35049623149667936,0.17439507886000002,-0.6611523918067053,0.1679262582117263,-1.3919264459026408,0.8426920371867467,,-0.07327110366028695,-0.03740458753180348,0.09109008376,-0.10826536583874626,,-7.315725e-05,-6.9737434e-06,8.34465e-07,1.0,5.093217e-05,4.670024e-05,-5.093962e-05,1.0,8.404255e-06,-4.670024e-05,-8.434057e-06,1.0,654,1.998,1,3,0.79,False,-0.2580311263495121,1.0174086538403875
1.9449676549993455,20:02:25.505634,20:01:06.000205,0,,0.13132967,0.009140104,0.02309665,-0.8175195,-0.43772632,-0.37424254,-0.044687167,-0.59966356,0.79900354,-0.5741645,0.669925,0.47067583,,0.07875411,0.008451551,0.06508815,0.88496536,0.3342789,0.3241818,-0.46434447,0.581267,0.66821617,0.034934536,-0.7418802,0.6696216,,0.0836664,1.2899003,0.427077,0.99237174,0.09963976,-0.0725962,0.024202356,-0.7348668,-0.6777795,-0.12088232,0.67085224,-0.7316726,,-0.120979235,0.2625858,-0.08891726,0.8745708,0.3103058,0.37260735,-0.4052697,0.04585557,0.9130464,0.26623747,-0.9495302,0.16586149,,-0.084009945,0.46845084,-0.3489709,-0.89014995,-0.17785126,-0.41952595,-0.37838137,-0.22448571,0.8980165,-0.25389096,0.95811015,0.13253035,,1.1289245370198873,0.5504918447404715,0.22479872293000003,0.4286062444823678,0.2989606614867837,1.3805627318875913,-0.41440389578266656,,-1.5304680328151907,0.35037266777069176,0.17439248628,-0.6609427018632208,0.1679262582117263,-1.3920081246427813,0.8425286931206124,,-0.07327110366028695,-0.03740458753180348,0.09109008376,-0.10826536583874626,,-7.315725e-05,-6.9737434e-06,8.34465e-07,1.0,5.093217e-05,4.670024e-05,-5.093962e-05,1.0,8.404255e-06,-4.670024e-05,-8.434057e-06,1.0,683,2.088,1,3,0.88,False,-0.25761408231986493,1.0172155330372692
2.0398228589911014,20:02:25.593786,20:01:06.000205,0,,0.1312745,0.0092791915,0.023287281,-0.804787,-0.44576225,-0.3919358,-0.05295576,-0.60375506,0.795409,-0.5911966,0.66089034,0.4622885,,0.07870108,0.008397119,0.06506741,0.8847958,0.33446214,0.3244553,-0.46467012,0.58114445,0.66809624,0.03489755,-0.74189365,0.6696088,,0.083703674,1.2899003,0.4270681,0.9923727,0.099612236,-0.072621584,0.024165189,-0.73487055,-0.67777675,-0.12088232,0.67085224,-0.7316726,,-0.12097029,0.26282495,-0.08896629,0.86338276,0.3190179,0.39089352,-0.4234404,0.036878385,0.905173,0.27435088,-0.9470309,0.16692522,,-0.08398967,0.46840927,-0.34901053,-0.890003,-0.17801471,-0.41976824,-0.37857607,-0.22458732,0.89790905,-0.25411564,0.958056,0.13249129,,1.1300906696838953,0.5506926357952013,0.22478964890000003,0.4053306607555856,0.3072954879724756,1.3771967468480133,-0.414077207650398,,-1.530614764739801,0.3501873221817104,0.17438859741,-0.6607330119197362,0.1679262582117263,-1.3920081246427813,0.8425286931206124,,-0.07327110366028695,-0.03740458753180348,0.09109008376,-0.10826536583874626,,-3.5092235e-05,-9.23872e-06,4.6491623e-06,1.0,2.3528934e-05,2.1576881e-05,-2.3528934e-05,1.0,3.8444996e-06,-2.1591783e-05,-3.9041042e-06,1.0,712,2.178,1,3,0.97,False,-0.25767366003838577,1.0164913300255776
2.1279780478216708,20:02:25.690970,20:01:06.195210,0,,0.13099134,0.009530783,0.023557857,-0.7947451,-0.45301414,-0.40392858,-0.054289922,-0.60978574,0.7907048,-0.6045103,0.6503382,0.46003014,,0.078762434,0.008396732,0.06511849,0.8846699,0.3348155,0.3244343,-0.46489322,0.5811036,0.6679766,0.035119057,-0.7417662,0.66973823,,0.083703674,1.2899003,0.4270681,0.9923727,0.099612236,-0.072621584,0.024165189,-0.73487055,-0.67777675,-0.12088232,0.67085224,-0.7316726,,-0.12070379,0.2632023,-0.08902353,0.85492474,0.32701582,0.40269637,-0.4339353,0.025441729,0.90058476,0.28426015,-0.94467634,0.16365448,,-0.08405921,0.46844032,-0.34903452,-0.8899257,-0.17838627,-0.41977444,-0.3785379,-0.22455956,0.8979321,-0.25444314,0.9579934,0.13231537,,1.1325001623406532,0.5507466949253209,0.22477150084000003,0.38939422505076177,0.31808977145394535,1.3776244300918794,-0.4139138635842634,,-1.5311167423766254,0.3501255403187166,0.17438989370000002,-0.6605233219762517,0.1679262582117263,-1.3918447671625003,0.8422020049883439,,-0.07327110366028695,-0.03740458753180348,0.09109008376,-0.10826536583874626,,-3.5092235e-05,-9.23872e-06,4.6491623e-06,1.0,2.3528934e-05,2.1576881e-05,-2.3528934e-05,1.0,3.8444996e-06,-2.1591783e-05,-3.9041042e-06,1.0,720,2.203,1,3,0.995,False,-0.2583885926606384,1.017070692434931
2.2251590248197317,20:02:25.722544,20:01:06.195210,0,,0.1309568,0.009591915,0.023629352,-0.7896086,-0.4564051,-0.4101372,-0.05441831,-0.61368,0.7876774,-0.61119294,0.64427596,0.45973012,,0.0787828,0.008398371,0.06513792,0.8845953,0.33493882,0.3245103,-0.46503758,0.5811646,0.667823,0.03508602,-0.74166274,0.66985464,,0.083703674,1.2899003,0.4270681,0.9923727,0.099612236,-0.072621584,0.024165189,-0.73487055,-0.67777675,-0.12088232,0.67085224,-0.7316726,,-0.12067365,0.26329693,-0.08903687,0.8506234,0.33081174,0.4086604,-0.43881622,0.018538456,0.8983856,0.28962058,-0.94351465,0.1609348,,-0.084082685,0.4684536,-0.34904274,-0.88985074,-0.17852439,-0.41987467,-0.37864712,-0.22445673,0.8979118,-0.25454286,0.9579918,0.13213524,,1.1329558035802325,0.5507466949253209,0.22477538971000002,0.3822647669722879,0.3236918679443284,1.379590595251571,-0.4148939279810693,,-1.5312943652327327,0.3501178175858424,0.17438989370000002,-0.6603136320327672,0.1679262582117263,-1.3918447671625003,0.8422020049883439,,-0.07327110366028695,-0.03740458753180348,0.09109008376,-0.10826536583874626,,-3.5092235e-05,-9.23872e-06,4.6491623e-06,1.0,2.3528934e-05,2.1576881e-05,-2.3528934e-05,1.0,3.8444996e-06,-2.1591783e-05,-3.9041042e-06,1.0,729,2.231,1,3,1.023,False,-0.25761408231986493,1.0168292914310337
2.256733799818903,20:02:25.745395,20:01:06.195210,0,,0.13093248,0.009624347,0.023654655,-0.7873443,-0.45609975,-0.41480348,-0.05614075,-0.6169843,0.78497046,-0.6139521,0.6413295,0.46017322,,0.07879242,0.008400636,0.06514865,0.8845883,0.33500868,0.32445726,-0.4650461,0.5811842,0.6678001,0.035149425,-0.7416159,0.6699032,,0.083703674,1.2899003,0.4270681,0.9923727,0.099612236,-0.072621584,0.024165189,-0.73487055,-0.67777675,-0.12088232,0.67085224,-0.7316726,,-0.12065022,0.26333857,-0.08903577,0.8485842,0.33061984,0.413032,-0.44203803,0.014107203,0.89688534,0.29070136,-0.9436586,0.1581177,,-0.084094025,0.46846205,-0.34904647,-0.8898555,-0.1786009,-0.419832,-0.37860394,-0.224417,0.8979399,-0.2545903,0.95798683,0.1320797,,1.1331565946349622,0.5507621403910694,0.22478057487000003,0.3780709681025974,0.32478495994245193,1.3822114378480437,-0.4147305839149349,,-1.5313870380272234,0.3501255403187166,0.17438989370000002,-0.6603136320327672,0.1679262582117263,-1.3918447671625003,0.8422020049883439,,-0.07327110366028695,-0.03740458753180348,0.09109008376,-0.10826536583874626,,-3.5092235e-05,-9.23872e-06,4.6491623e-06,1.0,2.3528934e-05,2.1576881e-05,-2.3528934e-05,1.0,3.8444996e-06,-2.1591783e-05,-3.9041042e-06,1.0,742,2.272,1,3,1.064,False,-0.2580907040680329,1.0171672528364901
2.279484265949577,20:02:25.790395,20:01:06.346223,0,,0.13093567,0.00963968,0.02365695,-0.7864001,-0.45612463,-0.41656342,-0.05750951,-0.617369,0.78456885,-0.6150345,0.64094156,0.45926744,,0.07879423,0.008401023,0.06515062,0.884533,0.33502626,0.32458985,-0.46516275,0.5812815,0.66763407,0.034996927,-0.7415316,0.67000437,,0.083703674,1.2899003,0.4270681,0.9923727,0.099612236,-0.072621584,0.024165189,-0.73487055,-0.67777675,-0.12088232,0.67085224,-0.7316726,,-0.12065252,0.2633511,-0.0890264,0.84767854,0.3306627,0.4148533,-0.44380277,0.0135620395,0.89602184,0.29065475,-0.94365156,0.15824527,,-0.08409613,0.46846354,-0.34904715,-0.8897771,-0.17863047,-0.41998544,-0.37878773,-0.22429271,0.8978934,-0.2545908,0.9580104,0.1319075,,1.1331565946349622,0.5508084767883147,0.22478964890000003,0.3759740686677522,0.3246483234426865,1.381996140791178,-0.4140772076503978,,-1.5314024834929718,0.3501255403187166,0.17438989370000002,-0.6601039420892826,0.1679262582117263,-1.3919264459026408,0.8420386609222097,,-0.07327110366028695,-0.03740458753180348,0.09109008376,-0.10826536583874626,,-3.5092235e-05,-9.23872e-06,4.6491623e-06,1.0,2.3528934e-05,2.1576881e-05,-2.3528934e-05,1.0,3.8444996e-06,-2.1591783e-05,-3.9041042e-06,1.0,772,2.366,1,3,1.158,False,-0.2593418361569748,1.0168775716318132
2.3245734728407115,20:02:25.871543,20:01:06.425207,0,,0.13091972,0.009724468,0.023707792,-0.77528334,-0.460984,-0.43177462,-0.0655631,-0.6211772,0.7809229,-0.6282015,0.63374513,0.4513647,,0.07880126,0.008389967,0.06514299,0.8843996,0.3351425,0.32483315,-0.46542054,0.58117306,0.6675489,0.034939766,-0.74156415,0.6699714,,0.083703674,1.2899003,0.4270681,0.9923727,0.099612236,-0.072621584,0.024165189,-0.73487055,-0.67777675,-0.12088232,0.67085224,-0.7316726,,-0.12063663,0.26344788,-0.08900621,0.83765095,0.3360538,0.43059108,-0.45906755,0.0059792213,0.88838124,0.29596928,-0.94182384,0.15927988,,-0.084102005,0.46844983,-0.3490498,-0.8896434,-0.17874211,-0.42022127,-0.37898138,-0.22440106,0.89778465,-0.25477,0.9579642,0.13189699,,1.1333573856896921,0.5508161995211889,0.22482594502000003,0.3564729039236914,0.3298405104337732,1.379804228954228,-0.4148939279810693,,-1.5313870380272234,0.3500405902571001,0.17439118999000003,-0.6598942521457981,0.16778962171196088,-1.3918967067390846,0.8422020049883439,,-0.07327110366028695,-0.03740458753180348,0.09109008376,-0.10826536583874626,,-3.5092235e-05,-9.23872e-06,4.6491623e-06,1.0,2.3528934e-05,2.1576881e-05,-2.3528934e-05,1.0,3.8444996e-06,-2.1591783e-05,-3.9041042e-06,1.0,785,2.407,1,3,1.199,False,-0.2580907040680329,1.0169258518325928
2.4057310309726745,20:02:25.916797,20:01:06.425207,0,,0.1308526,0.009799689,0.023738667,-0.7694805,-0.4607159,-0.4423126,-0.07246551,-0.6250993,0.77717423,-0.6345458,0.630073,0.44761565,,0.078805014,0.00838639,0.0651449,0.8843895,0.33517185,0.32483032,-0.46543777,0.581159,0.6675491,0.034965664,-0.74156195,0.66997254,,0.083703674,1.2899003,0.4270681,0.9923727,0.099612236,-0.072621584,0.024165189,-0.73487055,-0.67777675,-0.12088232,0.67085224,-0.7316726,,-0.120568365,0.2635255,-0.08898537,0.8321579,0.33594015,0.44119993,-0.4686125,0.0006011866,0.88340366,0.2965055,-0.94188315,0.15792602,,-0.08410613,0.4684485,-0.34905317,-0.8896386,-0.17877181,-0.4202187,-0.37897176,-0.22441196,0.89778596,-0.25480092,0.95795614,0.13189608,,1.133735799600529,0.5508161995211889,0.22485057453,0.34452057714507356,0.3302504199330696,1.3805317988649661,-0.41440389578266656,,-1.5314102062258461,0.35001742205847747,0.17438989370000002,-0.6598942521457981,0.16778962171196088,-1.3918967067390846,0.8422020049883439,,-0.07327110366028695,-0.03740458753180348,0.09109008376,-0.10826536583874626,,-3.5092235e-05,-9.23872e-06,4.6491623e-06,1.0,2.3528934e-05,2.1576881e-05,-2.3528934e-05,1.0,3.8444996e-06,-2.1591783e-05,-3.9041042e-06,1.0,798,2.448,1,3,1.24,False,-0.2587460589717643,1.0169258518325928
2.4509279089979827,20:02:25.960624,20:01:06.425207,0,,0.13077769,0.009974062,0.02383624,-0.7533567,-0.46760944,-0.46237966,-0.08056563,-0.6321939,0.7706102,-0.6526582,0.6177965,0.43859425,,0.078808695,0.008384513,0.065147996,0.8842778,0.3352554,0.32504815,-0.4656545,0.58106005,0.66748405,0.03490521,-0.7416016,0.6699317,,0.083703674,1.2899003,0.4270681,0.9923727,0.099612236,-0.072621584,0.024165189,-0.73487055,-0.67777675,-0.12088232,0.67085224,-0.7316726,,-0.12049313,0.263721,-0.08894463,0.81775665,0.343711,0.4616674,-0.48749116,-0.01280777,0.873034,0.30598432,-0.93898815,0.15708242,,-0.08411037,0.4684492,-0.34905607,-0.88952434,-0.17884976,-0.4204274,-0.37914398,-0.22451566,0.8976873,-0.2549437,0.9579173,0.13190234,,1.1344771819564547,0.5508084767883147,0.22492316677000002,0.318728714096477,0.33981497491665036,1.3794302022977427,-0.41375051951812925,,-1.5314333744244688,0.3500096993256032,0.17438859741,-0.6596845622023136,0.16765298521219543,-1.3917852888353885,0.8425286931206124,,-0.07327110366028695,-0.03740458753180348,0.09109008376,-0.10826536583874626,,-3.5092235e-05,-9.23872e-06,4.6491623e-06,1.0,2.3528934e-05,2.1576881e-05,-2.3528934e-05,1.0,3.8444996e-06,-2.1591783e-05,-3.9041042e-06,1.0,811,2.489,1,3,1.281,False,-0.25719703829021734,1.0160085280177829
2.494807590963319,20:02:26.003202,20:01:06.554806,0,,0.1307165,0.010106966,0.023871407,-0.7451323,-0.47025144,-0.47290716,-0.08373375,-0.6375177,0.765872,-0.66163915,0.6102745,0.43565914,,0.078808576,0.008380907,0.06514853,0.8842727,0.3352893,0.32502717,-0.46566382,0.5811029,0.6674403,0.034911424,-0.74155277,0.66998553,,0.083703674,1.2899003,0.4270681,0.9923727,0.099612236,-0.072621584,0.024165189,-0.73487055,-0.67777675,-0.12088232,0.67085224,-0.7316726,,-0.12042709,0.26384294,-0.0888862,0.81045026,0.34683508,0.47209728,-0.49624813,-0.02177521,0.86790764,0.31130084,-0.93767333,0.15446854,,-0.08411046,0.46844733,-0.3490592,-0.8895207,-0.17889062,-0.4204178,-0.3791447,-0.22445516,0.89770216,-0.25495544,0.9579238,0.13183208,,1.1350486641891473,0.550785308589692,0.22500094417000002,0.30614731748740553,0.34528043490726806,1.3810177129202876,-0.4134238313858607,,-1.5314333744244688,0.3499942538598548,0.17438600483000002,-0.6596845622023136,0.16765298521219543,-1.3918669675755289,0.8423653490544782,,-0.07327110366028695,-0.03740458753180348,0.09109008376,-0.10826536583874626,,-3.5092235e-05,-9.23872e-06,4.6491623e-06,1.0,2.3528934e-05,2.1576881e-05,-2.3528934e-05,1.0,3.8444996e-06,-2.1591783e-05,-3.9041042e-06,1.0,824,2.53,1,3,1.322,False,-0.25820985950507547,1.0161533686201212
2.5373823228292167,20:02:26.041475,20:01:06.554806,0,,0.13058603,0.010321923,0.023919955,-0.73064655,-0.47281832,-0.49254262,-0.094934285,-0.6440413,0.7590773,-0.6761235,0.60137653,0.42567986,,0.078809306,0.008367078,0.065148115,0.8841965,0.3353482,0.32517362,-0.465819,0.58119863,0.6672486,0.034770206,-0.74145114,0.67010534,,0.083703674,1.2899003,0.4270681,0.9923727,0.099612236,-0.072621584,0.024165189,-0.73487055,-0.67777675,-0.12088232,0.67085224,-0.7316726,,-0.12028803,0.26403534,-0.08879014,0.7970146,0.34996125,0.4922345,-0.5147949,-0.03256269,0.85669476,0.31583846,-0.93619806,0.15420532,,-0.08411151,0.468438,-0.3490694,-0.889425,-0.17896394,-0.42058903,-0.37934235,-0.22432366,0.89765155,-0.25499535,0.95794094,0.13163045,,1.1359367784696832,0.550785308589692,0.22511631398,0.2809845242692626,0.3496528028997621,1.379494308505516,-0.41391386358426363,,-1.5314256516915945,0.34992474926398676,0.17437822709,-0.6594748722588292,0.16765298521219543,-1.3920303250558101,0.8420386609222096,,-0.07327110366028695,-0.03740458753180348,0.09109008376,-0.10826536583874626,,-3.5092235e-05,-9.23872e-06,4.6491623e-06,1.0,2.3528934e-05,2.1576881e-05,-2.3528934e-05,1.0,3.8444996e-06,-2.1591783e-05,-3.9041042e-06,1.0,837,2.571,1,3,1.363,False,-0.25677999426057063,1.015815407214665
2.5756621637847275,20:02:26.082470,20:01:06.554806,0,,0.13044441,0.010533243,0.024030969,-0.7148326,-0.47606066,-0.5122309,-0.104065925,-0.6519201,0.7511129,-0.6915089,0.59022593,0.41647196,,0.078818366,0.008345382,0.06514692,0.8841504,0.33540237,0.32524315,-0.46590132,0.5810482,0.66732216,0.03483951,-0.74154454,0.6699984,,0.083703674,1.2899003,0.4270681,0.9923727,0.099612236,-0.072621584,0.024165189,-0.73487055,-0.67777675,-0.12088232,0.67085224,-0.7316726,,-0.120145656,0.2642688,-0.088742495,0.78252107,0.3539257,0.5122473,-0.5325167,-0.04586702,0.8451758,0.3226247,-0.9341482,0.15257944,,-0.08412085,0.468422,-0.34908396,-0.8893945,-0.17900486,-0.42063597,-0.3793377,-0.22449766,0.89761,-0.25510833,0.95789254,0.1317637,,1.1370411292706972,0.5508316449869374,0.22519279509,0.2549829712771816,0.356757900887565,1.3790913743625794,-0.4135871754519953,,-1.5314488198902172,0.34979346280512497,0.17437044935,-0.6594748722588292,0.16765298521219543,-1.3919486463156696,0.8418753168560752,,-0.07327110366028695,-0.03740458753180348,0.09109008376,-0.10826536583874626,,-3.5092235e-05,-9.23872e-06,4.6491623e-06,1.0,2.3528934e-05,2.1576881e-05,-2.3528934e-05,1.0,3.8444996e-06,-2.1591783e-05,-3.9041042e-06,1.0,850,2.612,1,3,1.404,False,-0.25767366003838577,1.0157671270138855
2.616603100905195,20:02:26.119994,20:01:06.647472,0,,0.13030311,0.010745101,0.02422826,-0.69959843,-0.48096037,-0.52843064,-0.10709979,-0.6606064,0.7430538,-0.7064641,0.5764342,0.41064847,,0.07883042,0.008326249,0.06514454,0.8840496,0.33552122,0.32539448,-0.4660992,0.58110285,0.6671364,0.03475082,-0.74144787,0.6701099,,0.083703674,1.2899003,0.4270681,0.9923727,0.099612236,-0.072621584,0.024165189,-0.73487055,-0.67777675,-0.12088232,0.67085224,-0.7316726,,-0.120013826,0.2645624,-0.088755764,0.76899326,0.35978678,0.52839655,-0.54553145,-0.061533213,0.8358284,0.33323392,-0.9310033,0.14895636,,-0.084132835,0.4684064,-0.34909537,-0.8892853,-0.17913753,-0.42081034,-0.37952033,-0.22440358,0.8975563,-0.25521737,0.95788974,0.13157247,,1.1383462711264412,0.5509783769115476,0.22522001718,0.23443335681569824,0.3671422748697385,1.3804250624985186,-0.41456723984880073,,-1.531479710821714,0.3496621763462631,0.17436656048000002,-0.6592651823153446,0.16765298521219543,-1.3921120037959507,0.8415486287238068,,-0.07327110366028695,-0.03740458753180348,0.09109008376,-0.10826536583874626,,-3.5092235e-05,-9.23872e-06,4.6491623e-06,1.0,2.3528934e-05,2.1576881e-05,-2.3528934e-05,1.0,3.8444996e-06,-2.1591783e-05,-3.9041042e-06,1.0,863,2.653,1,3,1.445,False,-0.25922268071993226,1.0154291656084296
2.6541808659676462,20:02:26.172001,20:01:06.723582,0,,0.13006395,0.011026666,0.024530664,-0.6859311,-0.48428106,-0.5431117,-0.109857574,-0.6688999,0.7351899,-0.71932596,0.5639547,0.40561724,,0.07884463,0.008306818,0.065138996,0.8839479,0.33568826,0.32549867,-0.46628052,0.5808641,0.6672176,0.034906685,-0.74155945,0.66997844,,0.083703674,1.2899003,0.4270681,0.9923727,0.099612236,-0.072621584,0.024165189,-0.73487055,-0.67777675,-0.12088232,0.67085224,-0.7316726,,-0.119792506,0.26498207,-0.088808976,0.756788,0.36395672,0.5429617,-0.55684865,-0.07605492,0.82712466,0.34233248,-0.9283055,0.14511134,,-0.084146395,0.46838802,-0.34910476,-0.88921875,-0.17928873,-0.4208867,-0.37950763,-0.22466171,0.8974971,-0.25546825,0.957801,0.13173196,,1.1405009135983497,0.5513645135552588,0.22520964686000003,0.21472250212815294,0.37629692035402296,1.3813729731853361,-0.41636402457627786,,-1.5315028790203367,0.3495231671545271,0.17436526419,-0.6592651823153446,0.16751634871242999,-1.3920005858922542,0.8415486287238068,,-0.07327110366028695,-0.03740458753180348,0.09109008376,-0.10826536583874626,,-3.5092235e-05,-9.23872e-06,4.6491623e-06,1.0,2.3528934e-05,2.1576881e-05,-2.3528934e-05,1.0,3.8444996e-06,-2.1591783e-05,-3.9041042e-06,1.0,919,2.829,1,3,1.621,False,-0.25820985950507547,NaN
2.70618693693541,20:02:26.337779,20:01:06.884846,0,,0.12894668,0.012013733,0.025217578,-0.6566488,-0.48868424,-0.5744561,-0.11480127,-0.6880393,0.71653515,-0.74540794,0.5364604,0.39569864,,0.078871354,0.00829895,0.06515312,0.8835371,0.3362398,0.326044,-0.4670599,0.5806856,0.6668277,0.034885004,-0.7414493,0.6701014,,0.083703674,1.2899003,0.4270681,0.9923727,0.099612236,-0.072621584,0.024165189,-0.73487055,-0.67777675,-0.12088232,0.67085224,-0.7316726,,-0.11869614,0.26620305,-0.0887681,0.7305332,0.37019634,0.57382566,-0.5793788,-0.10876197,0.8077692,0.3614436,-0.9225646,0.13502967,,-0.084175445,0.4683904,-0.34911597,-0.8888341,-0.17985617,-0.42145658,-0.37997815,-0.22475922,0.8972736,-0.25610644,0.9576717,0.13143225,,1.148694733177902,0.5514340181511269,0.22537816456,0.17026823410943376,0.39665575881907367,1.3823326346647904,-0.4142405517165322,,-1.5316573336778212,0.3494613852915333,0.17436526419,-0.6586361124848911,0.16696980271336823,-1.3919633079781715,0.8404052202608668,,-0.07327110366028695,-0.03740458753180348,0.09109008376,-0.10826536583874626,,-3.5092235e-05,-9.23872e-06,4.6491623e-06,1.0,2.3528934e-05,2.1576881e-05,-2.3528934e-05,1.0,3.8444996e-06,-2.1591783e-05,-3.9041042e-06,1.0,945,2.911,1,3,1.703,False,-0.25820985950507547,1.0137393585811485
2.871934197843075,20:02:26.420452,20:01:06.965051,0,,0.1286971,0.012105241,0.02511321,-0.64775497,-0.49389604,-0.58006895,-0.11147821,-0.69175464,0.7134762,-0.75364846,0.5268229,0.39302886,,0.078902334,0.008275436,0.06516719,0.88335323,0.33653176,0.32624108,-0.46741706,0.5808829,0.6664055,0.03475879,-0.7411622,0.6704255,,0.083703674,1.2899003,0.4270681,0.9923727,0.099612236,-0.072621584,0.024165189,-0.73487055,-0.67777675,-0.12088232,0.67085224,-0.7316726,,-0.11842993,0.26620418,-0.08866468,0.722947,0.3762334,0.5794791,-0.58296835,-0.1179592,0.80388653,0.37080383,-0.91898537,0.13405392,,-0.08420912,0.46838215,-0.34913847,-0.8886412,-0.18018906,-0.42172122,-0.38028204,-0.2244499,0.8972223,-0.25632492,0.95768166,0.13093276,,1.1496677975200542,0.5502061036241251,0.22552853420000002,0.1608321866526302,0.40772331530007433,1.3817206946998581,-0.41440389578266634,,-1.5318426792668025,0.34929148516830033,0.17435878274000002,-0.6582167325979219,0.16696980271336823,-1.3922900229387336,0.8394251558640609,,-0.07327110366028695,-0.03740458753180348,0.09109008376,-0.10826536583874626,,-3.5092235e-05,-9.23872e-06,4.6491623e-06,1.0,2.3528934e-05,2.1576881e-05,-2.3528934e-05,1.0,3.8444996e-06,-2.1591783e-05,-3.9041042e-06,1.0,958,2.952,1,3,1.744,False,-0.2593418361569748,1.0126289139632207
2.954625293845311,20:02:26.469842,20:01:06.965051,0,,0.1285998,0.012046173,0.025048777,-0.6469418,-0.49375206,-0.5810982,-0.1119622,-0.6922911,0.7128798,-0.75427496,0.5262529,0.39259037,,0.07892966,0.008263277,0.06518304,0.8832464,0.33670527,0.32635105,-0.46761805,0.5808747,0.6662716,0.034768164,-0.7410898,0.6705049,,0.083703674,1.2899003,0.4270681,0.9923727,0.099612236,-0.072621584,0.024165189,-0.73487055,-0.67777675,-0.12088232,0.67085224,-0.7316726,,-0.118330196,0.26611996,-0.08867286,0.7221811,0.37611964,0.5805071,-0.58377594,-0.118745014,0.80318445,0.37102577,-0.9189307,0.1338142,,-0.08423922,0.46838307,-0.349154,-0.88854384,-0.18037292,-0.42184764,-0.380392,-0.22442123,0.8971828,-0.25649908,0.95765376,0.1307957,,1.149760470314545,0.549580562261313,0.22552464533000002,0.15957404699172303,0.40854313429866695,1.3819506534192258,-0.4152206161133378,,-1.532028024855784,0.3491910896409354,0.17435619016,-0.6580070426544374,0.16696980271336823,-1.3922900229387336,0.8387717795995239,,-0.07327110366028695,-0.03740458753180348,0.09109008376,-0.10826536583874626,,-3.5092235e-05,-9.23872e-06,4.6491623e-06,1.0,2.3528934e-05,2.1576881e-05,-2.3528934e-05,1.0,3.8444996e-06,-2.1591783e-05,-3.9041042e-06,1.0,984,3.034,1,3,1.826,False,-0.2591631030014119,1.0133048367741333
3.0040203598327935,20:02:26.541965,20:01:07.044957,0,,0.12861559,0.012055367,0.02518557,-0.64048755,-0.4958748,-0.58641607,-0.11403033,-0.6937227,0.71115816,-0.75945556,0.52235734,0.38777587,,0.078967184,0.00824021,0.06521422,0.88311297,0.33698648,0.32642204,-0.46786225,0.58084726,0.66612405,0.034873486,-0.7409835,0.67061704,,0.083703674,1.2899003,0.4270681,0.9923727,0.099612236,-0.072621584,0.024165189,-0.73487055,-0.67777675,-0.12088232,0.67085224,-0.7316726,,-0.11836144,0.2662209,-0.0887616,0.7162555,0.3785809,0.58622056,-0.5890527,-0.1224117,0.79876924,0.37415904,-0.9174377,0.13532604,,-0.084282406,0.46838725,-0.34918606,-0.8884388,-0.18066937,-0.421942,-0.3804542,-0.22439203,0.89716375,-0.25677043,0.9576047,0.13062216,,1.1498608658419098,0.549889471576282,0.22544686793000002,0.150767069365373,0.4112758642939757,1.379640616605157,-0.4153839601794722,,-1.5323214887050045,0.34904435771632514,0.17434322726,-0.6577973527109529,0.16696980271336823,-1.3922900229387334,0.8384450914672553,,-0.07327110366028695,-0.03740458753180348,0.09109008376,-0.10826536583874626,,-3.5092235e-05,-9.23872e-06,4.6491623e-06,1.0,2.3528934e-05,2.1576881e-05,-2.3528934e-05,1.0,3.8444996e-06,-2.1591783e-05,-3.9041042e-06,1.0,997,3.075,1,3,1.867,False,-0.2590439475643693,1.0115667495460727
3.076155873015523,20:02:26.589684,20:01:07.130484,0,,0.12855195,0.012084231,0.025279447,-0.6398986,-0.49530494,-0.5875395,-0.114601314,-0.6945104,0.7102971,-0.759866,0.52185106,0.3876535,,0.078986794,0.008236574,0.06523639,0.8830861,0.337171,0.32630432,-0.46790248,0.5809115,0.6660397,0.035015374,-0.74084914,0.67075795,,0.083703674,1.2899003,0.4270681,0.9923727,0.099612236,-0.072621584,0.024165189,-0.73487055,-0.67777675,-0.12088232,0.67085224,-0.7316726,,-0.11830749,0.2663087,-0.08881709,0.71567965,0.37801963,0.5872851,-0.58976626,-0.12334717,0.7980985,0.37413687,-0.9175438,0.13466617,,-0.084305786,0.4683993,-0.3492001,-0.8884391,-0.18087307,-0.42185414,-0.3803699,-0.22427112,0.89722973,-0.25689438,0.9575946,0.13045257,,1.150378288944483,0.550028480768018,0.22539501633000003,0.14929923976098133,0.4111392277942103,1.3798337132489937,-0.4155473042456066,,-1.5325068342939858,0.3490211895177025,0.1743380421,-0.6577973527109529,0.16696980271336823,-1.3923717016788741,0.8386084355333897,,-0.07327110366028695,-0.03740458753180348,0.09109008376,-0.10826536583874626,,-3.5092235e-05,-9.23872e-06,4.6491623e-06,1.0,2.3528934e-05,2.1576881e-05,-2.3528934e-05,1.0,3.8444996e-06,-2.1591783e-05,-3.9041042e-06,1.0,1011,3.119,1,3,1.911,False,-0.2583290149421176,1.010842546534381
3.123787479940802,20:02:26.630771,20:01:07.130484,0,,0.12842718,0.012120478,0.025365993,-0.6369328,-0.4968543,-0.58945084,-0.1147227,-0.69500643,0.7097921,-0.7623354,0.5197134,0.3856718,,0.07899225,0.008230435,0.065240085,0.88275796,0.3375578,0.32679167,-0.46851933,0.5805974,0.66588,0.03503865,-0.74091923,0.67067933,,0.083703674,1.2899003,0.4270681,0.9923727,0.099612236,-0.072621584,0.024165189,-0.73487055,-0.67777675,-0.12088232,0.67085224,-0.7316726,,-0.1181916,0.2663986,-0.08887056,0.71302754,0.37977204,0.58937675,-0.5916557,-0.125139,0.7964194,0.37621182,-0.91657704,0.13546672,,-0.084312,0.46839747,-0.3492064,-0.888139,-0.18125008,-0.42232388,-0.38071144,-0.22457267,0.89700943,-0.25742543,0.9574526,0.13044778,,1.1511196713004086,0.549889471576282,0.22535612763,0.14510544089129085,0.41346204829022276,1.3780212876262952,-0.41440389578266634,,-1.5325222797597344,0.34900574405195406,0.17433415323,-0.6573779728239838,0.16642325671430647,-1.3921710662845102,0.8374650270704498,,-0.07327110366028695,-0.03740458753180348,0.09109008376,-0.10826536583874626,,-3.5092235e-05,-9.23872e-06,4.6491623e-06,1.0,2.3528934e-05,2.1576881e-05,-2.3528934e-05,1.0,3.8444996e-06,-2.1591783e-05,-3.9041042e-06,1.0,1030,3.179,1,3,1.971,False,-0.2587460589717643,1.010408024727366
3.164950010832399,20:02:26.696340,20:01:07.209202,0,,0.12832168,0.012089886,0.025455594,-0.6320539,-0.49396962,-0.5970777,-0.11982885,-0.69892913,0.7050808,-0.7656036,0.5171965,0.38256896,,0.078952506,0.008211521,0.065274954,0.8826228,0.33777168,0.32693598,-0.46877617,0.5806393,0.6656626,0.035010144,-0.74078894,0.6708248,,0.08373317,1.2899014,0.42706808,0.99237317,0.09959715,-0.072635494,0.024144819,-0.7348726,-0.67777526,-0.12088232,0.67085224,-0.7316726,,-0.118126504,0.26644132,-0.08896588,0.7082103,0.37691534,0.5969699,-0.5977564,-0.1298043,0.7910993,0.37566674,-0.9171072,0.13337483,,-0.08430684,0.46841455,-0.34924546,-0.88801783,-0.18147276,-0.42248312,-0.38086993,-0.22446753,0.8969685,-0.25760907,0.9574351,0.13021366,,1.15130501688939,0.5499126397749047,0.22525760959000002,0.13650815320842535,0.4125055927918647,1.3799447153141378,-0.4153839601794722,,-1.5325995070884766,0.3489207939903376,0.17432896807,-0.6571682828804993,0.16642325671430647,-1.3923344237647912,0.8371383389381811,,-0.07327110366028695,-0.03740458753180348,0.09109008376,-0.10826536583874626,,-5.7965517e-06,-7.0929527e-06,1.7881393e-06,1.0,8.516014e-06,7.800758e-06,-8.508563e-06,1.0,1.3411045e-06,-7.8082085e-06,-1.4305115e-06,1.0,1063,3.285,1,3,2.077,False,-0.2596993024681016,1.0104563049281452
3.230471392860636,20:02:26.793205,20:01:07.290942,0,,0.12819058,0.011881895,0.025732756,-0.62621474,-0.49796134,-0.5999079,-0.11963591,-0.6989711,0.70507205,-0.770417,0.5132973,0.3781318,,0.07895954,0.008200614,0.06527001,0.8824859,0.3377967,0.32727936,-0.4690556,0.58070993,0.6654041,0.03471695,-0.7407222,0.6709138,,0.08373317,1.2899014,0.42706808,0.99237317,0.09959715,-0.072635494,0.024144819,-0.7348726,-0.67777526,-0.12088232,0.67085224,-0.7316726,,-0.11804474,0.26648763,-0.08932425,0.7030143,0.38132864,0.60029936,-0.60113144,-0.13241588,0.7881034,0.38001558,-0.9149068,0.1361384,,-0.08431319,0.46840295,-0.3492497,-0.8878388,-0.18150727,-0.42284447,-0.38125524,-0.22437453,0.89682806,-0.25765634,0.95745033,0.1300078,,1.151783826327592,0.5495960077270614,0.22492057419000003,0.12937869512995154,0.4172878702836551,1.3759634099446227,-0.4155473042456064,,-1.5325995070884766,0.3488358439287211,0.17432896807,-0.6567489029935303,0.16642325671430647,-1.3924161025049318,0.8366483067397783,,-0.07327110366028695,-0.03740458753180348,0.09109008376,-0.10826536583874626,,-5.7965517e-06,-7.0929527e-06,1.7881393e-06,1.0,8.516014e-06,7.800758e-06,-8.508563e-06,1.0,1.3411045e-06,-7.8082085e-06,-1.4305115e-06,1.0,1082,3.345,1,3,2.137,False,-0.2594014138754961,1.0101666237234685
3.32739337394014,20:02:26.859719,20:01:07.417544,0,,0.12810235,0.011601672,0.026214272,-0.617493,-0.50680816,-0.60153794,-0.11492467,-0.69841695,0.70640355,-0.7781354,0.50533104,0.3730227,,0.07896289,0.00819662,0.065268934,0.8824747,0.3378175,0.32728806,-0.46907526,0.5806877,0.6654097,0.034734905,-0.7407301,0.67090404,,0.08373317,1.2899014,0.42706808,0.99237317,0.09959715,-0.072635494,0.024144819,-0.7348726,-0.67777526,-0.12088232,0.67085224,-0.7316726,,-0.11803497,0.26662228,-0.08987193,0.6956373,0.3910765,0.60261756,-0.6033541,-0.13726963,0.78557044,0.38993922,-0.91006386,0.14046773,,-0.0843164,0.46839914,-0.34925157,-0.88783157,-0.18152693,-0.4228511,-0.38125306,-0.22439739,0.8968232,-0.25768426,0.9574413,0.1300194,,1.152339863094536,0.5495651167955645,0.22441502109000003,0.12120078733405507,0.42780888076559404,1.3695895573437935,-0.41571064831174076,,-1.532607229821351,0.3488049529972242,0.17432896807,-0.6567489029935303,0.16642325671430647,-1.3924161025049318,0.8366483067397783,,-0.07327110366028695,-0.03740458753180348,0.09109008376,-0.10826536583874626,,-5.7965517e-06,-7.0929527e-06,1.7881393e-06,1.0,8.516014e-06,7.800758e-06,-8.508563e-06,1.0,1.3411045e-06,-7.8082085e-06,-1.4305115e-06,1.0,1115,3.451,1,3,2.243,False,-0.2588652144088064,1.0104563049281452
3.393911228980869,20:02:26.960307,20:01:07.492202,0,,0.12771139,0.010835677,0.02763614,-0.60258085,-0.5277277,-0.598665,-0.09761724,-0.6957796,0.7115908,-0.79206514,0.4872312,0.36774802,,0.07897544,0.008179782,0.06526035,0.8822688,0.3379467,0.3277097,-0.46947664,0.58058596,0.6652153,0.034543753,-0.74075097,0.6708909,,0.08373317,1.2899014,0.42706808,0.99237317,0.09959715,-0.072635494,0.024144819,-0.7348726,-0.67777526,-0.12088232,0.67085224,-0.7316726,,-0.11787248,0.26706812,-0.09146442,0.68378335,0.41413543,0.6007764,-0.60099936,-0.14728025,0.7855624,0.41381168,-0.89822066,0.14818734,,-0.0843277,0.4683803,-0.34925726,-0.88760656,-0.18165328,-0.42326903,-0.38163188,-0.2244941,0.89663786,-0.2578986,0.95739466,0.12993775,,1.1549655922717723,0.5494647212681997,0.22293076904000003,0.11071629015982887,0.4540430887205586,1.3558751214072935,-0.4147305839149349,,-1.532607229821351,0.3486736665383624,0.17433026436000001,-0.6563295231065612,0.16628662021454105,-1.392386363341376,0.835831586409107,,-0.07327110366028695,-0.03740458753180348,0.09109008376,-0.10826536583874626,,-5.7965517e-06,-7.0929527e-06,1.7881393e-06,1.0,8.516014e-06,7.800758e-06,-8.508563e-06,1.0,1.3411045e-06,-7.8082085e-06,-1.4305115e-06,1.0,1134,3.511,1,3,2.303,False,-0.2591631030014119,1.0096355415148943
3.494495082879439,20:02:27.027537,20:01:07.576544,0,,0.12753335,0.010250628,0.0284881,-0.5988558,-0.5357834,-0.5952376,-0.08896062,-0.694147,0.71431494,-0.7959006,0.48072457,0.36803028,,0.07898129,0.0081717055,0.06525725,0.8822472,0.33795542,0.3277588,-0.46951497,0.58048594,0.6652756,0.034574166,-0.7408254,0.67080724,,0.08373317,1.2899014,0.42706808,0.99237317,0.09959715,-0.072635494,0.024144819,-0.7348726,-0.67777526,-0.12088232,0.67085224,-0.7316726,,-0.11783995,0.26724276,-0.092498,0.68117917,0.42300472,0.5975466,-0.5975372,-0.15036963,0.78761554,0.42301795,-0.8935636,0.15033239,,-0.08433313,0.46837208,-0.34926066,-0.88759196,-0.18165138,-0.42330045,-0.38163108,-0.22461584,0.89660776,-0.25795,0.95736647,0.1300434,,1.1560467748741639,0.5494878894668224,0.22194169977000003,0.11008722032937529,0.4641541897032012,1.3514690973203645,-0.4153839601794722,,-1.532614952554225,0.3486118846753686,0.17433026436000001,-0.6563295231065612,0.16628662021454105,-1.3923046846012355,0.8356682423429724,,-0.07327110366028695,-0.03740458753180348,0.09109008376,-0.10826536583874626,,-5.7965517e-06,-7.0929527e-06,1.7881393e-06,1.0,8.516014e-06,7.800758e-06,-8.508563e-06,1.0,1.3411045e-06,-7.8082085e-06,-1.4305115e-06,1.0,1153,3.572,0,3,2.314,False,-0.2583885926606384,1.0096838217156738
3.5617088538128883,20:02:27.089492,20:01:07.576544,0,,0.12747693,0.009544656,0.02926153,-0.5972289,-0.542433,-0.5908333,-0.082722604,-0.69104975,0.7180579,-0.7977936,0.47772047,0.36784327,,0.07899259,0.008153496,0.06524861,0.8821461,0.3380004,0.32798433,-0.4697127,0.5804209,0.6651928,0.034466505,-0.7408558,0.6707791,,0.08373317,1.2899014,0.42706808,0.99237317,0.09959715,-0.072635494,0.024144819,-0.7348726,-0.67777526,-0.12088232,0.67085224,-0.7316726,,-0.11792729,0.2672722,-0.09354265,0.6802461,0.4301715,0.59347934,-0.5944066,-0.1500193,0.79004747,0.42888924,-0.8901948,0.15364674,,-0.08434324,0.46835247,-0.34926757,-0.8874791,-0.18169206,-0.42351958,-0.38182792,-0.22468612,0.8965063,-0.25804704,0.9573422,0.13002914,,1.1561394476686544,0.549511057665445,0.22093318615000002,0.11155504993376697,0.4707127416919423,1.347101182824623,-0.4155473042456064,,-1.532614952554225,0.34847287548363254,0.17433026436000001,-0.6561198331630768,0.16628662021454105,-1.3923046846012355,0.8356682423429724,,-0.07327110366028695,-0.03740458753180348,0.09109008376,-0.10826536583874626,,-5.7965517e-06,-7.0929527e-06,1.7881393e-06,1.0,8.516014e-06,7.800758e-06,-8.508563e-06,1.0,1.3411045e-06,-7.8082085e-06,-1.4305115e-06,1.0,1167,3.617,0,3,2.314,False,-0.2579715486309908,1.0092492999086586
3.6236809559632093,20:02:27.131806,20:01:07.658301,0,,0.1274884,0.009088524,0.029668838,-0.5964441,-0.5444571,-0.5897634,-0.08096704,-0.6902066,0.7190683,-0.79856044,0.47663566,0.36758643,,0.079007536,0.008141009,0.065249026,0.88210607,0.33815056,0.32793745,-0.46978188,0.5804625,0.6651076,0.03455113,-0.7407546,0.6708865,,0.08373317,1.2899014,0.42706808,0.99237317,0.09959715,-0.072635494,0.024144819,-0.7348726,-0.67777526,-0.12088232,0.67085224,-0.7316726,,-0.11802019,0.2672257,-0.09414539,0.6796876,0.43236598,0.59252375,-0.5936978,-0.15010244,0.7905645,0.43075246,-0.88911694,0.15467197,,-0.08435838,0.468343,-0.3492753,-0.88745695,-0.1818567,-0.42349538,-0.38180393,-0.2246007,0.89653796,-0.2581588,0.957331,0.12988985,,1.1557687564906918,0.5494956121996966,0.22033430017000002,0.11197442982073601,0.47276228918842395,1.3460833441903013,-0.4152206161133378,,-1.532676734417219,0.34837247995626763,0.17433026436000001,-0.6561198331630768,0.16628662021454105,-1.3924680420815165,0.8356682423429729,,-0.07327110366028695,-0.03740458753180348,0.09109008376,-0.10826536583874626,,-5.7965517e-06,-7.0929527e-06,1.7881393e-06,1.0,8.516014e-06,7.800758e-06,-8.508563e-06,1.0,1.3411045e-06,-7.8082085e-06,-1.4305115e-06,1.0,1186,3.677,0,3,2.314,False,-0.2583885926606384,1.0098286623180122
3.6659480398520827,20:02:27.204253,20:01:07.742050,0,,0.12756982,0.008286297,0.030300379,-0.59481615,-0.5496953,-0.58653975,-0.07722899,-0.6872002,0.72235143,-0.8001434,0.47496438,0.36630517,,0.07902263,0.0081331115,0.06525427,0.8820195,0.3382299,0.3280883,-0.46994978,0.5804627,0.6649888,0.0344761,-0.7407183,0.6709305,,0.08373317,1.2899014,0.42706808,0.99237317,0.09959715,-0.072635494,0.024144819,-0.7348726,-0.67777526,-0.12088232,0.67085224,-0.7316726,,-0.11823415,0.26708326,-0.09513684,0.67853516,0.43797016,0.58972216,-0.5921526,-0.14893654,0.79194266,0.43467844,-0.88656646,0.1582865,,-0.08437439,0.46834007,-0.34928253,-0.8873634,-0.18194123,-0.42365515,-0.38195863,-0.2245826,0.89647657,-0.2582516,0.9573192,0.12979235,,1.1546721284225518,0.5493874939394574,0.21934911977000002,0.11323256948164316,0.4771346571809181,1.3425996500121564,-0.41505727204720366,,-1.5327616844788354,0.3483029753603996,0.17433026436000001,-0.6559101432195922,0.16628662021454105,-1.3924680420815165,0.8356682423429729,,-0.07327110366028695,-0.03740458753180348,0.09109008376,-0.10826536583874626,,-5.7965517e-06,-7.0929527e-06,1.7881393e-06,1.0,8.516014e-06,7.800758e-06,-8.508563e-06,1.0,1.3411045e-06,-7.8082085e-06,-1.4305115e-06,1.0,1205,3.739,0,3,2.314,False,-0.2589247921273281,1.0085733770977463
3.7384409008082002,20:02:27.260092,20:01:07.822259,0,,0.12763458,0.0075537935,0.030699342,-0.5927715,-0.5536536,-0.5848842,-0.07544243,-0.68486416,0.72475475,-0.8018294,0.47373927,0.36419886,,0.07903281,0.008131055,0.06525892,0.8818939,0.33827835,0.32837573,-0.47020513,0.58058333,0.6647029,0.034205213,-0.74060154,0.6710731,,0.08373317,1.2899014,0.42706808,0.99237317,0.09959715,-0.072635494,0.024144819,-0.7348726,-0.67777526,-0.12088232,0.67085224,-0.7316726,,-0.1183989,0.26683033,-0.0959171,0.6768406,0.44220513,0.5885078,-0.59209687,-0.14798309,0.792163,0.43738776,-0.88462174,0.16166732,,-0.0843853,0.46834096,-0.34928563,-0.8871987,-0.18200634,-0.4239719,-0.38231292,-0.22442245,0.89636564,-0.25829306,0.95734435,0.12952393,,1.1532743137723172,0.5487851207752679,0.21857004948000003,0.11323256948164316,0.4805505696750541,1.339814202419746,-0.41505727204720366,,-1.5328234663418292,0.34827208442890273,0.17433156065000002,-0.6554907633326231,0.16628662021454105,-1.392549720821657,0.8348515220123012,,-0.07327110366028695,-0.03740458753180348,0.09109008376,-0.10826536583874626,,-5.7965517e-06,-7.0929527e-06,1.7881393e-06,1.0,8.516014e-06,7.800758e-06,-8.508563e-06,1.0,1.3411045e-06,-7.8082085e-06,-1.4305115e-06,1.0,1238,3.845,1,4,2.365,False,-0.25868648125324345,1.007511212680598
3.7942815159913152,20:02:27.367136,20:01:07.822259,0,,0.12765433,0.0061267465,0.031173617,-0.5883855,-0.5622362,-0.5811135,-0.07172719,-0.67955774,0.7301071,-0.8053929,0.4712664,0.35951415,,0.07908742,0.008107392,0.06526691,0.879574,0.34291783,0.3297828,-0.47425532,0.5768491,0.6650767,0.037831783,-0.7413855,0.670012,,0.08373317,1.2899014,0.42706808,0.99237317,0.09959715,-0.072635494,0.024144819,-0.7348726,-0.67777526,-0.12088232,0.67085224,-0.7316726,,-0.11857845,0.2661308,-0.09723628,0.67319083,0.45138332,0.5857194,-0.59202486,-0.1456148,0.7926556,0.44308093,-0.88036895,0.1692036,,-0.08444113,0.4683253,-0.34930116,-0.885691,-0.18653755,-0.4251532,-0.38191417,-0.2279746,0.89563894,-0.26399443,0.9556314,0.1306737,,1.1503165070814891,0.5463679053856356,0.21726079658000003,0.11323256948164316,0.48888539616074594,1.3335894614752482,-0.4152206161133378,,-1.532885248204823,0.34827208442890273,0.17433285694000003,-0.6554907633326231,0.16041125072462709,-1.3910259005683334,0.8328913932186898,,-0.07327110366028695,-0.03740458753180348,0.09109008376,-0.10826536583874626,,-5.7965517e-06,-7.0929527e-06,1.7881393e-06,1.0,8.516014e-06,7.800758e-06,-8.508563e-06,1.0,1.3411045e-06,-7.8082085e-06,-1.4305115e-06,1.0,1257,3.907,1,4,2.427,False,-0.25779281547542787,1.007269811676701
3.9012923599220812,20:02:27.425953,20:01:07.940333,0,,0.12768792,0.0055661425,0.031190038,-0.59070414,-0.5647098,-0.5763432,-0.06898019,-0.6763218,0.7333693,-0.8039343,0.47296077,0.3605522,,0.079124734,0.008087007,0.0652675,0.87767494,0.34735322,0.33020028,-0.4774799,0.57449543,0.66480654,0.04122418,-0.74114823,0.6700744,,0.08373317,1.2899014,0.42706808,0.99237317,0.09959715,-0.072635494,0.024144819,-0.7348726,-0.67777526,-0.12088232,0.67085224,-0.7316726,,-0.11865437,0.26573744,-0.09763019,0.6755129,0.4538663,0.58110905,-0.58896506,-0.14203472,0.7955792,0.44362426,-0.87967694,0.17136511,,-0.084478535,0.46830815,-0.34931195,-0.88453037,-0.19101103,-0.42558292,-0.3812094,-0.22984086,0.8954622,-0.2688595,0.95429975,0.13048603,,1.1487874059723928,0.5450782089956401,0.21686283555000002,0.11910388789920984,0.4907983071574621,1.3328463982249037,-0.4148939279810693,,-1.5328698027390746,0.34828752989465117,0.17433285694000003,-0.6559101432195922,0.15535570023330578,-1.391150732618875,0.8327280491525555,,-0.07327110366028695,-0.03740458753180348,0.09109008376,-0.10826536583874626,,-5.7965517e-06,-7.0929527e-06,1.7881393e-06,1.0,8.516014e-06,7.800758e-06,-8.508563e-06,1.0,1.3411045e-06,-7.8082085e-06,-1.4305115e-06,1.0,1290,4.013,1,4,2.533,False,-0.2585077480976805,1.0059662462556558
3.960118922870606,20:02:27.528630,20:01:08.031811,0,,0.12781018,0.004588537,0.03079167,-0.5906745,-0.57019556,-0.57094705,-0.066651344,-0.6706772,0.73874867,-0.8041525,0.47441465,0.35814756,,0.07913282,0.008084325,0.06526786,0.8773452,0.34819704,0.33018774,-0.47804162,0.5743726,0.66450894,0.041729286,-0.7408474,0.67037576,,0.08373317,1.2899014,0.42706808,0.99237317,0.09959715,-0.072635494,0.024144819,-0.7348726,-0.67777526,-0.12088232,0.67085224,-0.7316726,,-0.11879907,0.26475358,-0.09800493,0.6756786,0.45953566,0.576442,-0.5874401,-0.13679518,0.79762226,0.44539034,-0.87756145,0.17752007,,-0.08448663,0.46830577,-0.3493131,-0.8843138,-0.1918985,-0.42563367,-0.38115153,-0.22979331,0.89549905,-0.2696527,0.9541331,0.13006699,,1.1447793076106703,0.5417419883939751,0.21648302258000002,0.12455582642980746,0.49571722114901795,1.3299788560538004,-0.4152206161133378,,-1.5328775254719487,0.34828752989465117,0.17433415323,-0.6559101432195922,0.15453588123471315,-1.391544048818524,0.8317479847557501,,-0.07327110366028695,-0.03740458753180348,0.09109008376,-0.10826536583874626,,-5.7965517e-06,-7.0929527e-06,1.7881393e-06,1.0,8.516014e-06,7.800758e-06,-8.508563e-06,1.0,1.3411045e-06,-7.8082085e-06,-1.4305115e-06,1.0,1309,4.074,1,4,2.594,False,-0.25856732581620134,1.0063042076611117
4.062822453910485,20:02:27.594370,20:01:08.131911,0,,0.12775026,0.0043971017,0.030712694,-0.59046245,-0.57101905,-0.57034314,-0.066707164,-0.66973966,0.73959374,-0.80430365,0.47474852,0.357365,,0.07913196,0.0080842655,0.065267086,0.87734604,0.3481909,0.3301919,-0.47804055,0.57437146,0.6645107,0.041723818,-0.74085116,0.67037195,,0.08373317,1.2899014,0.42706808,0.99237317,0.09959715,-0.072635494,0.024144819,-0.7348726,-0.67777526,-0.12088232,0.67085224,-0.7316726,,-0.118744254,0.26456282,-0.09808905,0.6754825,0.46037948,0.57599837,-0.58759147,-0.13586363,0.79766995,0.4454881,-0.87726384,0.17874154,,-0.08448564,0.46830517,-0.34931278,-0.88431364,-0.19189185,-0.42563704,-0.38115504,-0.22979613,0.89549685,-0.26964828,0.95413375,0.13007131,,1.1443391118368393,0.5408307059148166,0.21640135631000001,0.12476551637329199,0.496673676647376,1.329117251987785,-0.415383960179472,,-1.5328698027390746,0.34828752989465117,0.17433415323,-0.6559101432195922,0.15453588123471315,-1.3915440488185238,0.8324013610202868,,-0.07327110366028695,-0.03740458753180348,0.09109008376,-0.10826536583874626,,-5.7965517e-06,-7.0929527e-06,1.7881393e-06,1.0,8.516014e-06,7.800758e-06,-8.508563e-06,1.0,1.3411045e-06,-7.8082085e-06,-1.4305115e-06,1.0,1328,4.136,1,4,2.656,False,-0.2583290149421176,1.0058214056533172
4.128554524853826,20:02:27.657676,20:01:08.131911,0,,0.1276565,0.0043913573,0.030777842,-0.58690494,-0.5735275,-0.57149684,-0.066400945,-0.6693786,0.73994815,-0.80692846,0.4722274,0.3547787,,0.07913204,0.008084385,0.065267324,0.8772917,0.34822315,0.33030263,-0.47815475,0.57451916,0.66430086,0.041559815,-0.7407215,0.6705254,,0.08373317,1.2899014,0.42706808,0.99237317,0.09959715,-0.072635494,0.024144819,-0.7348726,-0.67777526,-0.12088232,0.67085224,-0.7316726,,-0.11865956,0.26460665,-0.09815206,0.67229396,0.46318942,0.5774741,-0.5892986,-0.13727479,0.79616755,0.44804904,-0.8755634,0.18066788,,-0.08448576,0.46830544,-0.34931278,-0.88423395,-0.19194248,-0.42577976,-0.38134608,-0.22960687,0.89546406,-0.26963955,0.95416915,0.12982967,,1.1447870303435443,0.5405913011957156,0.21635468987000003,0.12036202756011699,0.4996796796422157,1.3260126281853393,-0.41505727204720366,,-1.5328698027390746,0.34828752989465117,0.17433415323,-0.6557004532761077,0.15453588123471315,-1.391707406298805,0.8320746728880184,,-0.07327110366028695,-0.03740458753180348,0.09109008376,-0.10826536583874626,,-5.7965517e-06,-7.0929527e-06,1.7881393e-06,1.0,8.516014e-06,7.800758e-06,-8.508563e-06,1.0,1.3411045e-06,-7.8082085e-06,-1.4305115e-06,1.0,1361,4.242,1,4,2.762,False,-0.2575545046013441,1.0056282848501994
4.191866950830445,20:02:27.759684,20:01:08.282848,0,,NaN,NaN,NaN,NaN,NaN,NaN,NaN,NaN,NaN,NaN,NaN,NaN,,0.07913947,0.00808662,0.065268695,0.877018,0.34849167,0.3307458,-0.47866213,0.5743001,0.66412485,0.041494697,-0.7407651,0.6704812,,0.08373317,1.2899014,0.42706808,0.99237317,0.09959715,-0.072635494,0.024144819,-0.7348726,-0.67777526,-0.12088232,0.67085224,-0.7316726,,NaN,NaN,NaN,NaN,NaN,NaN,NaN,NaN,NaN,NaN,NaN,NaN,,-0.08449324,0.46830702,-0.34931093,-0.88396823,-0.19220516,-0.42621276,-0.3816901,-0.22981296,0.89526457,-0.2700237,0.95406663,0.12978455,,1.1449028713366578,0.5394715049289531,0.21635598616,0.11260349965118958,0.4989964971433885,1.3267330751841024,-0.41473058391493534,,-1.532892970937697,0.34829525262752536,0.1743380421,-0.6552810733891387,0.1541259717354168,-1.3915365100679968,0.8340348016816298,,-0.07327110366028695,-0.03740458753180348,0.09109008376,-0.10826536583874626,,-5.7965517e-06,-7.0929527e-06,1.7881393e-06,1.0,8.516014e-06,7.800758e-06,-8.508563e-06,1.0,1.3411045e-06,-7.8082085e-06,-1.4305115e-06,1.0,1380,4.304,1,4,2.824,False,-0.25737577144578117,1.0094424207117765
4.293793173972517,20:02:27.823623,20:01:08.282848,0,,0.12735143,0.0042963773,0.030653983,-0.58044636,-0.5695784,-0.5819469,-0.07428861,-0.6746404,0.7343988,-0.8109026,0.46951133,0.34927934,,0.07917778,0.008106174,0.06525266,0.87703,0.3485929,0.33060744,-0.47863787,0.57449824,0.66397107,0.04152228,-0.74056387,0.6707018,,0.08375066,1.2899024,0.42706951,0.99237406,0.09957048,-0.07266009,0.024108807,-0.7348762,-0.67777264,-0.12088232,0.67085224,-0.7316726,,-0.118362226,0.26446247,-0.09816634,0.6657932,0.45919457,0.5880984,-0.5979457,-0.14308286,0.7886623,0.44629624,-0.87673694,0.17930983,,-0.08454073,0.4683019,-0.34927765,-0.88400096,-0.19231792,-0.42609408,-0.38163278,-0.22953603,0.89536005,-0.26999772,0.9541106,0.12951523,,1.1455593036309668,0.5389695272921285,0.21635857874000003,0.10757094100756098,0.4989964971433885,1.3267330751841024,-0.41473058391493534,,-1.5329393073349424,0.34824891623028004,0.1743380421,-0.6552810733891387,0.1541259717354168,-1.3917815462884184,0.8341981457477641,,-0.07327110366028695,-0.03740458753180348,0.09109008376,-0.10826536583874626,,1.14142895e-05,-5.185604e-06,-1.1920929e-06,1.0,-1.8037856e-05,-1.6540289e-05,1.8037856e-05,1.0,-3.0100346e-06,1.6532838e-05,2.9802322e-06,1.0,1413,4.41,1,4,2.93,False,-0.2585077480976805,1.0077526136844954
4.357808963861316,20:02:27.926669,20:01:08.425600,0,,0.12691389,0.00452359,0.030842006,-0.55658495,-0.5787292,-0.59605837,-0.07634264,-0.6787957,0.73034805,-0.82727563,0.45200554,0.33362567,,0.07918693,0.008092584,0.06525499,0.8758998,0.34844142,0.3337485,-0.48093218,0.5749084,0.66195506,0.038777843,-0.7403167,0.6711387,,0.08375066,1.2899024,0.42706951,0.99237406,0.09957048,-0.07266009,0.024108807,-0.7348762,-0.67777264,-0.12088232,0.67085224,-0.7316726,,-0.11793479,0.26476973,-0.098202705,0.6439618,0.4700354,0.60363895,-0.6114991,-0.1579315,0.7753235,0.4597631,-0.8684033,0.18572438,,-0.08455055,0.4682938,-0.34928823,-0.8824637,-0.1922013,-0.42932093,-0.3850502,-0.22906691,0.894016,-0.27017426,0.9542468,0.12813608,,1.1478143416302404,0.5381123039430896,0.21640783776000003,0.07632713942836687,0.514026512117587,1.3141503908169336,-0.414077207650398,,-1.5329470300678167,0.3481562434357893,0.17433285694000003,-0.6515066544064172,0.15385269873588595,-1.3916403892211662,0.8330547372848243,,-0.07327110366028695,-0.03740458753180348,0.09109008376,-0.10826536583874626,,1.14142895e-05,-5.185604e-06,-1.1920929e-06,1.0,-1.8037856e-05,-1.6540289e-05,1.8037856e-05,1.0,-3.0100346e-06,1.6532838e-05,2.9802322e-06,1.0,1432,4.472,1,4,2.992,False,-0.25695872741613357,1.0063524878618912
4.460860054008663,20:02:27.993449,20:01:08.425600,0,,0.12658808,0.0047108606,0.030796468,-0.538165,-0.58333576,-0.6083565,-0.07566592,-0.68544126,0.72418576,-0.8394361,0.43576348,0.32474172,,0.07920573,0.008059414,0.06524217,0.8758164,0.3486693,0.33372927,-0.48107564,0.5749426,0.6618211,0.038881585,-0.7401828,0.6712804,,0.08375066,1.2899024,0.42706951,0.99237406,0.09957048,-0.07266009,0.024108807,-0.7348762,-0.67777264,-0.12088232,0.67085224,-0.7316726,,-0.11759314,0.26488295,-0.09808545,0.62721634,0.47604522,0.61642563,-0.62000066,-0.17383564,0.7651015,0.47137967,-0.86206853,0.18611582,,-0.08456771,0.46826047,-0.34930286,-0.8824047,-0.19244844,-0.42933154,-0.3850546,-0.22897084,0.8940388,-0.27036077,0.95422006,0.1279418,,1.1491272062188587,0.5369307258133332,0.21659968868,0.053890315475522754,0.5275535255943656,1.3098176750425141,-0.41505727204720344,,-1.532954752800691,0.3479168387166884,0.17433026436000001,-0.6515066544064172,0.15385269873588595,-1.3919671041817285,0.83174798475575,,-0.07327110366028695,-0.03740458753180348,0.09109008376,-0.10826536583874626,,1.14142895e-05,-5.185604e-06,-1.1920929e-06,1.0,-1.8037856e-05,-1.6540289e-05,1.8037856e-05,1.0,-3.0100346e-06,1.6532838e-05,2.9802322e-06,1.0,1465,4.578,1,4,3.098,False,-0.2583885926606384,1.005386883846302
4.527637328952551,20:02:28.093039,20:01:08.621802,0,,0.12587747,0.004879378,0.030833334,-0.52510154,-0.5784705,-0.62421155,-0.07868564,-0.6973273,0.7124207,-0.8473941,0.42320988,0.32065028,,0.079251334,0.008013757,0.06523526,0.87445545,0.3486874,0.33726057,-0.4837687,0.5752318,0.659603,0.03599234,-0.7399496,0.6716985,,0.08375066,1.2899024,0.42706951,0.99237406,0.09957048,-0.07266009,0.024108807,-0.7348762,-0.67777264,-0.12088232,0.67085224,-0.7316726,,-0.1168816,0.26505142,-0.098091975,0.61500704,0.4718564,0.63175774,-0.6280885,-0.19124478,0.7542747,0.47672972,-0.86068404,0.17875066,,-0.08461267,0.4682204,-0.34932706,-0.8806263,-0.19249962,-0.43294472,-0.38881123,-0.22861034,0.89250386,-0.2707823,0.9542962,0.12647428,,1.152270358498668,0.5350154880605256,0.21665931802000002,0.03376008090100842,0.5349318965816994,1.3137659145400562,-0.414077207650398,,-1.5330628710609302,0.3475461475387256,0.17433026436000001,-0.6473128555367267,0.15357942573635508,-1.3918259471144763,0.8315846406896157,,-0.07327110366028695,-0.03740458753180348,0.09109008376,-0.10826536583874626,,1.14142895e-05,-5.185604e-06,-1.1920929e-06,1.0,-1.8037856e-05,-1.6540289e-05,1.8037856e-05,1.0,-3.0100346e-06,1.6532838e-05,2.9802322e-06,1.0,1484,4.64,1,4,3.16,False,-0.25815028178655464,1.0061593670587736
4.627230217913166,20:02:28.158715,20:01:08.621802,0,,0.1254231,0.0050302446,0.03099364,-0.5171934,-0.5709948,-0.63755447,-0.087785274,-0.70560133,0.7031504,-0.8513546,0.41963282,0.31480736,,0.079270914,0.008002045,0.06524038,0.8744134,0.34891185,0.33713746,-0.4838181,0.57499796,0.6597706,0.03634852,-0.7400255,0.6715957,,0.08375066,1.2899024,0.42706951,0.99237406,0.09957048,-0.07266009,0.024108807,-0.7348762,-0.67777264,-0.12088232,0.67085224,-0.7316726,,-0.11643977,0.26528502,-0.098163635,0.6069858,0.46427774,0.64499176,-0.637627,-0.19990997,0.7439541,0.47434166,-0.8628338,0.17469352,,-0.08463318,0.46821436,-0.34933648,-0.8806506,-0.1927136,-0.4328002,-0.38856933,-0.22884515,0.89254904,-0.27105057,0.9541967,0.12665002,,1.1545949010938095,0.5345598468209464,0.21659968868,0.017194575365730998,0.5320625300866252,1.3159423330373996,-0.4147305839149349,,-1.533163266588295,0.34745347474423494,0.17433026436000001,-0.6475225454802113,0.15344278923658963,-1.3917145292107798,0.8315846406896157,,-0.07327110366028695,-0.03740458753180348,0.09109008376,-0.10826536583874626,,1.14142895e-05,-5.185604e-06,-1.1920929e-06,1.0,-1.8037856e-05,-1.6540289e-05,1.8037856e-05,1.0,-3.0100346e-06,1.6532838e-05,2.9802322e-06,1.0,1503,4.701,1,4,3.221,False,-0.25820985950507547,1.0062559274603322
4.692902055801824,20:02:28.215264,20:01:08.621802,0,,0.12489196,0.004968457,0.031267524,-0.5082569,-0.56525904,-0.64973605,-0.09693128,-0.7121081,0.69534624,-0.8557331,0.4163945,0.3071425,,0.079279855,0.00799671,0.06524283,0.8743365,0.3489213,0.3373271,-0.48396552,0.57495445,0.65970045,0.03623593,-0.7400549,0.67156935,,0.08375066,1.2899024,0.42706951,0.99237406,0.09957048,-0.07266009,0.024108807,-0.7348762,-0.67777264,-0.12088232,0.67085224,-0.7316726,,-0.11595086,0.26544648,-0.098473184,0.5979926,0.45851022,0.6573988,-0.64752,-0.2070147,0.7333912,0.4723586,-0.8642415,0.17310129,,-0.08464257,0.46821168,-0.34934086,-0.8805591,-0.19271888,-0.432984,-0.3887403,-0.22889657,0.89246136,-0.27110273,0.95418334,0.12663937,,1.1568962754903285,0.5336253961431652,0.21630802343000002,-0.0004193798869690487,0.5300129825901435,1.3151632393886294,-0.41505727204720344,,-1.5332096029855404,0.34740713834698955,0.17433026436000001,-0.6473128555367267,0.15344278923658963,-1.3916328504706392,0.83174798475575,,-0.07327110366028695,-0.03740458753180348,0.09109008376,-0.10826536583874626,,1.14142895e-05,-5.185604e-06,-1.1920929e-06,1.0,-1.8037856e-05,-1.6540289e-05,1.8037856e-05,1.0,-3.0100346e-06,1.6532838e-05,2.9802322e-06,1.0,1536,4.808,1,4,3.328,False,-0.25773323775690704,1.0060145264564349
