AlexandreBanks6/ExpertPlaybackApp/resources/Motions/P_09/PC1/Data_PC1_7.csv
Task Time,PC1 Time,PC2 Time,Gaze Calib,s_T_psm1,Tx,Ty,Tz,R00,R01,R02,R10,R11,R12,R20,R21,R22,s_T_psm3,Tx,Ty,Tz,R00,R01,R02,R10,R11,R12,R20,R21,R22,cart_T_ecm,Tx,Ty,Tz,R00,R01,R02,R10,R11,R12,R20,R21,R22,ecm_T_psm1,Tx,Ty,Tz,R00,R01,R02,R10,R11,R12,R20,R21,R22,ecm_T_psm3,Tx,Ty,Tz,R00,R01,R02,R10,R11,R12,R20,R21,R22,psm1_joints,q1,q2,q3,q4,q5,q6,jaw,psm3_joints,q1,q2,q3,q4,q5,q6,jaw,ecm_joints,q1,q2,q3,q4,ecmi_T_ecm,Tx,Ty,Tz,R00,R01,R02,R10,R11,R12,R20,R21,R22,Sample #,Task Duration (s),Collisions (binary),Collisions (increments),Cumulative Collision Time (s),Clutch Press,MTMR Angle,MTML Angle
""
lci_T_si,,,,,-0.0493608,0.027893092,0.20932992,0.98721725,-0.03466899,0.1555641,0.080758385,-0.7326672,-0.6757787,0.13740528,0.6797035,-0.7205019
rci_T_si,,,,,-0.05870397,0.032032646,0.21918625,0.9859643,-0.04950044,0.15944943,0.07462208,-0.7236772,-0.68609244,0.1493518,0.6883611,-0.70982605
ecm_T_lc,,,,,-4.4061628e-05,-0.00034663224,-0.01840835,-0.99912,0.030754527,0.028518902,-0.031987965,-0.99852574,-0.043852776,0.027128186,-0.04472645,0.9986309
ecm_T_rc,,,,,-0.0043358393,0.01870579,-0.007592615,-0.99555075,-0.052743673,-0.078081585,0.04863213,-0.9973746,0.053654674,-0.08070653,0.04961868,0.9955021
cart_T_ecmi,,,,,0.083672695,1.2898984,0.4270709,0.99237174,0.099641204,-0.072594866,0.024204304,-0.7348666,-0.6777796,-0.12088232,0.67085224,-0.7316726
ecmac_T_ecmrep_psm1,,,,,0.023195708,-0.2631036,-0.30022871,0.99664557,0.07921609,0.02055357,-0.078295335,0.99603295,-0.04228661,-0.023821812,0.040535513,0.9988941
ecmac_T_ecmrep_psm3,,,,,0.022281613,-0.4507852,-0.5326207,0.99995744,0.002629678,0.008843231,-0.0032003638,0.99787027,0.06515156,-0.008653069,-0.06517708,0.9978362
""
0,19:56:14.143585,19:54:54.637483,0,,0.1359328,0.009445682,0.022561774,-0.8690068,-0.12540594,-0.47864446,-0.475463,-0.05615014,0.87794197,-0.13697511,0.99051523,-0.010831058,,0.07596758,0.0020286143,0.058148384,0.5819742,0.1561726,0.7980703,-0.7889412,0.34638238,0.5075342,-0.19717464,-0.92500234,0.32479668,,0.08369723,1.2899003,0.4270653,0.99237233,0.099622376,-0.07261223,0.024178883,-0.7348692,-0.67777777,-0.12088232,0.67085224,-0.7316726,,-0.12715077,0.26179197,-0.08709982,0.8418774,-0.007080793,0.53962237,-0.41041684,0.64088446,0.64871037,-0.35042897,-0.7676047,0.53664005,,-0.08227377,0.45859283,-0.3500101,-0.5578301,0.03176271,-0.8293472,-0.73538315,-0.48216265,0.47616255,-0.384756,0.87550575,0.29232258,,1.0861483196295578,0.5908817376726657,0.22734982165000003,0.4365744623347797,-0.3847683833394803,0.9625270497456084,-0.42289778722164906,,-1.4932135694299316,0.305248739586598,0.17486044697000003,-0.20381862506695766,0.0017762744969507258,-1.045874482925423,0.83289139321869,,-0.0681136557206437,-0.037411132516498455,0.09109365563999999,-0.1076111944439502,,2.5078654e-05,-2.682209e-06,1.0728836e-06,1.0,-1.874566e-05,-1.719594e-05,1.874566e-05,1.0,-3.0994415e-06,1.7181039e-05,3.0994415e-06,1.0,36,0.105,0,0,0.0,False,-0.2607717014014801,1.007704333483716
0.11566416104324162,19:56:14.173594,19:54:54.705337,0,,0.13600336,0.009399787,0.022671446,-0.8681961,-0.12990521,-0.4789158,-0.47609872,-0.053987026,0.8777331,-0.13987726,0.99005556,-0.014976531,,0.07597051,0.002026707,0.05814922,0.58171046,0.1560704,0.7982825,-0.7890613,0.3465401,0.5072397,-0.19747187,-0.9249605,0.32473522,,0.08369723,1.2899003,0.4270653,0.99237233,0.099622376,-0.07261223,0.024178883,-0.7348692,-0.67777777,-0.12088232,0.67085224,-0.7316726,,-0.127238,0.26183113,-0.08719969,0.8414006,-0.002412306,0.5404065,-0.4128929,0.64230025,0.645732,-0.34866095,-0.76644933,0.5394358,,-0.082276866,0.45859185,-0.35001165,-0.5575188,0.031859893,-0.82955277,-0.73565096,-0.48201558,0.47589773,-0.3846953,0.8755832,0.2921705,,1.0859784195063247,0.5912447061177543,0.22724611845000003,0.4340581830129654,-0.38326538184206044,0.959422841781715,-0.4233878194200518,,-1.4932290148956802,0.30523329412084954,0.17486044697000003,-0.20339924517998864,0.0017762744969507258,-1.045874482925423,0.83289139321869,,-0.0681136557206437,-0.037411132516498455,0.09109365563999999,-0.1076111944439502,,2.5078654e-05,-2.682209e-06,1.0728836e-06,1.0,-1.874566e-05,-1.719594e-05,1.874566e-05,1.0,-3.0994415e-06,1.7181039e-05,3.0994415e-06,1.0,47,0.138,0,0,0.0,False,-0.26059296824591627,1.007704333483716
0.14570313808508217,19:56:14.209968,19:54:54.705337,0,,0.13611364,0.009350166,0.022784755,-0.8666342,-0.13841525,-0.47936043,-0.47695833,-0.052229494,0.87737274,-0.14647853,0.98899615,-0.020754457,,0.07597198,0.0020257533,0.058149576,0.58170706,0.15614533,0.79827034,-0.7890657,0.34657735,0.5072075,-0.19746438,-0.9249339,0.3248155,,0.08369723,1.2899003,0.4270653,0.99237233,0.099622376,-0.07261223,0.024178883,-0.7348692,-0.67777777,-0.12088232,0.67085224,-0.7316726,,-0.12736526,0.26186872,-0.08729898,0.8406386,0.00626973,0.54156023,-0.41808796,0.6431474,0.6415325,-0.3442808,-0.76571673,0.5432758,,-0.082278416,0.45859134,-0.3500124,-0.557517,0.03178243,-0.82955694,-0.73564786,-0.48198062,0.47593796,-0.3847039,0.8756052,0.29209307,,1.0857312920543496,0.5916462882272139,0.22713204493000003,0.4286062444823678,-0.37902965034933184,0.9558872080269853,-0.4233878194200518,,-1.4932367376285542,0.3052255713879753,0.17486044697000003,-0.20339924517998864,0.0017762744969507258,-1.0459561616655633,0.8330547372848242,,-0.0681136557206437,-0.037411132516498455,0.09109365563999999,-0.1076111944439502,,2.5078654e-05,-2.682209e-06,1.0728836e-06,1.0,-1.874566e-05,-1.719594e-05,1.874566e-05,1.0,-3.0994415e-06,1.7181039e-05,3.0994415e-06,1.0,58,0.171,0,0,0.0,False,-0.2608908568385213,1.0079940146883928
0.18207163899205625,19:56:14.234353,19:54:54.705337,0,,0.13619515,0.009319007,0.022848293,-0.8654105,-0.14151943,-0.48066297,-0.47835493,-0.052171618,0.8766155,-0.1491351,0.9885597,-0.022546679,,0.07584646,0.001968328,0.058134556,0.58146626,0.15615442,0.7984439,-0.7892045,0.34664977,0.50694215,-0.19761918,-0.92490524,0.3248029,,0.08366975,1.2898985,0.42706203,0.9923719,0.09963543,-0.07260019,0.024196513,-0.7348674,-0.6777791,-0.12088232,0.67085224,-0.7316726,,-0.12743175,0.26188877,-0.08736053,0.83967525,0.009400713,0.5430075,-0.42095292,0.64299905,0.6398053,-0.3431387,-0.76580924,0.54386765,,-0.08212897,0.4585613,-0.35007,-0.55724144,0.0317661,-0.82974267,-0.73583084,-0.48191443,0.47572204,-0.38475314,0.87564224,0.29191718,,1.0856386192598588,0.5919783657408055,0.22706334156000002,0.4256705852735844,-0.37820983135073916,0.9553820580850879,-0.4225710990893803,,-1.4932367376285542,0.3052255713879753,0.17486174326,-0.20318955523650412,0.0017762744969507258,-1.0460378404057038,0.8330547372848242,,-0.0681136557206437,-0.037411132516498455,0.09109365563999999,-0.1076111944439502,,-1.847744e-06,-6.2584877e-06,6.556511e-06,1.0,-5.751848e-06,-5.275011e-06,5.751848e-06,1.0,-9.536743e-07,5.26011e-06,9.23872e-07,1.0,69,0.204,0,0,0.0,False,-0.26148663402373185,1.007704333483716
0.20646686595864594,19:56:14.270856,19:54:54.812502,0,,0.13632308,0.009321369,0.023016378,-0.8653312,-0.14587314,-0.47950265,-0.47719693,-0.05273384,0.8772129,-0.15324779,0.9878968,-0.023978025,,0.07586606,0.0019721724,0.058131993,0.5811263,0.15615995,0.7986904,-0.78941,0.3467009,0.5065869,-0.19779815,-0.9248852,0.32475126,,0.08366975,1.2898985,0.42706203,0.9923719,0.09963543,-0.07260019,0.024196513,-0.7348674,-0.6777791,-0.12088232,0.67085224,-0.7316726,,-0.12757964,0.26200107,-0.08746119,0.84020954,0.013749985,0.5420875,-0.4229249,0.642285,0.6392218,-0.3393854,-0.7663425,0.5454692,,-0.0821476,0.45855948,-0.35006258,-0.5568801,0.03175844,-0.8299855,-0.736057,-0.48186663,0.47542053,-0.3848437,0.8756689,0.29171798,,1.0854764418695002,0.5927043026309826,0.22695445320000002,0.42420275566919274,-0.3749305553563686,0.9541782457189039,-0.42355116348618616,,-1.4933139649572966,0.3051946804564784,0.17487600245,-0.20277017534953504,0.0016396379971852853,-1.046008101242148,0.8330547372848242,,-0.0681136557206437,-0.037411132516498455,0.09109365563999999,-0.1076111944439502,,-1.847744e-06,-6.2584877e-06,6.556511e-06,1.0,-5.751848e-06,-5.275011e-06,5.751848e-06,1.0,-9.536743e-07,5.26011e-06,9.23872e-07,1.0,76,0.224,0,0,0.0,False,-0.26112916771260597,1.007800893885275
0.24296787404455245,19:56:14.300070,19:54:54.812502,0,,0.13641278,0.00931631,0.023135409,-0.86475503,-0.14692187,-0.4802214,-0.47775087,-0.05401829,0.8768331,-0.15476668,0.98767203,-0.023479521,,0.07588899,0.001962904,0.0581311,0.58107716,0.15628202,0.79870224,-0.78947115,0.3466381,0.50653464,-0.19769844,-0.924888,0.3248037,,0.08366975,1.2898985,0.42706203,0.9923719,0.09963543,-0.07260019,0.024196513,-0.7348674,-0.6777791,-0.12088232,0.67085224,-0.7316726,,-0.127684,0.26207575,-0.087537214,0.8397935,0.014721124,0.5427064,-0.4243872,0.6412312,0.63931066,-0.33858886,-0.76720655,0.5447492,,-0.08217022,0.4585499,-0.35006565,-0.5568526,0.03163727,-0.8300086,-0.7360166,-0.48192495,0.47542393,-0.38496074,0.87564117,0.29164672,,1.0853142644791414,0.5932757848636753,0.22687926838000003,0.42273492606480106,-0.3746572823568377,0.95526226975376,-0.4235511634861861,,-1.4934066377517872,0.305078839463365,0.17488507648,-0.20277017534953504,0.0016396379971852853,-1.046008101242148,0.8330547372848242,,-0.0681136557206437,-0.037411132516498455,0.09109365563999999,-0.1076111944439502,,-1.847744e-06,-6.2584877e-06,6.556511e-06,1.0,-5.751848e-06,-5.275011e-06,5.751848e-06,1.0,-9.536743e-07,5.26011e-06,9.23872e-07,1.0,87,0.257,0,0,0.0,False,-0.26160578946077395,1.007269811676701
0.2721849069930613,19:56:14.324718,19:54:54.812502,0,,0.13650906,0.00932651,0.02323185,-0.8656151,-0.1462042,-0.47888893,-0.4763241,-0.054394364,0.87758577,-0.15435557,0.9877579,-0.022555977,,0.07592079,0.0019513704,0.05813563,0.58089244,0.15640849,0.7988118,-0.7896019,0.34665436,0.5063196,-0.19771896,-0.92486066,0.32486936,,0.08366975,1.2898985,0.42706203,0.9923719,0.09963543,-0.07260019,0.024196513,-0.7348674,-0.6777791,-0.12088232,0.67085224,-0.7316726,,-0.12779082,0.26214585,-0.08758568,0.8406968,0.01397257,0.5413258,-0.4230369,0.6409913,0.6404452,-0.33803645,-0.767421,0.5447902,,-0.08220264,0.45854184,-0.35007262,-0.5566713,0.031508446,-0.83013505,-0.7360948,-0.48190945,0.4753186,-0.3850734,0.87565434,0.29145837,,1.0850671370271663,0.5938240988977452,0.22683260194000002,0.4246221355561618,-0.3746572823568377,0.95526226975376,-0.4235511634861861,,-1.4935610924092717,0.30495527573737746,0.17489155793000002,-0.2025604854060505,0.0016396379971852853,-1.046008101242148,0.8330547372848242,,-0.0681136557206437,-0.037411132516498455,0.09109365563999999,-0.1076111944439502,,-1.847744e-06,-6.2584877e-06,6.556511e-06,1.0,-5.751848e-06,-5.275011e-06,5.751848e-06,1.0,-9.536743e-07,5.26011e-06,9.23872e-07,1.0,98,0.29,0,0,0.0,False,-0.2602950796533112,1.0074629324798186
0.2968006678856909,19:56:14.355569,19:54:54.812502,0,,0.13662185,0.009310804,0.023322359,-0.86647445,-0.14641319,-0.4772684,-0.47467202,-0.054483473,0.8784749,-0.15462355,0.98772204,-0.022289693,,0.075933516,0.0019515194,0.058140397,0.5807581,0.15642726,0.79890585,-0.78967196,0.34673682,0.50615394,-0.19783384,-0.9248265,0.32489643,,0.08366975,1.2898985,0.42706203,0.9923719,0.09963543,-0.07260019,0.024196513,-0.7348674,-0.6777791,-0.12088232,0.67085224,-0.7316726,,-0.12791511,0.26219243,-0.08764512,0.841703,0.014177273,0.5397546,-0.42198694,0.64090896,0.64121974,-0.33684283,-0.767486,0.5454376,,-0.082216024,0.4585439,-0.35007367,-0.55651987,0.031486064,-0.83023745,-0.73620975,-0.48183236,0.47521868,-0.3850725,0.87569755,0.29132965,,1.084681000383455,0.5943183538016956,0.2267729726,0.42629965510403806,-0.3739740998580105,0.9547868589754185,-0.4237145075523204,,-1.4936383197380139,0.30493210753875477,0.17489544680000002,-0.20235079546256599,0.0016396379971852853,-1.046008101242148,0.8330547372848242,,-0.0681136557206437,-0.037411132516498455,0.09109365563999999,-0.1076111944439502,,-1.847744e-06,-6.2584877e-06,6.556511e-06,1.0,-5.751848e-06,-5.275011e-06,5.751848e-06,1.0,-9.536743e-07,5.26011e-06,9.23872e-07,1.0,109,0.322,0,0,0.0,False,-0.26095043455704303,1.008331976093849
0.32768435310572386,19:56:14.381810,19:54:54.946742,0,,0.13670366,0.009266339,0.023419693,-0.8666095,-0.14766663,-0.47663662,-0.47406518,-0.054453403,0.8788043,-0.15572453,0.9875371,-0.022813886,,0.07595068,0.0019530095,0.058143914,0.5807495,0.15658897,0.7988804,-0.78969115,0.34677497,0.50609785,-0.19778237,-0.9247849,0.3250463,,0.08366975,1.2898985,0.42706203,0.9923719,0.09963543,-0.07260019,0.024196513,-0.7348674,-0.6777791,-0.12088232,0.67085224,-0.7316726,,-0.1280118,0.2622238,-0.08773354,0.8420225,0.01544287,0.53922135,-0.4222932,0.6408473,0.64107966,-0.33565843,-0.76751304,0.5461293,,-0.08223349,0.4585454,-0.3500723,-0.5565218,0.031320624,-0.83024246,-0.73618287,-0.48179626,0.47529685,-0.38512114,0.87572336,0.29118782,,1.0843875365342346,0.5946890449796584,0.22668352859000002,0.42629965510403806,-0.3731542808594179,0.954281709033521,-0.42306113128778333,,-1.4937309925325046,0.3049012166072579,0.17490322454,-0.20235079546256599,0.0016396379971852853,-1.0460897799822886,0.8328913932186898,,-0.0681136557206437,-0.037411132516498455,0.09109365563999999,-0.1076111944439502,,-1.847744e-06,-6.2584877e-06,6.556511e-06,1.0,-5.751848e-06,-5.275011e-06,5.751848e-06,1.0,-9.536743e-07,5.26011e-06,9.23872e-07,1.0,124,0.367,0,0,0.0,False,-0.2608312791200009,1.0074146522790395
0.35385228600353,19:56:14.434200,19:54:54.946742,0,,0.13675602,0.009203143,0.023556843,-0.8659621,-0.15192871,-0.47647363,-0.47412163,-0.053726137,0.87881875,-0.15911686,0.98693013,-0.025507957,,0.07595527,0.0019544698,0.0581429,0.58029187,0.15627022,0.7992753,-0.7899333,0.34679544,0.5057057,-0.19815832,-0.9248311,0.32468563,,0.08366975,1.2898985,0.42706203,0.9923719,0.09963543,-0.07260019,0.024196513,-0.7348674,-0.6777791,-0.12088232,0.67085224,-0.7316726,,-0.12808582,0.2622698,-0.08786752,0.8418129,0.019789537,0.53940654,-0.4246768,0.64110804,0.6392418,-0.33316755,-0.76719546,0.5480972,,-0.082237765,0.458545,-0.3500699,-0.5560089,0.031642847,-0.8305738,-0.73656535,-0.48177803,0.47472247,-0.38513064,0.8757218,0.2911799,,1.0843025864726181,0.5950133997603758,0.22654352927000002,0.4239930657257082,-0.37083146036340536,0.9523876046706821,-0.4227344431555146,,-1.493746437998253,0.3049012166072579,0.17490711341,-0.20172172563211244,0.001503001497419845,-1.045815004598311,0.8332180813509583,,-0.0681136557206437,-0.037411132516498455,0.09109365563999999,-0.1076111944439502,,-1.847744e-06,-6.2584877e-06,6.556511e-06,1.0,-5.751848e-06,-5.275011e-06,5.751848e-06,1.0,-9.536743e-07,5.26011e-06,9.23872e-07,1.0,135,0.4,0,0,0.0,False,-0.2603546573718325,1.0080422948891723
0.4063144389074296,19:56:14.466544,19:54:54.946742,0,,0.1367752,0.009156443,0.023714676,-0.86608374,-0.15521386,-0.47519213,-0.47303534,-0.052957416,0.8794505,-0.16166785,0.98646045,-0.027556092,,0.07595755,0.0019560196,0.058142066,0.58016384,0.15634726,0.7993531,-0.7899888,0.3469629,0.50550413,-0.1983117,-0.92475533,0.32480797,,0.08366975,1.2898985,0.42706203,0.9923719,0.09963543,-0.07260019,0.024196513,-0.7348674,-0.6777791,-0.12088232,0.67085224,-0.7316726,,-0.12812847,0.26234305,-0.08800991,0.84234035,0.023155529,0.5384483,-0.42562595,0.6414593,0.6382574,-0.33061346,-0.7668075,0.55018264,,-0.08223981,0.45854515,-0.35006788,-0.555856,0.031557962,-0.83067936,-0.7367003,-0.48162133,0.47467205,-0.3850932,0.87581104,0.29096085,,1.0844184274657314,0.595330031808219,0.22639445592000002,0.4233639958952547,-0.36837200336762743,0.9501370461837246,-0.4228977872216489,,-1.4937541607311273,0.3049012166072579,0.17490970599000003,-0.2015120356886279,0.001503001497419845,-1.045978362078592,0.8328913932186898,,-0.0681136557206437,-0.037411132516498455,0.09109365563999999,-0.1076111944439502,,-1.847744e-06,-6.2584877e-06,6.556511e-06,1.0,-5.751848e-06,-5.275011e-06,5.751848e-06,1.0,-9.536743e-07,5.26011e-06,9.23872e-07,1.0,146,0.433,0,0,0.0,False,-0.2596993024681016,1.0073180918774804
0.43865312193520367,19:56:14.501894,19:54:54.946742,0,,0.13676903,0.009142622,0.023826882,-0.8661349,-0.15539871,-0.47503835,-0.47285324,-0.053147674,0.879537,-0.16192609,0.9864211,-0.02744773,,0.0759628,0.0019539632,0.058142662,0.580213,0.1564142,0.7993043,-0.7900181,0.34672323,0.50562274,-0.1980508,-0.9248338,0.32474342,,0.08366975,1.2898985,0.42706203,0.9923719,0.09963543,-0.07260019,0.024196513,-0.7348674,-0.6777791,-0.12088232,0.67085224,-0.7316726,,-0.12813778,0.26240996,-0.088100776,0.8424375,0.023329336,0.5382888,-0.42566818,0.6413001,0.6383892,-0.33031142,-0.7669354,0.5501858,,-0.08224513,0.4585436,-0.35006905,-0.5559544,0.031499855,-0.8306157,-0.736531,-0.48184508,0.47470763,-0.3852749,0.87569004,0.29108453,,1.084603773054713,0.5956003274588169,0.22630371562,0.4233639958952547,-0.36823536686786196,0.9499439495398877,-0.4227344431555147,,-1.49377732892975,0.30488577114150944,0.17491100228,-0.20172172563211244,0.0013663649976544045,-1.0458669441748958,0.8328913932186898,,-0.0681136557206437,-0.037411132516498455,0.09109365563999999,-0.1076111944439502,,-1.847744e-06,-6.2584877e-06,6.556511e-06,1.0,-5.751848e-06,-5.275011e-06,5.751848e-06,1.0,-9.536743e-07,5.26011e-06,9.23872e-07,1.0,154,0.458,0,0,0.0,False,-0.25952056931253775,1.0076077730821573
0.4740084740333259,19:56:14.527602,19:54:55.077661,0,,0.1367468,0.009094246,0.024001822,-0.8656921,-0.15439665,-0.4761709,-0.47386056,-0.053848326,0.878952,-0.16134824,0.98654044,-0.026546478,,0.07596713,0.0019534864,0.058141828,0.57982033,0.15625152,0.79962105,-0.7901927,0.3469643,0.5051844,-0.19850418,-0.92477095,0.32464582,,0.08366975,1.2898985,0.42706203,0.9923719,0.09963543,-0.07260019,0.024196513,-0.7348674,-0.6777791,-0.12088232,0.67085224,-0.7316726,,-0.12814179,0.26249513,-0.08826256,0.8418511,0.022271257,0.5392501,-0.42602208,0.6408369,0.63861823,-0.3313485,-0.76735395,0.5489773,,-0.08224924,0.45854214,-0.35006824,-0.5554886,0.031654928,-0.8309214,-0.73693496,-0.48162028,0.47430876,-0.3851744,0.8758081,0.2908622,,1.084850900506688,0.5959864641025281,0.22614686453000002,0.42273492606480106,-0.3696017318655164,0.9508947710965708,-0.42240775502324607,,-1.4937927743954984,0.30487032567576094,0.17491359486000002,-0.20109265580165883,0.0013663649976544045,-1.0458669441748958,0.8328913932186898,,-0.0681136557206437,-0.037411132516498455,0.09109365563999999,-0.1076111944439502,,-1.847744e-06,-6.2584877e-06,6.556511e-06,1.0,-5.751848e-06,-5.275011e-06,5.751848e-06,1.0,-9.536743e-07,5.26011e-06,9.23872e-07,1.0,172,0.511,0,0,0.0,False,-0.2599376133421849,1.007800893885275
0.4997000100556761,19:56:14.573307,19:54:55.077661,0,,0.13674742,0.009032689,0.024268314,-0.86333925,-0.15965739,-0.4787011,-0.4766003,-0.053745657,0.87747574,-0.16582358,0.98570836,-0.029692054,,0.0759684,0.0019530989,0.058140635,0.57981634,0.15625408,0.7996235,-0.7901969,0.34695834,0.5051819,-0.1984993,-0.9247727,0.3246436,,0.08366975,1.2898985,0.42706203,0.9923719,0.09963543,-0.07260019,0.024196513,-0.7348674,-0.6777791,-0.12088232,0.67085224,-0.7316726,,-0.12818111,0.26263252,-0.08849575,0.8398954,0.027588343,0.5420466,-0.43116012,0.6405226,0.63547754,-0.32966134,-0.7674436,0.54986703,,-0.08225026,0.4585408,-0.35006753,-0.55548567,0.031652573,-0.8309235,-0.7369336,-0.48162583,0.4743052,-0.38518122,0.87580514,0.29086208,,1.085260205349022,0.596604282732466,0.22591093975,0.4168636076472344,-0.36823536686786196,0.9497805920596065,-0.42240775502324607,,-1.4937927743954984,0.30486260294288675,0.17491489115000003,-0.20109265580165883,0.0013663649976544045,-1.0458669441748958,0.8328913932186898,,-0.0681136557206437,-0.037411132516498455,0.09109365563999999,-0.1076111944439502,,-1.847744e-06,-6.2584877e-06,6.556511e-06,1.0,-5.751848e-06,-5.275011e-06,5.751848e-06,1.0,-9.536743e-07,5.26011e-06,9.23872e-07,1.0,183,0.544,0,0,0.0,False,-0.260652545964438,1.007511212680598
0.5454181060194969,19:56:14.606682,19:54:55.077661,0,,0.1367368,0.008984745,0.024613753,-0.86095566,-0.16533704,-0.48106018,-0.4789131,-0.055299163,0.8761189,-0.17145713,0.98468554,-0.031571984,,0.075970136,0.0019499101,0.058139265,0.57954675,0.15607508,0.79985386,-0.7903198,0.3470656,0.5049159,-0.19879705,-0.9247627,0.32449,,0.08366975,1.2898985,0.42706203,0.9923719,0.09963543,-0.07260019,0.024196513,-0.7348674,-0.6777791,-0.12088232,0.67085224,-0.7316726,,-0.12821841,0.26283422,-0.08877799,0.83808935,0.033221878,0.5445205,-0.43678033,0.63888544,0.63328373,-0.32684734,-0.7685842,0.54995376,,-0.08225181,0.4585375,-0.35006887,-0.55516857,0.03182963,-0.8311286,-0.7372028,-0.48152605,0.47398806,-0.3851232,0.8758536,0.290793,,1.0859398058419536,0.5974383378828823,0.22561538563000003,0.4105729093426987,-0.36563927337231866,0.9497056203928886,-0.42273444315551467,,-1.4937927743954984,0.30483943474426406,0.17491489115000003,-0.2006732759146898,0.0013663649976544045,-1.045785265434755,0.8330547372848242,,-0.0681136557206437,-0.037411132516498455,0.09109365563999999,-0.1076111944439502,,-1.847744e-06,-6.2584877e-06,6.556511e-06,1.0,-5.751848e-06,-5.275011e-06,5.751848e-06,1.0,-9.536743e-07,5.26011e-06,9.23872e-07,1.0,198,0.589,0,0,0.0,False,-0.259282258438454,1.008138855290731
0.5787980759050697,19:56:14.657214,19:54:55.077661,0,,0.13678291,0.009011574,0.025158063,-0.8576295,-0.17387727,-0.4839817,-0.48176017,-0.057650745,0.8744047,-0.179941,0.98307836,-0.03432423,,0.07597813,0.0019372143,0.058134973,0.5793007,0.15602915,0.80004096,-0.7904968,0.34693542,0.5047283,-0.19881022,-0.92481935,0.32432047,,0.08366975,1.2898985,0.42706203,0.9923719,0.09963543,-0.07260019,0.024196513,-0.7348674,-0.6777791,-0.12088232,0.67085224,-0.7316726,,-0.12833181,0.26322448,-0.08914398,0.8356769,0.041700467,0.54763603,-0.44477174,0.63636494,0.6302521,-0.32221454,-0.77026016,0.5503427,,-0.082259215,0.45852497,-0.35007453,-0.55493,0.031881474,-0.83128595,-0.73729825,-0.48164788,0.47371575,-0.38528436,0.87578475,0.29078698,,1.0869746520470998,0.5990987254508405,0.22525112814000003,0.40176593171634867,-0.36208672437841716,0.949177438360858,-0.42142769062644053,,-1.4938004971283727,0.3047544846826476,0.17491489115000003,-0.20046358597120528,0.001229728497888964,-1.0456738475310587,0.8327280491525556,,-0.0681136557206437,-0.037411132516498455,0.09109365563999999,-0.1076111944439502,,-1.847744e-06,-6.2584877e-06,6.556511e-06,1.0,-5.751848e-06,-5.275011e-06,5.751848e-06,1.0,-9.536743e-07,5.26011e-06,9.23872e-07,1.0,209,0.621,0,0,0.0,False,-0.2599971910607066,1.007800893885275
0.6293201718945056,19:56:14.687981,19:54:55.228032,0,,0.13685253,0.009081878,0.025532588,-0.8551634,-0.18058677,-0.48588458,-0.48362637,-0.059378833,0.8732581,-0.18655016,0.98176503,-0.036557913,,0.07598132,0.0019330122,0.05813408,0.57928514,0.15611191,0.80003613,-0.79051375,0.3469545,0.5046886,-0.19878826,-0.9247982,0.32439423,,0.08366975,1.2898985,0.42706203,0.9923719,0.09963543,-0.07260019,0.024196513,-0.7348674,-0.6777791,-0.12088232,0.67085224,-0.7316726,,-0.12844346,0.26352954,-0.08935506,0.8339473,0.04837686,0.5497196,-0.45073667,0.634437,0.62795395,-0.318384,-0.7714592,0.55089223,,-0.08226231,0.45852116,-0.35007665,-0.5549193,0.031796806,-0.83129627,-0.73729104,-0.4816298,0.47374535,-0.38531345,0.87579775,0.29070917,,1.0877005889372768,0.6004656491695783,0.22503594400000002,0.39526554346832843,-0.3590807213835775,0.948523176762629,-0.4214276906264403,,-1.493808219861247,0.3047235937511507,0.17491489115000003,-0.20046358597120528,0.001229728497888964,-1.0457555262711993,0.8328913932186898,,-0.0681136557206437,-0.037411132516498455,0.09109365563999999,-0.1076111944439502,,-1.847744e-06,-6.2584877e-06,6.556511e-06,1.0,-5.751848e-06,-5.275011e-06,5.751848e-06,1.0,-9.536743e-07,5.26011e-06,9.23872e-07,1.0,220,0.654,0,0,0.0,False,-0.2596993024681016,1.0077526136844954
0.6600959359202534,19:56:14.718119,19:54:55.228032,0,,0.13697994,0.009173937,0.025920942,-0.8525853,-0.18820384,-0.4875217,-0.4853474,-0.060691863,0.8722124,-0.19374232,0.98025286,-0.03959933,,0.0759826,0.0019326545,0.058132768,0.5790235,0.15599316,0.8002486,-0.7906281,0.347115,0.50439906,-0.19909556,-0.9247581,0.32432032,,0.08366975,1.2898985,0.42706203,0.9923719,0.09963543,-0.07260019,0.024196513,-0.7348674,-0.6777791,-0.12088232,0.67085224,-0.7316726,,-0.12861246,0.26385787,-0.08955293,0.8321923,0.056006964,0.5516513,-0.4569984,0.63270676,0.62516767,-0.31401977,-0.7723635,0.5521288,,-0.082263336,0.45851982,-0.3500759,-0.5546079,0.03191064,-0.8314997,-0.7375628,-0.4814801,0.47347444,-0.38524166,0.87587595,0.29056877,,1.0882720711699694,0.602071977607417,0.22483501905000003,0.3885554652768236,-0.35580144538920694,0.947156006916164,-0.4220810668909775,,-1.493808219861247,0.30471587101827646,0.17491618744,-0.20004420608423623,0.001229728497888964,-1.0457555262711993,0.8328913932186898,,-0.0681136557206437,-0.037411132516498455,0.09109365563999999,-0.1076111944439502,,-1.847744e-06,-6.2584877e-06,6.556511e-06,1.0,-5.751848e-06,-5.275011e-06,5.751848e-06,1.0,-9.536743e-07,5.26011e-06,9.23872e-07,1.0,231,0.687,0,0,0.0,False,-0.25975888018662197,1.0078974542868337
0.6902101209852844,19:56:14.754628,19:54:55.228032,0,,0.13715562,0.009287052,0.02628453,-0.8496065,-0.1965597,-0.489421,-0.4872257,-0.06279567,0.8710154,-0.20194003,0.9784789,-0.042417437,,0.075981975,0.0019302703,0.058130145,0.5790141,0.15598391,0.8002573,-0.790636,0.34709966,0.50439715,-0.19909121,-0.92476535,0.32430208,,0.08366975,1.2898985,0.42706203,0.9923719,0.09963543,-0.07260019,0.024196513,-0.7348674,-0.6777791,-0.12088232,0.67085224,-0.7316726,,-0.12882446,0.26418298,-0.08971174,0.8301583,0.064342886,0.5538025,-0.46407628,0.63024634,0.6224329,-0.30898288,-0.77372444,0.5530643,,-0.08226231,0.4585164,-0.35007614,-0.55459976,0.03192063,-0.83150476,-0.7375636,-0.48149443,0.47345853,-0.38525182,0.87586766,0.2905802,,1.0886736532794292,0.6037709788397464,0.22467298280000003,0.38100662731138074,-0.3519756233957746,0.946486667816881,-0.42273444315551467,,-1.4937927743954984,0.304700425552528,0.17491618744,-0.20004420608423623,0.001229728497888964,-1.0457555262711993,0.8328913932186898,,-0.0681136557206437,-0.037411132516498455,0.09109365563999999,-0.1076111944439502,,-1.847744e-06,-6.2584877e-06,6.556511e-06,1.0,-5.751848e-06,-5.275011e-06,5.751848e-06,1.0,-9.536743e-07,5.26011e-06,9.23872e-07,1.0,239,0.711,0,0,0.0,False,-0.26011634649774784,1.0076560532829368
0.7267431051004678,19:56:14.779615,19:54:55.228032,0,,0.13737473,0.009407602,0.026599929,-0.84781206,-0.20341937,-0.48972967,-0.48720896,-0.065847695,0.8707994,-0.20938504,0.97687495,-0.043281287,,0.075984165,0.0019283034,0.058130324,0.57880855,0.15591228,0.80041987,-0.79077107,0.347029,0.50423414,-0.19915263,-0.9248039,0.32415432,,0.08366975,1.2898985,0.42706203,0.9923719,0.09963543,-0.07260019,0.024196513,-0.7348674,-0.6777791,-0.12088232,0.67085224,-0.7316726,,-0.12907268,0.26447904,-0.08982462,0.829339,0.07110727,0.55420256,-0.46921787,0.6271601,0.62169516,-0.3033667,-0.7756378,0.55349314,,-0.08226454,0.45851496,-0.3500774,-0.55439055,0.031996105,-0.8316414,-0.7376725,-0.48156068,0.47322154,-0.38534454,0.8758285,0.29057533,,1.0887894942725425,0.6054313664077047,0.22455631670000004,0.3759740686677522,-0.3476032554032805,0.9467601956852021,-0.42355116348618616,,-1.4938004971283727,0.3046927028196538,0.17491618744,-0.19983451614075173,0.0010930919981235235,-1.0456441083675028,0.8328913932186898,,-0.0681136557206437,-0.037411132516498455,0.09109365563999999,-0.1076111944439502,,-1.847744e-06,-6.2584877e-06,6.556511e-06,1.0,-5.751848e-06,-5.275011e-06,5.751848e-06,1.0,-9.536743e-07,5.26011e-06,9.23872e-07,1.0,261,0.777,0,0,0.0,False,-0.26041423509035333,1.0077526136844954
0.7516723410226405,19:56:14.837753,19:54:55.228032,0,,0.13769592,0.009536706,0.026970908,-0.845743,-0.21286276,-0.48929355,-0.48723263,-0.06576753,0.87079227,-0.21753888,0.9748662,-0.048091233,,0.07598664,0.0019292869,0.058131218,0.5785522,0.15573993,0.80063874,-0.7908814,0.34715772,0.50397235,-0.1994594,-0.9247846,0.32402074,,0.08366975,1.2898985,0.42706203,0.9923719,0.09963543,-0.07260019,0.024196513,-0.7348674,-0.6777791,-0.12088232,0.67085224,-0.7316726,,-0.12942836,0.26481587,-0.08995691,0.8283361,0.08071016,0.5543872,-0.4748831,0.6261678,0.618385,-0.29722944,-0.7754997,0.5570052,,-0.08226711,0.45851597,-0.35007688,-0.5540843,0.032165498,-0.8318389,-0.73794186,-0.48144072,0.47292355,-0.38526928,0.8758882,0.290495,,1.0885887032178128,0.6075551179481165,0.22442409512000003,0.3705221301371545,-0.3432308874107864,0.943276501507057,-0.4224077550232461,,-1.493815942594121,0.3046927028196538,0.17491748373000002,-0.19941513625378265,0.0010930919981235235,-1.0455624296273622,0.8330547372848242,,-0.0681136557206437,-0.037411132516498455,0.09109365563999999,-0.1076111944439502,,-1.847744e-06,-6.2584877e-06,6.556511e-06,1.0,-5.751848e-06,-5.275011e-06,5.751848e-06,1.0,-9.536743e-07,5.26011e-06,9.23872e-07,1.0,268,0.797,0,0,0.0,False,-0.26041423509035333,1.0074146522790395
0.8098682090640068,19:56:14.861126,19:54:55.228032,0,,0.13781479,0.009561546,0.027121767,-0.8444962,-0.21853814,-0.48894498,-0.48748308,-0.06439796,0.8707545,-0.22178012,0.9737012,-0.052149832,,0.07598664,0.0019292869,0.058131218,0.5785522,0.15573993,0.80063874,-0.7908814,0.34715772,0.50397235,-0.1994594,-0.9247846,0.32402074,,0.08366975,1.2898985,0.42706203,0.9923719,0.09963543,-0.07260019,0.024196513,-0.7348674,-0.6777791,-0.12088232,0.67085224,-0.7316726,,-0.1295634,0.2649331,-0.09003123,0.82762814,0.08657358,0.5545599,-0.4780093,0.62656313,0.6155695,-0.29417473,-0.7745474,0.5599443,,-0.08226711,0.45851597,-0.35007688,-0.5540843,0.032165498,-0.8318389,-0.73794186,-0.48144072,0.47292355,-0.38526928,0.8758882,0.290495,,1.0885037531561963,0.6083042230369162,0.22434761401000003,0.36737678098488663,-0.34077143041500846,0.9401274768785536,-0.42273444315551467,,-1.493815942594121,0.3046927028196538,0.17491748373000002,-0.19941513625378265,0.0010930919981235235,-1.0455624296273622,0.8330547372848242,,-0.0681136557206437,-0.037411132516498455,0.09109365563999999,-0.1076111944439502,,-1.847744e-06,-6.2584877e-06,6.556511e-06,1.0,-5.751848e-06,-5.275011e-06,5.751848e-06,1.0,-9.536743e-07,5.26011e-06,9.23872e-07,1.0,276,0.822,0,0,0.0,False,-0.26017592421626956,1.0073180918774804
0.8331882390193641,19:56:14.888930,19:54:55.431850,0,,0.13786928,0.009552151,0.02721773,-0.8437118,-0.22262363,-0.4884557,-0.48740858,-0.06353322,0.8708597,-0.2249071,0.9728321,-0.054904968,,0.07598821,0.0019249357,0.058128834,0.5784661,0.15578502,0.8006922,-0.7909693,0.3470297,0.5039226,-0.19936042,-0.9248251,0.3239661,,0.08366975,1.2898985,0.42706203,0.9923719,0.09963543,-0.07260019,0.024196513,-0.7348674,-0.6777791,-0.12088232,0.67085224,-0.7316726,,-0.1296303,0.26499003,-0.09009871,0.8272587,0.09078937,0.5544369,-0.4801207,0.62673867,0.6137449,-0.2917655,-0.77392244,0.5620649,,-0.08226832,0.4585111,-0.35007837,-0.5540211,0.03212502,-0.83188254,-0.73791504,-0.4815603,0.47284362,-0.3854115,0.875824,0.2905001,,1.0884805849575736,0.6086594687491305,0.22427242919,0.36527988155004143,-0.338448609918996,0.9378249788150117,-0.422897787221649,,-1.493808219861247,0.30466953462103114,0.17491748373000002,-0.19941513625378265,0.0009564554983580831,-1.0455326904638063,0.8328913932186898,,-0.0681136557206437,-0.037411132516498455,0.09109365563999999,-0.1076111944439502,,-1.847744e-06,-6.2584877e-06,6.556511e-06,1.0,-5.751848e-06,-5.275011e-06,5.751848e-06,1.0,-9.536743e-07,5.26011e-06,9.23872e-07,1.0,287,0.855,0,0,0.0,False,-0.26112916771260597,1.0076560532829368
0.8610394638963044,19:56:14.926159,19:54:55.431850,0,,0.13793786,0.009516887,0.02741541,-0.8442022,-0.22938962,-0.4844614,-0.48429003,-0.0609847,0.8727796,-0.2297513,0.9714223,-0.059607774,,0.075989366,0.00192279,0.05812794,0.57807124,0.15560822,0.8010117,-0.79114234,0.34726766,0.5034869,-0.19981878,-0.9247655,0.32385367,,0.08366975,1.2898985,0.42706203,0.9923719,0.09963543,-0.07260019,0.024196513,-0.7348674,-0.6777791,-0.12088232,0.67085224,-0.7316726,,-0.12972607,0.2650972,-0.09025478,0.828595,0.097849846,0.55123115,-0.4811449,0.62786305,0.6117905,-0.28623405,-0.77214855,0.56732416,,-0.082269356,0.4585089,-0.35007927,-0.5535522,0.032294497,-0.83218807,-0.7383214,-0.4813383,0.47243512,-0.38530695,0.8759398,0.29028958,,1.0885269213548188,0.6091382781873325,0.22410909665000003,0.3650701916065569,-0.33325642292790925,0.932202559892158,-0.4224077550232461,,-1.493808219861247,0.3046540891552827,0.17491748373000002,-0.19878606642332908,0.0009564554983580831,-1.0455326904638063,0.8328913932186898,,-0.0681136557206437,-0.037411132516498455,0.09109365563999999,-0.1076111944439502,,-1.847744e-06,-6.2584877e-06,6.556511e-06,1.0,-5.751848e-06,-5.275011e-06,5.751848e-06,1.0,-9.536743e-07,5.26011e-06,9.23872e-07,1.0,298,0.888,0,0,0.0,False,-0.2617249448978165,1.007704333483716
0.8982715499587357,19:56:14.958675,19:54:55.431850,0,,0.1379804,0.009458892,0.027595058,-0.8401969,-0.24025649,-0.48615408,-0.4871171,-0.0595738,0.8713024,-0.23829812,0.9688797,-0.06697935,,0.07599169,0.0019184984,0.05812615,0.577926,0.1556233,0.80111355,-0.79121387,0.34736827,0.50330496,-0.1999555,-0.9247252,0.3238845,,0.08366975,1.2898985,0.42706203,0.9923719,0.09963543,-0.07260019,0.024196513,-0.7348674,-0.6777791,-0.12088232,0.67085224,-0.7316726,,-0.12979545,0.26517636,-0.09041716,0.8255204,0.10902725,0.553741,-0.48918805,0.62752396,0.60572994,-0.28144467,-0.7709259,0.57136863,,-0.08227143,0.45850447,-0.35008103,-0.55338603,0.032275118,-0.83229935,-0.7384523,-0.4812442,0.4723264,-0.38529485,0.8759922,0.29014745,,1.0887122669438003,0.6095244148310437,0.22393669008000003,0.35605352403672236,-0.3286107819358843,0.9281693149460579,-0.42289778722164895,,-1.493808219861247,0.3046231982237858,0.17491748373000002,-0.19857637647984455,0.0009564554983580831,-1.045614369203947,0.8330547372848242,,-0.0681136557206437,-0.037411132516498455,0.09109365563999999,-0.1076111944439502,,-1.847744e-06,-6.2584877e-06,6.556511e-06,1.0,-5.751848e-06,-5.275011e-06,5.751848e-06,1.0,-9.536743e-07,5.26011e-06,9.23872e-07,1.0,309,0.92,0,0,0.0,False,-0.2602950796533112,1.0074629324798186
0.9307405070867389,19:56:14.980392,19:54:55.431850,0,,0.13800246,0.009390153,0.027872488,-0.83776295,-0.24682786,-0.48706186,-0.48866028,-0.05911401,0.8704693,-0.24364829,0.96725464,-0.07109144,,0.07599515,0.0019120313,0.05812347,0.57790166,0.15570411,0.80111545,-0.791239,0.34737363,0.5032618,-0.19992653,-0.92470956,0.32394704,,0.08366975,1.2898985,0.42706203,0.9923719,0.09963543,-0.07260019,0.024196513,-0.7348674,-0.6777791,-0.12088232,0.67085224,-0.7316726,,-0.1298579,0.26531526,-0.090660036,0.82368493,0.11576858,0.5551043,-0.49405533,0.62697244,0.60234123,-0.2783029,-0.7703916,0.5736238,,-0.08227452,0.45849782,-0.3500837,-0.55336833,0.032192998,-0.8323143,-0.73844415,-0.48123896,0.4723445,-0.3853359,0.8759981,0.29007512,,1.0890443444573918,0.6101731243924785,0.22369039498,0.35060158550612475,-0.32587805194057545,0.9256959206517079,-0.4237145075523203,,-1.493808219861247,0.3045768618265404,0.17491748373000002,-0.19857637647984455,0.0009564554983580831,-1.0456960479440875,0.8328913932186899,,-0.0681136557206437,-0.037411132516498455,0.09109365563999999,-0.1076111944439502,,-1.847744e-06,-6.2584877e-06,6.556511e-06,1.0,-5.751848e-06,-5.275011e-06,5.751848e-06,1.0,-9.536743e-07,5.26011e-06,9.23872e-07,1.0,331,0.986,0,0,0.0,False,-0.26017592421626956,1.0079457344876133
0.9525007260963321,19:56:15.057003,19:54:55.546026,0,,0.13821968,0.009455822,0.028750315,-0.8232672,-0.28423724,-0.49136558,-0.49699992,-0.057305247,0.8658564,-0.27426642,0.9570399,-0.094088346,,0.076006144,0.0018915571,0.058115005,0.5779534,0.15587886,0.80104405,-0.79126364,0.34721842,0.50333,-0.19967882,-0.9247384,0.3240174,,0.08366975,1.2898985,0.42706203,0.9923719,0.09963543,-0.07260019,0.024196513,-0.7348674,-0.6777791,-0.12088232,0.67085224,-0.7316726,,-0.1301804,0.26595613,-0.091214456,0.81265736,0.15420923,0.56196755,-0.52157116,0.6225841,0.58339745,-0.2599068,-0.7672083,0.58637863,,-0.08228433,0.45847675,-0.35009214,-0.5534667,0.03202224,-0.8322555,-0.738282,-0.48138365,0.47245046,-0.38550526,0.8759248,0.29007125,,1.0906043364979852,0.6130228128230674,0.22311224964,0.3195674738704151,-0.3092083989691917,0.9123479726211662,-0.42289778722164895,,-1.493808219861247,0.3044301299019302,0.17491748373000002,-0.19878606642332908,0.0009564554983580831,-1.045777726684228,0.8327280491525556,,-0.0681136557206437,-0.037411132516498455,0.09109365563999999,-0.1076111944439502,,-1.847744e-06,-6.2584877e-06,6.556511e-06,1.0,-5.751848e-06,-5.275011e-06,5.751848e-06,1.0,-9.536743e-07,5.26011e-06,9.23872e-07,1.0,339,1.01,0,0,0.0,False,-0.26059296824591627,1.007704333483716
1.0291167569812387,19:56:15.079428,19:54:55.546026,0,,0.13830076,0.009548403,0.029041097,-0.82105494,-0.2904693,-0.49142262,-0.497254,-0.058886737,0.8656044,-0.2803698,0.9550706,-0.09608787,,0.07600945,0.0018840171,0.05811125,0.5774681,0.15568438,0.80143183,-0.79152846,0.34728128,0.5028702,-0.20003325,-0.92474765,0.32377246,,0.08366975,1.2898985,0.42706203,0.9923719,0.09963543,-0.07260019,0.024196513,-0.7348674,-0.6777791,-0.12088232,0.67085224,-0.7316726,,-0.13029103,0.2662197,-0.09134857,0.8112329,0.16050835,0.5622617,-0.5260067,0.6202981,0.5818481,-0.2553784,-0.7677677,0.58763474,,-0.08228709,0.4584686,-0.35009494,-0.55293137,0.03221678,-0.83260375,-0.73865986,-0.48132542,0.4719189,-0.38554963,0.87594974,0.28993717,,1.091175818730678,0.6141966682199494,0.22297743548,0.3147446051702711,-0.30551921347552485,0.9110549427643146,-0.4230611312877833,,-1.4938004971283727,0.3043837935046848,0.17491748373000002,-0.19815699659287553,0.0008198189985926426,-1.0456663087805318,0.8327280491525556,,-0.0681136557206437,-0.037411132516498455,0.09109365563999999,-0.1076111944439502,,-1.847744e-06,-6.2584877e-06,6.556511e-06,1.0,-5.751848e-06,-5.275011e-06,5.751848e-06,1.0,-9.536743e-07,5.26011e-06,9.23872e-07,1.0,350,1.043,0,0,0.0,False,-0.26017592421626956,1.0074629324798186
1.0515316280070692,19:56:15.102121,19:54:55.546026,0,,0.13854147,0.009805314,0.029523835,-0.8138753,-0.3106982,-0.49099246,-0.49930346,-0.058185607,0.86447126,-0.29715833,0.94872606,-0.10777691,,0.07601304,0.0018793382,0.05810821,0.5774478,0.15576266,0.80143124,-0.79154944,0.34729257,0.50282943,-0.20000914,-0.9247302,0.32383722,,0.08366975,1.2898985,0.42706203,0.9923719,0.09963543,-0.07260019,0.024196513,-0.7348674,-0.6777791,-0.12088232,0.67085224,-0.7316726,,-0.13057199,0.26672885,-0.091485694,0.80613273,0.18137966,0.5632508,-0.53922915,0.61716175,0.5730124,-0.24368405,-0.7656453,0.5953195,,-0.08229017,0.4584628,-0.35009602,-0.55291665,0.03213699,-0.8326166,-0.73865306,-0.48131466,0.47194055,-0.38558382,0.87595856,0.28986496,,1.092110269408459,0.6165443790137137,0.22283484358000002,0.30006630912635435,-0.29554474899264765,0.9026763995740541,-0.42322447535391755,,-1.4938004971283727,0.30434517984031373,0.17491878002000003,-0.19815699659287553,0.0008198189985926426,-1.0457479875206723,0.8325647050864213,,-0.0681136557206437,-0.037411132516498455,0.09109365563999999,-0.1076111944439502,,-1.847744e-06,-6.2584877e-06,6.556511e-06,1.0,-5.751848e-06,-5.275011e-06,5.751848e-06,1.0,-9.536743e-07,5.26011e-06,9.23872e-07,1.0,362,1.08,0,0,0.0,False,-0.2608312791200009,1.0078974542868337
1.074227788951248,19:56:15.149144,19:54:55.688023,0,,0.13872777,0.009958029,0.029741362,-0.8079337,-0.3208869,-0.4942415,-0.5043556,-0.057193458,0.8615999,-0.30474347,0.9453891,-0.11563265,,0.07601433,0.0018772818,0.058107495,0.5773704,0.15580966,0.80147785,-0.7916291,0.34717807,0.50278306,-0.19991712,-0.9247653,0.32379383,,0.08366975,1.2898985,0.42706203,0.9923719,0.09963543,-0.07260019,0.024196513,-0.7348674,-0.6777791,-0.12088232,0.67085224,-0.7316726,,-0.13077283,0.26698256,-0.091511115,0.8008556,0.19195727,0.56725895,-0.5483022,0.61595106,0.56565803,-0.24082159,-0.76403975,0.5985384,,-0.08229137,0.45846078,-0.35009694,-0.55286044,0.032094028,-0.83265555,-0.7386271,-0.48142156,0.47187212,-0.38571408,0.8759014,0.28986445,,1.092311060463189,0.6180271437255649,0.22281799181000003,0.2891624320651591,-0.2940417474952278,0.8990004404291767,-0.42289778722164906,,-1.4938004971283727,0.3043374571074395,0.17491878002000003,-0.19815699659287553,0.0006831824988272023,-1.0457182483571166,0.8327280491525555,,-0.0681136557206437,-0.037411132516498455,0.09109365563999999,-0.1076111944439502,,-1.847744e-06,-6.2584877e-06,6.556511e-06,1.0,-5.751848e-06,-5.275011e-06,5.751848e-06,1.0,-9.536743e-07,5.26011e-06,9.23872e-07,1.0,373,1.113,0,0,0.0,False,-0.26017592421626956,1.0073180918774804
1.1212536350358278,19:56:15.183091,19:54:55.688023,0,,0.13904732,0.010068469,0.02983956,-0.7926983,-0.34947824,-0.4994939,-0.51521057,-0.053919166,0.85536593,-0.32586405,0.93539166,-0.1373133,,0.07601549,0.001875136,0.05810666,0.57710415,0.15569365,0.8016921,-0.79174685,0.34733275,0.50249076,-0.20021935,-0.9247267,0.32371712,,0.08366975,1.2898985,0.42706203,0.9923719,0.09963543,-0.07260019,0.024196513,-0.7348674,-0.6777791,-0.12088232,0.67085224,-0.7316726,,-0.13109331,0.26711923,-0.091460444,0.7876933,0.22175728,0.57477206,-0.5711799,0.6124775,0.54646575,-0.23085222,-0.7587457,0.60910773,,-0.08229241,0.45845857,-0.35009784,-0.5525456,0.03220527,-0.83286023,-0.7388967,-0.48127723,0.4715971,-0.38564876,0.8759766,0.289724,,1.091901755620855,0.6191855536566985,0.22285947309,0.2619027394121709,-0.28516037501047425,0.8885728058234273,-0.4227344431555147,,-1.4938004971283727,0.30432201164169104,0.17491878002000003,-0.19773761670590648,0.0006831824988272023,-1.0457182483571166,0.8327280491525555,,-0.0681136557206437,-0.037411132516498455,0.09109365563999999,-0.1076111944439502,,-1.847744e-06,-6.2584877e-06,6.556511e-06,1.0,-5.751848e-06,-5.275011e-06,5.751848e-06,1.0,-9.536743e-07,5.26011e-06,9.23872e-07,1.0,385,1.15,0,0,0.0,False,-0.2604738128088746,1.0076077730821573
1.1551960210781544,19:56:15.209736,19:54:55.688023,0,,0.13918614,0.010101296,0.029788002,-0.7918279,-0.35739368,-0.49525562,-0.5131973,-0.05027905,0.85679674,-0.3311147,0.93259954,-0.14360115,,0.07601938,0.001871679,0.058104873,0.5770885,0.1557111,0.8017,-0.7917637,0.3473106,0.5024793,-0.20019737,-0.924732,0.32371548,,0.08366975,1.2898985,0.42706203,0.9923719,0.09963543,-0.07260019,0.024196513,-0.7348674,-0.6777791,-0.12088232,0.67085224,-0.7316726,,-0.13122156,0.26710317,-0.091381095,0.7876542,0.23021236,0.571492,-0.5733341,0.61349106,0.5430624,-0.22558555,-0.75540125,0.6152074,,-0.08229601,0.45845452,-0.35009876,-0.55253494,0.032188494,-0.832868,-0.7388895,-0.48129785,0.4715874,-0.38567787,0.8759659,0.2897176,,1.0913766097854076,0.6192859491840634,0.22292947275000002,0.2602252198642947,-0.2799681880193875,0.8820519207590276,-0.4227344431555146,,-1.493808219861247,0.30429112071019415,0.17492007631,-0.19773761670590648,0.0006831824988272023,-1.0457182483571166,0.8327280491525555,,-0.0681136557206437,-0.037411132516498455,0.09109365563999999,-0.1076111944439502,,-1.847744e-06,-6.2584877e-06,6.556511e-06,1.0,-5.751848e-06,-5.275011e-06,5.751848e-06,1.0,-9.536743e-07,5.26011e-06,9.23872e-07,1.0,396,1.183,0,0,0.0,False,-0.25975888018662197,1.0073180918774804
1.181847427971661,19:56:15.245027,19:54:55.688023,0,,0.13959795,0.010032393,0.029297724,-0.78051627,-0.37703753,-0.4986351,-0.52212197,-0.045464963,0.8516582,-0.34377748,0.92508143,-0.1613735,,0.07602941,0.001866255,0.058104575,0.5766067,0.15549414,0.8020887,-0.79202914,0.3473429,0.50203866,-0.20053582,-0.9247565,0.32343614,,0.08366975,1.2898985,0.42706203,0.9923719,0.09963543,-0.07260019,0.024196513,-0.7348674,-0.6777791,-0.12088232,0.67085224,-0.7316726,,-0.1315711,0.26670352,-0.09101667,0.7774309,0.25095925,0.57673275,-0.58888584,0.6125291,0.5272775,-0.22094041,-0.7495516,0.6239854,,-0.08230596,0.45844954,-0.35010117,-0.55200607,0.032407034,-0.8332101,-0.73925626,-0.48126817,0.47104263,-0.3857324,0.8759742,0.28962007,,1.0887586033410457,0.618652685088377,0.22328206363000003,0.24177250483765658,-0.27518591052759706,0.8746401083036087,-0.42289778722164906,,-1.493846833525618,0.30424478431294877,0.17492266889000002,-0.1971085468754529,0.0005465459990617618,-1.0455251517132795,0.8328913932186898,,-0.0681136557206437,-0.037411132516498455,0.09109365563999999,-0.1076111944439502,,-1.847744e-06,-6.2584877e-06,6.556511e-06,1.0,-5.751848e-06,-5.275011e-06,5.751848e-06,1.0,-9.536743e-07,5.26011e-06,9.23872e-07,1.0,408,1.219,0,0,0.0,False,-0.2607121236829584,1.007511212680598
1.217133979080245,19:56:15.292677,19:54:55.839273,0,,0.13998146,0.009866402,0.028873876,-0.7755916,-0.3875448,-0.4982636,-0.52520925,-0.041678548,0.849952,-0.3501613,0.9209083,-0.1712166,,0.07603146,0.0018642284,0.058104515,0.57647,0.15551145,0.80218357,-0.7920922,0.34745702,0.50186,-0.20067945,-0.92471063,0.323478,,0.08366975,1.2898985,0.42706203,0.9923719,0.09963543,-0.07260019,0.024196513,-0.7348674,-0.6777791,-0.12088232,0.67085224,-0.7316726,,-0.13190831,0.26627952,-0.0907701,0.7731506,0.26216546,0.577501,-0.5956706,0.6127934,0.51928884,-0.21774921,-0.7454888,0.6299458,,-0.082308024,0.45844793,-0.3501024,-0.55184674,0.032384843,-0.8333165,-0.7393878,-0.48116142,0.4709452,-0.38570824,0.8760336,0.2894723,,1.0859398058419536,0.6179421936639483,0.22352058099000002,0.23443335681569824,-0.271769998033461,0.8702210859083869,-0.4225710990893804,,-1.4938545562584922,0.3042293388472003,0.17492266889000002,-0.19689885693196837,0.0005465459990617618,-1.04560683045342,0.8327280491525555,,-0.0681136557206437,-0.037411132516498455,0.09109365563999999,-0.1076111944439502,,-1.847744e-06,-6.2584877e-06,6.556511e-06,1.0,-5.751848e-06,-5.275011e-06,5.751848e-06,1.0,-9.536743e-07,5.26011e-06,9.23872e-07,1.0,419,1.252,0,0,0.0,False,-0.26017592421626956,1.0069801304720243
1.2647853230591863,19:56:15.321433,19:54:55.839273,0,,0.14016432,0.009744972,0.028704122,-0.77043694,-0.3934462,-0.50162417,-0.5302654,-0.041306376,0.846825,-0.3539003,0.9184192,-0.17680705,,0.076031275,0.0018647946,0.058102846,0.57646936,0.15550427,0.8021854,-0.792092,0.34745535,0.5018616,-0.20068201,-0.92471254,0.32347107,,0.08366975,1.2898985,0.42706203,0.9923719,0.09963543,-0.07260019,0.024196513,-0.7348674,-0.6777791,-0.12088232,0.67085224,-0.7316726,,-0.13207637,0.26606867,-0.09070455,0.7681585,0.2683485,0.5813102,-0.6020888,0.6115641,0.51330143,-0.21776482,-0.74429727,0.63134784,,-0.0823075,0.45844707,-0.3501009,-0.5518456,0.032392193,-0.833317,-0.73938954,-0.48116302,0.47094077,-0.3857065,0.8760325,0.28947815,,1.084572882123216,0.6176796207462247,0.22358669178,0.22646513896328632,-0.271769998033461,0.8699760496879652,-0.4220810668909776,,-1.493846833525618,0.3042293388472003,0.17492396518000003,-0.19689885693196837,0.0005465459990617618,-1.04560683045342,0.8327280491525555,,-0.0681136557206437,-0.037411132516498455,0.09109365563999999,-0.1076111944439502,,-1.847744e-06,-6.2584877e-06,6.556511e-06,1.0,-5.751848e-06,-5.275011e-06,5.751848e-06,1.0,-9.536743e-07,5.26011e-06,9.23872e-07,1.0,431,1.289,0,0,0.0,False,-0.25963972474957986,1.007511212680598
1.293541275896132,19:56:15.357113,19:54:55.839273,0,,0.14044744,0.009557769,0.028497055,-0.76574874,-0.40194967,-0.502061,-0.53322685,-0.03966856,0.84504175,-0.3595803,0.9148021,-0.18395421,,0.07605469,0.0018961132,0.05810827,0.57652843,0.1556119,0.80212206,-0.79211164,0.34726158,0.50196457,-0.20043455,-0.92476714,0.32346818,,0.08372232,1.2898998,0.4270661,0.9923729,0.099605545,-0.07262775,0.024156155,-0.73487145,-0.6777761,-0.12088232,0.67085224,-0.7316726,,-0.13238992,0.2657775,-0.090632625,0.7640072,0.27734092,0.58255905,-0.6083161,0.6105626,0.5071141,-0.21504529,-0.7418189,0.6351852,,-0.08237819,0.4584625,-0.35006964,-0.5519834,0.0323006,-0.83322924,-0.73921067,-0.4813406,0.47104013,-0.3858522,0.8759383,0.28956896,,1.0822637849938228,0.6173707114312558,0.22365539515000002,0.219545370828297,-0.26903726803815226,0.8676660128738961,-0.4219177228248433,,-1.493846833525618,0.3042138933814519,0.17492396518000003,-0.1971085468754529,0.0004099094992963213,-1.0455770912898643,0.8325647050864212,,-0.0681136557206437,-0.037411132516498455,0.09109365563999999,-0.1076111944439502,,4.9866736e-05,6.556511e-07,-1.0728836e-06,1.0,-3.5502017e-05,-3.2551587e-05,3.5502017e-05,1.0,-5.8710575e-06,3.2544136e-05,5.841255e-06,1.0,442,1.322,0,0,0.0,False,-0.26041423509035333,1.0076560532829368
1.3292278409935534,19:56:15.390422,19:54:55.839273,0,,0.14061093,0.009480372,0.028424844,-0.75711465,-0.4151584,-0.5044013,-0.5385789,-0.04032892,0.84160936,-0.36974323,0.90885484,-0.19306198,,0.07605076,0.0018943846,0.058107555,0.5761988,0.1557076,0.80234027,-0.7922914,0.34744334,0.50155497,-0.20067199,-0.92468274,0.32356226,,0.08372232,1.2898998,0.4270661,0.9923729,0.099605545,-0.07262775,0.024156155,-0.73487145,-0.6777761,-0.12088232,0.67085224,-0.7316726,,-0.1325481,0.26566613,-0.09060994,0.7563753,0.29111776,0.58578736,-0.6194628,0.6064653,0.4984634,-0.21014814,-0.73989886,0.639052,,-0.08237425,0.4584613,-0.35007107,-0.5516205,0.03219624,-0.8334736,-0.73946476,-0.48117042,0.47081515,-0.38588437,0.87603563,0.28923142,,1.0814142843776582,0.6172548704381424,0.22366965434000002,0.20591552450180292,-0.2639817175468309,0.8648504102793776,-0.42224441095711185,,-1.4938236653269954,0.30422161611432613,0.1749213726,-0.19668916698848385,0.0002732729995308809,-1.04579238834673,0.8332180813509585,,-0.0681136557206437,-0.037411132516498455,0.09109365563999999,-0.1076111944439502,,4.9866736e-05,6.556511e-07,-1.0728836e-06,1.0,-3.5502017e-05,-3.2551587e-05,3.5502017e-05,1.0,-5.8710575e-06,3.2544136e-05,5.841255e-06,1.0,454,1.359,0,0,0.0,False,-0.26011634649774784,1.0074629324798186
1.3624937608838081,19:56:15.425254,19:54:55.839273,0,,0.1406008,0.009512052,0.028455064,-0.7525915,-0.4237793,-0.50400096,-0.539838,-0.041214973,0.8407594,-0.37706882,0.90482724,-0.19775414,,0.07605466,0.001886487,0.058106005,0.57589304,0.15615442,0.802473,-0.7926055,0.34715492,0.5012583,-0.20030874,-0.92471576,0.32369304,,0.08372232,1.2898998,0.4270661,0.9923729,0.099605545,-0.07262775,0.024156155,-0.73487145,-0.6777761,-0.12088232,0.67085224,-0.7316726,,-0.13253962,0.26571023,-0.090611525,0.75274783,0.30009454,0.58593,-0.6255456,0.60335964,0.49462086,-0.2050935,-0.7388507,0.6419005,,-0.08237804,0.45845455,-0.35007548,-0.5513984,0.031755146,-0.8336375,-0.73936194,-0.481439,0.47070202,-0.38639838,0.87590414,0.28894326,,1.081754084624124,0.6171930885751485,0.22365669144000003,0.19857637647984455,-0.25865289405597874,0.8620570080978879,-0.4220810668909776,,-1.4938236653269954,0.30419844791570344,0.17492007631,-0.19668916698848385,-0.0002732729995308809,-1.0460001466530688,0.8325647050864214,,-0.0681136557206437,-0.037411132516498455,0.09109365563999999,-0.1076111944439502,,4.9866736e-05,6.556511e-07,-1.0728836e-06,1.0,-3.5502017e-05,-3.2551587e-05,3.5502017e-05,1.0,-5.8710575e-06,3.2544136e-05,5.841255e-06,1.0,469,1.404,0,0,0.0,False,-0.2608908568385213,1.007704333483716
1.3973279900383204,19:56:15.464473,19:54:56.002125,0,,0.14050086,0.0095619485,0.028500393,-0.75141567,-0.42422134,-0.5053817,-0.54115236,-0.04202187,0.839874,-0.37752956,0.904583,-0.1979925,,0.076057695,0.001881212,0.05810398,0.5756741,0.15621391,0.8026185,-0.7927521,0.3471467,0.5010323,-0.20035814,-0.92470884,0.32368228,,0.08372232,1.2898998,0.4270661,0.9923729,0.099605545,-0.07262775,0.024156155,-0.73487145,-0.6777761,-0.12088232,0.67085224,-0.7316726,,-0.13244288,0.26578102,-0.0906245,0.75154686,0.30050337,0.5872606,-0.6268588,0.6026197,0.49385992,-0.20548823,-0.73928833,0.6412701,,-0.08238079,0.4584492,-0.35007775,-0.55117863,0.031695206,-0.83378506,-0.73946774,-0.48144656,0.47052807,-0.38650948,0.8759022,0.28880066,,1.0824491305828041,0.6171853658422743,0.22364243225000002,0.19647947704499932,-0.2589261670555097,0.8623615226454213,-0.42191772282484336,,-1.4938236653269954,0.30416755698420656,0.17492007631,-0.19647947704499932,-0.0004099094992963213,-1.0460520862296536,0.8325647050864212,,-0.0681136557206437,-0.037411132516498455,0.09109365563999999,-0.1076111944439502,,4.9866736e-05,6.556511e-07,-1.0728836e-06,1.0,-3.5502017e-05,-3.2551587e-05,3.5502017e-05,1.0,-5.8710575e-06,3.2544136e-05,5.841255e-06,1.0,477,1.428,0,0,0.0,False,-0.26112916771260597,1.007076690873583
1.43657581997104,19:56:15.500562,19:54:56.002125,0,,0.14041659,0.009594813,0.028549269,-0.7487479,-0.42706266,-0.5069457,-0.54344094,-0.04240772,0.83837557,-0.37953734,0.903227,-0.20033059,,0.0760593,0.0018803477,0.058104575,0.5754721,0.15620473,0.80276513,-0.79288197,0.3471229,0.5008429,-0.20042418,-0.9247192,0.32361156,,0.08372232,1.2898998,0.4270661,0.9923729,0.099605545,-0.07262775,0.024156155,-0.73487145,-0.6777761,-0.12088232,0.67085224,-0.7316726,,-0.13236338,0.26584128,-0.090649344,0.7489967,0.3034587,0.58899647,-0.62999094,0.6015082,0.49122226,-0.20522055,-0.73898625,0.64170384,,-0.0823825,0.4584489,-0.35007855,-0.5509718,0.031705465,-0.8339214,-0.7395772,-0.48146874,0.4703333,-0.38659492,0.8758896,0.28872433,,1.083066949212742,0.617169920376526,0.22361521016000002,0.1920759882318243,-0.2585162575562133,0.8615371964934886,-0.422897787221649,,-1.4938313880598695,0.30416755698420656,0.17492007631,-0.1962697871015148,-0.0005465459990617618,-1.0460223470660976,0.8330547372848244,,-0.0681136557206437,-0.037411132516498455,0.09109365563999999,-0.1076111944439502,,4.9866736e-05,6.556511e-07,-1.0728836e-06,1.0,-3.5502017e-05,-3.2551587e-05,3.5502017e-05,1.0,-5.8710575e-06,3.2544136e-05,5.841255e-06,1.0,488,1.461,0,0,0.0,False,-0.26160578946077395,1.00736637207826
1.4726376899052411,19:56:15.531504,19:54:56.002125,0,,0.14040555,0.0096016675,0.028587744,-0.7453096,-0.4327133,-0.5072206,-0.5451084,-0.04255405,0.8372849,-0.38388854,0.9005267,-0.20415974,,0.07605971,0.0018781424,0.058103025,0.57526463,0.15624931,0.8029051,-0.7930158,0.34713075,0.50062585,-0.20049067,-0.9247088,0.3236002,,0.08372232,1.2898998,0.4270661,0.9923729,0.099605545,-0.07262775,0.024156155,-0.73487145,-0.6777761,-0.12088232,0.67085224,-0.7316726,,-0.13235688,0.26587296,-0.090673886,0.7460307,0.30938247,0.58967847,-0.6342998,0.59974784,0.48781782,-0.20273612,-0.73796004,0.6436715,,-0.08238267,0.45844626,-0.35007915,-0.5507597,0.03165998,-0.8340632,-0.73968875,-0.48146132,0.47016543,-0.38668373,0.8758953,0.28858802,,1.083298631198969,0.6171776431094002,0.22358539549000003,0.18662404970122667,-0.2559201640606699,0.8594202563232567,-0.422897787221649,,-1.4938236653269954,0.3041598342513323,0.17492007631,-0.1960600971580303,-0.0006831824988272023,-1.0460742866426824,0.8330547372848242,,-0.0681136557206437,-0.037411132516498455,0.09109365563999999,-0.1076111944439502,,4.9866736e-05,6.556511e-07,-1.0728836e-06,1.0,-3.5502017e-05,-3.2551587e-05,3.5502017e-05,1.0,-5.8710575e-06,3.2544136e-05,5.841255e-06,1.0,496,1.486,0,0,0.0,False,-0.2599971910607066,1.0074629324798186
1.503615644061938,19:56:15.552822,19:54:56.002125,0,,0.14040704,0.009579852,0.028602168,-0.74138105,-0.43624437,-0.50994587,-0.54873574,-0.04336238,0.8348706,-0.38632005,0.89878273,-0.20723486,,0.07606028,0.0018770695,0.058102548,0.5751313,0.15625691,0.8029992,-0.79307437,0.3472489,0.5004511,-0.20064169,-0.9246632,0.32363707,,0.08372232,1.2898998,0.4270661,0.9923729,0.099605545,-0.07262775,0.024156155,-0.73487145,-0.6777761,-0.12088232,0.67085224,-0.7316726,,-0.13236183,0.26586688,-0.090698875,0.74218905,0.3130385,0.5925895,-0.6387405,0.5980868,0.48404837,-0.2028942,-0.73776627,0.6438438,,-0.082383186,0.45844513,-0.3500796,-0.550602,0.03164746,-0.8341678,-0.7398233,-0.48135084,0.4700669,-0.38665095,0.8759565,0.28844628,,1.0833295221304657,0.6171930885751485,0.22355946969,0.18033335139669096,-0.2560568005604354,0.8594499954868124,-0.4230611312877832,,-1.4938236653269954,0.3041521115184581,0.17492007631,-0.19585040721454572,-0.0006831824988272023,-1.046155965382823,0.8328913932186899,,-0.0681136557206437,-0.037411132516498455,0.09109365563999999,-0.1076111944439502,,4.9866736e-05,6.556511e-07,-1.0728836e-06,1.0,-3.5502017e-05,-3.2551587e-05,3.5502017e-05,1.0,-5.8710575e-06,3.2544136e-05,5.841255e-06,1.0,515,1.543,0,0,0.0,False,-0.26101001227556386,1.0071249710743626
1.5249352110549808,19:56:15.611355,19:54:56.149292,0,,0.14051537,0.009534448,0.028671697,-0.7243006,-0.46458003,-0.50946426,-0.55570084,-0.044061244,0.83021396,-0.4081485,0.8844342,-0.22625391,,0.07606189,0.0018762052,0.058103204,0.5749291,0.1561165,0.80317116,-0.7932042,0.34714347,0.50031847,-0.20070766,-0.9247265,0.32341516,,0.08372232,1.2898998,0.4270661,0.9923729,0.099605545,-0.07262775,0.024156155,-0.73487145,-0.6777761,-0.12088232,0.67085224,-0.7316726,,-0.13248123,0.26587763,-0.09076414,0.7275797,0.3428498,0.59420687,-0.65933055,0.58873224,0.46762973,-0.18950199,-0.7320166,0.65440094,,-0.0823849,0.45844483,-0.3500804,-0.5503951,0.03179406,-0.83429873,-0.7399326,-0.4814498,0.46979338,-0.38673633,0.8758968,0.28851306,,1.0832754630003463,0.6170772475820352,0.22347002568000002,0.15475117829157897,-0.2421198775843605,0.8489021567111832,-0.421754378758709,,-1.4938313880598695,0.3041521115184581,0.17492007631,-0.19564071727106122,-0.0008198189985926426,-1.0459628687389861,0.8327280491525557,,-0.0681136557206437,-0.037411132516498455,0.09109365563999999,-0.1076111944439502,,4.9866736e-05,6.556511e-07,-1.0728836e-06,1.0,-3.5502017e-05,-3.2551587e-05,3.5502017e-05,1.0,-5.8710575e-06,3.2544136e-05,5.841255e-06,1.0,523,1.568,0,0,0.0,False,-0.2599376133421849,1.0076560532829368
1.5834198689553887,19:56:15.631938,19:54:56.149292,0,,0.14053404,0.0094913095,0.028743163,-0.7164354,-0.4767418,-0.5093501,-0.5576157,-0.04745564,0.82874167,-0.41926736,0.8777615,-0.23183975,,0.07606189,0.0018762052,0.058103204,0.57479984,0.15605597,0.8032756,-0.7932584,0.34722674,0.5001746,-0.20086356,-0.9247055,0.32337856,,0.08372232,1.2898998,0.4270661,0.9923729,0.099605545,-0.07262775,0.024156155,-0.73487145,-0.6777761,-0.12088232,0.67085224,-0.7316726,,-0.13251205,0.26589444,-0.09084214,0.72108465,0.3554821,0.5947011,-0.66860014,0.5821106,0.46273226,-0.18168877,-0.73128635,0.65742636,,-0.0823849,0.45844483,-0.3500804,-0.55024034,0.031852026,-0.8343986,-0.74006844,-0.48137215,0.469659,-0.38669664,0.8759374,0.28844303,,1.0833913039934595,0.616930515657425,0.22337669280000003,0.14321823139993015,-0.23392168759843407,0.8466277344569881,-0.42355116348618604,,-1.4938313880598695,0.3041521115184581,0.17492007631,-0.1954310273275767,-0.0008198189985926426,-1.0459628687389861,0.8327280491525557,,-0.0681136557206437,-0.037411132516498455,0.09109365563999999,-0.1076111944439502,,4.9866736e-05,6.556511e-07,-1.0728836e-06,1.0,-3.5502017e-05,-3.2551587e-05,3.5502017e-05,1.0,-5.8710575e-06,3.2544136e-05,5.841255e-06,1.0,538,1.613,0,0,0.0,False,-0.2603546573718325,1.007704333483716
1.6040489820297807,19:56:15.674871,19:54:56.149292,0,,0.14033684,0.009339392,0.028970763,-0.70773757,-0.49009848,-0.50883293,-0.55853754,-0.052867413,0.82779276,-0.43260068,0.87006235,-0.23632213,,0.0760651,0.0018703341,0.058102846,0.5747107,0.15605186,0.8033401,-0.7933507,0.34705514,0.50014746,-0.20075436,-0.9247706,0.32326016,,0.08372232,1.2898998,0.4270661,0.9923729,0.099605545,-0.07262775,0.024156155,-0.73487145,-0.6777761,-0.12088232,0.67085224,-0.7316726,,-0.1323574,0.26594618,-0.091137424,0.7141234,0.36927873,0.594694,-0.6786893,0.57335776,0.45895723,-0.17148927,-0.73136455,0.6600737,,-0.08238817,0.45844033,-0.35008416,-0.55017626,0.03186316,-0.8344404,-0.7400364,-0.48153257,0.469545,-0.38684905,0.8758488,0.2885077,,1.0844493183972284,0.6162972515617385,0.22305521288000002,0.13042714484737417,-0.22271749461766793,0.84451583800597,-0.4230611312877834,,-1.4938391107927438,0.30412122058696117,0.17491878002000003,-0.1954310273275767,-0.0009564554983580831,-1.0458514508352896,0.8327280491525557,,-0.0681136557206437,-0.037411132516498455,0.09109365563999999,-0.1076111944439502,,4.9866736e-05,6.556511e-07,-1.0728836e-06,1.0,-3.5502017e-05,-3.2551587e-05,3.5502017e-05,1.0,-5.8710575e-06,3.2544136e-05,5.841255e-06,1.0,546,1.637,0,0,0.0,False,-0.26095043455704303,1.0071249710743626
1.6469851669389755,19:56:15.701606,19:54:56.149292,0,,0.14017996,0.009260774,0.02904065,-0.70572907,-0.49248165,-0.5093213,-0.5597485,-0.053112417,0.8269588,-0.43431333,0.8687007,-0.23818292,,0.076064214,0.0018702149,0.058101952,0.57458067,0.15611537,0.8034208,-0.7934047,0.34721833,0.49994838,-0.20091286,-0.92469853,0.32336766,,0.08372232,1.2898998,0.4270661,0.9923729,0.099605545,-0.07262775,0.024156155,-0.73487145,-0.6777761,-0.12088232,0.67085224,-0.7316726,,-0.13221702,0.26594207,-0.091263704,0.7122671,0.3717921,0.59535384,-0.6808118,0.57232934,0.45709342,-0.17079476,-0.73089653,0.66077185,,-0.08238714,0.4584397,-0.35008383,-0.55002034,0.03179216,-0.8345459,-0.74017394,-0.48137984,0.46948484,-0.38680762,0.8759353,0.28830042,,1.0850825824929147,0.6158570557879077,0.22292169501000003,0.12728179569510628,-0.22148776611977897,0.8433497193924211,-0.4230611312877832,,-1.4938313880598695,0.30412122058696117,0.17491878002000003,-0.19522133738409217,-0.0009564554983580831,-1.0460148083155707,0.8324013610202873,,-0.0681136557206437,-0.037411132516498455,0.09109365563999999,-0.1076111944439502,,4.9866736e-05,6.556511e-07,-1.0728836e-06,1.0,-3.5502017e-05,-3.2551587e-05,3.5502017e-05,1.0,-5.8710575e-06,3.2544136e-05,5.841255e-06,1.0,561,1.682,0,0,0.0,False,-0.26160578946077395,1.0073180918774804
1.6737204128876328,19:56:15.752331,19:54:56.298776,0,,0.1397864,0.009114534,0.029226229,-0.69404674,-0.506549,-0.51157314,-0.56188226,-0.06312448,0.82480526,-0.45009708,0.8598973,-0.24080959,,0.076067686,0.0018661916,0.058101475,0.57429683,0.15622084,0.8036032,-0.793618,0.3471148,0.49968165,-0.2008819,-0.92471963,0.32332662,,0.08372232,1.2898998,0.4270661,0.9923729,0.099605545,-0.07262775,0.024156155,-0.73487145,-0.6777761,-0.12088232,0.67085224,-0.7316726,,-0.1318624,0.2659759,-0.09155322,0.7025787,0.3860932,0.5977585,-0.69356227,0.55949336,0.45380455,-0.15923104,-0.73341614,0.6608678,,-0.08239057,0.45843628,-0.350086,-0.549754,0.03168948,-0.83472526,-0.7402556,-0.4814763,0.4692571,-0.38702992,0.875886,0.28815186,,1.0870287111772192,0.6144592411376731,0.22258984477000002,0.10987753038589076,-0.20768747964346948,0.8443483221401669,-0.42404119568458887,,-1.4938391107927438,0.30410577512121273,0.17491878002000003,-0.19501164744060764,-0.001229728497888964,-1.0460370087285993,0.8325647050864212,,-0.0681136557206437,-0.037411132516498455,0.09109365563999999,-0.1076111944439502,,4.9866736e-05,6.556511e-07,-1.0728836e-06,1.0,-3.5502017e-05,-3.2551587e-05,3.5502017e-05,1.0,-5.8710575e-06,3.2544136e-05,5.841255e-06,1.0,569,1.707,0,0,0.0,False,-0.26106958999408425,1.007704333483716
1.7244322600308806,19:56:15.765128,19:54:56.298776,0,,0.13961121,0.009045295,0.029337272,-0.6891368,-0.511019,-0.51376057,-0.561396,-0.071778655,0.82442856,-0.45817566,0.85656714,-0.23741873,,0.07606858,0.0018663108,0.05810231,0.57403857,0.15617263,0.80379707,-0.79372656,0.3473238,0.4993639,-0.20119087,-0.92464924,0.32333562,,0.08372232,1.2898998,0.4270661,0.9923729,0.099605545,-0.07262775,0.024156155,-0.73487145,-0.6777761,-0.12088232,0.67085224,-0.7316726,,-0.13170849,0.2660074,-0.091705315,0.6987942,0.39030132,0.59945935,-0.6989016,0.5510623,0.4559242,-0.15239164,-0.73756033,0.65786135,,-0.0823916,0.45843688,-0.35008633,-0.5494455,0.03172984,-0.83492684,-0.74052525,-0.48128104,0.46903187,-0.38695216,0.8759919,0.28793445,,1.088256625704221,0.6136483541858795,0.22236558660000003,0.10253838236393242,-0.19907938015824675,0.8525212398734369,-0.42306113128778333,,-1.493846833525618,0.30410577512121273,0.17491878002000003,-0.19459226755363862,-0.001229728497888964,-1.04611868746874,0.8327280491525556,,-0.0681136557206437,-0.037411132516498455,0.09109365563999999,-0.1076111944439502,,4.9866736e-05,6.556511e-07,-1.0728836e-06,1.0,-3.5502017e-05,-3.2551587e-05,3.5502017e-05,1.0,-5.8710575e-06,3.2544136e-05,5.841255e-06,1.0,580,1.74,0,0,0.0,False,-0.2612483231496481,1.0069801304720243
1.7372386690694839,19:56:15.802999,19:54:56.298776,0,,0.13932304,0.008968584,0.029465184,-0.68647224,-0.51050293,-0.51782465,-0.5600942,-0.08293185,0.8242675,-0.4637351,0.8558674,-0.22899932,,0.07607044,0.0018631816,0.058101177,0.57395697,0.15615606,0.8038585,-0.7938101,0.34716237,0.49934325,-0.20109405,-0.92471266,0.32321456,,0.08372232,1.2898998,0.4270661,0.9923729,0.099605545,-0.07262775,0.024156155,-0.73487145,-0.6777761,-0.12088232,0.67085224,-0.7316726,,-0.13144554,0.26604882,-0.09189087,0.6969678,0.3890564,0.6023877,-0.7018467,0.54243886,0.4617047,-0.14712934,-0.74457717,0.6511204,,-0.08239331,0.45843375,-0.3500877,-0.5493862,0.031753186,-0.834965,-0.7404977,-0.481432,0.46892047,-0.38708913,0.8759081,0.28800523,,1.0892451355121218,0.6130382582888158,0.2222229947,0.09939303321166454,-0.1941604661666909,0.8579849291966709,-0.4230611312877833,,-1.493846833525618,0.3040903296554643,0.17491878002000003,-0.19459226755363862,-0.0013663649976544045,-1.0460072695650435,0.8327280491525556,,-0.0681136557206437,-0.037411132516498455,0.09109365563999999,-0.1076111944439502,,4.9866736e-05,6.556511e-07,-1.0728836e-06,1.0,-3.5502017e-05,-3.2551587e-05,3.5502017e-05,1.0,-5.8710575e-06,3.2544136e-05,5.841255e-06,1.0,588,1.764,0,0,0.0,False,-0.2612483231496481,1.0071249710743626
1.7751102750189602,19:56:15.827415,19:54:56.298776,0,,0.13910395,0.008942857,0.02953063,-0.6853405,-0.50957257,-0.5202345,-0.55956674,-0.08868864,0.8240264,-0.46604007,0.8558447,-0.22435799,,0.07607271,0.0018553734,0.05809635,0.57392716,0.15622531,0.80386645,-0.793839,0.3471581,0.49930045,-0.20106544,-0.92470264,0.3232612,,0.08372232,1.2898998,0.4270661,0.9923729,0.099605545,-0.07262775,0.024156155,-0.73487145,-0.6777761,-0.12088232,0.67085224,-0.7316726,,-0.13123913,0.26608235,-0.09198692,0.6961829,0.38771382,0.60415834,-0.7030777,0.5381966,0.4647861,-0.14495201,-0.74834645,0.6472763,,-0.08239486,0.45842475,-0.35009018,-0.5493632,0.03168319,-0.8349828,-0.74049157,-0.48143584,0.46892625,-0.38713354,0.8759085,0.28794426,,1.0902954271830163,0.612459053323249,0.22211669892000002,0.09750582372030382,-0.19129109967161662,0.8626695248711345,-0.424041195684589,,-1.4938313880598695,0.3040362705253447,0.17491878002000003,-0.19459226755363862,-0.0013663649976544045,-1.0460889483051843,0.8328913932186898,,-0.0681136557206437,-0.037411132516498455,0.09109365563999999,-0.1076111944439502,,4.9866736e-05,6.556511e-07,-1.0728836e-06,1.0,-3.5502017e-05,-3.2551587e-05,3.5502017e-05,1.0,-5.8710575e-06,3.2544136e-05,5.841255e-06,1.0,603,1.809,0,0,0.0,False,-0.2607717014014801,1.007269811676701
1.799515075981617,19:56:15.876475,19:54:56.298776,0,,0.13859102,0.008919537,0.02976875,-0.68551385,-0.50674796,-0.52275914,-0.55692834,-0.09748444,0.8248198,-0.46893665,0.85656476,-0.21539536,,0.07607996,0.0018436611,0.058092356,0.57362396,0.15620537,0.8040866,-0.79399323,0.3473016,0.49895513,-0.20132115,-0.9246521,0.32324654,,0.08372232,1.2898998,0.4270661,0.9923729,0.099605545,-0.07262775,0.024156155,-0.73487145,-0.6777761,-0.12088232,0.67085224,-0.7316726,,-0.13076411,0.26624578,-0.09224764,0.6969205,0.38417804,0.605565,-0.7031304,0.53218323,0.47158098,-0.1411005,-0.7544457,0.64101666,,-0.082401566,0.45841318,-0.3500954,-0.54902196,0.031697564,-0.8352066,-0.7407459,-0.48130172,0.46866208,-0.38713095,0.8759817,0.28772506,,1.0929752154903722,0.6115014344468451,0.22183799657000003,0.09687675388985026,-0.18623554918029533,0.869328656132921,-0.4233878194200519,,-1.4938391107927438,0.30395132046372825,0.17491878002000003,-0.19417288766666954,-0.0013663649976544045,-1.0461706270453246,0.8327280491525555,,-0.0681136557206437,-0.037411132516498455,0.09109365563999999,-0.1076111944439502,,4.9866736e-05,6.556511e-07,-1.0728836e-06,1.0,-3.5502017e-05,-3.2551587e-05,3.5502017e-05,1.0,-5.8710575e-06,3.2544136e-05,5.841255e-06,1.0,615,1.846,0,0,0.0,False,-0.2612483231496481,1.0076077730821573
1.8485398120246828,19:56:15.916773,19:54:56.446737,0,,0.13827452,0.008950502,0.030081734,-0.6825789,-0.50892246,-0.52448446,-0.5536963,-0.10826683,0.82565045,-0.47697636,0.8539767,-0.20788778,,0.076088026,0.0018327534,0.058087647,0.57338077,0.15622161,0.8042569,-0.7941644,0.34721836,0.4987407,-0.20133871,-0.9246806,0.32315397,,0.08372232,1.2898998,0.4270661,0.9923729,0.099605545,-0.07262775,0.024156155,-0.73487145,-0.6777761,-0.12088232,0.67085224,-0.7316726,,-0.13048892,0.26649323,-0.09249688,0.6952872,0.3858635,0.6063704,-0.7063748,0.5226304,0.47738045,-0.1327039,-0.76024127,0.63594246,,-0.08240894,0.45840156,-0.35009947,-0.54878515,0.03168448,-0.83536273,-0.7408411,-0.48137954,0.46843165,-0.38728452,0.8759394,0.28764713,,1.095137580695155,0.6112697524606184,0.22157355341,0.09247326507667525,-0.1773541766955417,0.8754001270355654,-0.4232244753539175,,-1.493846833525618,0.30387409313498603,0.17492007631,-0.19396319772318504,-0.001503001497419845,-1.0461408878817688,0.8325647050864213,,-0.0681136557206437,-0.037411132516498455,0.09109365563999999,-0.1076111944439502,,4.9866736e-05,6.556511e-07,-1.0728836e-06,1.0,-3.5502017e-05,-3.2551587e-05,3.5502017e-05,1.0,-5.8710575e-06,3.2544136e-05,5.841255e-06,1.0,626,1.879,0,0,0.0,False,-0.2611887454311268,1.0076077730821573
1.888885152991861,19:56:15.947333,19:54:56.446737,0,,0.13797171,0.008974306,0.030425742,-0.6799142,-0.5095116,-0.5273656,-0.5521637,-0.117506325,0.8254136,-0.48252666,0.85240257,-0.20143962,,0.07609253,0.0018264949,0.058086038,0.573158,0.15622501,0.80441505,-0.7943147,0.34716478,0.4985386,-0.20138039,-0.92470014,0.32307214,,0.08372232,1.2898998,0.4270661,0.9923729,0.099605545,-0.07262775,0.024156155,-0.73487145,-0.6777761,-0.12088232,0.67085224,-0.7316726,,-0.13023177,0.26675624,-0.0927713,0.69347644,0.38596523,0.6083759,-0.70914555,0.5148412,0.48171687,-0.12729101,-0.76548636,0.63073575,,-0.082413234,0.4583957,-0.35010248,-0.5485631,0.031683218,-0.83550864,-0.74094313,-0.48142958,0.4682188,-0.38740388,0.87591195,0.28756997,,1.0972613322355669,0.6112851979263668,0.22129096219000002,0.08827946620698475,-0.17175208020515864,0.8812051929818634,-0.4233878194200519,,-1.4938545562584922,0.3038354794706149,0.17492007631,-0.19375350777970052,-0.0016396379971852853,-1.046111148718213,0.8327280491525557,,-0.0681136557206437,-0.037411132516498455,0.09109365563999999,-0.1076111944439502,,4.9866736e-05,6.556511e-07,-1.0728836e-06,1.0,-3.5502017e-05,-3.2551587e-05,3.5502017e-05,1.0,-5.8710575e-06,3.2544136e-05,5.841255e-06,1.0,634,1.903,0,0,0.0,False,-0.2607717014014801,1.0071249710743626
1.9193936709780246,19:56:15.974124,19:54:56.446737,0,,0.13784409,0.008973584,0.0306039,-0.6783677,-0.5109173,-0.52799684,-0.55137,-0.12096059,0.8254452,-0.48560107,0.85107696,-0.19964871,,0.07609367,0.0018243492,0.058085144,0.57314986,0.15623015,0.8044199,-0.794323,0.3471529,0.49853367,-0.20137073,-0.9247037,0.3230678,,0.08372232,1.2898998,0.4270661,0.9923729,0.099605545,-0.07262775,0.024156155,-0.73487145,-0.6777761,-0.12088232,0.67085224,-0.7316726,,-0.13012844,0.26688194,-0.0929181,0.69239974,0.38727012,0.60877293,-0.710723,0.5114655,0.48298648,-0.12432011,-0.7670886,0.6293803,,-0.08241426,0.45839348,-0.35010338,-0.5485572,0.031678505,-0.8355127,-0.7409404,-0.4814407,0.46821174,-0.38741755,0.875906,0.28756964,,1.098195782913348,0.6113392570564864,0.22114059255000001,0.08597287682865498,-0.16874607721031895,0.8825928998871486,-0.4225710990893804,,-1.4938545562584922,0.30382003400486646,0.17492007631,-0.19375350777970052,-0.0016396379971852853,-1.046111148718213,0.8327280491525557,,-0.0681136557206437,-0.037411132516498455,0.09109365563999999,-0.1076111944439502,,4.9866736e-05,6.556511e-07,-1.0728836e-06,1.0,-3.5502017e-05,-3.2551587e-05,3.5502017e-05,1.0,-5.8710575e-06,3.2544136e-05,5.841255e-06,1.0,649,1.948,0,0,0.0,False,-0.2611887454311268,1.0076077730821573
1.9462350020185113,19:56:16.017542,19:54:56.557011,0,,0.13761188,0.00891234,0.03103064,-0.67303866,-0.5174648,-0.52844006,-0.549314,-0.12869483,0.8256463,-0.49525052,0.84597147,-0.19763401,,0.076099485,0.0018211901,0.058085263,0.57280684,0.15611653,0.8046862,-0.7945192,0.34715727,0.49821788,-0.20157266,-0.92472124,0.32289165,,0.08372232,1.2898998,0.4270661,0.9923729,0.099605545,-0.07262775,0.024156155,-0.73487145,-0.6777761,-0.12088232,0.67085224,-0.7316726,,-0.12995802,0.26713714,-0.0932997,0.6885181,0.39382842,0.60896796,-0.71600723,0.50256145,0.48452625,-0.11522361,-0.76963055,0.62800664,,-0.08242009,0.45839083,-0.350105,-0.5481883,0.03179346,-0.8357504,-0.74117714,-0.4814369,0.46784076,-0.38748682,0.8759039,0.28748268,,1.0999565660086712,0.6114550980495997,0.22074911297000002,0.07863372880669664,-0.15959143172603446,0.8841125617549501,-0.4225710990893804,,-1.4938777244571149,0.30379686580624377,0.1749213726,-0.19333412789273147,-0.0017762744969507258,-1.0459997308145166,0.8327280491525557,,-0.0681136557206437,-0.037411132516498455,0.09109365563999999,-0.1076111944439502,,4.9866736e-05,6.556511e-07,-1.0728836e-06,1.0,-3.5502017e-05,-3.2551587e-05,3.5502017e-05,1.0,-5.8710575e-06,3.2544136e-05,5.841255e-06,1.0,676,2.03,0,0,0.0,False,-0.2603546573718325,1.0074629324798186
1.9896281058900058,19:56:16.091431,19:54:56.557011,0,,0.1371553,0.008654609,0.032080695,-0.66957206,-0.5229201,-0.527473,-0.5345898,-0.15373227,0.83101153,-0.51564217,0.8384038,-0.17661294,,0.076111905,0.0018184781,0.058089316,0.57233393,0.15598805,0.8050475,-0.79477435,0.34724936,0.49774647,-0.2019098,-0.92470837,0.3227179,,0.08372232,1.2898998,0.4270661,0.9923729,0.099605545,-0.07262775,0.024156155,-0.73487145,-0.6777761,-0.12088232,0.67085224,-0.7316726,,-0.12966008,0.26768318,-0.09429497,0.68879133,0.39834344,0.6057136,-0.71934444,0.47932744,0.50278103,-0.09005562,-0.78202796,0.61670274,,-0.08243312,0.4583905,-0.35010782,-0.5476682,0.031919915,-0.8360865,-0.74153733,-0.48135114,0.467358,-0.38753316,0.87594646,0.2872905,,1.103833377911532,0.6117408391659461,0.21960448890000003,0.07443992993700614,-0.13130767627458828,0.8994380635558551,-0.42224441095711196,,-1.493947229052983,0.3037659748747469,0.17492396518000003,-0.19270505806227786,-0.0019129109967161663,-1.04588831291082,0.8327280491525557,,-0.0681136557206437,-0.037411132516498455,0.09109365563999999,-0.1076111944439502,,4.9866736e-05,6.556511e-07,-1.0728836e-06,1.0,-3.5502017e-05,-3.2551587e-05,3.5502017e-05,1.0,-5.8710575e-06,3.2544136e-05,5.841255e-06,1.0,684,2.055,0,0,0.0,False,-0.260652545964438,1.007076690873583
2.0635446968954057,19:56:16.119892,19:54:56.557011,0,,0.13702749,0.008594118,0.032356128,-0.6689949,-0.5235687,-0.5275619,-0.53125185,-0.1595825,0.83204865,-0.51982427,0.8369045,-0.17138699,,0.07611546,0.001818955,0.058092773,0.57233655,0.15608254,0.80502737,-0.7947751,0.34729683,0.49771214,-0.20189936,-0.9246746,0.32282126,,0.08372232,1.2898998,0.4270661,0.9923729,0.099605545,-0.07262775,0.024156155,-0.73487145,-0.6777761,-0.12088232,0.67085224,-0.7316726,,-0.12957345,0.26783186,-0.09455234,0.6890032,0.3987448,0.60520834,-0.71979237,0.47406116,0.50711435,-0.08469655,-0.78502774,0.6136431,,-0.08243724,0.45839295,-0.35010913,-0.5476728,0.031822227,-0.8360872,-0.74153036,-0.48130646,0.46741503,-0.38754,0.87597454,0.2871956,,1.104319910082608,0.6117948982960657,0.21947097103000002,0.07423023999352162,-0.1289848557785758,0.9015462174599036,-0.4220810668909776,,-1.49397811998448,0.3037659748747469,0.17492396518000003,-0.19270505806227786,-0.0019129109967161663,-1.0459699916509608,0.8325647050864214,,-0.0681136557206437,-0.037411132516498455,0.09109365563999999,-0.1076111944439502,,4.9866736e-05,6.556511e-07,-1.0728836e-06,1.0,-3.5502017e-05,-3.2551587e-05,3.5502017e-05,1.0,-5.8710575e-06,3.2544136e-05,5.841255e-06,1.0,699,2.1,0,0,0.0,False,-0.26017592421626956,1.0072215314759216
2.0919782009441406,19:56:16.165426,19:54:56.693329,0,,0.13665761,0.0084615275,0.033099964,-0.6698472,-0.5229209,-0.52712274,-0.52097875,-0.17482778,0.8354738,-0.5290424,0.8342595,-0.15532279,,0.07612802,0.00181216,0.058095396,0.57210994,0.15607545,0.8051897,-0.79493475,0.34720284,0.49752277,-0.20191312,-0.9247111,0.322708,,0.08372232,1.2898998,0.4270661,0.9923729,0.099605545,-0.07262775,0.024156155,-0.73487145,-0.6777761,-0.12088232,0.67085224,-0.7316726,,-0.1293128,0.2682567,-0.095230035,0.6917868,0.3973166,0.6029681,-0.7185826,0.46112084,0.52058303,-0.071204886,-0.79341483,0.6045021,,-0.082450286,0.4583889,-0.35011414,-0.5474526,0.03183323,-0.836231,-0.7416172,-0.48139438,0.46718663,-0.38768485,0.87592584,0.28714868,,1.107076925718706,0.6121269758096574,0.21878782620000004,0.0756980695979133,-0.11559447880156261,0.9115370203736383,-0.42175437875870914,,-1.4940399018474737,0.3037119157446273,0.17492526147,-0.19249536811879336,-0.0020495474964816063,-1.0458585737472643,0.8325647050864214,,-0.0681136557206437,-0.037411132516498455,0.09109365563999999,-0.1076111944439502,,4.9866736e-05,6.556511e-07,-1.0728836e-06,1.0,-3.5502017e-05,-3.2551587e-05,3.5502017e-05,1.0,-5.8710575e-06,3.2544136e-05,5.841255e-06,1.0,707,2.125,0,0,0.0,False,-0.26011634649774784,1.0069318502712448
2.1375318330246955,19:56:16.189482,19:54:56.693329,0,,0.13652834,0.008428104,0.033407524,-0.6694251,-0.5259483,-0.5246412,-0.51494557,-0.18050057,0.838004,-0.53544486,0.83114254,-0.15000317,,0.07614051,0.001808703,0.05810088,0.5719664,0.15609966,0.80528706,-0.79501116,0.34727362,0.49735123,-0.20201857,-0.9246805,0.3227299,,0.08372232,1.2898998,0.4270661,0.9923729,0.099605545,-0.07262775,0.024156155,-0.73487145,-0.6777761,-0.12088232,0.67085224,-0.7316726,,-0.12922685,0.26844713,-0.09549227,0.6926358,0.400291,0.60001904,-0.71857995,0.45495868,0.52598053,-0.0624386,-0.7954745,0.60276175,,-0.08246368,0.45838922,-0.35011843,-0.54729414,0.031805832,-0.8363358,-0.74172825,-0.4813282,0.46707857,-0.38769615,0.8759632,0.2870194,,1.1081967219854687,0.6122428168027707,0.21852208675,0.0756980695979133,-0.10684974281657443,0.9132275784722481,-0.4219177228248434,,-1.4941171291762159,0.30367330208025617,0.17492655776000002,-0.19228567817530884,-0.0020495474964816063,-1.0458585737472643,0.8325647050864214,,-0.0681136557206437,-0.037411132516498455,0.09109365563999999,-0.1076111944439502,,4.9866736e-05,6.556511e-07,-1.0728836e-06,1.0,-3.5502017e-05,-3.2551587e-05,3.5502017e-05,1.0,-5.8710575e-06,3.2544136e-05,5.841255e-06,1.0,722,2.17,0,0,0.0,False,-0.260652545964438,1.0070284106728038
2.1615920970216393,19:56:16.233162,19:54:56.693329,0,,0.13611908,0.008402802,0.03417565,-0.6672291,-0.5321101,-0.521214,-0.50068367,-0.19767743,0.8427571,-0.5514718,0.82327545,-0.1345227,,0.07616179,0.0018036962,0.058110476,0.57174575,0.15615714,0.8054326,-0.79517233,0.34719506,0.49714833,-0.20200895,-0.92470026,0.32267922,,0.08372232,1.2898998,0.4270661,0.9923729,0.099605545,-0.07262775,0.024156155,-0.73487145,-0.6777761,-0.12088232,0.67085224,-0.7316726,,-0.1289224,0.26896808,-0.09612004,0.69357216,0.40612406,0.5949966,-0.71922505,0.4372719,0.5399154,-0.04090266,-0.8024067,0.59537417,,-0.08248651,0.45839044,-0.3501252,-0.5470842,0.03175076,-0.8364752,-0.7417994,-0.48140144,0.46689,-0.38785625,0.87592494,0.28691983,,1.111579278984379,0.612428162391752,0.21788949723000003,0.07402055005003709,-0.08526117585363484,0.920535565431085,-0.42240775502324623,,-1.4942484156350777,0.3036192429501366,0.17492915034,-0.1920759882318243,-0.002186183996247047,-1.045747155843568,0.8325647050864214,,-0.0681136557206437,-0.037411132516498455,0.09109365563999999,-0.1076111944439502,,4.9866736e-05,6.556511e-07,-1.0728836e-06,1.0,-3.5502017e-05,-3.2551587e-05,3.5502017e-05,1.0,-5.8710575e-06,3.2544136e-05,5.841255e-06,1.0,730,2.194,0,0,0.0,False,-0.2602355019347904,1.0074146522790395
2.2052755090408027,19:56:16.257482,19:54:56.693329,0,,0.13593851,0.008425236,0.03444545,-0.66690624,-0.5340235,-0.519668,-0.49501854,-0.20375326,0.84465456,-0.55694944,0.8205507,-0.1284672,,0.0761729,0.0018030405,0.058115184,0.5717395,0.1562295,0.80542296,-0.7951865,0.3471927,0.49712738,-0.20197104,-0.92468894,0.32273537,,0.08372232,1.2898998,0.4270661,0.9923729,0.099605545,-0.07262775,0.024156155,-0.73487145,-0.6777761,-0.12088232,0.67085224,-0.7316726,,-0.12877674,0.2691751,-0.09632449,0.69437355,0.40791667,0.5928317,-0.71885467,0.43104628,0.5453871,-0.033065405,-0.8048622,0.5925399,,-0.08249835,0.45839217,-0.3501271,-0.54708564,0.03167754,-0.83647704,-0.7417796,-0.4814035,0.46691933,-0.38789213,0.8759265,0.2868667,,1.1130311527647332,0.6124436078575005,0.21768468341000002,0.07402055005003709,-0.0773362588672393,0.9230579884321544,-0.4212643465603061,,-1.4943179202309458,0.3035960747515139,0.17493174292000002,-0.1920759882318243,-0.002186183996247047,-1.045747155843568,0.8325647050864214,,-0.0681136557206437,-0.037411132516498455,0.09109365563999999,-0.1076111944439502,,4.9866736e-05,6.556511e-07,-1.0728836e-06,1.0,-3.5502017e-05,-3.2551587e-05,3.5502017e-05,1.0,-5.8710575e-06,3.2544136e-05,5.841255e-06,1.0,745,2.239,0,0,0.0,False,-0.2611887454311268,1.0071249710743626
2.2295461259782314,19:56:16.293361,19:54:56.842664,0,,0.1356234,0.008525968,0.034834936,-0.6685005,-0.53551424,-0.5160732,-0.48578733,-0.21100745,0.84822553,-0.56313217,0.81774104,-0.11908749,,0.076201886,0.0017944574,0.058124125,0.5714408,0.1562928,0.8056227,-0.79535186,0.3473181,0.49677506,-0.20216502,-0.9246311,0.32277948,,0.08372232,1.2898998,0.4270661,0.9923729,0.099605545,-0.07262775,0.024156155,-0.73487145,-0.6777761,-0.12088232,0.67085224,-0.7316726,,-0.12850757,0.26952574,-0.09658098,0.6974248,0.409215,0.5883381,-0.71630245,0.42388943,0.55428195,-0.02256981,-0.80799806,0.58875275,,-0.08252873,0.45838964,-0.35013503,-0.54676086,0.031608295,-0.836692,-0.74199575,-0.48128608,0.46669692,-0.3879367,0.8759935,0.2866016,,1.1155719318803532,0.6124976669876201,0.21743061057000002,0.07653682937185138,-0.06667861188553494,0.9257207368233715,-0.4214276906264406,,-1.4944800976213044,0.303495679224149,0.17493692808000003,-0.19165660834485526,-0.002186183996247047,-1.045747155843568,0.8325647050864214,,-0.0681136557206437,-0.037411132516498455,0.09109365563999999,-0.1076111944439502,,4.9866736e-05,6.556511e-07,-1.0728836e-06,1.0,-3.5502017e-05,-3.2551587e-05,3.5502017e-05,1.0,-5.8710575e-06,3.2544136e-05,5.841255e-06,1.0,753,2.264,0,0,0.0,False,-0.2598184579051428,1.0066904492673474
2.265445596072823,19:56:16.329657,19:54:56.842664,0,,0.13543324,0.008605942,0.035100386,-0.6684102,-0.5376868,-0.5139266,-0.48116454,-0.21431965,0.85002816,-0.5671935,0.8154507,-0.11546245,,0.076219976,0.001788497,0.05812812,0.57121265,0.15631685,0.80577976,-0.79551613,0.34722507,0.49657705,-0.20216362,-0.924662,0.32269192,,0.08372232,1.2898998,0.4270661,0.9923729,0.099605545,-0.07262775,0.024156155,-0.73487145,-0.6777761,-0.12088232,0.67085224,-0.7316726,,-0.12834764,0.26977208,-0.09674454,0.6981977,0.4114125,0.5858837,-0.715715,0.41998366,0.5580016,-0.016492752,-0.80892116,0.58768576,,-0.082547426,0.45838648,-0.35013947,-0.5465421,0.0315877,-0.8368357,-0.74207413,-0.48137295,0.4664826,-0.38809493,0.8759465,0.286531,,1.1172323194483114,0.6126830125766015,0.21727116690000003,0.07653682937185138,-0.060666605895855555,0.9257190734691627,-0.42175437875870914,,-1.4945727704157952,0.3034338973611552,0.17494081695000002,-0.19144691840137074,-0.0023228204960124878,-1.0456357379398715,0.8325647050864214,,-0.0681136557206437,-0.037411132516498455,0.09109365563999999,-0.1076111944439502,,4.9866736e-05,6.556511e-07,-1.0728836e-06,1.0,-3.5502017e-05,-3.2551587e-05,3.5502017e-05,1.0,-5.8710575e-06,3.2544136e-05,5.841255e-06,1.0,768,2.309,0,0,0.0,False,-0.26017592421626956,1.0072215314759216
2.3017591019161046,19:56:16.377527,19:54:56.842664,0,,0.13532491,0.008724712,0.035456702,-0.6702766,-0.53940195,-0.50968105,-0.47507814,-0.21573675,0.85308754,-0.5701141,0.8139429,-0.11165485,,0.076243065,0.0017743707,0.058131337,0.57102674,0.15659547,0.8058574,-0.7956389,0.3473589,0.49628663,-0.20220558,-0.9245646,0.32294473,,0.08372232,1.2898998,0.4270661,0.9923729,0.099605545,-0.07262775,0.024156155,-0.73487145,-0.6777761,-0.12088232,0.67085224,-0.7316726,,-0.12827739,0.27010605,-0.09693515,0.70086765,0.41319734,0.5814228,-0.71321374,0.41797835,0.56269014,-0.010520063,-0.8090501,0.58764553,,-0.08257113,0.45837682,-0.3501488,-0.5463554,0.031299863,-0.83696836,-0.74216294,-0.481247,0.46647134,-0.38818803,0.87602603,0.2861615,,1.1188154796875274,0.6134938995283951,0.21709098259,0.0792627986371502,-0.05533778240500338,0.9243142098700625,-0.4220810668909777,,-1.4946808886760343,0.30331033363516763,0.17494340953,-0.1912372284578862,-0.0023228204960124878,-1.0458807741602931,0.832401361020287,,-0.0681136557206437,-0.037411132516498455,0.09109365563999999,-0.1076111944439502,,4.9866736e-05,6.556511e-07,-1.0728836e-06,1.0,-3.5502017e-05,-3.2551587e-05,3.5502017e-05,1.0,-5.8710575e-06,3.2544136e-05,5.841255e-06,1.0,776,2.333,0,0,0.0,False,-0.2602355019347904,1.007076690873583
2.349591912003234,19:56:16.393846,19:54:56.842664,0,,0.1353549,0.008768022,0.035588548,-0.6700823,-0.54120004,-0.5080277,-0.47335505,-0.21563959,0.8540695,-0.57177335,0.8127743,-0.11168349,,0.07625921,0.0017628968,0.05813098,0.5706497,0.15660645,0.80612236,-0.79587245,0.34735918,0.4959119,-0.20235103,-0.9245626,0.3228592,,0.08372232,1.2898998,0.4270661,0.9923729,0.099605545,-0.07262775,0.024156155,-0.73487145,-0.6777761,-0.12088232,0.67085224,-0.7316726,,-0.12832075,0.27022675,-0.09699602,0.70101553,0.41513258,0.5798639,-0.7130997,0.4173113,0.56332946,-0.008127363,-0.8084035,0.5885726,,-0.08258726,0.45836702,-0.35015488,-0.5459649,0.031288724,-0.8372236,-0.7423778,-0.48124674,0.46612954,-0.38832653,0.8760266,0.28597188,,1.1190857753381251,0.6139958771652196,0.21703524212000003,0.0792627986371502,-0.053424871408287215,0.9229177166985938,-0.4220810668909776,,-1.494742670539028,0.3032176608406769,0.17494600211000003,-0.19081784857091716,-0.002459456995777928,-1.0458510349967374,0.8325647050864211,,-0.0681136557206437,-0.037411132516498455,0.09109365563999999,-0.1076111944439502,,4.9866736e-05,6.556511e-07,-1.0728836e-06,1.0,-3.5502017e-05,-3.2551587e-05,3.5502017e-05,1.0,-5.8710575e-06,3.2544136e-05,5.841255e-06,1.0,791,2.379,0,0,0.0,False,-0.2589247921273281,1.0067870096689064
2.365920746931806,19:56:16.441334,19:54:56.975103,0,,0.13550332,0.008819483,0.035874948,-0.6690003,-0.54439497,-0.50603604,-0.46824375,-0.22004443,0.8557619,-0.5772229,0.8094532,-0.10769978,,0.07627716,0.0017481744,0.058125257,0.5705841,0.15669313,0.8061519,-0.79594433,0.3472683,0.49586022,-0.20225315,-0.924582,0.32286486,,0.08372232,1.2898998,0.4270661,0.9923729,0.099605545,-0.07262775,0.024156155,-0.73487145,-0.6777761,-0.12088232,0.67085224,-0.7316726,,-0.12850045,0.27045506,-0.09714529,0.70102173,0.41839254,0.5775086,-0.71313965,0.41193923,0.56721944,-0.0005780855,-0.80947745,0.5871507,,-0.08260424,0.45835093,-0.35015973,-0.5459212,0.031204555,-0.83725524,-0.74234384,-0.4813314,0.46609625,-0.38845292,0.87598306,0.28593355,,1.119178448132616,0.6151311188977306,0.21689653909000003,0.07905310869366569,-0.047002955919311515,0.9245420893966692,-0.421754378758709,,-1.4947890069362735,0.3030863743818151,0.17495118727000003,-0.19081784857091716,-0.002459456995777928,-1.0458510349967374,0.83289139321869,,-0.0681136557206437,-0.037411132516498455,0.09109365563999999,-0.1076111944439502,,4.9866736e-05,6.556511e-07,-1.0728836e-06,1.0,-3.5502017e-05,-3.2551587e-05,3.5502017e-05,1.0,-5.8710575e-06,3.2544136e-05,5.841255e-06,1.0,799,2.403,0,0,0.0,False,-0.26053339052739544,1.0071249710743626
2.413074652897194,19:56:16.461791,19:54:56.975103,0,,0.13560206,0.0088305175,0.03606035,-0.66783255,-0.5458486,-0.5060127,-0.46491525,-0.22498664,0.8562913,-0.58125156,0.8071122,-0.10351995,,0.07628526,0.0017424524,0.058123052,0.57029784,0.15667778,0.80635744,-0.7960808,0.34743902,0.4955212,-0.20252293,-0.9245205,0.32287198,,0.08372232,1.2898998,0.4270661,0.9923729,0.099605545,-0.07262775,0.024156155,-0.73487145,-0.6777761,-0.12088232,0.67085224,-0.7316726,,-0.12862104,0.27058655,-0.09725672,0.7006291,0.41976503,0.5769889,-0.7135098,0.40678644,0.5704634,0.0047493633,-0.8113705,0.5845129,,-0.08261195,0.45834452,-0.3501615,-0.5455934,0.031213174,-0.83746856,-0.7425991,-0.48117182,0.46585426,-0.38842547,0.87607044,0.28570303,,1.1191630026668675,0.6158029966577881,0.21679153960000003,0.0784240388632121,-0.04235731492728654,0.9277782523230791,-0.421754378758709,,-1.4948121751348962,0.30303231525169555,0.17495377985000002,-0.1903984686839481,-0.002459456995777928,-1.045932713736878,0.8327280491525557,,-0.0681136557206437,-0.037411132516498455,0.09109365563999999,-0.1076111944439502,,4.9866736e-05,6.556511e-07,-1.0728836e-06,1.0,-3.5502017e-05,-3.2551587e-05,3.5502017e-05,1.0,-5.8710575e-06,3.2544136e-05,5.841255e-06,1.0,818,2.46,0,0,0.0,False,-0.25922268071993226,1.006738729468127
2.433872777968645,19:56:16.519119,19:54:56.975103,0,,0.13583921,0.008768454,0.03678818,-0.6613449,-0.55498075,-0.5045982,-0.45611194,-0.23650783,0.8579196,-0.59547025,0.7975339,-0.09672004,,0.076376036,0.0017380379,0.05812657,0.5700889,0.15673469,0.80649424,-0.7962409,0.34732947,0.49534088,-0.20248209,-0.9245521,0.32280725,,0.08369935,1.2899009,0.4270685,0.9923726,0.09961473,-0.07261928,0.024168562,-0.7348702,-0.677777,-0.12088232,0.67085224,-0.7316726,,-0.12893204,0.2710315,-0.097787365,0.69669217,0.4291762,0.5748285,-0.71703607,0.39215702,0.576257,0.02189277,-0.8136465,0.5809475,,-0.08268004,0.45833433,-0.35015297,-0.5453908,0.031157007,-0.8376026,-0.7426521,-0.48127514,0.46566302,-0.38860863,0.87601566,0.28562185,,1.1197113167009374,0.6178417981365835,0.21627820876000003,0.07255272044564542,-0.02732729995308809,0.9316946734643041,-0.4217543787587089,,-1.494843066066393,0.30288558332708526,0.17495507614000003,-0.1901887787404636,-0.0025960934955433683,-1.0459029745733222,0.8325647050864214,,-0.0681136557206437,-0.037411132516498455,0.09109365563999999,-0.1076111944439502,,2.6807189e-05,-8.34465e-07,-1.9073486e-06,1.0,-2.6352704e-05,-2.4169683e-05,2.6352704e-05,1.0,-4.3809414e-06,2.4162233e-05,4.351139e-06,1.0,826,2.485,0,0,0.0,False,-0.26041423509035333,1.0071249710743626
2.491231404012069,19:56:16.551261,19:54:57.091328,0,,0.135849,0.008784771,0.037016377,-0.6566599,-0.561654,-0.5033315,-0.4530391,-0.23979998,0.8586335,-0.6029538,0.7918591,-0.09698418,,0.07637808,0.0017359816,0.05812657,0.5700815,0.15681288,0.80648434,-0.79624945,0.3473598,0.49530602,-0.20246981,-0.9245274,0.3228855,,0.08369935,1.2899009,0.4270685,0.9923726,0.09961473,-0.07261928,0.024168562,-0.7348702,-0.677777,-0.12088232,0.67085224,-0.7316726,,-0.12896976,0.27119914,-0.09793871,0.69324493,0.43626013,0.5736624,-0.72007596,0.3861048,0.5765533,0.030033395,-0.81277317,0.58180565,,-0.0826821,0.45833272,-0.3501542,-0.545386,0.031076528,-0.8376087,-0.74264765,-0.4812466,0.46569973,-0.388624,0.87603426,0.28554407,,1.1202210170706361,0.61827427117754,0.21613432057,0.06752016180201684,-0.019675655966223424,0.9302743165255978,-0.42093765842803743,,-1.4948507887992672,0.3028701378613368,0.17495507614000003,-0.1901887787404636,-0.0025960934955433683,-1.0459846533134627,0.8324013610202873,,-0.0681136557206437,-0.037411132516498455,0.09109365563999999,-0.1076111944439502,,2.6807189e-05,-8.34465e-07,-1.9073486e-06,1.0,-2.6352704e-05,-2.4169683e-05,2.6352704e-05,1.0,-4.3809414e-06,2.4162233e-05,4.351139e-06,1.0,837,2.518,0,0,0.0,False,-0.2604738128088746,1.0071732512751421
2.5233767579775304,19:56:16.582098,19:54:57.091328,0,,0.1358187,0.008848719,0.037365302,-0.6495299,-0.57093966,-0.50213426,-0.44675547,-0.2478025,0.8596531,-0.6152402,0.7827016,-0.09411532,,0.07638344,0.0017298721,0.058125734,0.5694688,0.15657629,0.8069629,-0.7965588,0.34751776,0.49469733,-0.20297606,-0.9245081,0.32262272,,0.08369935,1.2899009,0.4270685,0.9923726,0.09961473,-0.07261928,0.024168562,-0.7348702,-0.677777,-0.12088232,0.67085224,-0.7316726,,-0.12897982,0.27148545,-0.09815012,0.6882324,0.44602612,0.572186,-0.72414494,0.3743275,0.57921755,0.044161197,-0.8129819,0.5806119,,-0.08268741,0.45832747,-0.35015753,-0.5446985,0.031309895,-0.83804727,-0.7431522,-0.4810996,0.4650462,-0.38862365,0.8761067,0.28532225,,1.1213253678716504,0.6188148624787357,0.2159359882,0.060181013780058495,-0.006148642489444821,0.9307606464194713,-0.42338781942005177,,-1.4948662342650156,0.3028315241969657,0.17495507614000003,-0.1893500189665255,-0.002732729995308809,-1.0458732354097662,0.8324013610202873,,-0.0681136557206437,-0.037411132516498455,0.09109365563999999,-0.1076111944439502,,2.6807189e-05,-8.34465e-07,-1.9073486e-06,1.0,-2.6352704e-05,-2.4169683e-05,2.6352704e-05,1.0,-4.3809414e-06,2.4162233e-05,4.351139e-06,1.0,845,2.542,0,0,0.0,False,-0.2602950796533112,1.00644904826345
2.5541818940546364,19:56:16.614894,19:54:57.091328,0,,0.13562743,0.008892983,0.03775333,-0.6454,-0.5748522,-0.5029948,-0.44203994,-0.25595054,0.8597034,-0.6229443,0.7771964,-0.088917196,,0.07639202,0.0017212294,0.05812353,0.569434,0.15662092,0.8069788,-0.7965968,0.3474694,0.49467015,-0.20292473,-0.92451876,0.32262456,,0.08369935,1.2899009,0.4270685,0.9923726,0.09961473,-0.07261928,0.024168562,-0.7348702,-0.677777,-0.12088232,0.67085224,-0.7316726,,-0.12883711,0.27178964,-0.098426156,0.6854839,0.4499993,0.57237446,-0.72611964,0.36475843,0.5828392,0.053498846,-0.8151392,0.5767894,,-0.082695656,0.4583191,-0.35016137,-0.5446751,0.031266626,-0.8380641,-0.7431345,-0.48114473,0.4650278,-0.38869026,0.87608343,0.28530288,,1.12317110102859,0.6191623854580759,0.21567284133000003,0.05556783502339895,0.0028693664950742498,0.9337802647733591,-0.42289778722164906,,-1.4948894024636383,0.30276201960109766,0.17495637243,-0.1893500189665255,-0.002732729995308809,-1.0458732354097662,0.8324013610202873,,-0.0681136557206437,-0.037411132516498455,0.09109365563999999,-0.1076111944439502,,2.6807189e-05,-8.34465e-07,-1.9073486e-06,1.0,-2.6352704e-05,-2.4169683e-05,2.6352704e-05,1.0,-4.3809414e-06,2.4162233e-05,4.351139e-06,1.0,860,2.587,0,0,0.0,False,-0.2594014138754961,1.0074629324798186
2.5869985250756145,19:56:16.655338,19:54:57.091328,0,,0.13540581,0.008981377,0.037979618,-0.6414743,-0.57998204,-0.50212693,-0.44088662,-0.25692812,0.86000407,-0.6277974,0.7730516,-0.09089354,,0.076409966,0.0017048083,0.058118343,0.56903464,0.15649846,0.80728424,-0.79685,0.34735572,0.4943421,-0.20305102,-0.9245822,0.32236326,,0.08369935,1.2899009,0.4270685,0.9923726,0.09961473,-0.07261928,0.024168562,-0.7348702,-0.677777,-0.12088232,0.67085224,-0.7316726,,-0.1286404,0.2720164,-0.098560385,0.6823087,0.45553166,0.5717917,-0.7287331,0.36138657,0.5816767,0.05833432,-0.8135666,0.57853824,,-0.0827128,0.4583023,-0.35016787,-0.54426694,0.031395357,-0.8383244,-0.74334526,-0.48125133,0.46458048,-0.38885906,0.87602025,0.28526676,,1.1249396068567874,0.6192087218553212,0.2155471012,0.05032558643628584,0.007651643986864665,0.9302073531045464,-0.4225710990893804,,-1.4949357388608837,0.3026307331422359,0.17496026130000003,-0.18893063907955643,-0.0028693664950742498,-1.0456801387659291,0.8322380169541527,,-0.0681136557206437,-0.037411132516498455,0.09109365563999999,-0.1076111944439502,,2.6807189e-05,-8.34465e-07,-1.9073486e-06,1.0,-2.6352704e-05,-2.4169683e-05,2.6352704e-05,1.0,-4.3809414e-06,2.4162233e-05,4.351139e-06,1.0,868,2.612,0,0,0.0,False,-0.2590439475643693,1.0069318502712448
2.627371594076976,19:56:16.675495,19:54:57.091328,0,,0.1353256,0.009023368,0.038097695,-0.6376055,-0.58610034,-0.4999456,-0.43831787,-0.25767833,0.861092,-0.6335115,0.768172,-0.09260118,,0.07642552,0.0016960464,0.058117926,0.5688649,0.15665576,0.80737334,-0.79695034,0.34746823,0.49410126,-0.20313278,-0.92451334,0.32250932,,0.08369935,1.2899009,0.4270685,0.9923726,0.09961473,-0.07261928,0.024168562,-0.7348702,-0.677777,-0.12088232,0.67085224,-0.7316726,,-0.12857309,0.27213052,-0.09862812,0.67940456,0.46215266,0.56993365,-0.730902,0.3577116,0.5812268,0.06474364,-0.8114538,0.5808192,,-0.082728244,0.4582943,-0.3501719,-0.5440879,0.03123137,-0.83844674,-0.743451,-0.48114568,0.4645207,-0.3889074,0.87608415,0.28500453,,1.1256964346784615,0.6191546627252016,0.21548487928,0.046131787566595354,0.014073559475840366,0.9266859651737664,-0.4201209380973663,,-1.4949975207238775,0.3025457830806194,0.17496415017000003,-0.18872094913607193,-0.0028693664950742498,-1.0458434962462104,0.8322380169541529,,-0.0681136557206437,-0.037411132516498455,0.09109365563999999,-0.1076111944439502,,2.6807189e-05,-8.34465e-07,-1.9073486e-06,1.0,-2.6352704e-05,-2.4169683e-05,2.6352704e-05,1.0,-4.3809414e-06,2.4162233e-05,4.351139e-06,1.0,883,2.657,0,0,0.0,False,-0.2593418361569748,1.0069318502712448
2.647604997968301,19:56:16.722577,19:54:57.236929,0,,0.13520104,0.009065136,0.038263693,-0.6349063,-0.5881773,-0.50094056,-0.43309003,-0.26598197,0.8612123,-0.6397867,0.76374143,-0.0858601,,0.07646323,0.0016696118,0.058116794,0.5687547,0.15680322,0.8074224,-0.7970785,0.347282,0.49402544,-0.20293847,-0.9245582,0.32250273,,0.08369935,1.2899009,0.4270685,0.9923726,0.09961473,-0.07261928,0.024168562,-0.7348702,-0.677777,-0.12088232,0.67085224,-0.7316726,,-0.12846811,0.27227876,-0.09873683,0.67792565,0.46416113,0.5700625,-0.7314772,0.34870145,0.58595943,0.07319798,-0.8142246,0.57591695,,-0.08276585,0.4582715,-0.35018563,-0.54402024,0.031089483,-0.8384959,-0.74337643,-0.4813193,0.46446007,-0.38914445,0.8759938,0.28495866,,1.1267621718151044,0.6190233762663399,0.21538376866000003,0.04382519818826559,0.022681658961063115,0.9315100545612733,-0.42028428216350056,,-1.4951442526484877,0.30231410109439266,0.17497063162,-0.18872094913607193,-0.0028693664950742498,-1.04576181750607,0.8324013610202873,,-0.0681136557206437,-0.037411132516498455,0.09109365563999999,-0.1076111944439502,,2.6807189e-05,-8.34465e-07,-1.9073486e-06,1.0,-2.6352704e-05,-2.4169683e-05,2.6352704e-05,1.0,-4.3809414e-06,2.4162233e-05,4.351139e-06,1.0,891,2.682,0,0,0.0,False,-0.259580147031059,1.006642169066568
2.6946573050227016,19:56:16.743892,19:54:57.236929,0,,0.13513346,0.009073392,0.038318887,-0.6362623,-0.5888655,-0.49840522,-0.42925698,-0.26657516,0.86294615,-0.6410217,0.76300395,-0.083162874,,0.076495156,0.0016539954,0.05812013,0.56829524,0.15681025,0.80774444,-0.7973243,0.34744608,0.4935131,-0.20325977,-0.9244954,0.32248062,,0.08369935,1.2899009,0.4270685,0.9923726,0.09961473,-0.07261928,0.024168562,-0.7348702,-0.677777,-0.12088232,0.67085224,-0.7316726,,-0.12840773,0.27232486,-0.09878057,0.6797082,0.46489245,0.56733745,-0.7294824,0.3477883,0.58898103,0.07649949,-0.81419796,0.5755254,,-0.08279828,0.4582598,-0.3501949,-0.5435161,0.031075656,-0.8388233,-0.74372035,-0.48116586,0.4640684,-0.3891919,0.8760786,0.28463298,,1.1272255357875578,0.6188611988759811,0.21534228738000002,0.046131787566595354,0.026234207954964565,0.931308587489805,-0.4219177228248433,,-1.495290984573098,0.3021596464369082,0.17497711307000002,-0.18809187930561835,-0.0028693664950742498,-1.04576181750607,0.8324013610202873,,-0.0681136557206437,-0.037411132516498455,0.09109365563999999,-0.1076111944439502,,2.6807189e-05,-8.34465e-07,-1.9073486e-06,1.0,-2.6352704e-05,-2.4169683e-05,2.6352704e-05,1.0,-4.3809414e-06,2.4162233e-05,4.351139e-06,1.0,906,2.727,0,0,0.0,False,-0.2602950796533112,1.0069801304720243
2.715930456062779,19:56:16.789501,19:54:57.236929,0,,0.13511711,0.0090545565,0.038404062,-0.6295125,-0.59847146,-0.49552596,-0.42615664,-0.26732633,0.8642495,-0.6496958,0.75522757,-0.08675727,,0.07653284,0.0016445182,0.058131576,0.5677178,0.1568137,0.8081498,-0.79769593,0.34736124,0.49297196,-0.20341523,-0.9245267,0.32229286,,0.08369935,1.2899009,0.4270685,0.9923726,0.09961473,-0.07261928,0.024168562,-0.7348702,-0.677777,-0.12088232,0.67085224,-0.7316726,,-0.12840387,0.27236995,-0.09885691,0.67437357,0.47533393,0.5650469,-0.73338723,0.3422505,0.5873737,0.08581105,-0.8105074,0.5794085,,-0.08283773,0.45825753,-0.3502039,-0.54293114,0.031075628,-0.83920205,-0.7440084,-0.48124516,0.46352407,-0.3894576,0.87603503,0.28440353,,1.127434049575162,0.6186217941568801,0.21527099143000003,0.03921201943160605,0.03566212643877995,0.9261527930791094,-0.4225710990893803,,-1.4954994983607022,0.302051528176669,0.17498489081000002,-0.18746280947516478,-0.00314263949460513,-1.0455389816986769,0.8324013610202873,,-0.0681136557206437,-0.037411132516498455,0.09109365563999999,-0.1076111944439502,,2.6807189e-05,-8.34465e-07,-1.9073486e-06,1.0,-2.6352704e-05,-2.4169683e-05,2.6352704e-05,1.0,-4.3809414e-06,2.4162233e-05,4.351139e-06,1.0,914,2.751,0,0,0.0,False,-0.2599971910607066,1.0069801304720243
