AlexandreBanks6/ExpertPlaybackApp/resources/Motions/P_09/PC1/Data_PC1_6.csv
Task Time,PC1 Time,PC2 Time,Gaze Calib,s_T_psm1,Tx,Ty,Tz,R00,R01,R02,R10,R11,R12,R20,R21,R22,s_T_psm3,Tx,Ty,Tz,R00,R01,R02,R10,R11,R12,R20,R21,R22,cart_T_ecm,Tx,Ty,Tz,R00,R01,R02,R10,R11,R12,R20,R21,R22,ecm_T_psm1,Tx,Ty,Tz,R00,R01,R02,R10,R11,R12,R20,R21,R22,ecm_T_psm3,Tx,Ty,Tz,R00,R01,R02,R10,R11,R12,R20,R21,R22,psm1_joints,q1,q2,q3,q4,q5,q6,jaw,psm3_joints,q1,q2,q3,q4,q5,q6,jaw,ecm_joints,q1,q2,q3,q4,ecmi_T_ecm,Tx,Ty,Tz,R00,R01,R02,R10,R11,R12,R20,R21,R22,Sample #,Task Duration (s),Collisions (binary),Collisions (increments),Cumulative Collision Time (s),Clutch Press,MTMR Angle,MTML Angle
""
lci_T_si,,,,,-0.0493608,0.027893092,0.20932992,0.98721725,-0.03466899,0.1555641,0.080758385,-0.7326672,-0.6757787,0.13740528,0.6797035,-0.7205019
rci_T_si,,,,,-0.05870397,0.032032646,0.21918625,0.9859643,-0.04950044,0.15944943,0.07462208,-0.7236772,-0.68609244,0.1493518,0.6883611,-0.70982605
ecm_T_lc,,,,,-4.4061628e-05,-0.00034663224,-0.01840835,-0.99912,0.030754527,0.028518902,-0.031987965,-0.99852574,-0.043852776,0.027128186,-0.04472645,0.9986309
ecm_T_rc,,,,,-0.0043358393,0.01870579,-0.007592615,-0.99555075,-0.052743673,-0.078081585,0.04863213,-0.9973746,0.053654674,-0.08070653,0.04961868,0.9955021
cart_T_ecmi,,,,,0.083672695,1.2898984,0.4270709,0.99237174,0.099641204,-0.072594866,0.024204304,-0.7348666,-0.6777796,-0.12088232,0.67085224,-0.7316726
ecmac_T_ecmrep_psm1,,,,,0.023195708,-0.2631036,-0.30022871,0.99664557,0.07921609,0.02055357,-0.078295335,0.99603295,-0.04228661,-0.023821812,0.040535513,0.9988941
ecmac_T_ecmrep_psm3,,,,,0.022281613,-0.4507852,-0.5326207,0.99995744,0.002629678,0.008843231,-0.0032003638,0.99787027,0.06515156,-0.008653069,-0.06517708,0.9978362
""
0,19:54:19.872633,19:53:00.410990,0,,0.12665914,-0.023867026,0.039598152,-0.27877563,-0.69233143,-0.66555345,-0.74279475,-0.28383067,0.6063795,-0.60872006,0.6634134,-0.4351351,,0.12464866,0.008695308,0.02516663,0.8120192,0.39525658,0.4294147,-0.48117962,0.037009805,0.8758404,0.33028913,-0.917825,0.22024208,,0.08366795,1.2899014,0.42706516,0.992371,0.09966275,-0.07257499,0.02423341,-0.7348637,-0.67778176,-0.12088232,0.67085224,-0.7316726,,-0.12260015,0.24948743,-0.12335446,0.29890004,0.57873064,0.7587685,-0.94807214,0.27066818,0.16702698,-0.10871085,-0.7692916,0.6295811,,-0.12360705,0.43236575,-0.31678963,-0.87388664,-0.21359892,-0.4366894,-0.16893311,-0.70888066,0.68479913,-0.45583302,0.67220813,0.5833974,,1.067273960484953,0.5134458951428166,0.19083462864000003,-0.36590895138049495,-0.04809604791743504,0.8925985790897345,0.7533428330112959,,-1.555080382485344,0.1781171110111141,0.22784111556000003,-0.8538574498689832,0.08717408685035101,-1.0162710034649032,-0.14439615446270282,,-0.0681136557206437,-0.037411132516498455,0.0911007994,-0.1076111944439502,,-3.941357e-06,-6.4969063e-06,2.503395e-06,1.0,2.1457672e-05,1.9669533e-05,-2.1457672e-05,1.0,3.516674e-06,-1.9676983e-05,-3.5464764e-06,1.0,35,0.106,0,0,0.0,False,0.9285782934339064,0.013325318229988614
0.11883017281070352,19:54:19.915468,19:53:00.410990,0,,0.1266403,-0.023892857,0.039603844,-0.27616188,-0.6907555,-0.668275,-0.7454064,-0.28499416,0.6026174,-0.6067158,0.6645563,-0.43618903,,0.124475375,0.009224761,0.025354981,0.8107418,0.39865392,0.42868733,-0.48473677,0.046589077,0.87341845,0.32821953,-0.9159173,0.23101392,,0.08366795,1.2899014,0.42706516,0.992371,0.09966275,-0.07257499,0.02423341,-0.7348637,-0.67778176,-0.12088232,0.67085224,-0.7316726,,-0.122584164,0.24947315,-0.12337885,0.29586533,0.57693964,0.7613175,-0.94869375,0.27054816,0.1636579,-0.111552306,-0.7706778,0.62738484,,-0.12345657,0.43287426,-0.31653547,-0.8723492,-0.21700515,-0.43808177,-0.17264812,-0.70160437,0.69133484,-0.45738333,0.6787194,0.5745785,,1.0673589105465695,0.5134536178756908,0.19081259171,-0.36905430053276284,-0.05096541441250929,0.8949383550673594,0.753996209275833,,-1.555281173540074,0.18082006751709268,0.22785018959000003,-0.8494539610558082,0.0844413568550422,-1.0240074516881232,-0.14374277819816572,,-0.0681136557206437,-0.037411132516498455,0.0911007994,-0.1076111944439502,,-3.941357e-06,-6.4969063e-06,2.503395e-06,1.0,2.1457672e-05,1.9669533e-05,-2.1457672e-05,1.0,3.516674e-06,-1.9676983e-05,-3.5464764e-06,1.0,54,0.163,0,0,0.0,False,0.9278037830931329,0.012118313210502052
0.1616041548550129,19:54:19.959384,19:53:00.410990,0,,0.12662572,-0.023883343,0.03962411,-0.2765096,-0.69127977,-0.6675887,-0.74474853,-0.2848971,0.6034759,-0.6073647,0.66405267,-0.4360529,,0.124369815,0.009613875,0.025511563,0.8112683,0.40234745,0.42421722,-0.48524788,0.05859196,0.87241125,0.32615674,-0.9136102,0.24277204,,0.08366795,1.2899014,0.42706516,0.992371,0.09966275,-0.07257499,0.02423341,-0.7348637,-0.67778176,-0.12088232,0.67085224,-0.7316726,,-0.12257163,0.24949442,-0.123389,0.296341,0.5775299,0.76068467,-0.9486464,0.27029234,0.16435313,-0.110688396,-0.7703254,0.6279704,,-0.12337078,0.43325877,-0.31635708,-0.8724921,-0.22070453,-0.43594396,-0.17458585,-0.69247967,0.699994,-0.4563742,0.6868489,0.5656511,,1.067482474272557,0.513461340608565,0.19080092510000002,-0.36863492064579384,-0.050145595413916645,0.8941881689050403,0.7538328652096986,,-1.5556364192522882,0.18272758253702612,0.22786185620000002,-0.8475667515644475,0.08485126635433853,-1.0347965841372044,-0.14472284259497148,,-0.0681136557206437,-0.037411132516498455,0.0911007994,-0.1076111944439502,,-3.941357e-06,-6.4969063e-06,2.503395e-06,1.0,2.1457672e-05,1.9669533e-05,-2.1457672e-05,1.0,3.516674e-06,-1.9676983e-05,-3.5464764e-06,1.0,62,0.188,0,0,0.0,False,0.927922938530175,0.012504554816737734
0.20556055288761854,19:54:19.983915,19:53:00.410990,0,,0.12660865,-0.023878261,0.039633766,-0.27673954,-0.69132227,-0.6674495,-0.74457705,-0.2848189,0.6037244,-0.6074704,0.664042,-0.43592212,,0.124382615,0.009809304,0.02564609,0.808797,0.40734628,0.42416552,-0.4892563,0.06587532,0.8696486,0.32630607,-0.9108949,0.25257653,,0.08366795,1.2899014,0.42706516,0.992371,0.09966275,-0.07257499,0.02423341,-0.7348637,-0.67778176,-0.12088232,0.67085224,-0.7316726,,-0.12255562,0.24950534,-0.123394944,0.29659456,0.5775791,0.76054853,-0.9485858,0.27034345,0.1646189,-0.1105289,-0.77027065,0.6280657,,-0.12340286,0.43348554,-0.31629363,-0.87021524,-0.22590439,-0.43782717,-0.17679459,-0.686302,0.7055021,-0.4598577,0.69134414,0.5572918,,1.0675983152656705,0.5134458951428166,0.19079444365,-0.3684252307023093,-0.050008958914151205,0.8939950722612033,0.7536695211435644,,-1.5560766150261192,0.18373926054354953,0.22787093023000002,-0.844211712468695,0.08102544436090618,-1.04262183401254,-0.14504953072723992,,-0.0681136557206437,-0.037411132516498455,0.0911007994,-0.1076111944439502,,-3.941357e-06,-6.4969063e-06,2.503395e-06,1.0,2.1457672e-05,1.9669533e-05,-2.1457672e-05,1.0,3.516674e-06,-1.9676983e-05,-3.5464764e-06,1.0,73,0.221,0,0,0.0,False,0.9284591379968647,0.01207003300972298
0.2300981928128749,19:54:20.019226,19:53:00.557955,0,,0.12659323,-0.02387628,0.039642915,-0.27658057,-0.6913017,-0.6675367,-0.74461484,-0.28495327,0.60361433,-0.6074964,0.6640057,-0.43594107,,0.12441586,0.009925548,0.02574724,0.80801135,0.41076863,0.42235857,-0.49034563,0.071442544,0.86859494,0.32661718,-0.90893626,0.25914505,,0.08366795,1.2899014,0.42706516,0.992371,0.09966275,-0.07257499,0.02423341,-0.7348637,-0.67778176,-0.12088232,0.67085224,-0.7316726,,-0.12254138,0.24951357,-0.12340239,0.29643792,0.57755345,0.76062906,-0.9486366,0.27022007,0.16452873,-0.11051308,-0.7703331,0.62799186,,-0.12345109,0.43363297,-0.31626564,-0.8695356,-0.22946565,-0.43732518,-0.17717905,-0.68161803,0.7099327,-0.4609939,0.6947966,0.5520347,,1.0676987107930354,0.5134304496770681,0.19078666591000001,-0.36863492064579384,-0.050008958914151205,0.8939950722612033,0.7536695211435644,,-1.5565245335328242,0.1842952973104937,0.22788000426000002,-0.8433729526947569,0.07979571586301723,-1.0486434445313606,-0.14668297138858277,,-0.0681136557206437,-0.037411132516498455,0.0911007994,-0.1076111944439502,,-3.941357e-06,-6.4969063e-06,2.503395e-06,1.0,2.1457672e-05,1.9669533e-05,-2.1457672e-05,1.0,3.516674e-06,-1.9676983e-05,-3.5464764e-06,1.0,85,0.257,0,0,0.0,False,0.9282208271227805,0.011973472608163949
0.2654241358395666,19:54:20.050059,19:53:00.557955,0,,0.1265736,-0.02387707,0.03965415,-0.27642918,-0.6912111,-0.66769314,-0.7446565,-0.28513938,0.60347515,-0.6075143,0.66402024,-0.435894,,0.12446527,0.009984661,0.025806904,0.80738443,0.41445625,0.41994807,-0.49047613,0.075822085,0.8681498,0.32796878,-0.9069052,0.26449856,,0.08366795,1.2899014,0.42706516,0.992371,0.09966275,-0.07257499,0.02423341,-0.7348637,-0.67778176,-0.12088232,0.67085224,-0.7316726,,-0.12252348,0.24952134,-0.12341381,0.29628742,0.57744825,0.7607676,-0.9486844,0.2700912,0.16446486,-0.11050669,-0.7704572,0.62784076,,-0.123509064,0.43371007,-0.31625187,-0.8691793,-0.23333673,-0.43598312,-0.17617941,-0.6776904,0.7139303,-0.46204776,0.6973447,0.54792535,,1.0678145517861488,0.5133995587455712,0.19077499930000003,-0.3688446105892783,-0.050008958914151205,0.8940767510013439,0.7538328652096986,,-1.55686433377929,0.1845501474953431,0.22789944861000003,-0.8440020225252106,0.07856598736512826,-1.0541749826093376,-0.14537621885950847,,-0.0681136557206437,-0.037411132516498455,0.0911007994,-0.1076111944439502,,-3.941357e-06,-6.4969063e-06,2.503395e-06,1.0,2.1457672e-05,1.9669533e-05,-2.1457672e-05,1.0,3.516674e-06,-1.9676983e-05,-3.5464764e-06,1.0,97,0.293,0,0,0.0,False,0.9286378711524277,0.011925192407383989
0.2962609368842095,19:54:20.089382,19:53:00.557955,0,,0.12654123,-0.023894079,0.039660677,-0.27388078,-0.6906099,-0.6693634,-0.74640036,-0.28628403,0.60077286,-0.60652775,0.66415316,-0.4370638,,0.12457921,0.010049079,0.025874019,0.80360305,0.42532128,0.41632202,-0.4945284,0.087959796,0.86469924,0.33115536,-0.9007579,0.2810182,,0.08366795,1.2899014,0.42706516,0.992371,0.09966275,-0.07257499,0.02423341,-0.7348637,-0.67778176,-0.12088232,0.67085224,-0.7316726,,-0.12249355,0.24951454,-0.123434745,0.29351187,0.5767521,0.7623699,-0.9493676,0.26932746,0.16175279,-0.11203588,-0.77124554,0.62660056,,-0.12363163,0.4337882,-0.3162295,-0.8661912,-0.24479622,-0.43564624,-0.17599058,-0.6664983,0.72443587,-0.46769664,0.7041696,0.53423315,,1.0679690064436331,0.5133300541497031,0.19075555495000002,-0.37178026979806167,-0.05151196041157105,0.8952206692018639,0.7536695211435644,,-1.557273638621624,0.18485133407743787,0.22795389279000003,-0.8425341929208188,0.07241734487568344,-1.0703159706394043,-0.14619293919017984,,-0.0681136557206437,-0.037411132516498455,0.0911007994,-0.1076111944439502,,-3.941357e-06,-6.4969063e-06,2.503395e-06,1.0,2.1457672e-05,1.9669533e-05,-2.1457672e-05,1.0,3.516674e-06,-1.9676983e-05,-3.5464764e-06,1.0,108,0.327,0,0,0.0,False,0.9284591379968647,0.011394110198810203
0.3355164818931371,19:54:20.119725,19:53:00.557955,0,,0.12651484,-0.02390913,0.039669797,-0.27388114,-0.6895182,-0.67048776,-0.74718386,-0.28640255,0.5997416,-0.60556215,0.6652354,-0.43675664,,0.12465622,0.010138024,0.025929272,0.7998167,0.43252748,0.41618878,-0.4994008,0.09484315,0.8611641,0.33300447,-0.8966185,0.29186177,,0.08366795,1.2899014,0.42706516,0.992371,0.09966275,-0.07257499,0.02423341,-0.7348637,-0.67778176,-0.12088232,0.67085224,-0.7316726,,-0.12246972,0.24951069,-0.12345532,0.2933306,0.575525,0.76336634,-0.949278,0.269944,0.16124994,-0.1132628,-0.7719464,0.62551606,,-0.12371498,0.43387818,-0.31618637,-0.8629706,-0.25244358,-0.43766883,-0.17733552,-0.65979284,0.7302229,-0.47311085,0.7077751,0.52461463,,1.068092570169621,0.5132837177524578,0.1907361106,-0.3719899597415462,-0.052741688909460016,0.8963867878154128,0.7536695211435643,,-1.5575439342722217,0.18529152985126865,0.22800444810000003,-0.8395985337120354,0.0665419753857695,-1.0797371015649162,-0.1445594985288372,,-0.0681136557206437,-0.037411132516498455,0.0911007994,-0.1076111944439502,,-3.941357e-06,-6.4969063e-06,2.503395e-06,1.0,2.1457672e-05,1.9669533e-05,-2.1457672e-05,1.0,3.516674e-06,-1.9676983e-05,-3.5464764e-06,1.0,126,0.38,0,0,0.0,False,0.9280420939672172,0.012504554816737734
0.3659198200330138,19:54:20.170690,19:53:00.684679,0,,0.12642065,-0.023954503,0.039721623,-0.27159032,-0.6890505,-0.6718989,-0.7485353,-0.28757986,0.59748864,-0.6049244,0.66521215,-0.43767482,,0.12472946,0.010550965,0.026032567,0.7990806,0.4382511,0.4115898,-0.5037184,0.11426428,0.8562777,0.3282346,-0.89156026,0.31206164,,0.08366795,1.2899014,0.42706516,0.992371,0.09966275,-0.07257499,0.02423341,-0.7348637,-0.67778176,-0.12088232,0.67085224,-0.7316726,,-0.12238657,0.24951631,-0.123537,0.29088348,0.57497853,0.76471335,-0.9499051,0.2690542,0.15902862,-0.114311315,-0.77266395,0.62443846,,-0.12379393,0.43421656,-0.31592986,-0.8614777,-0.25843152,-0.43711486,-0.18362868,-0.6440094,0.7426523,-0.47343084,0.72004515,0.50734425,,1.0686563296694391,0.5129670857046146,0.19064148143,-0.374715929006845,-0.05383478090758354,0.8971964523048437,0.7538328652096986,,-1.5582621484295247,0.18692102648773004,0.22817426209000002,-0.8328884555205307,0.0665419753857695,-1.098196496836683,-0.14488618666110575,,-0.0681136557206437,-0.037411132516498455,0.0911007994,-0.1076111944439502,,-3.941357e-06,-6.4969063e-06,2.503395e-06,1.0,2.1457672e-05,1.9669533e-05,-2.1457672e-05,1.0,3.516674e-06,-1.9676983e-05,-3.5464764e-06,1.0,137,0.413,0,0,0.0,False,0.9288166043079906,0.011683791403487298
0.41684399684891105,19:54:20.206923,19:53:00.684679,0,,0.1263464,-0.023977548,0.039742306,-0.2717576,-0.6885972,-0.6722959,-0.74864554,-0.28769788,0.59729373,-0.60471284,0.6656304,-0.43733114,,0.1247718,0.010702211,0.026115477,0.797849,0.4413255,0.41069305,-0.5057619,0.11925274,0.85439086,0.32808822,-0.8893878,0.31835133,,0.08366795,1.2899014,0.42706516,0.992371,0.09966275,-0.07257499,0.02423341,-0.7348637,-0.67778176,-0.12088232,0.67085224,-0.7316726,,-0.12231749,0.24951622,-0.123578236,0.29101366,0.57446784,0.76504755,-0.949835,0.26923868,0.15913521,-0.11456235,-0.77297944,0.6240018,,-0.12384658,0.43437225,-0.31586242,-0.8603027,-0.26170906,-0.43747878,-0.18492414,-0.63950205,0.74621725,-0.4750604,0.7228731,0.501769,,1.0688648434570434,0.5128049083142558,0.19061555563000002,-0.374715929006845,-0.05383478090758354,0.8972781310449842,0.7536695211435643,,-1.5586714532718586,0.18759290424778757,0.22821703966,-0.8310012460291699,0.06476570088881876,-1.1035273995202963,-0.14406946633043416,,-0.0681136557206437,-0.037411132516498455,0.0911007994,-0.1076111944439502,,-3.941357e-06,-6.4969063e-06,2.503395e-06,1.0,2.1457672e-05,1.9669533e-05,-2.1457672e-05,1.0,3.516674e-06,-1.9676983e-05,-3.5464764e-06,1.0,148,0.446,0,0,0.0,False,0.9279825162486963,0.012166593411281124
0.45302942697890103,19:54:20.237909,19:53:00.684679,0,,0.1262702,-0.024003074,0.039745256,-0.2705035,-0.6885872,-0.67281175,-0.7491477,-0.28837895,0.5963349,-0.6046533,0.665346,-0.43784598,,0.12486745,0.010961268,0.026271224,0.79680353,0.44909424,0.4042505,-0.5076901,0.13480791,0.8509275,0.3276505,-0.8832561,0.33541614,,0.08366795,1.2899014,0.42706516,0.992371,0.09966275,-0.07257499,0.02423341,-0.7348637,-0.67778176,-0.12088232,0.67085224,-0.7316726,,-0.122244395,0.24950224,-0.12360868,0.28972864,0.5744441,0.76555294,-0.9502031,0.26854756,0.15810208,-0.11476656,-0.77323747,0.6236445,,-0.12396207,0.43464622,-0.31575236,-0.859252,-0.27002344,-0.43448058,-0.18638426,-0.6257019,0.75746816,-0.4763895,0.7318364,0.4873075,,1.0691660300391381,0.5124882762664127,0.19058703725,-0.3761837586112367,-0.05383478090758354,0.8972781310449842,0.7536695211435643,,-1.559544122086646,0.188674086850179,0.22829740964000003,-0.8289043465943249,0.06339933589116437,-1.1204642220543963,-0.1439061222643001,,-0.0681136557206437,-0.037411132516498455,0.0911007994,-0.1076111944439502,,-3.941357e-06,-6.4969063e-06,2.503395e-06,1.0,2.1457672e-05,1.9669533e-05,-2.1457672e-05,1.0,3.516674e-06,-1.9676983e-05,-3.5464764e-06,1.0,159,0.479,0,0,0.0,False,0.927922938530175,0.011876912206604917
0.4840518678538501,19:54:20.277377,19:53:00.684679,0,,0.12616694,-0.024045683,0.039736077,-0.26928577,-0.6884671,-0.67342293,-0.74973035,-0.28903025,0.5952864,-0.60447466,0.6651877,-0.43833292,,0.1249946,0.011078451,0.026349247,0.7955342,0.45296428,0.40242848,-0.5106721,0.1437906,0.8476664,0.32609713,-0.8798566,0.34570658,,0.08366795,1.2899014,0.42706516,0.992371,0.09966275,-0.07257499,0.02423341,-0.7348637,-0.67778176,-0.12088232,0.67085224,-0.7316726,,-0.12214424,0.24946846,-0.12364597,0.2884584,0.57429755,0.76614237,-0.9505472,0.26796055,0.15702598,-0.11511629,-0.7735499,0.62319237,,-0.12409806,0.43476543,-0.31569514,-0.8578026,-0.27419326,-0.43473288,-0.18933864,-0.61776215,0.7632305,-0.4778342,0.73701286,0.4780026,,1.0695212757513524,0.5119940213624623,0.19055333371000002,-0.3776515882156284,-0.05383478090758354,0.8972781310449842,0.7536695211435643,,-1.5602082771138293,0.18902933256239332,0.22838166849000002,-0.8253396175550878,0.06244288039280628,-1.1298941392460917,-0.14472284259497115,,-0.0681136557206437,-0.037411132516498455,0.0911007994,-0.1076111944439502,,-3.941357e-06,-6.4969063e-06,2.503395e-06,1.0,2.1457672e-05,1.9669533e-05,-2.1457672e-05,1.0,3.516674e-06,-1.9676983e-05,-3.5464764e-06,1.0,170,0.511,0,0,0.0,False,0.9287570265894698,0.012359714214399187
0.5235761278308928,19:54:20.298306,19:53:00.852309,0,,NaN,NaN,NaN,NaN,NaN,NaN,NaN,NaN,NaN,NaN,NaN,NaN,,NaN,NaN,NaN,NaN,NaN,NaN,NaN,NaN,NaN,NaN,NaN,NaN,,NaN,NaN,NaN,NaN,NaN,NaN,NaN,NaN,NaN,NaN,NaN,NaN,,-0.12208085,0.24944079,-0.1236694,0.28752813,0.57429546,0.7664935,-0.9507983,0.2675511,0.15620205,-0.11537004,-0.77369314,0.6229676,,-0.1242611,0.43482435,-0.31562957,-0.85995126,-0.2792778,-0.4271859,-0.18753403,-0.6055447,0.7733994,-0.47467342,0.74519765,0.46836478,,1.0697220668060823,0.5116542211159965,0.19053259307,-0.378700037933051,-0.05383478090758354,0.8971964523048437,0.7541595533419673,,-1.5609728276683774,0.18901388709664488,0.22850351975000002,-0.8278558968769022,0.06626870238623862,-1.1450206153502542,-0.1452128747933743,,-0.0681136557206437,-0.037411132516498455,0.0911007994,-0.1076111944439502,,NaN,NaN,NaN,NaN,NaN,NaN,NaN,NaN,NaN,NaN,NaN,NaN,181,0.544,0,0,0.0,False,0.9293528037746799,0.012504554816737734
0.5444540239404887,19:54:20.339439,19:53:00.852309,0,,0.12605314,-0.024109863,0.03971596,-0.26791346,-0.68804383,-0.67440206,-0.75068974,-0.2896803,0.5937595,-0.6038935,0.6653428,-0.43889818,,0.12533422,0.011185963,0.026431859,0.79881537,0.4630677,0.38400823,-0.5040297,0.16671792,0.84744275,0.32840228,-0.8705019,0.3665767,,0.08366795,1.2899014,0.42706516,0.992371,0.09966275,-0.07257499,0.02423341,-0.7348637,-0.67778176,-0.12088232,0.67085224,-0.7316726,,-0.12203385,0.24941182,-0.123691596,0.28695592,0.57381105,0.76707053,-0.9508958,0.2675785,0.15556021,-0.115989424,-0.774043,0.62241775,,-0.12444378,0.43485555,-0.31561714,-0.8612583,-0.28518566,-0.42059863,-0.18367477,-0.59701914,0.7809172,-0.47381184,0.7498248,0.46180633,,1.0698456305320698,0.5113839254653986,0.19051314872000003,-0.37932910776350454,-0.054244690406879854,0.8976123847560735,0.7543228974081017,,-1.5617373782229258,0.1888362642405377,0.22859555634000003,-0.831840005803108,0.06736179438436214,-1.1562034798375365,-0.14227268160295714,,-0.0681136557206437,-0.037411132516498455,0.0911007994,-0.1076111944439502,,-3.941357e-06,-6.4969063e-06,2.503395e-06,1.0,2.1457672e-05,1.9669533e-05,-2.1457672e-05,1.0,3.516674e-06,-1.9676983e-05,-3.5464764e-06,1.0,192,0.577,0,0,0.0,False,0.9292336483376378,0.01308391722609148
0.5856266189366579,19:54:20.369472,19:53:00.852309,0,,0.12602875,-0.024132863,0.03971474,-0.26654345,-0.6880268,-0.6749621,-0.75117624,-0.29048622,0.5927495,-0.6038947,0.66500896,-0.43940216,,0.1254623,0.011229027,0.026476324,0.80093414,0.46987745,0.3711061,-0.49818754,0.17916349,0.8483571,0.33213517,-0.86435854,0.37758532,,0.08366795,1.2899014,0.42706516,0.992371,0.09966275,-0.07257499,0.02423341,-0.7348637,-0.67778176,-0.12088232,0.67085224,-0.7316726,,-0.12201127,0.24939507,-0.12370988,0.2855652,0.5737775,0.7676144,-0.95129806,0.2667623,0.1544987,-0.11612269,-0.7743496,0.6220114,,-0.124576576,0.43490112,-0.3155943,-0.8638667,-0.29265463,-0.40998492,-0.17732699,-0.5851283,0.7913154,-0.4714759,0.75629234,0.45357725,,1.0698919669293152,0.5112294708079141,0.19049629695000003,-0.3807969373678962,-0.054244690406879854,0.8979390997166358,0.7546495855403701,,-1.5623783650514864,0.18878992784329238,0.22866944487000002,-0.8387597739380974,0.06954797838060918,-1.1717081946402934,-0.1432527459997628,,-0.0681136557206437,-0.037411132516498455,0.0911007994,-0.1076111944439502,,-3.941357e-06,-6.4969063e-06,2.503395e-06,1.0,2.1457672e-05,1.9669533e-05,-2.1457672e-05,1.0,3.516674e-06,-1.9676983e-05,-3.5464764e-06,1.0,200,0.6,0,0,0.0,False,0.9296506923672849,0.013228757828429583
0.6156710938084871,19:54:20.398513,19:53:00.852309,0,,0.12602018,-0.024146363,0.039722517,-0.26656893,-0.6879524,-0.67502785,-0.75127447,-0.2904188,0.5926581,-0.6037613,0.66511536,-0.43942446,,0.12561183,0.011195648,0.026536882,0.7956073,0.48001206,0.36959097,-0.49949303,0.17454344,0.84855247,0.34280574,-0.8597226,0.37863073,,0.08366795,1.2899014,0.42706516,0.992371,0.09966275,-0.07257499,0.02423341,-0.7348637,-0.67778176,-0.12088232,0.67085224,-0.7316726,,-0.12200477,0.24939084,-0.1237259,0.28556606,0.5736953,0.7676756,-0.9512775,0.26688167,0.15441914,-0.11628901,-0.77436936,0.62195575,,-0.12473581,0.43490598,-0.3156364,-0.86069167,-0.3036166,-0.4086892,-0.16956851,-0.5859465,0.7924097,-0.48005876,0.75132126,0.45283547,,1.0699074123950636,0.511190857143543,0.19048074147000002,-0.3807969373678962,-0.0543813269066453,0.8979688388801916,0.7548129296065044,,-1.5627181652979523,0.18875903691179546,0.2287044447,-0.844211712468695,0.05916360439843572,-1.173450276476936,-0.14210933753682276,,-0.0681136557206437,-0.037411132516498455,0.0911007994,-0.1076111944439502,,-3.941357e-06,-6.4969063e-06,2.503395e-06,1.0,2.1457672e-05,1.9669533e-05,-2.1457672e-05,1.0,3.516674e-06,-1.9676983e-05,-3.5464764e-06,1.0,211,0.633,0,0,0.0,False,0.929471959211722,0.012359714214399187
0.6447116888593882,19:54:20.430304,19:53:00.852309,0,,0.12601767,-0.024161845,0.03972836,-0.2648436,-0.6878168,-0.67584467,-0.75221956,-0.29116204,0.59109247,-0.6033436,0.66493064,-0.44027683,,0.12579414,0.011131544,0.026587784,0.7856766,0.49642056,0.36915976,-0.5024932,0.16402414,0.84887964,0.36085016,-0.85244524,0.3783179,,0.08366795,1.2899014,0.42706516,0.992371,0.09966275,-0.07257499,0.02423341,-0.7348637,-0.67778176,-0.12088232,0.67085224,-0.7316726,,-0.12200419,0.24938363,-0.12374098,0.2837364,0.57352996,0.7684771,-0.9517396,0.2662091,0.15272322,-0.11698424,-0.77472323,0.6213844,,-0.12492631,0.4348795,-0.3156907,-0.8544406,-0.3214131,-0.40819702,-0.15685372,-0.58943164,0.7924439,-0.49530604,0.7411235,0.4532195,,1.0698996896621893,0.5111831344106688,0.19046648228000002,-0.38268414685925695,-0.0550645094054725,0.8985259283986737,0.7548129296065044,,-1.5628494517568141,0.18876675964466968,0.22874981485,-0.8528090001515605,0.04030776743080493,-1.1736752451336772,-0.1439061222643001,,-0.0681136557206437,-0.037411132516498455,0.0911007994,-0.1076111944439502,,-3.941357e-06,-6.4969063e-06,2.503395e-06,1.0,2.1457672e-05,1.9669533e-05,-2.1457672e-05,1.0,3.516674e-06,-1.9676983e-05,-3.5464764e-06,1.0,222,0.667,0,0,0.0,False,0.9298294255228479,0.012890796422973416
0.6765065710060298,19:54:20.461489,19:53:01.017546,0,,0.12601683,-0.024168022,0.03973855,-0.26527733,-0.6875305,-0.6759658,-0.75224924,-0.29096147,0.5911535,-0.6031161,0.6653143,-0.44000882,,0.12603235,0.010972891,0.026640177,0.7637757,0.5337142,0.36303705,-0.51193064,0.15829045,0.84431696,0.39315864,-0.8307185,0.3941231,,0.08366795,1.2899014,0.42706516,0.992371,0.09966275,-0.07257499,0.02423341,-0.7348637,-0.67778176,-0.12088232,0.67085224,-0.7316726,,-0.12200513,0.24938613,-0.12375263,0.284134,0.5732125,0.768567,-0.9515907,0.26660788,0.15295519,-0.117230214,-0.77482104,0.62121606,,-0.12517478,0.43478528,-0.3158092,-0.83932656,-0.36229303,-0.40530813,-0.13624223,-0.5815841,0.80199623,-0.5262784,0.72835684,0.43877938,,1.0699074123950636,0.5112063026092915,0.19045481567000003,-0.3822647669722879,-0.05533778240500338,0.8987487642060665,0.7548129296065044,,-1.5624787605788513,0.18882854150766348,0.22878870355000003,-0.8649710168736631,0.0010930919981235235,-1.1916856957388282,-0.14292605786749446,,-0.0681136557206437,-0.037411132516498455,0.0911007994,-0.1076111944439502,,-3.941357e-06,-6.4969063e-06,2.503395e-06,1.0,2.1457672e-05,1.9669533e-05,-2.1457672e-05,1.0,3.516674e-06,-1.9676983e-05,-3.5464764e-06,1.0,233,0.7,0,0,0.0,False,0.9294123814932012,0.013470158832327161
0.707691163988784,19:54:20.493642,19:53:01.017546,0,,0.12601417,-0.02417595,0.039751902,-0.26428062,-0.6876817,-0.6762024,-0.7525343,-0.29147562,0.5905372,-0.6031982,0.66493297,-0.4404727,,0.12609297,0.010898028,0.026565969,0.7522365,0.55897266,0.34884065,-0.5152193,0.16898715,0.84023356,0.41071796,-0.81178385,0.41511184,,0.08366795,1.2899014,0.42706516,0.992371,0.09966275,-0.07257499,0.02423341,-0.7348637,-0.67778176,-0.12088232,0.67085224,-0.7316726,,-0.12200479,0.24938957,-0.123768,0.28313774,0.5733729,0.76881504,-0.9518887,0.26597756,0.15219693,-0.117221944,-0.774919,0.6210955,,-0.12522252,0.43467343,-0.31580943,-0.83141387,-0.39033774,-0.3954585,-0.123879746,-0.5635754,0.8167231,-0.5416685,0.72802424,0.42020944,,1.069922857860812,0.5112140253421656,0.19043407503,-0.38352290663319505,-0.05547441890476882,0.8989418608499036,0.7549762736726388,,-1.5617451009557999,0.18886715517203462,0.22883925886000003,-0.8727295447825902,-0.01871920046786534,-1.2173496146548148,-0.143252745999763,,-0.0681136557206437,-0.037411132516498455,0.0911007994,-0.1076111944439502,,-3.941357e-06,-6.4969063e-06,2.503395e-06,1.0,2.1457672e-05,1.9669533e-05,-2.1457672e-05,1.0,3.516674e-06,-1.9676983e-05,-3.5464764e-06,1.0,251,0.753,0,0,0.0,False,0.9298890032413691,0.013808120237783328
0.7398407228756696,19:54:20.542341,19:53:01.017546,0,,0.12601185,-0.0241839,0.03975992,-0.26415342,-0.68738747,-0.6765511,-0.75280666,-0.29155436,0.59015095,-0.60291386,0.6652026,-0.44045484,,0.12608364,0.010847282,0.026510775,0.7451247,0.57523966,0.33747357,-0.5158675,0.17641154,0.8383076,0.42269355,-0.79873544,0.42819622,,0.08366778,1.2899022,0.42706782,0.99237174,0.09964037,-0.07259563,0.024203187,-0.73486674,-0.67777956,-0.12088232,0.67085224,-0.7316726,,-0.12200061,0.24939042,-0.12377541,0.28293175,0.5730317,0.7691452,-0.9519038,0.26607892,0.15192473,-0.11759563,-0.77513653,0.6207532,,-0.12520075,0.43460056,-0.31581035,-0.82672715,-0.4085417,-0.38680214,-0.11448124,-0.55097806,0.82663006,-0.55083233,0.7276791,0.40873817,,1.069961471525183,0.5112063026092915,0.19041722326000002,-0.38352290663319505,-0.0557476919042997,0.8991646966572965,0.7549762736726388,,-1.5610886686614909,0.1889598279665253,0.22886777724000001,-0.8794396229740951,-0.03156303144581674,-1.2348921395755643,-0.14308940193362862,,-0.0681136557206437,-0.037411132516498455,0.0911007994,-0.1076111944439502,,-4.4181943e-06,-5.3048134e-06,0.0,1.0,-8.34465e-07,-7.599592e-07,8.2701445e-07,1.0,-1.4901161e-07,7.5250864e-07,1.1920929e-07,1.0,262,0.786,0,0,0.0,False,0.9297698478043275,0.014242642044798082
0.7884886448737234,19:54:20.577742,19:53:01.017546,0,,0.1260008,-0.02420628,0.039788708,-0.26316738,-0.6875146,-0.6768061,-0.7530963,-0.29207206,0.5895251,-0.60298336,0.6648439,-0.44090092,,0.12604734,0.010832544,0.026462972,0.7409359,0.5869385,0.32636955,-0.51561004,0.18578774,0.8364384,0.43030244,-0.7880267,0.44028834,,0.08366778,1.2899022,0.42706782,0.99237174,0.09964037,-0.07259563,0.024203187,-0.73486674,-0.67777956,-0.12088232,0.67085224,-0.7316726,,-0.12199503,0.2493942,-0.12381293,0.2819441,0.57316524,0.76940835,-0.9521962,0.2654607,0.15117233,-0.11760096,-0.7752498,0.6206108,,-0.12515655,0.4345598,-0.3157963,-0.8240441,-0.42176354,-0.37824178,-0.10812265,-0.5382955,0.83579147,-0.55611223,0.7296255,0.39797708,,1.0700000851895544,0.511190857143543,0.19037963085,-0.3845713563506177,-0.0557476919042997,0.8992463753974369,0.7551396177387729,,-1.5605558000931694,0.18910655989113556,0.22887036982000003,-0.8842624916742392,-0.03935131193244685,-1.251329687564085,-0.1406392409416144,,-0.0681136557206437,-0.037411132516498455,0.0911007994,-0.1076111944439502,,-4.4181943e-06,-5.3048134e-06,0.0,1.0,-8.34465e-07,-7.599592e-07,8.2701445e-07,1.0,-1.4901161e-07,7.5250864e-07,1.1920929e-07,1.0,273,0.819,0,0,0.0,False,0.9298294255228479,0.013663279635444336
0.8239438359159976,19:54:20.612068,19:53:01.017546,0,,0.12599733,-0.024217613,0.039804384,-0.26320398,-0.6871949,-0.67711645,-0.7532455,-0.2921508,0.5892955,-0.6027811,0.6651399,-0.4407312,,0.12600917,0.010829981,0.026426196,0.7355708,0.5976331,0.31901446,-0.51742584,0.19167244,0.83398575,0.43727118,-0.7785219,0.45021963,,0.08366778,1.2899022,0.42706782,0.99237174,0.09964037,-0.07259563,0.024203187,-0.73486674,-0.67777956,-0.12088232,0.67085224,-0.7316726,,-0.121994436,0.24939676,-0.12383239,0.28194335,0.5728052,0.7696766,-0.95216525,0.2655948,0.15113172,-0.11785307,-0.7754699,0.6202879,,-0.12511222,0.43453538,-0.31578025,-0.82014805,-0.43387768,-0.37297094,-0.10345399,-0.5286732,0.84249747,-0.56272054,0.729558,0.38870388,,1.0700155306553027,0.5112063026092915,0.19036018650000003,-0.3845713563506177,-0.05602096490383058,0.899632568685111,0.7554663058710417,,-1.5600152087919736,0.18935368734311075,0.22887166611,-0.886988460939538,-0.04850595741673135,-1.263957658091003,-0.14488618666110575,,-0.0681136557206437,-0.037411132516498455,0.0911007994,-0.1076111944439502,,-4.4181943e-06,-5.3048134e-06,0.0,1.0,-8.34465e-07,-7.599592e-07,8.2701445e-07,1.0,-1.4901161e-07,7.5250864e-07,1.1920929e-07,1.0,284,0.851,0,0,0.0,False,0.9303060472710167,0.013904680639341915
0.8582696099765599,19:54:20.642618,19:53:01.168526,0,,0.12599841,-0.024227403,0.039813504,-0.2626118,-0.6872301,-0.67731065,-0.75350296,-0.29240435,0.58884037,-0.60271746,0.66499203,-0.4410411,,0.12599841,0.010793712,0.026417673,0.71948373,0.6166268,0.3195536,-0.5220472,0.17671284,0.8344096,0.45805007,-0.7671662,0.4490505,,0.08366778,1.2899022,0.42706782,0.99237174,0.09964037,-0.07259563,0.024203187,-0.73486674,-0.67777956,-0.12088232,0.67085224,-0.7316726,,-0.1219974,0.24939583,-0.12384546,0.28133053,0.5728403,0.76987475,-0.95232964,0.26531014,0.15059471,-0.11798887,-0.7755414,0.6201726,,-0.12510113,0.43450662,-0.31580377,-0.8084193,-0.45511568,-0.37326664,-0.089003086,-0.53234327,0.84183675,-0.5818391,0.7137789,0.38984984,,1.0700000851895544,0.5112140253421656,0.19034722360000003,-0.38520042618107125,-0.056157601403596026,0.8997439865888074,0.7554663058710417,,-1.5590730353813183,0.18987883317855803,0.22886777724000001,-0.8955857486224035,-0.07487680187146135,-1.2623019365317503,-0.14276271380136007,,-0.0681136557206437,-0.037411132516498455,0.0911007994,-0.1076111944439502,,-4.4181943e-06,-5.3048134e-06,0.0,1.0,-8.34465e-07,-7.599592e-07,8.2701445e-07,1.0,-1.4901161e-07,7.5250864e-07,1.1920929e-07,1.0,295,0.884,0,0,0.0,False,0.9296506923672849,0.01419436184401901
0.8887704450171441,19:54:20.678953,19:53:01.168526,0,,0.12599179,-0.02423326,0.039819494,-0.2616384,-0.6872573,-0.67765963,-0.7538751,-0.29290307,0.5881158,-0.60267556,0.66474444,-0.44147155,,0.12598258,0.0107518695,0.026417255,0.7010711,0.6390873,0.31633332,-0.52822727,0.16742375,0.83243334,0.47903585,-0.7506908,0.45495948,,0.08366778,1.2899022,0.42706782,0.99237174,0.09964037,-0.07259563,0.024203187,-0.73486674,-0.67777956,-0.12088232,0.67085224,-0.7316726,,-0.12199205,0.2493959,-0.1238547,0.28033495,0.5728621,0.7702216,-0.9526054,0.26477832,0.14978431,-0.11813222,-0.77570707,0.6199382,,-0.12508678,0.43448085,-0.31583744,-0.7944938,-0.48055202,-0.37128073,-0.07513183,-0.52891004,0.84534574,-0.6026067,0.6995169,0.384111,,1.0700309761210511,0.5111985798764171,0.19033814957000003,-0.3862488758984939,-0.056294237903361466,0.8999370832326443,0.7553029618049074,,-1.5580536346419207,0.19045031541125063,0.22886129579000003,-0.9029248966443619,-0.10370710332196931,-1.2686871777432511,-0.1411292731400171,,-0.0681136557206437,-0.037411132516498455,0.0911007994,-0.1076111944439502,,-4.4181943e-06,-5.3048134e-06,0.0,1.0,-8.34465e-07,-7.599592e-07,8.2701445e-07,1.0,-1.4901161e-07,7.5250864e-07,1.1920929e-07,1.0,306,0.917,0,0,0.0,False,0.9297698478043275,0.013759840037003368
0.9251296129077673,19:54:20.706037,19:53:01.168526,0,,0.12598684,-0.024234854,0.039824232,-0.26166627,-0.6870808,-0.6778279,-0.75394654,-0.29295063,0.5880005,-0.60257405,0.6649059,-0.4413669,,0.12588614,0.010748353,0.026379466,0.68312,0.66254795,0.3072087,-0.53361857,0.16563791,0.8293463,0.4985963,-0.7304754,0.4666986,,0.08366778,1.2899022,0.42706782,0.99237174,0.09964037,-0.07259563,0.024203187,-0.73486674,-0.67777956,-0.12088232,0.67085224,-0.7316726,,-0.12198789,0.24939813,-0.12385988,0.28034425,0.57266337,0.770366,-0.9525871,0.26484802,0.14977759,-0.11825777,-0.77583003,0.61976033,,-0.12498509,0.43446222,-0.31583002,-0.78072864,-0.5074498,-0.36463332,-0.061863832,-0.51789796,0.8532025,-0.62180036,0.68867725,0.37294495,,1.0700618670525481,0.5111985798764171,0.19033296441000003,-0.3862488758984939,-0.056430874403126906,0.9001301798764814,0.7551396177387731,,-1.5567021563889314,0.1912303114315473,0.22885092547000002,-0.9100543547228357,-0.13144431277435373,-1.2832331700568336,-0.1425993697352259,,-0.0681136557206437,-0.037411132516498455,0.0911007994,-0.1076111944439502,,-4.4181943e-06,-5.3048134e-06,0.0,1.0,-8.34465e-07,-7.599592e-07,8.2701445e-07,1.0,-1.4901161e-07,7.5250864e-07,1.1920929e-07,1.0,317,0.95,0,0,0.0,False,0.9303656249895376,0.01448404304869566
0.952223883010447,19:54:20.737443,19:53:01.168526,0,,0.12598576,-0.02423837,0.03982459,-0.26088056,-0.6870312,-0.6781809,-0.75426507,-0.29339355,0.58737075,-0.60251594,0.66476184,-0.44166306,,0.1256109,0.01086181,0.026249945,0.6753127,0.67592806,0.29508334,-0.5313934,0.16847602,0.83020294,0.5114429,-0.7174519,0.47295785,,0.08366778,1.2899022,0.42706782,0.99237174,0.09964037,-0.07259563,0.024203187,-0.73486674,-0.67777956,-0.12088232,0.67085224,-0.7316726,,-0.12198711,0.24939586,-0.123862706,0.27953622,0.57260007,0.7707066,-0.9528065,0.26442507,0.14912821,-0.11840332,-0.776021,0.6194934,,-0.12468705,0.4344739,-0.31570175,-0.7754231,-0.5229559,-0.35388726,-0.049865168,-0.50797796,0.8599255,-0.62947,0.6844527,0.36782056,,1.0700618670525481,0.511190857143543,0.19033037183,-0.38708763567243193,-0.056567510902892346,0.9004049552604589,0.7554663058710417,,-1.5549259278278598,0.19234238496543563,0.22882629596,-0.9199097820666083,-0.14551787225019408,-1.2947905306957406,-0.14227268160295736,,-0.0681136557206437,-0.037411132516498455,0.0911007994,-0.1076111944439502,,-4.4181943e-06,-5.3048134e-06,0.0,1.0,-8.34465e-07,-7.599592e-07,8.2701445e-07,1.0,-1.4901161e-07,7.5250864e-07,1.1920929e-07,1.0,328,0.982,0,0,0.0,False,0.9306635135821426,0.014773724253372311
0.9836167749017477,19:54:20.777303,19:53:01.168526,0,,0.12598296,-0.024239928,0.039829716,-0.2603029,-0.68682206,-0.6786145,-0.7545091,-0.29385686,0.5868255,-0.60246027,0.6647733,-0.4417218,,0.12496684,0.0110773705,0.02602321,0.678045,0.6760728,0.28841063,-0.52604616,0.17230266,0.83281887,0.51335216,-0.716406,0.47247452,,0.08366778,1.2899022,0.42706782,0.99237174,0.09964037,-0.07259563,0.024203187,-0.73486674,-0.67777956,-0.12088232,0.67085224,-0.7316726,,-0.121985115,0.24939832,-0.12386784,0.27893975,0.57235754,0.7711027,-0.952966,0.26408812,0.14870556,-0.118526325,-0.77631456,0.61910194,,-0.124005586,0.4345254,-0.31548822,-0.7783042,-0.52318,-0.34716752,-0.045276813,-0.50471014,0.8621007,-0.62625283,0.6866953,0.3691301,,1.0700850352511708,0.5111985798764171,0.19032518667,-0.38771670550288556,-0.05670414740265779,0.9008430881247175,0.7561196821355786,,-1.5522615849862522,0.19401821799914235,0.22866425971,-0.9257811004841751,-0.14565450874995953,-1.2977829049173857,-0.14194599347068837,,-0.0681136557206437,-0.037411132516498455,0.0911007994,-0.1076111944439502,,-4.4181943e-06,-5.3048134e-06,0.0,1.0,-8.34465e-07,-7.599592e-07,8.2701445e-07,1.0,-1.4901161e-07,7.5250864e-07,1.1920929e-07,1.0,340,1.019,0,0,0.0,False,0.9311401353303106,0.01419436184401901
1.0234827250242233,19:54:20.813116,19:53:01.334149,0,,0.12597921,-0.024242096,0.03982903,-0.25952354,-0.6867596,-0.67897624,-0.7548262,-0.29430404,0.5861932,-0.60239935,0.66464,-0.4420053,,0.12448546,0.011253368,0.02586013,0.680828,0.6748005,0.28481132,-0.52231383,0.17469305,0.834668,0.5134799,-0.71702623,0.47139364,,0.08366778,1.2899022,0.42706782,0.99237174,0.09964037,-0.07259563,0.024203187,-0.73486674,-0.67777956,-0.12088232,0.67085224,-0.7316726,,-0.121981494,0.24939641,-0.12386938,0.27813774,0.57227975,0.7714501,-0.953182,0.26366895,0.14806335,-0.11867378,-0.77651435,0.61882305,,-0.12349698,0.4345784,-0.3153214,-0.78094745,-0.5217421,-0.3433748,-0.043080624,-0.5034505,0.8629494,-0.6231093,0.6887109,0.37069142,,1.0701004807169192,0.5111831344106688,0.19032389038000003,-0.3885554652768236,-0.056840783902423225,0.901117863508695,0.7567730584001158,,-1.5503077335690734,0.19533108258776052,0.22854500103000003,-0.9293458295234119,-0.144561416751836,-1.2987559268870976,-0.1417826494045542,,-0.0681136557206437,-0.037411132516498455,0.0911007994,-0.1076111944439502,,-4.4181943e-06,-5.3048134e-06,0.0,1.0,-8.34465e-07,-7.599592e-07,8.2701445e-07,1.0,-1.4901161e-07,7.5250864e-07,1.1920929e-07,1.0,348,1.044,0,0,0.0,False,0.9305443581451005,0.015111685658828478
1.0593174889218062,19:54:20.838267,19:53:01.334149,0,,0.12597628,-0.024243288,0.039830968,-0.25912875,-0.6868309,-0.6790548,-0.75494146,-0.29449123,0.58595085,-0.6024249,0.66448337,-0.44220603,,0.12402984,0.011384424,0.025710702,0.6828489,0.67575955,0.2776084,-0.5161554,0.17733884,0.83793473,0.5170115,-0.71547186,0.4698927,,0.08366778,1.2899022,0.42706782,0.99237174,0.09964037,-0.07259563,0.024203187,-0.73486674,-0.67777956,-0.12088232,0.67085224,-0.7316726,,-0.121978916,0.24939695,-0.12387198,0.27774206,0.5723566,0.77153563,-0.95329696,0.26342785,0.14775209,-0.1186771,-0.77653956,0.6187908,,-0.12301761,0.43460897,-0.3151935,-0.7834121,-0.52289706,-0.33592287,-0.036663633,-0.50067717,0.8648573,-0.6204202,0.6898558,0.37306526,,1.0701159261826676,0.5111754116777946,0.1903212978,-0.38897484516379266,-0.056840783902423225,0.9011178635086952,0.7561196821355787,,-1.54840021854914,0.1964508788545231,0.22841537203000004,-0.9368946674888549,-0.14483468975136687,-1.3011468107642028,-0.14112927314001733,,-0.0681136557206437,-0.037411132516498455,0.0911007994,-0.1076111944439502,,-4.4181943e-06,-5.3048134e-06,0.0,1.0,-8.34465e-07,-7.599592e-07,8.2701445e-07,1.0,-1.4901161e-07,7.5250864e-07,1.1920929e-07,1.0,389,1.17,0,0,0.0,False,0.9305443581451005,0.015449647064285088
1.0844548388849944,19:54:20.957200,19:53:01.475257,0,,0.12597069,-0.024257965,0.039842144,-0.25762683,-0.6864789,-0.6799815,-0.75587916,-0.2951868,0.58438975,-0.60189295,0.66453844,-0.44284713,,0.12388903,0.011247944,0.025971293,0.6025987,0.75825316,0.24885137,-0.52440053,0.14117432,0.8396868,0.6015637,-0.636492,0.48269996,,0.08366778,1.2899022,0.42706782,0.99237174,0.09964037,-0.07259563,0.024203187,-0.73486674,-0.67777956,-0.12088232,0.67085224,-0.7316726,,-0.12197592,0.2493941,-0.1238908,0.27611923,0.5719501,0.7724191,-0.9536678,0.26294664,0.1462078,-0.11948145,-0.77700204,0.618055,,-0.122932695,0.43473125,-0.31548366,-0.72085065,-0.6198683,-0.31006083,0.030877281,-0.47563696,0.8790996,-0.6924023,0.62412566,0.36200303,,1.0701390943812903,0.5111831344106688,0.19030314974,-0.39065236471166886,-0.05766060290101587,0.9018680496710142,0.7562830262017131,,-1.5447628113653802,0.19880631238116156,0.22829870593,-0.9800907958466668,-0.25837962105644785,-1.3218469453674364,-0.1412926172061515,,-0.0681136557206437,-0.037411132516498455,0.0911007994,-0.1076111944439502,,-4.4181943e-06,-5.3048134e-06,0.0,1.0,-8.34465e-07,-7.599592e-07,8.2701445e-07,1.0,-1.4901161e-07,7.5250864e-07,1.1920929e-07,1.0,393,1.182,0,0,0.0,False,0.9304252027080584,0.01515996585960755
1.2033621228765696,19:54:20.979897,19:53:01.475257,0,,0.12596658,-0.024265945,0.03985016,-0.25664532,-0.68646026,-0.68037146,-0.7562475,-0.29572654,0.58363986,-0.6018495,0.6643178,-0.44323713,,0.12370955,0.011367705,0.02598983,0.58873695,0.7744794,0.23145282,-0.51664186,0.14032054,0.844625,0.621667,-0.6168402,0.48274058,,0.08366778,1.2899022,0.42706782,0.99237174,0.09964037,-0.07259563,0.024203187,-0.73486674,-0.67777956,-0.12088232,0.67085224,-0.7316726,,-0.121973455,0.24939391,-0.12390261,0.27511576,0.57192004,0.7727993,-0.95394015,0.26240176,0.14540794,-0.11962218,-0.7772083,0.61776835,,-0.122756414,0.43484563,-0.31543127,-0.7108053,-0.6395306,-0.29284188,0.05265688,-0.46354294,0.88450843,-0.701415,0.6132932,0.36316448,,1.0701545398470387,0.5111754116777946,0.19029148313000002,-0.39170081442909144,-0.057797239400781304,0.9021428250549917,0.7562830262017128,,-1.54351945137263,0.199887494983553,0.22827666900000002,-0.9989628907602741,-0.2783285500222022,-1.3293484448086623,-0.14129261720615172,,-0.0681136557206437,-0.037411132516498455,0.0911007994,-0.1076111944439502,,-4.4181943e-06,-5.3048134e-06,0.0,1.0,-8.34465e-07,-7.599592e-07,8.2701445e-07,1.0,-1.4901161e-07,7.5250864e-07,1.1920929e-07,1.0,405,1.219,0,0,0.0,False,0.9303060472710167,0.015063405458049406
1.2260974529199302,19:54:21.012194,19:53:01.475257,0,,0.12595764,-0.02427908,0.039860353,-0.25655508,-0.6853588,-0.6815149,-0.7567793,-0.29616758,0.58272624,-0.60121924,0.6652578,-0.44268218,,0.1233418,0.01159453,0.025881708,0.58603954,0.7780787,0.22616623,-0.5115541,0.13881654,0.8479637,0.62838686,-0.61263657,0.47938138,,0.08366778,1.2899022,0.42706782,0.99237174,0.09964037,-0.07259563,0.024203187,-0.73486674,-0.67777956,-0.12088232,0.67085224,-0.7316726,,-0.1219669,0.24939163,-0.12392016,0.27490643,0.5706777,0.77379155,-0.9538997,0.26268566,0.14516091,-0.12042385,-0.7780252,0.6165832,,-0.122368194,0.43495885,-0.31524462,-0.70927274,-0.64390236,-0.28691804,0.06133172,-0.46183708,0.88484174,-0.7022611,0.6099969,0.3670601,,1.07019315351141,0.5111754116777946,0.19027463136000003,-0.391910504372576,-0.05861705839937395,0.9035464411384353,0.7554663058710416,,-1.5418358956060492,0.20135481422965565,0.22823518772,-1.007769868386624,-0.28420391951211615,-1.3282330182560416,-0.14063924094161462,,-0.0681136557206437,-0.037411132516498455,0.0911007994,-0.1076111944439502,,-4.4181943e-06,-5.3048134e-06,0.0,1.0,-8.34465e-07,-7.599592e-07,8.2701445e-07,1.0,-1.4901161e-07,7.5250864e-07,1.1920929e-07,1.0,413,1.245,0,0,0.0,False,0.9303060472710167,0.015691048068182223
1.2583971028216183,19:54:21.035519,19:53:01.475257,0,,0.1259517,-0.024288267,0.039874002,-0.25659811,-0.6846921,-0.68216854,-0.75692725,-0.2965327,0.5823482,-0.6010146,0.6657815,-0.44217247,,0.123062566,0.011768218,0.025812209,0.5817408,0.782037,0.2235972,-0.5090762,0.13567325,0.84996134,0.63436496,-0.6082853,0.47704327,,0.08366778,1.2899022,0.42706782,0.99237174,0.09964037,-0.07259563,0.024203187,-0.73486674,-0.67777956,-0.12088232,0.67085224,-0.7316726,,-0.121963456,0.24939446,-0.123937055,0.27491185,0.5699242,0.7743448,-0.953866,0.262755,0.14525652,-0.12067779,-0.77855396,0.61586577,,-0.12207576,0.43505526,-0.31510988,-0.706107,-0.6487038,-0.28389478,0.06794192,-0.46113884,0.88472307,-0.7048381,0.6054208,0.36968756,,1.0702240444429068,0.5111831344106688,0.19025777959,-0.391910504372576,-0.05889033139890483,0.9044227068669528,0.7561196821355788,,-1.5405075855516825,0.20255183782516045,0.22820407676,-1.0138508767476753,-0.2914456539996845,-1.3265751638474406,-0.14096592907388295,,-0.0681136557206437,-0.037411132516498455,0.0911007994,-0.1076111944439502,,-4.4181943e-06,-5.3048134e-06,0.0,1.0,-8.34465e-07,-7.599592e-07,8.2701445e-07,1.0,-1.4901161e-07,7.5250864e-07,1.1920929e-07,1.0,421,1.269,0,0,0.0,False,0.9307230913006639,0.015739328268961295
1.2817169798072428,19:54:21.064055,19:53:01.475257,0,,0.1259419,-0.024299987,0.039893195,-0.2566166,-0.6844951,-0.6823594,-0.75691676,-0.29669502,0.58227915,-0.60101986,0.6659118,-0.44196898,,0.12268896,0.011993062,0.025768995,0.56239223,0.79651904,0.22197394,-0.512523,0.12513265,0.84950686,0.6488722,-0.5915228,0.47860813,,0.08366778,1.2899022,0.42706782,0.99237174,0.09964037,-0.07259563,0.024203187,-0.73486674,-0.67777956,-0.12088232,0.67085224,-0.7316726,,-0.121957086,0.24939938,-0.12396023,0.27493158,0.5697006,0.77450234,-0.95386136,0.2627191,0.1453519,-0.1206695,-0.7787297,0.6156451,,-0.1216941,0.43521628,-0.314967,-0.6899575,-0.66640073,-0.28261057,0.07888754,-0.45732746,0.8857925,-0.71953833,0.5888647,0.3681072,,1.0702703808401521,0.5111754116777946,0.19023444637000003,-0.391910504372576,-0.05889033139890483,0.9046677430873744,0.755629649937176,,-1.538322052148277,0.20454430290671036,0.22817426209000002,-1.0203512649956954,-0.31808977145394535,-1.3264935387638874,-0.1381890799496004,,-0.0681136557206437,-0.037411132516498455,0.0911007994,-0.1076111944439502,,-4.4181943e-06,-5.3048134e-06,0.0,1.0,-8.34465e-07,-7.599592e-07,8.2701445e-07,1.0,-1.4901161e-07,7.5250864e-07,1.1920929e-07,1.0,433,1.306,0,0,0.0,False,0.9305443581451005,0.015546207465843231
1.3102423478849232,19:54:21.097322,19:53:01.475257,0,,0.12593584,-0.024313733,0.039912954,-0.25540498,-0.6847196,-0.68258864,-0.7571768,-0.29735968,0.58160174,-0.60120845,0.6653843,-0.44250673,,0.12236924,0.012185898,0.025761783,0.53810906,0.81538427,0.21351156,-0.51715887,0.119369,0.8475245,0.66557145,-0.56648004,0.48591685,,0.08366778,1.2899022,0.42706782,0.99237174,0.09964037,-0.07259563,0.024203187,-0.73486674,-0.67777956,-0.12088232,0.67085224,-0.7316726,,-0.121954635,0.24940307,-0.12398464,0.27373827,0.5699412,0.77474797,-0.9542213,0.26188162,0.14449829,-0.120536715,-0.7788357,0.61553705,,-0.121373095,0.43537658,-0.31486347,-0.6694141,-0.689819,-0.2757436,0.09129743,-0.44475415,0.8909874,-0.73725814,0.57126486,0.36070338,,1.0702935490387748,0.5111676889449203,0.19020981686000002,-0.3931686440334831,-0.0587536948991394,0.904719682663959,0.7559563380694443,,-1.5362291915393622,0.2064440951937696,0.22816259548000004,-1.027271033130685,-0.3500627123990584,-1.3351352138586638,-0.1394958324786746,,-0.0681136557206437,-0.037411132516498455,0.0911007994,-0.1076111944439502,,-4.4181943e-06,-5.3048134e-06,0.0,1.0,-8.34465e-07,-7.599592e-07,8.2701445e-07,1.0,-1.4901161e-07,7.5250864e-07,1.1920929e-07,1.0,441,1.331,0,0,0.0,False,0.9301868918339742,0.015642767867402263
1.3435131800360978,19:54:21.128170,19:53:01.673407,0,,0.12592523,-0.024324514,0.039929286,-0.25500703,-0.68486917,-0.68258744,-0.7572082,-0.2975726,0.58145183,-0.60133773,0.66513515,-0.44270554,,0.12213273,0.0123427175,0.025817037,0.5106297,0.8339434,0.20927404,-0.5226885,0.107827425,0.8456772,0.6826815,-0.54121304,0.4909526,,0.08366778,1.2899022,0.42706782,0.99237174,0.09964037,-0.07259563,0.024203187,-0.73486674,-0.67777956,-0.12088232,0.67085224,-0.7316726,,-0.12194703,0.24940675,-0.12400524,0.27335894,0.5701053,0.77476114,-0.9543463,0.2615612,0.14425305,-0.120408006,-0.77882326,0.615578,,-0.121146664,0.43554965,-0.31481493,-0.64583796,-0.7131534,-0.2725905,0.10382236,-0.43575945,0.8940551,-0.75638235,0.54911375,0.35547125,,1.0703398854360202,0.5111445207462976,0.19018907622000003,-0.39358802392045217,-0.05861705839937395,0.9046082647602625,0.7559563380694443,,-1.53450702210841,0.20816626462472165,0.22816389177000002,-1.033771421378705,-0.3847683833394803,-1.3388531324548731,-0.13916914434640604,,-0.0681136557206437,-0.037411132516498455,0.0911007994,-0.1076111944439502,,-4.4181943e-06,-5.3048134e-06,0.0,1.0,-8.34465e-07,-7.599592e-07,8.2701445e-07,1.0,-1.4901161e-07,7.5250864e-07,1.1920929e-07,1.0,466,1.407,0,0,0.0,False,0.9300677363969325,0.015353086662726056
1.3743707910180092,19:54:21.200761,19:53:01.673407,0,,0.12585472,-0.024342924,0.0399393,-0.2543438,-0.68441045,-0.68329453,-0.75747937,-0.2982872,0.5807321,-0.6012772,0.66528714,-0.44255936,,0.12164613,0.012956854,0.026106536,0.4609692,0.8662285,0.19275735,-0.53461653,0.09770614,0.83942765,0.7083026,-0.4900016,0.5081397,,0.08366778,1.2899022,0.42706782,0.99237174,0.09964037,-0.07259563,0.024203187,-0.73486674,-0.67777956,-0.12088232,0.67085224,-0.7316726,,-0.12187994,0.24940263,-0.12403513,0.27267525,0.5695794,0.7753886,-0.9545251,0.26112875,0.1438528,-0.12054066,-0.77935296,0.6148812,,-0.12070517,0.43622768,-0.31460726,-0.60228914,-0.75481516,-0.2598111,0.121238254,-0.40818122,0.90481454,-0.7890178,0.51346093,0.33735558,,1.070648794750989,0.5108896705614482,0.19016055784000002,-0.3944267836943903,-0.05861705839937395,0.9050983372011061,0.7559563380694445,,-1.5320666385201551,0.2129080226094955,0.2281859287,-1.0415299492876324,-0.44611817173416307,-1.3568648842322681,-0.13982252061094314,,-0.0681136557206437,-0.037411132516498455,0.0911007994,-0.1076111944439502,,-4.4181943e-06,-5.3048134e-06,0.0,1.0,-8.34465e-07,-7.599592e-07,8.2701445e-07,1.0,-1.4901161e-07,7.5250864e-07,1.1920929e-07,1.0,474,1.432,0,0,0.0,False,0.9304252027080584,0.01622213027675601
1.4469472968485206,19:54:21.226457,19:53:01.673407,0,,0.12582567,-0.024343371,0.039938793,-0.25455755,-0.6845532,-0.68307185,-0.7572013,-0.29827225,0.58110225,-0.6015369,0.66514695,-0.44241723,,0.121467784,0.013230111,0.026166975,0.45609877,0.86988175,0.1878288,-0.5358252,0.09991494,0.8383963,0.71053874,-0.48303497,0.5116758,,0.08366778,1.2899022,0.42706782,0.99237174,0.09964037,-0.07259563,0.024203187,-0.73486674,-0.67777956,-0.12088232,0.67085224,-0.7316726,,-0.121851176,0.24940294,-0.12403925,0.27294046,0.5697397,0.7751775,-0.9544928,0.2610486,0.14421208,-0.12019565,-0.77926266,0.6150632,,-0.120533265,0.4364736,-0.31446555,-0.5979671,-0.7596494,-0.255672,0.12271459,-0.4019905,0.9073835,-0.79207104,0.51121074,0.33359712,,1.070780081209851,0.5107738295683348,0.19015666897000003,-0.3942170937509058,-0.05820714890007763,0.9047640834900168,0.7559563380694445,,-1.531580106349079,0.21449890558158577,0.22819241015000002,-1.0425783990050552,-0.45281336022266966,-1.3615335707285732,-0.1394958324786746,,-0.0681136557206437,-0.037411132516498455,0.0911007994,-0.1076111944439502,,-4.4181943e-06,-5.3048134e-06,0.0,1.0,-8.34465e-07,-7.599592e-07,8.2701445e-07,1.0,-1.4901161e-07,7.5250864e-07,1.1920929e-07,1.0,482,1.457,0,0,0.0,False,0.9305443581451005,0.015980729272858873
1.4726589149795473,19:54:21.255189,19:53:01.673407,0,,0.12576655,-0.024344735,0.039932683,-0.25387904,-0.6844635,-0.6834142,-0.7574604,-0.29869992,0.5805447,-0.60149753,0.6650474,-0.44262043,,0.121098936,0.013765123,0.02620864,0.45751962,0.8702695,0.1825013,-0.53547657,0.10579917,0.83789706,0.70988774,-0.48107952,0.51441425,,0.08366778,1.2899022,0.42706782,0.99237174,0.09964037,-0.07259563,0.024203187,-0.73486674,-0.67777956,-0.12088232,0.67085224,-0.7316726,,-0.12179202,0.2493998,-0.12404429,0.27224523,0.5696322,0.77550095,-0.9546779,0.2606658,0.14367856,-0.12030264,-0.77946943,0.61478025,,-0.12016295,0.43690053,-0.31414202,-0.5992283,-0.7602217,-0.2509747,0.12228226,-0.3967271,0.9097553,-0.7911842,0.5144614,0.33069175,,1.071058099593323,0.5105575930478565,0.19015278010000003,-0.39505585352484385,-0.05820714890007763,0.9047640834900168,0.7559563380694445,,-1.5307306057329142,0.21733314854642616,0.22819500273,-1.0436268487224778,-0.4533599062217314,-1.365335193601097,-0.14047589687548,,-0.0681136557206437,-0.037411132516498455,0.0911007994,-0.1076111944439502,,-4.4181943e-06,-5.3048134e-06,0.0,1.0,-8.34465e-07,-7.599592e-07,8.2701445e-07,1.0,-1.4901161e-07,7.5250864e-07,1.1920929e-07,1.0,494,1.494,0,0,0.0,False,0.9309614021747477,0.015884168871299842
1.5013811939861625,19:54:21.293549,19:53:01.824564,0,,0.1256631,-0.024349578,0.03992121,-0.25347483,-0.6841909,-0.6838372,-0.7576176,-0.29913694,0.58011436,-0.60147,0.6651315,-0.4425314,,0.12065588,0.014400881,0.026303291,0.45312545,0.87282324,0.18126485,-0.53472877,0.10343203,0.8386698,0.7132618,-0.47695017,0.51359147,,0.08366778,1.2899022,0.42706782,0.99237174,0.09964037,-0.07259563,0.024203187,-0.73486674,-0.67777956,-0.12088232,0.67085224,-0.7316726,,-0.1216886,0.24939196,-0.12405422,0.27183032,0.5693195,0.77587605,-0.95478743,0.26039556,0.14344034,-0.120371304,-0.77978814,0.6143625,,-0.11972678,0.43744203,-0.31378713,-0.59552956,-0.7635792,-0.24958245,0.12582959,-0.3955129,0.90980023,-0.7934176,0.51040804,0.33162048,,1.0715291862986507,0.5101637336712711,0.19014500236,-0.3956849233552975,-0.05807051240031219,0.9047343443264608,0.7561196821355787,,-1.5295644730689064,0.22093194206581476,0.22819629902000002,-1.0480303375356528,-0.46155809620765786,-1.3618355902447934,-0.13982252061094314,,-0.0681136557206437,-0.037411132516498455,0.0911007994,-0.1076111944439502,,-4.4181943e-06,-5.3048134e-06,0.0,1.0,-8.34465e-07,-7.599592e-07,8.2701445e-07,1.0,-1.4901161e-07,7.5250864e-07,1.1920929e-07,1.0,506,1.531,0,0,0.0,False,0.9304252027080584,0.016366970879094556
1.539734185906127,19:54:21.325373,19:53:01.824564,0,,0.12558118,-0.024359785,0.03991072,-0.2520308,-0.68416893,-0.68439263,-0.7581412,-0.29992923,0.5790202,-0.601417,0.6647972,-0.44310528,,0.12044978,0.01466186,0.026462436,0.43083885,0.88425434,0.18019988,-0.5407116,0.093078196,0.83604276,0.72250175,-0.45763588,0.5182285,,0.08366778,1.2899022,0.42706782,0.99237174,0.09964037,-0.07259563,0.024203187,-0.73486674,-0.67777956,-0.12088232,0.67085224,-0.7316726,,-0.121607,0.24938016,-0.12406545,0.2703567,0.56928205,0.7764182,-0.9551822,0.2595888,0.14226954,-0.12055799,-0.7800844,0.61394966,,-0.11954665,0.437757,-0.31372187,-0.57557845,-0.7787576,-0.2494916,0.1315492,-0.38930035,0.91166884,-0.8070962,0.49191654,0.32651785,,1.0718844320108651,0.5098316561576794,0.19013592833,-0.3973624429031737,-0.05807051240031219,0.9047343443264608,0.7561196821355787,,-1.5286840815212448,0.22291668441449047,0.22820148418000002,-1.0499175470270135,-0.487655667662857,-1.3632614603978532,-0.13933248841253998,,-0.0681136557206437,-0.037411132516498455,0.0911007994,-0.1076111944439502,,-4.4181943e-06,-5.3048134e-06,0.0,1.0,-8.34465e-07,-7.599592e-07,8.2701445e-07,1.0,-1.4901161e-07,7.5250864e-07,1.1920929e-07,1.0,514,1.556,0,0,0.0,False,0.9307230913006639,0.01515996585960755
1.5715532309841365,19:54:21.346935,19:53:01.824564,0,,0.12553021,-0.024372317,0.039901897,-0.25212455,-0.683844,-0.6846828,-0.75820774,-0.30004278,0.57887423,-0.6012938,0.66508025,-0.44284773,,0.120392755,0.014695074,0.026601255,0.4075958,0.89624214,0.1749732,-0.5457895,0.08548188,0.8335507,0.7321062,-0.4352503,0.5240017,,0.08366778,1.2899022,0.42706782,0.99237174,0.09964037,-0.07259563,0.024203187,-0.73486674,-0.67777956,-0.12088232,0.67085224,-0.7316726,,-0.12155638,0.24936673,-0.12407497,0.27042872,0.5689161,0.77666134,-0.9551432,0.25968856,0.14234926,-0.12070527,-0.78031814,0.61362356,,-0.11951589,0.4378893,-0.31379384,-0.55473006,-0.79497886,-0.24552622,0.13825113,-0.3790606,0.9149862,-0.820464,0.47362608,0.32018304,,1.0720775003327208,0.5095999741714528,0.19012815059000002,-0.3973624429031737,-0.05807051240031219,0.9048977018067421,0.7564463702678472,,-1.5280971538228036,0.22376618503065518,0.22820666934000003,-1.0524338263488278,-0.5141631486173524,-1.369172122508117,-0.14080258500774856,,-0.0681136557206437,-0.037411132516498455,0.0911007994,-0.1076111944439502,,-4.4181943e-06,-5.3048134e-06,0.0,1.0,-8.34465e-07,-7.599592e-07,8.2701445e-07,1.0,-1.4901161e-07,7.5250864e-07,1.1920929e-07,1.0,543,1.645,0,0,0.0,False,0.9301868918339742,0.016463531280653587
1.593137393007055,19:54:21.429635,19:53:01.920294,0,,0.125376,-0.024438478,0.03985156,-0.24915224,-0.68340373,-0.6862087,-0.7594396,-0.3018216,0.57632905,-0.6009781,0.6647278,-0.44380435,,0.12022206,0.014505949,0.026915967,0.31654617,0.93325245,0.16981849,-0.56366944,0.04107222,0.8249787,0.76293856,-0.3568654,0.5390473,,0.08366778,1.2899022,0.42706782,0.99237174,0.09964037,-0.07259563,0.024203187,-0.73486674,-0.67777956,-0.12088232,0.67085224,-0.7316726,,-0.12140231,0.24928936,-0.12410605,0.26735768,0.5683944,0.7781052,-0.95592666,0.25813627,0.13989255,-0.12134304,-0.7812128,0.61235803,,-0.119413435,0.43802115,-0.3141627,-0.47171852,-0.84744185,-0.24356508,0.1607578,-0.35425586,0.9212273,-0.8669709,0.395405,0.30334193,,1.0725331415722998,0.5087350280895396,0.19010481737,-0.400717481998926,-0.05807051240031219,0.9055511317278665,0.7561196821355787,,-1.5253015245223345,0.2253570680027454,0.22828703932000002,-1.0591439045403326,-0.6150008854442475,-1.3771190386953385,-0.14080258500774878,,-0.0681136557206437,-0.037411132516498455,0.0911007994,-0.1076111944439502,,-4.4181943e-06,-5.3048134e-06,0.0,1.0,-8.34465e-07,-7.599592e-07,8.2701445e-07,1.0,-1.4901161e-07,7.5250864e-07,1.1920929e-07,1.0,547,1.657,0,0,0.0,False,0.9306635135821426,0.01515996585960755
1.6758373768534511,19:54:21.459049,19:53:01.920294,0,,0.12534864,-0.02445162,0.039836034,-0.24919076,-0.6833456,-0.68625265,-0.759518,-0.30174792,0.5762644,-0.60086304,0.664821,-0.44382048,,0.12003386,0.014553469,0.026908815,0.2885421,0.9422469,0.17004164,-0.56656843,0.024861634,0.8236396,0.77184427,-0.33399495,0.5410212,,0.08366778,1.2899022,0.42706782,0.99237174,0.09964037,-0.07259563,0.024203187,-0.73486674,-0.67777956,-0.12088232,0.67085224,-0.7316726,,-0.12137423,0.24927011,-0.1241078,0.26737523,0.5683304,0.7781459,-0.95590377,0.25825167,0.1398359,-0.121484496,-0.7812213,0.61231923,,-0.119225934,0.43807018,-0.31414974,-0.44599932,-0.8610763,-0.24419709,0.16895244,-0.3489264,0.9217947,-0.8789424,0.3698621,0.30110186,,1.0725949234352936,0.5085574052334324,0.19010481737,-0.400717481998926,-0.05807051240031219,0.9054694529877259,0.7562830262017128,,-1.52370291881737,0.2262992414134008,0.22836092785000003,-1.063757083296992,-0.6461540073907679,-1.3750758763327555,-0.14080258500774878,,-0.0681136557206437,-0.037411132516498455,0.0911007994,-0.1076111944439502,,-4.4181943e-06,-5.3048134e-06,0.0,1.0,-8.34465e-07,-7.599592e-07,8.2701445e-07,1.0,-1.4901161e-07,7.5250864e-07,1.1920929e-07,1.0,559,1.694,0,0,0.0,False,0.9303060472710167,0.015739328268961295
1.7052293149754405,19:54:21.488455,19:53:01.920294,0,,0.12533808,-0.024462618,0.039826885,-0.2472032,-0.68332064,-0.68699586,-0.76020515,-0.30285135,0.5747775,-0.60081506,0.66434467,-0.4445981,,0.11981109,0.014684718,0.026934505,0.25848997,0.9517262,0.16553001,-0.5682781,0.011245608,0.82275987,0.78118056,-0.3067422,0.5437521,,0.08366778,1.2899022,0.42706782,0.99237174,0.09964037,-0.07259563,0.024203187,-0.73486674,-0.67777956,-0.12088232,0.67085224,-0.7316726,,-0.12136341,0.24925621,-0.12411026,0.26535267,0.56828535,0.7788708,-0.9564397,0.25712094,0.13824597,-0.121700846,-0.7816269,0.61175835,,-0.119008146,0.43820268,-0.31409958,-0.41831523,-0.8759356,-0.24031065,0.17849948,-0.33869007,0.92381114,-0.8905899,0.34354892,0.29803327,,1.072602646168168,0.5084647324389417,0.19010352108000003,-0.4028143814337713,-0.05820714890007763,0.905989264592125,0.7557929940033099,,-1.522019363050789,0.22768933333076122,0.22845426073000002,-1.0706768514319813,-0.680313132332128,-1.3762173531585498,-0.14227268160295714,,-0.0681136557206437,-0.037411132516498455,0.0911007994,-0.1076111944439502,,-4.4181943e-06,-5.3048134e-06,0.0,1.0,-8.34465e-07,-7.599592e-07,8.2701445e-07,1.0,-1.4901161e-07,7.5250864e-07,1.1920929e-07,1.0,567,1.72,0,0,0.0,False,0.9301868918339742,0.01622213027675601
1.734634208958596,19:54:21.519655,19:53:01.920294,0,,0.12533246,-0.02446264,0.03982605,-0.24662758,-0.6828086,-0.6877116,-0.7604514,-0.3035391,0.5740886,-0.60073996,0.6645574,-0.44438165,,0.11947334,0.0149340145,0.02695316,0.22159232,0.9626203,0.15575248,-0.5691689,-0.002014339,0.8222182,0.79179764,-0.27084672,0.54744744,,0.08366778,1.2899022,0.42706782,0.99237174,0.09964037,-0.07259563,0.024203187,-0.73486674,-0.67777956,-0.12088232,0.67085224,-0.7316726,,-0.121357754,0.2492558,-0.12411046,0.26475555,0.5677008,0.77950007,-0.9565875,0.25674778,0.13791652,-0.12183959,-0.78217417,0.6110309,,-0.11867264,0.43842152,-0.3139726,-0.384129,-0.89380443,-0.2314273,0.19038154,-0.32195047,0.9274173,-0.90343773,0.31218836,0.29383436,,1.072633537099665,0.5084492869731932,0.19010352108000003,-0.4034434512642249,-0.05834378539984307,0.9068357911570866,0.7562830262017131,,-1.519849275113132,0.22967407567943693,0.22858518602000003,-1.080112898888785,-0.7200743537638712,-1.3799784250651599,-0.1411292731400169,,-0.0681136557206437,-0.037411132516498455,0.0911007994,-0.1076111944439502,,-4.4181943e-06,-5.3048134e-06,0.0,1.0,-8.34465e-07,-7.599592e-07,8.2701445e-07,1.0,-1.4901161e-07,7.5250864e-07,1.1920929e-07,1.0,579,1.757,0,0,0.0,False,0.9303060472710167,0.015932449072078914
1.7658513598144054,19:54:21.549855,19:53:01.920294,0,,0.12532644,-0.024460956,0.039828137,-0.24684449,-0.6826305,-0.6878106,-0.76038784,-0.30355775,0.5741629,-0.6007314,0.6647318,-0.4441324,,0.11932085,0.01506136,0.026937425,0.20751557,0.9659945,0.15424648,-0.56860346,-0.0091957,0.82256037,0.79600716,-0.25839913,0.5473597,,0.08366778,1.2899022,0.42706782,0.99237174,0.09964037,-0.07259563,0.024203187,-0.73486674,-0.67777956,-0.12088232,0.67085224,-0.7316726,,-0.121351935,0.24925867,-0.12411168,0.26497367,0.56750095,0.7795715,-0.9565278,0.25684735,0.13814458,-0.12183368,-0.78228647,0.61088824,,-0.11851614,0.43851194,-0.3138886,-0.3710893,-0.89968246,-0.2299222,0.19562607,-0.31778738,0.9277616,-0.9077572,0.29930362,0.29392883,,1.072672150764036,0.508441564240319,0.19010222479000002,-0.40323376132074035,-0.05834378539984307,0.9069991486373677,0.7559563380694445,,-1.518853042572357,0.2305467444942243,0.22865518568,-1.0851454575324135,-0.7356509147371314,-1.3779766990021818,-0.14129261720615172,,-0.0681136557206437,-0.037411132516498455,0.0911007994,-0.1076111944439502,,-4.4181943e-06,-5.3048134e-06,0.0,1.0,-8.34465e-07,-7.599592e-07,8.2701445e-07,1.0,-1.4901161e-07,7.5250864e-07,1.1920929e-07,1.0,587,1.781,0,0,0.0,False,0.9304847804265797,0.015546207465843231
1.7960522780194879,19:54:21.578511,19:53:01.920294,0,,0.12533036,-0.024461053,0.03983201,-0.24440654,-0.6829447,-0.688369,-0.76096475,-0.30490416,0.5726833,-0.6009976,0.6637921,-0.44517633,,0.119129315,0.015194353,0.02692765,0.18622436,0.97056663,0.15271167,-0.56884634,-0.020220906,0.82219523,0.8010832,-0.2399823,0.54833776,,0.08366778,1.2899022,0.42706782,0.99237174,0.09964037,-0.07259563,0.024203187,-0.73486674,-0.67777956,-0.12088232,0.67085224,-0.7316726,,-0.12135633,0.24926111,-0.12411398,0.26255405,0.56783277,0.78014827,-0.9572138,0.25523427,0.13637148,-0.12168439,-0.7825736,0.61055017,,-0.1183223,0.43861538,-0.31380993,-0.35115626,-0.90797913,-0.22861132,0.20187685,-0.31183806,0.92844105,-0.91429484,0.27987656,0.29280385,,1.0726644280311617,0.5084570097060674,0.19009963221,-0.40575004064255465,-0.05820714890007763,0.9072961244343742,0.7561196821355789,,-1.5175401779837387,0.23161248163086728,0.22874851856000003,-1.090597396063011,-0.7588791196972562,-1.3759431545828864,-0.13949583247867414,,-0.0681136557206437,-0.037411132516498455,0.0911007994,-0.1076111944439502,,-4.4181943e-06,-5.3048134e-06,0.0,1.0,-8.34465e-07,-7.599592e-07,8.2701445e-07,1.0,-1.4901161e-07,7.5250864e-07,1.1920929e-07,1.0,595,1.806,0,0,0.0,False,0.9305443581451005,0.015835888670520326
1.8246558688115329,19:54:21.602444,19:53:01.920294,0,,0.12532888,-0.02446445,0.039832428,-0.24442272,-0.6824446,-0.68885905,-0.76105,-0.30521092,0.57240653,-0.60088307,0.66416544,-0.44477397,,0.118959844,0.015252661,0.026951492,0.15988648,0.97632444,0.14569479,-0.5677494,-0.029787451,0.8226625,0.8075252,-0.21425073,0.54954505,,0.08366778,1.2899022,0.42706782,0.99237174,0.09964037,-0.07259563,0.024203187,-0.73486674,-0.67777956,-0.12088232,0.67085224,-0.7316726,,-0.12135517,0.24925897,-0.1241168,0.2625491,0.5672676,0.780561,-0.957197,0.255249,0.1364618,-0.12182705,-0.7829786,0.6100022,,-0.11815869,0.43869224,-0.31380588,-0.32648695,-0.91877633,-0.22193766,0.21064566,-0.29962546,0.93051225,-0.92143077,0.2570499,0.29136005,,1.0726644280311617,0.5084492869731932,0.19009703963000002,-0.40575004064255465,-0.05834378539984307,0.9079792935190546,0.7559563380694443,,-1.5162195906622464,0.23236158671966706,0.22883148112,-1.0989849938023921,-0.7868896021491716,-1.377361070146867,-0.1419459934706886,,-0.0681136557206437,-0.037411132516498455,0.0911007994,-0.1076111944439502,,-4.4181943e-06,-5.3048134e-06,0.0,1.0,-8.34465e-07,-7.599592e-07,8.2701445e-07,1.0,-1.4901161e-07,7.5250864e-07,1.1920929e-07,1.0,620,1.883,0,0,0.0,False,0.9303656249895376,0.01578760846974081
1.848632973851636,19:54:21.673304,19:53:01.920294,0,,0.12533861,-0.024486251,0.039846674,-0.243221,-0.682076,-0.68964905,-0.761509,-0.30611145,0.57131416,-0.6007891,0.6641296,-0.44495434,,0.11846636,0.015223537,0.026866734,0.10857463,0.9854887,0.13047424,-0.56347215,-0.047118828,0.82479024,0.8189693,-0.16306992,0.5501796,,0.083683096,1.2898983,0.42706567,0.9923713,0.09965292,-0.072584055,0.024220137,-0.734865,-0.6777808,-0.12088232,0.67085224,-0.7316726,,-0.12138529,0.24924833,-0.12414444,0.26132804,0.56684697,0.781276,-0.95750487,0.25456437,0.13557799,-0.12203307,-0.7835059,0.60928357,,-0.117676444,0.4386671,-0.3138493,-0.27814475,-0.93795425,-0.2070684,0.22830407,-0.2739533,0.934252,-0.9330127,0.21258272,0.29033744,,1.0726489825654133,0.508402950575948,0.19008666931,-0.40700818030346175,-0.05848042189960852,0.9087441413438754,0.7559563380694441,,-1.5127520836017196,0.23327286919882553,0.22891314739000002,-1.1176473987725148,-0.8415442020553477,-1.3800042204695433,-0.14292605786749446,,-0.0681136557206437,-0.037411132516498455,0.0911007994,-0.1076111944439502,,1.09523535e-05,-2.3841858e-06,3.0994415e-06,1.0,1.167506e-05,1.0699034e-05,-1.167506e-05,1.0,1.937151e-06,-1.0706484e-05,-1.9669533e-06,1.0,628,1.907,0,0,0.0,False,0.9304252027080584,0.01515996585960755
1.9194959828164428,19:54:21.705866,19:53:02.250383,0,,0.12533215,-0.024489723,0.03984441,-0.24343176,-0.6818976,-0.68975115,-0.7614703,-0.306109,0.571367,-0.6007528,0.664314,-0.4447282,,0.117905706,0.015341226,0.026599348,0.09394711,0.9900893,0.104389,-0.5476021,-0.036177576,0.8359564,0.8314481,-0.13569933,0.5387763,,0.083683096,1.2898983,0.42706567,0.9923713,0.09965292,-0.072584055,0.024220137,-0.734865,-0.6777808,-0.12088232,0.67085224,-0.7316726,,-0.12137885,0.24924445,-0.12414611,0.26153466,0.56664705,0.78135186,-0.9574446,0.25468618,0.13577467,-0.1220632,-0.78361094,0.6091424,,-0.11707213,0.43861395,-0.31367153,-0.26566428,-0.94730693,-0.17897515,0.2498046,-0.2469469,0.93627715,-0.9311392,0.20402656,0.3022466,,1.0726644280311617,0.5083643369115768,0.19008537302000003,-0.4067984903599773,-0.05848042189960852,0.9089074988241566,0.7559563380694445,,-1.5091610128152053,0.23375167863702745,0.22890925852000002,-1.150149340012616,-0.8580772185269661,-1.3821232934891239,-0.14161930533841982,,-0.0681136557206437,-0.037411132516498455,0.0911007994,-0.1076111944439502,,1.09523535e-05,-2.3841858e-06,3.0994415e-06,1.0,1.167506e-05,1.0699034e-05,-1.167506e-05,1.0,1.937151e-06,-1.0706484e-05,-1.9669533e-06,1.0,640,1.945,0,0,0.0,False,0.9302464695524955,0.015642767867402263
1.9520480809733272,19:54:21.744044,19:53:02.250383,0,,0.12532614,-0.024492472,0.03984113,-0.24303757,-0.6820074,-0.68978155,-0.76159656,-0.3062395,0.57112885,-0.6007524,0.6641411,-0.44498676,,0.11715051,0.015361402,0.026046932,0.08552119,0.99207526,0.092047974,-0.533092,-0.032487214,0.84543324,0.84172386,-0.12137252,0.5260891,,0.083683096,1.2898983,0.42706567,0.9923713,0.09965292,-0.072584055,0.024220137,-0.734865,-0.6777808,-0.12088232,0.67085224,-0.7316726,,-0.12137271,0.24924041,-0.124146484,0.26113546,0.56676817,0.7813975,-0.9575498,0.25447658,0.1354253,-0.12209263,-0.78359145,0.6091616,,-0.116225965,0.43830833,-0.3134136,-0.25889617,-0.9518494,-0.16418123,0.26800722,-0.23409235,0.9345442,-0.92797893,0.19794817,0.31570813,,1.07267987349691,0.5083257232472057,0.19008537302000003,-0.40721787024694633,-0.05848042189960852,0.908825820084016,0.7561196821355787,,-1.5029364901185802,0.23383662869864394,0.22888722159000002,-1.1780381024960578,-0.8735171430004608,-1.3738620435988782,-0.14129261720615194,,-0.0681136557206437,-0.037411132516498455,0.0911007994,-0.1076111944439502,,1.09523535e-05,-2.3841858e-06,3.0994415e-06,1.0,1.167506e-05,1.0699034e-05,-1.167506e-05,1.0,1.937151e-06,-1.0706484e-05,-1.9669533e-06,1.0,660,2.006,0,0,0.0,False,0.9303656249895376,0.015063405458049406
1.9902253248728812,19:54:21.798636,19:53:02.250383,0,,0.12531045,-0.024510756,0.03981723,-0.24708408,-0.6782838,-0.6920119,-0.76270014,-0.30437005,0.57065535,-0.597694,0.6687975,-0.4421222,,0.116137505,0.015067387,0.025393426,0.047934815,0.9953363,0.08371377,-0.53097314,-0.04559587,0.84616107,0.8460319,-0.085010365,0.5263112,,0.083683096,1.2898983,0.42706567,0.9923713,0.09965292,-0.072584055,0.024220137,-0.734865,-0.6777808,-0.12088232,0.67085224,-0.7316726,,-0.121355474,0.24921128,-0.12414404,0.26466393,0.5626268,0.7832012,-0.9561234,0.25889623,0.13711601,-0.1256227,-0.7851267,0.6064611,,-0.11511714,0.43775344,-0.31336597,-0.22275224,-0.9623092,-0.1560207,0.27724117,-0.21596473,0.93621397,-0.9346223,0.1652884,0.31489834,,1.0727184871612814,0.5083102777814572,0.19009185447000002,-0.4034434512642249,-0.06203297089350997,0.9121310792808257,0.7556296499371757,,-1.4974456270450067,0.23382118323289547,0.22885870321000001,-1.188103219783315,-0.9124585454336113,-1.3764946906445745,-0.14047589687548045,,-0.0681136557206437,-0.037411132516498455,0.0911007994,-0.1076111944439502,,1.09523535e-05,-2.3841858e-06,3.0994415e-06,1.0,1.167506e-05,1.0699034e-05,-1.167506e-05,1.0,1.937151e-06,-1.0706484e-05,-1.9669533e-06,1.0,685,2.083,0,0,0.0,False,0.9301868918339742,0.014966845056490374
2.0448181258980185,19:54:21.873543,19:53:02.369351,0,,0.125283,-0.024476692,0.039813504,-0.2469259,-0.67849576,-0.6918607,-0.76244843,-0.30462253,0.57085687,-0.5980803,0.6684674,-0.44209886,,0.11512759,0.01466376,0.02483344,-0.009234071,0.9974886,0.07022214,-0.52993816,-0.06443408,0.84558487,0.84798604,-0.029405199,0.52920234,,0.083683096,1.2898983,0.42706567,0.9923713,0.09965292,-0.072584055,0.024220137,-0.734865,-0.6777808,-0.12088232,0.67085224,-0.7316726,,-0.12132533,0.2492345,-0.12412211,0.26457563,0.56286,0.7830635,-0.95620966,0.25849375,0.13727365,-0.12515116,-0.7850921,0.6066033,,-0.11403231,0.43719608,-0.31346047,-0.16697524,-0.97548586,-0.14334096,0.28642464,-0.18710369,0.93965584,-0.9434406,0.11584288,0.31064487,,1.072950169147508,0.5082948323157088,0.19011259511000003,-0.40365314120770934,-0.06162306139421364,0.9117968255697365,0.7556296499371757,,-1.4904333855952108,0.2335740557809203,0.22887425869000003,-1.2002652365054174,-0.975311335325714,-1.3831526817038795,-0.14194599347068815,,-0.0681136557206437,-0.037411132516498455,0.0911007994,-0.1076111944439502,,1.09523535e-05,-2.3841858e-06,3.0994415e-06,1.0,1.167506e-05,1.0699034e-05,-1.167506e-05,1.0,1.937151e-06,-1.0706484e-05,-1.9669533e-06,1.0,693,2.108,0,0,0.0,False,0.9303060472710167,0.015594487666623191
2.1197454729117453,19:54:21.904104,19:53:02.369351,0,,0.1252657,-0.024465762,0.039806113,-0.24656796,-0.6784375,-0.69204533,-0.76255023,-0.30488676,0.5705797,-0.59809816,0.66840607,-0.44216743,,0.11511711,0.014653314,0.024706006,-0.014305949,0.9975316,0.068747014,-0.52866966,-0.065904014,0.8462653,0.8487071,-0.024237864,0.52830756,,0.083683096,1.2898983,0.42706567,0.9923713,0.09965292,-0.072584055,0.024220137,-0.734865,-0.6777808,-0.12088232,0.67085224,-0.7316726,,-0.12130648,0.24923798,-0.12411185,0.2642164,0.56279075,0.7832345,-0.95630836,0.2582573,0.13703114,-0.12515615,-0.78521955,0.6064373,,-0.11399829,0.4370955,-0.31338844,-0.1620948,-0.97654766,-0.14170364,0.28841826,-0.18421848,0.93961614,-0.94368434,0.11143698,0.31151503,,1.0730582874077472,0.5082484959184634,0.19012296543,-0.4040725210946784,-0.06162306139421364,0.9118785043098772,0.7557929940033101,,-1.4898232896981471,0.2333269283289451,0.22898444334,-1.203410585657685,-0.9806401588165661,-1.3824012480259036,-0.14357943413203156,,-0.0681136557206437,-0.037411132516498455,0.0911007994,-0.1076111944439502,,1.09523535e-05,-2.3841858e-06,3.0994415e-06,1.0,1.167506e-05,1.0699034e-05,-1.167506e-05,1.0,1.937151e-06,-1.0706484e-05,-1.9669533e-06,1.0,705,2.146,0,0,0.0,False,0.9299485809598904,0.015111685658828478
2.150285479845479,19:54:21.934118,19:53:02.369351,0,,0.12524322,-0.024458043,0.039796785,-0.2464021,-0.67853373,-0.6920101,-0.7625347,-0.30497757,0.570552,-0.5981864,0.6682669,-0.44225848,,0.11528795,0.014685545,0.024699867,-0.012722716,0.99772894,0.066143915,-0.527934,-0.06288045,0.84695435,0.8491901,-0.024144068,0.5275351,,0.083683096,1.2898983,0.42706567,0.9923713,0.09965292,-0.072584055,0.024220137,-0.734865,-0.6777808,-0.12088232,0.67085224,-0.7316726,,-0.12128247,0.24923801,-0.124103144,0.2640648,0.5628971,0.7832092,-0.956363,0.25809923,0.13694744,-0.12505838,-0.7851953,0.6064889,,-0.114163846,0.43709096,-0.3133352,-0.16371782,-0.97666806,-0.13898197,0.2890649,-0.18219297,0.9398123,-0.9432062,0.11368921,0.31214872,,1.0731741284008605,0.508163545856847,0.19013203946,-0.404282211038163,-0.0614864248944482,0.9116854076660401,0.7559563380694445,,-1.4904333855952108,0.2330720781440957,0.22908814654,-1.204459035375108,-0.9783173383205537,-1.384050316168321,-0.14308940193362885,,-0.0681136557206437,-0.037411132516498455,0.0911007994,-0.1076111944439502,,1.09523535e-05,-2.3841858e-06,3.0994415e-06,1.0,1.167506e-05,1.0699034e-05,-1.167506e-05,1.0,1.937151e-06,-1.0706484e-05,-1.9669533e-06,1.0,713,2.17,0,0,0.0,False,0.9300677363969325,0.014628883651033764
2.180315244011581,19:54:21.964462,19:53:02.494371,0,,0.12522593,-0.024455786,0.039780483,-0.24623226,-0.67826766,-0.6923312,-0.7626255,-0.3052518,0.57028395,-0.59814054,0.6684118,-0.4421014,,0.11564144,0.014682714,0.024781883,-0.01393868,0.9978639,0.063822635,-0.5264021,-0.061590627,0.848002,0.85012144,-0.021776386,0.5261362,,0.083683096,1.2898983,0.42706567,0.9923713,0.09965292,-0.072584055,0.024220137,-0.734865,-0.6777808,-0.12088232,0.67085224,-0.7316726,,-0.12126312,0.24922909,-0.12409239,0.26388422,0.5625951,0.78348696,-0.9564037,0.25798938,0.13687053,-0.12512861,-0.7854478,0.60614735,,-0.114526376,0.43710667,-0.3133381,-0.16265395,-0.97720855,-0.13640787,0.29091242,-0.17959952,0.93974143,-0.94282216,0.11316992,0.31349468,,1.0732359102638542,0.508063150329482,0.19014370607000003,-0.4044919009816475,-0.0614864248944482,0.9120121226266023,0.7556296499371757,,-1.4918620911769422,0.23240792311691238,0.22923981247000003,-1.2073946945838911,-0.9777707923214919,-1.3837608791218416,-0.14357943413203156,,-0.0681136557206437,-0.037411132516498455,0.0911007994,-0.1076111944439502,,1.09523535e-05,-2.3841858e-06,3.0994415e-06,1.0,1.167506e-05,1.0699034e-05,-1.167506e-05,1.0,1.937151e-06,-1.0706484e-05,-1.9669533e-06,1.0,721,2.195,0,0,0.0,False,0.9301273141154534,0.014822004454151827
2.2106537418439984,19:54:21.983726,19:53:02.494371,0,,0.1252207,-0.024461202,0.03976305,-0.2459963,-0.6784318,-0.69225425,-0.7625843,-0.3053797,0.5702705,-0.59829,0.66818666,-0.44223928,,0.11615725,0.014612157,0.024900496,-0.015562341,0.9979342,0.06233042,-0.52548635,-0.06119769,0.8485982,0.8506597,-0.019547619,0.5253533,,0.083683096,1.2898983,0.42706567,0.9923713,0.09965292,-0.072584055,0.024220137,-0.734865,-0.6777808,-0.12088232,0.67085224,-0.7316726,,-0.121256106,0.24921341,-0.1240843,0.26367307,0.5627769,0.7834275,-0.956484,0.25774786,0.13676381,-0.124959245,-0.7853968,0.6062483,,-0.1150572,0.43708533,-0.31339186,-0.16113423,-0.97768646,-0.1347774,0.29211363,-0.177689,0.939732,-0.9427117,0.11205267,0.31422734,,1.0732050193323575,0.5079627548021172,0.19015278010000003,-0.40470159092513197,-0.06121315189491732,0.9118709655593502,0.755139617738773,,-1.493947229052983,0.23127268138440138,0.22943036710000003,-1.2086528342447984,-0.9769509733228992,-1.3840209928433174,-0.14341609006589717,,-0.0681136557206437,-0.037411132516498455,0.0911007994,-0.1076111944439502,,1.09523535e-05,-2.3841858e-06,3.0994415e-06,1.0,1.167506e-05,1.0699034e-05,-1.167506e-05,1.0,1.937151e-06,-1.0706484e-05,-1.9669533e-06,1.0,729,2.219,0,0,0.0,False,0.9297102700858062,0.014966845056490374
2.2298945419024676,19:54:22.017181,19:53:02.494371,0,,0.12521248,-0.024466507,0.039747074,-0.24600078,-0.6782817,-0.69239974,-0.7626377,-0.30543956,0.57016706,-0.59822017,0.6683117,-0.44214493,,0.116599225,0.014511976,0.025010467,-0.023694381,0.9976351,0.0645189,-0.52413625,-0.06735277,0.84896696,0.8513049,-0.013700947,0.5244926,,0.083683096,1.2898983,0.42706567,0.9923713,0.09965292,-0.072584055,0.024220137,-0.734865,-0.6777808,-0.12088232,0.67085224,-0.7316726,,-0.12124632,0.2491989,-0.124077626,0.2636646,0.562608,0.78355163,-0.95647496,0.25778458,0.13675797,-0.12504639,-0.7855058,0.6060892,,-0.11551479,0.4370472,-0.31347322,-0.15323323,-0.97868204,-0.13675195,0.29448143,-0.17732306,0.9390619,-0.94329226,0.103624575,0.31537548,,1.0731972965994832,0.5078700820076264,0.19016055784000002,-0.40470159092513197,-0.06121315189491732,0.9120343230396312,0.7557929940033101,,-1.495561280223696,0.2301374396518904,0.22961962544000003,-1.2120078733405508,-0.9829629793125786,-1.3790369263405344,-0.14357943413203111,,-0.0681136557206437,-0.037411132516498455,0.0911007994,-0.1076111944439502,,1.09523535e-05,-2.3841858e-06,3.0994415e-06,1.0,1.167506e-05,1.0699034e-05,-1.167506e-05,1.0,1.937151e-06,-1.0706484e-05,-1.9669533e-06,1.0,758,2.309,0,0,0.0,False,0.9301868918339742,0.014290922245577597
2.2633120538666844,19:54:22.098819,19:53:02.641477,0,,0.12518574,-0.024479926,0.039695635,-0.24538375,-0.67803174,-0.6928634,-0.7628122,-0.30601758,0.5696235,-0.5982512,0.668301,-0.44211912,,0.11738363,0.014339972,0.025277674,-0.093051344,0.99514097,0.032186426,-0.49868384,-0.07456076,0.8635711,0.86177486,0.064305596,0.5031988,,0.083683096,1.2898983,0.42706567,0.9923713,0.09965292,-0.072584055,0.024220137,-0.734865,-0.6777808,-0.12088232,0.67085224,-0.7316726,,-0.12121427,0.24915485,-0.12405367,0.2630455,0.56231946,0.7839668,-0.9566444,0.25734752,0.13639541,-0.12505412,-0.78585565,0.60563385,,-0.11634036,0.43703714,-0.3136593,-0.0863646,-0.9911759,-0.100556076,0.32750663,-0.12356963,0.93673366,-0.9408935,0.047967847,0.3352887,,1.0731818511337348,0.5075688954255316,0.19018777993000002,-0.4053306607555856,-0.06093987889538644,0.9124649171533628,0.7554663058710416,,-1.4968818675451883,0.22659270526262135,0.23030536285000003,-1.278060205538176,-1.0451325867058538,-1.3580728415698273,-0.1442328103965682,,-0.0681136557206437,-0.037411132516498455,0.0911007994,-0.1076111944439502,,1.09523535e-05,-2.3841858e-06,3.0994415e-06,1.0,1.167506e-05,1.0699034e-05,-1.167506e-05,1.0,1.937151e-06,-1.0706484e-05,-1.9669533e-06,1.0,766,2.333,0,0,0.0,False,0.9288166043079906,0.014580603450254692
2.3449962469749153,19:54:22.126026,19:53:02.641477,0,,0.12518357,-0.024481796,0.039686814,-0.24536625,-0.677784,-0.69311196,-0.7627618,-0.3062935,0.56954265,-0.5983226,0.6684259,-0.4418337,,0.117531195,0.014267225,0.025258064,-0.10892741,0.99343455,0.034964643,-0.49216717,-0.08445814,0.86639386,0.8636587,0.07716559,0.4981357,,0.083683096,1.2898983,0.42706567,0.9923713,0.09965292,-0.072584055,0.024220137,-0.734865,-0.6777808,-0.12088232,0.67085224,-0.7316726,,-0.121211134,0.24914753,-0.12404893,0.26304102,0.56203806,0.78417003,-0.9566572,0.25722337,0.1365402,-0.12496608,-0.7860975,0.60533804,,-0.116483696,0.4369567,-0.31368014,-0.070940524,-0.9922268,-0.102242276,0.33513612,-0.12025122,0.9344642,-0.9394952,0.032026302,0.3410617,,1.0731664056679864,0.5075225590282864,0.19019296509000003,-0.4053306607555856,-0.060803242395621,0.9128435716905098,0.7548129296065044,,-1.4968123629493202,0.22549607719448145,0.23048165829000003,-1.295254780903907,-1.0593427826814599,-1.3415029764368254,-0.1437427781981655,,-0.0681136557206437,-0.037411132516498455,0.0911007994,-0.1076111944439502,,1.09523535e-05,-2.3841858e-06,3.0994415e-06,1.0,1.167506e-05,1.0699034e-05,-1.167506e-05,1.0,1.937151e-06,-1.0706484e-05,-1.9669533e-06,1.0,774,2.359,0,0,0.0,False,0.9285187157153851,0.015353086662726056
2.372228262014687,19:54:22.156949,19:53:02.641477,0,,0.12517557,-0.024481788,0.03967984,-0.24528377,-0.6783072,-0.6926291,-0.7623216,-0.30643022,0.5700582,-0.5989171,0.66783214,-0.44192594,,0.11783411,0.014129598,0.02513194,-0.12901294,0.9907263,0.042626474,-0.48418474,-0.10044773,0.86918086,0.8654022,0.0914965,0.4926537,,0.083683096,1.2898983,0.42706567,0.9923713,0.09965292,-0.072584055,0.024220137,-0.734865,-0.6777808,-0.12088232,0.67085224,-0.7316726,,-0.12120233,0.24914305,-0.124045074,0.26306817,0.56262153,0.78374237,-0.95674586,0.25673556,0.13683632,-0.124227464,-0.78583956,0.6058248,,-0.116761364,0.43673515,-0.31365922,-0.05131391,-0.9927554,-0.10864402,0.3441396,-0.11970183,0.9312569,-0.93751526,0.010397721,0.34778884,,1.0731741284008605,0.5074376089666699,0.19019685396000002,-0.4053306607555856,-0.059983423397028356,0.9122567430084718,0.7543228974081017,,-1.4967969174835718,0.223588562174548,0.2308173974,-1.3162237752523593,-1.0771055276509671,-1.3171355213992824,-0.14390612226429988,,-0.0681136557206437,-0.037411132516498455,0.0911007994,-0.1076111944439502,,1.09523535e-05,-2.3841858e-06,3.0994415e-06,1.0,1.167506e-05,1.0699034e-05,-1.167506e-05,1.0,1.937151e-06,-1.0706484e-05,-1.9669533e-06,1.0,782,2.383,0,0,0.0,False,0.9288761820265115,0.014097801442459978
2.403144360985607,19:54:22.177669,19:53:02.641477,0,,0.12516847,-0.02448181,0.039665088,-0.24488923,-0.67795575,-0.6931127,-0.76246744,-0.30691847,0.5696003,-0.59889287,0.6679649,-0.4417582,,0.11824263,0.013918806,0.024907649,-0.14725722,0.98793346,0.047987834,-0.47803178,-0.1135599,0.8709706,0.86591053,0.105317004,0.48898607,,0.083683096,1.2898983,0.42706567,0.9923713,0.09965292,-0.072584055,0.024220137,-0.734865,-0.6777808,-0.12088232,0.67085224,-0.7316726,,-0.121193424,0.24913317,-0.12403549,0.26266408,0.5622209,0.7841653,-0.9568491,0.2564585,0.13663389,-0.12428745,-0.78621674,0.60532296,,-0.11712636,0.4363795,-0.31361538,-0.033316616,-0.99301803,-0.11316028,0.35079724,-0.11763838,0.9290331,-0.9358586,-0.008744079,0.3522673,,1.0731818511337348,0.5073681043708018,0.19020722428000003,-0.40575004064255465,-0.059983423397028356,0.9128284941894558,0.7538328652096988,,-1.4968895902780626,0.2211559013191673,0.23124517310000003,-1.3325795908441522,-1.0936385441225853,-1.2989165881238627,-0.14504953072724014,,-0.0681136557206437,-0.037411132516498455,0.0911007994,-0.1076111944439502,,1.09523535e-05,-2.3841858e-06,3.0994415e-06,1.0,1.167506e-05,1.0699034e-05,-1.167506e-05,1.0,1.937151e-06,-1.0706484e-05,-1.9669533e-06,1.0,794,2.42,0,0,0.0,False,0.9286378711524277,0.015063405458049406
2.423806916922331,19:54:22.209693,19:53:02.641477,0,,NaN,NaN,NaN,NaN,NaN,NaN,NaN,NaN,NaN,NaN,NaN,NaN,,NaN,NaN,NaN,NaN,NaN,NaN,NaN,NaN,NaN,NaN,NaN,NaN,,NaN,NaN,NaN,NaN,NaN,NaN,NaN,NaN,NaN,NaN,NaN,NaN,,-0.12119458,0.24913006,-0.124029174,0.26225325,0.5621859,0.7843279,-0.95696026,0.2562014,0.13633731,-0.124299,-0.7863256,0.6051792,,-0.1177199,0.4360262,-0.31361902,-0.0049915602,-0.992982,-0.11816025,0.35698205,-0.112145424,0.92735493,-0.9340979,-0.03755214,0.35503653,,1.0731664056679864,0.5073603816379276,0.19021370573000002,-0.40616942052952365,-0.059983423397028356,0.9129918516697368,0.7541595533419674,,-1.4977313681613529,0.21831393562145265,0.23178961490000002,-1.351241995814275,-1.118643023579661,-1.2782003967868554,-0.14488618666110575,,-0.0681136557206437,-0.037411132516498455,0.0911007994,-0.1076111944439502,,NaN,NaN,NaN,NaN,NaN,NaN,NaN,NaN,NaN,NaN,NaN,NaN,823,2.509,0,0,0.0,False,0.927922938530175,0.013614999434665265
2.455875052837655,19:54:22.306145,19:53:02.785436,0,,0.12516662,-0.024479434,0.039656833,-0.24332902,-0.67738557,-0.6942188,-0.76314837,-0.30805376,0.5680735,-0.5986615,0.6680208,-0.44198734,,0.120305575,0.0133688785,0.024688542,-0.21113965,0.9756394,0.059562735,-0.4647622,-0.15381384,0.8719733,0.85989314,0.15642563,0.4859166,,0.083683096,1.2898983,0.42706567,0.9923713,0.09965292,-0.072584055,0.024220137,-0.734865,-0.6777808,-0.12088232,0.67085224,-0.7316726,,-0.121190354,0.24912933,-0.12402822,0.2610411,0.56156594,0.7851759,-0.95724046,0.25564995,0.13540252,-0.12469275,-0.7869478,0.6042888,,-0.11912649,0.4356017,-0.31358936,0.030923557,-0.9918112,-0.12391212,0.3628759,-0.10437264,0.9259738,-0.93132424,-0.07359913,0.35667685,,1.0731972965994832,0.5073603816379276,0.19021500202000002,-0.4074275601904308,-0.060393332896324675,0.9139795353019506,0.7541595533419674,,-1.5014305572081066,0.21374207775991175,0.23280590626000003,-1.3730497499366654,-1.1482931440287616,-1.2535326392438886,-0.1457029069917768,,-0.0681136557206437,-0.037411132516498455,0.0911007994,-0.1076111944439502,,1.09523535e-05,-2.3841858e-06,3.0994415e-06,1.0,1.167506e-05,1.0699034e-05,-1.167506e-05,1.0,1.937151e-06,-1.0706484e-05,-1.9669533e-06,1.0,831,2.534,0,0,0.0,False,0.9285782934339064,0.014628883651033764
2.5523370900191367,19:54:22.327163,19:53:02.785436,0,,0.1251696,-0.024480864,0.039657846,-0.24271752,-0.67751735,-0.69430417,-0.76331335,-0.3083199,0.5677074,-0.59869945,0.66776425,-0.4423235,,0.12061148,0.013291661,0.024738252,-0.21773271,0.97406185,0.061611127,-0.4639075,-0.1588234,0.8715302,0.85870975,0.16117877,0.48645568,,0.083683096,1.2898983,0.42706567,0.9923713,0.09965292,-0.072584055,0.024220137,-0.734865,-0.6777808,-0.12088232,0.67085224,-0.7316726,,-0.12119354,0.24912886,-0.12402949,0.26042902,0.5617096,0.7852764,-0.95740753,0.25528505,0.13490874,-0.12468978,-0.7869637,0.60426867,,-0.11943845,0.43555045,-0.3136347,0.03764418,-0.99131095,-0.12603785,0.36336607,-0.10391432,0.9258331,-0.9308856,-0.080650106,0.356297,,1.0731818511337348,0.5073681043708018,0.19021370573000002,-0.4080566300208844,-0.060393332896324675,0.9139795353019506,0.7541595533419674,,-1.5024499579475041,0.21285396347937593,0.23296794251000003,-1.3759854091454489,-1.1536219675196138,-1.2487789472990252,-0.14504953072724014,,-0.0681136557206437,-0.037411132516498455,0.0911007994,-0.1076111944439502,,1.09523535e-05,-2.3841858e-06,3.0994415e-06,1.0,1.167506e-05,1.0699034e-05,-1.167506e-05,1.0,1.937151e-06,-1.0706484e-05,-1.9669533e-06,1.0,839,2.559,0,0,0.0,False,0.9276846276560913,0.014001241040900947
2.573348111938685,19:54:22.358289,19:53:02.785436,0,,0.1251675,-0.024486326,0.039655045,-0.24257798,-0.676174,-0.69566137,-0.76369506,-0.30911738,0.5667596,-0.5982691,0.6687565,-0.44140565,,0.12111381,0.013239358,0.02487117,-0.23133919,0.97096276,0.060938016,-0.45958027,-0.16427642,0.87281114,0.85747784,0.1739095,0.48423892,,0.083683096,1.2898983,0.42706567,0.9923713,0.09965292,-0.072584055,0.024220137,-0.734865,-0.6777808,-0.12088232,0.67085224,-0.7316726,,-0.1211915,0.24912305,-0.12403149,0.26020768,0.56019485,0.786431,-0.9573961,0.25533664,0.13489236,-0.12523866,-0.788026,0.6027689,,-0.1199582,0.43555343,-0.3136858,0.051362675,-0.99083644,-0.1249201,0.36695874,-0.0976103,0.9251019,-0.92881817,-0.09335623,0.35858256,,1.0731818511337348,0.5073603816379276,0.19021240944,-0.40826631996436896,-0.06093987889538644,0.9158137454991259,0.7533428330112957,,-1.5042261865085758,0.2114175351647702,0.23325312631000003,-1.390034635358912,-1.1642796145013181,-1.237229594905785,-0.14521287479337408,,-0.0681136557206437,-0.037411132516498455,0.0911007994,-0.1076111944439502,,1.09523535e-05,-2.3841858e-06,3.0994415e-06,1.0,1.167506e-05,1.0699034e-05,-1.167506e-05,1.0,1.937151e-06,-1.0706484e-05,-1.9669533e-06,1.0,851,2.596,0,0,0.0,False,0.9270888504708807,0.014628883651033764
2.6044350939337164,19:54:22.386947,19:53:02.915518,0,,0.12516254,-0.024489015,0.039655373,-0.24278738,-0.6753189,-0.6964184,-0.7636481,-0.30967528,0.5665182,-0.59824395,0.6693621,-0.44052082,,0.12151547,0.013118509,0.024908364,-0.23639423,0.96975875,0.06070971,-0.4568851,-0.16608071,0.87388396,0.8575394,0.17884377,0.48232892,,0.083683096,1.2898983,0.42706567,0.9923713,0.09965292,-0.072584055,0.024220137,-0.734865,-0.6777808,-0.12088232,0.67085224,-0.7316726,,-0.12118684,0.24912147,-0.124034286,0.26041502,0.5592304,0.7870485,-0.95733756,0.2553151,0.1353476,-0.12525487,-0.7887177,0.60186017,,-0.120363094,0.43545243,-0.31374213,0.0563941,-0.9906404,-0.12430313,0.36939275,-0.09496411,0.9244084,-0.9275606,-0.09804785,0.36057997,,1.0731972965994832,0.5073372134393049,0.19020981686000002,-0.4080566300208844,-0.06093987889538644,0.9169572478610938,0.7530161448790273,,-1.5055158828985713,0.21002744324740977,0.23344238465000003,-1.3965350236069323,-1.1671489809963922,-1.2321944205035216,-0.14602959512404556,,-0.0681136557206437,-0.037411132516498455,0.0911007994,-0.1076111944439502,,1.09523535e-05,-2.3841858e-06,3.0994415e-06,1.0,1.167506e-05,1.0699034e-05,-1.167506e-05,1.0,1.937151e-06,-1.0706484e-05,-1.9669533e-06,1.0,859,2.621,0,0,0.0,False,0.9267313841597544,0.01414608164323905
2.633139705983922,19:54:22.416390,19:53:02.915518,0,,0.12516314,-0.024487056,0.03966041,-0.24116296,-0.6754538,-0.69685185,-0.7639906,-0.31065854,0.5655172,-0.5984638,0.66877013,-0.44112104,,0.12182832,0.01301061,0.024951696,-0.25278527,0.9655591,0.06160508,-0.4529884,-0.17437556,0.8742967,0.8549276,0.19310294,0.48146665,,0.083683096,1.2898983,0.42706567,0.9923713,0.09965292,-0.072584055,0.024220137,-0.734865,-0.6777808,-0.12088232,0.67085224,-0.7316726,,-0.12118793,0.24912633,-0.124036476,0.25881135,0.55936706,0.78748024,-0.95779306,0.2541983,0.1342225,-0.12509649,-0.78898144,0.6015473,,-0.12068161,0.43537557,-0.31380564,0.07309333,-0.9894598,-0.1250068,0.37201786,-0.08924559,0.9239253,-0.9253432,-0.114037536,0.36157346,,1.0732127420652318,0.5073526589050534,0.19020722428000003,-0.40973414956876053,-0.060803242395621,0.9172542236581,0.7525261126806244,,-1.5063036016517422,0.20859101493280402,0.23367701314000003,-1.4110036297073645,-1.1817690864712944,-1.2185574512650525,-0.14586625105791118,,-0.0681136557206437,-0.037411132516498455,0.0911007994,-0.1076111944439502,,1.09523535e-05,-2.3841858e-06,3.0994415e-06,1.0,1.167506e-05,1.0699034e-05,-1.167506e-05,1.0,1.937151e-06,-1.0706484e-05,-1.9669533e-06,1.0,888,2.71,0,0,0.0,False,0.925956873818981,0.015449647064285088
2.6625581418629736,19:54:22.500466,19:53:03.044728,0,,0.12515587,-0.024481453,0.039682075,-0.24212171,-0.6718669,-0.6999799,-0.76327276,-0.3134963,0.5649201,-0.5989922,0.6710551,-0.43691355,,0.12209466,0.012761433,0.02489394,-0.2956282,0.9539345,0.051116444,-0.43357584,-0.18166178,0.88261604,0.85124385,0.23876329,0.46730733,,0.083683096,1.2898983,0.42706567,0.9923713,0.09965292,-0.072584055,0.024220137,-0.734865,-0.6777808,-0.12088232,0.67085224,-0.7316726,,-0.12118309,0.24914548,-0.12404926,0.25988027,0.5553173,0.7899905,-0.9575987,0.2535705,0.13677245,-0.12436616,-0.7920383,0.5976691,,-0.12093965,0.43513644,-0.31391796,0.11642656,-0.9868882,-0.1117881,0.38726515,-0.05853673,0.92010826,-0.9145876,-0.15041667,0.37537217,,1.073289969393974,0.5073835498365503,0.19019296509000003,-0.408685699851338,-0.060120059896793795,0.9222512884691763,0.7486058550934018,,-1.5059792468710247,0.2045211347080877,0.23407238159000002,-1.4797819311702882,-1.2190708509072596,-1.1705794344257083,-0.14619293919017995,,-0.0681136557206437,-0.037411132516498455,0.0911007994,-0.1076111944439502,,1.09523535e-05,-2.3841858e-06,3.0994415e-06,1.0,1.167506e-05,1.0699034e-05,-1.167506e-05,1.0,1.937151e-06,-1.0706484e-05,-1.9669533e-06,1.0,896,2.734,0,0,0.0,False,0.922263055270677,0.01448404304869566
2.7466332628391683,19:54:22.529688,19:53:03.044728,0,,0.1251502,-0.02447331,0.03968896,-0.24203281,-0.6719348,-0.6999455,-0.7627008,-0.31416216,0.56532264,-0.59975624,0.67067564,-0.43644768,,0.12211473,0.012597907,0.024835765,-0.3078293,0.9500761,0.050956614,-0.4256774,-0.18542397,0.885673,0.8509054,0.25094503,0.46150488,,0.083683096,1.2898983,0.42706567,0.9923713,0.09965292,-0.072584055,0.024220137,-0.734865,-0.6777808,-0.12088232,0.67085224,-0.7316726,,-0.12117778,0.24915631,-0.12404947,0.25993255,0.55538386,0.78992647,-0.9577075,0.25282815,0.13738327,-0.12341521,-0.79222894,0.5976136,,-0.1209533,0.43498355,-0.31400135,0.12870458,-0.98551375,-0.11044379,0.39368924,-0.051441245,0.9178031,-0.910189,-0.161606,0.38136542,,1.0733363057912193,0.5073681043708018,0.19019166880000002,-0.408685699851338,-0.05916360439843572,0.9223698292848475,0.7481158228949989,,-1.5055544965629424,0.20268312428402227,0.23412941835000003,-1.50767069365373,-1.2289086788903714,-1.1473650996934217,-0.14651962732244828,,-0.0681136557206437,-0.037411132516498455,0.0911007994,-0.1076111944439502,,1.09523535e-05,-2.3841858e-06,3.0994415e-06,1.0,1.167506e-05,1.0699034e-05,-1.167506e-05,1.0,1.937151e-06,-1.0706484e-05,-1.9669533e-06,1.0,904,2.76,0,0,0.0,False,0.9216077003669456,0.014097801442459978
2.7758879319299012,19:54:22.551487,19:53:03.044728,0,,0.12515089,-0.02446615,0.039688125,-0.24202207,-0.669919,-0.70187867,-0.76260644,-0.31590188,0.56447977,-0.5998806,0.6718738,-0.43442944,,0.12215713,0.0124213435,0.02472812,-0.31136632,0.9491641,0.046244413,-0.41688493,-0.180163,0.8909255,0.8539661,0.25812557,0.45178896,,0.083683096,1.2898983,0.42706567,0.9923713,0.09965292,-0.072584055,0.024220137,-0.734865,-0.6777808,-0.12088232,0.67085224,-0.7316726,,-0.12117783,0.24916095,-0.124043904,0.2599448,0.5531083,0.7915175,-0.9577242,0.25231093,0.13821572,-0.12326024,-0.7939839,0.5953121,,-0.12097992,0.43478245,-0.31405973,0.13186358,-0.98581547,-0.10382617,0.40216509,-0.042529553,0.91457886,-0.90602165,-0.1623549,0.39085248,,1.0733517512569677,0.5073835498365503,0.19019685396000002,-0.408685699851338,-0.05902696789867027,0.9252805247663519,0.7472991025643276,,-1.5052224190493508,0.20087600479145373,0.23414238125000003,-1.5315753472109659,-1.2291819518899023,-1.1332568780621333,-0.14439615446270304,,-0.0681136557206437,-0.037411132516498455,0.0911007994,-0.1076111944439502,,1.09523535e-05,-2.3841858e-06,3.0994415e-06,1.0,1.167506e-05,1.0699034e-05,-1.167506e-05,1.0,1.937151e-06,-1.0706484e-05,-1.9669533e-06,1.0,912,2.785,0,0,0.0,False,0.9206544568706092,0.01467716385181328
2.7976603168062866,19:54:22.579336,19:53:03.044728,0,,0.12515835,-0.024452962,0.039694235,-0.24184495,-0.6706268,-0.7012636,-0.7617124,-0.31649113,0.5653562,-0.60108674,0.67088974,-0.43428296,,0.122182325,0.012259681,0.02463597,-0.31297284,0.9488593,0.04140226,-0.41239232,-0.17503396,0.89403343,0.85555875,0.26273423,0.4460831,,0.083683096,1.2898983,0.42706567,0.9923713,0.09965292,-0.072584055,0.024220137,-0.734865,-0.6777808,-0.12088232,0.67085224,-0.7316726,,-0.12118502,0.24917448,-0.124038234,0.25999025,0.5538909,0.79095507,-0.95790374,0.2512327,0.13893348,-0.12175981,-0.7937802,0.5958922,,-0.120992124,0.43460473,-0.31411922,0.13327526,-0.9862316,-0.0979026,0.40649262,-0.035696886,0.9129564,-0.9038813,-0.16147119,0.39613837,,1.0733363057912193,0.5073989953022987,0.19020074283000002,-0.408685699851338,-0.057523966401250425,0.9247083577468158,0.7472991025643274,,-1.504921232467256,0.19963264479870357,0.23414108496000002,-1.5431082941026149,-1.2291819518899023,-1.1294996560156674,-0.1466829713885831,,-0.0681136557206437,-0.037411132516498455,0.0911007994,-0.1076111944439502,,1.09523535e-05,-2.3841858e-06,3.0994415e-06,1.0,1.167506e-05,1.0699034e-05,-1.167506e-05,1.0,1.937151e-06,-1.0706484e-05,-1.9669533e-06,1.0,920,2.809,0,0,0.0,False,0.9191054361890623,0.014725444052592795
2.825525312917307,19:54:22.602026,19:53:03.044728,0,,0.12515937,-0.02443523,0.03968014,-0.24183773,-0.6699765,-0.70188737,-0.7616196,-0.31712508,0.5651258,-0.60120714,0.6712401,-0.43357453,,0.12215011,0.012075443,0.024511874,-0.3173818,0.9478336,0.029668812,-0.40474045,-0.16368817,0.8996618,0.8575862,0.27352813,0.43557823,,0.083683096,1.2898983,0.42706567,0.9923713,0.09965292,-0.072584055,0.024220137,-0.734865,-0.6777808,-0.12088232,0.67085224,-0.7316726,,-0.121182896,0.24917772,-0.124015905,0.26000538,0.553156,0.7914642,-0.95791876,0.2509881,0.13927157,-0.12160919,-0.7943698,0.5951368,,-0.12094262,0.43439552,-0.31418374,0.13745075,-0.98692054,-0.08423296,0.41355866,-0.020092387,0.91025573,-0.90004253,-0.15995061,0.40538782,,1.073359473989842,0.507406718035173,0.19022277976000002,-0.408685699851338,-0.05738732990148499,0.9256587634649467,0.7455023178368504,,-1.5042956911044438,0.19794908903212263,0.23412941835000003,-1.5653354281119745,-1.2309582263868528,-1.1241306437408671,-0.14537621885950847,,-0.0681136557206437,-0.037411132516498455,0.0911007994,-0.1076111944439502,,1.09523535e-05,-2.3841858e-06,3.0994415e-06,1.0,1.167506e-05,1.0699034e-05,-1.167506e-05,1.0,1.937151e-06,-1.0706484e-05,-1.9669533e-06,1.0,949,2.898,0,0,0.0,False,0.9166031720111789,0.015063405458049406
2.8482129878830165,19:54:22.682108,19:53:03.227702,0,,0.12518537,-0.024314702,0.03954114,-0.24093306,-0.6699008,-0.7022707,-0.76136476,-0.31828237,0.5648186,-0.6018929,0.67076766,-0.43335414,,0.121626996,0.011691738,0.024120033,-0.3195507,0.9473279,0.021381889,-0.3983541,-0.15477772,0.9040785,0.8597683,0.28038138,0.4268313,,0.083683096,1.2898983,0.42706567,0.9923713,0.09965292,-0.072584055,0.024220137,-0.734865,-0.6777808,-0.12088232,0.67085224,-0.7316726,,-0.12118191,0.24916957,-0.12383026,0.25921738,0.5530563,0.79179233,-0.95823306,0.24981906,0.13921157,-0.12081298,-0.7948077,0.5947142,,-0.12036675,0.4339166,-0.31429952,0.13936023,-0.9874493,-0.07431465,0.4196351,-0.009085076,0.90764743,-0.89693093,-0.157675,0.41310227,,1.0733440285240934,0.5073912725694245,0.19040814923000002,-0.40952445962527606,-0.056567510902892346,0.9262154371448765,0.7417454043157621,,-1.5011216478931375,0.19621919686829634,0.23389997502,-1.5823203135342208,-1.233417683382631,-1.1202465104510984,-0.1461929391901795,,-0.0681136557206437,-0.037411132516498455,0.0911007994,-0.1076111944439502,,1.09523535e-05,-2.3841858e-06,3.0994415e-06,1.0,1.167506e-05,1.0699034e-05,-1.167506e-05,1.0,1.937151e-06,-1.0706484e-05,-1.9669533e-06,1.0,957,2.923,0,0,0.0,False,0.9155307730778004,0.014628883651033764
2.9283104948699474,19:54:22.719872,19:53:03.227702,0,,0.12519899,-0.024244703,0.03945543,-0.24032827,-0.66961145,-0.7027538,-0.7615323,-0.31886986,0.56426114,-0.6019227,0.67077756,-0.4332973,,0.12111129,0.01169977,0.023837745,-0.32126594,0.9468739,0.014762022,-0.39519605,-0.14822003,0.90655994,0.86058605,0.28541297,0.42181894,,0.083683096,1.2898983,0.42706567,0.9923713,0.09965292,-0.072584055,0.024220137,-0.734865,-0.6777808,-0.12088232,0.67085224,-0.7316726,,-0.12117922,0.2491615,-0.123719096,0.2586107,0.55272543,0.79222167,-0.95839626,0.24938789,0.13886075,-0.12081863,-0.7951731,0.59422433,,-0.11980702,0.43377492,-0.3141884,0.14098464,-0.98775584,-0.06679591,0.42252436,-0.0009831323,0.90635103,-0.8953192,-0.15600447,0.4172123,,1.0733440285240934,0.5073835498365503,0.19051963017,-0.4101535294557297,-0.056567510902892346,0.9267871883258605,0.7415820602496277,,-1.4984959187159013,0.19635048332715815,0.23379238295000002,-1.5944823302563231,-1.2362870498777052,-1.117253304552349,-0.14586625105791118,,-0.0681136557206437,-0.037411132516498455,0.0911007994,-0.1076111944439502,,1.09523535e-05,-2.3841858e-06,3.0994415e-06,1.0,1.167506e-05,1.0699034e-05,-1.167506e-05,1.0,1.937151e-06,-1.0706484e-05,-1.9669533e-06,1.0,965,2.949,0,0,0.0,False,0.9148158404555478,0.014580603450254692
2.9660717169754207,19:54:22.732293,19:53:03.227702,0,,0.1251983,-0.024237327,0.03944604,-0.23991334,-0.6695519,-0.70295215,-0.7615659,-0.3192513,0.56400007,-0.6020457,0.6706556,-0.43331528,,0.12101455,0.011687834,0.02374655,-0.3207152,0.94704866,0.0155106485,-0.3953999,-0.14874564,0.90638494,0.86069787,0.2845585,0.42216802,,0.083683096,1.2898983,0.42706567,0.9923713,0.09965292,-0.072584055,0.024220137,-0.734865,-0.6777808,-0.12088232,0.67085224,-0.7316726,,-0.12117679,0.24916048,-0.12370745,0.2582136,0.552654,0.79240096,-0.9585191,0.24902445,0.13866502,-0.12069344,-0.79533666,0.5940309,,-0.119695224,0.43371108,-0.31415328,0.14041676,-0.98778194,-0.0676019,0.42240632,-0.001985995,0.90640444,-0.8954641,-0.15582983,0.41696647,,1.0733517512569677,0.5073681043708018,0.19053129678000003,-0.4105729093426987,-0.056430874403126906,0.9270024853827263,0.7409286839850905,,-1.4978781000859631,0.1963968197244035,0.23378719779,-1.593643570482385,-1.2364236863774707,-1.1173052441289337,-0.14651962732244872,,-0.0681136557206437,-0.037411132516498455,0.0911007994,-0.1076111944439502,,1.09523535e-05,-2.3841858e-06,3.0994415e-06,1.0,1.167506e-05,1.0699034e-05,-1.167506e-05,1.0,1.937151e-06,-1.0706484e-05,-1.9669533e-06,1.0,973,2.973,0,0,0.0,False,0.9132668197740013,0.01520824606038751
