AlexandreBanks6/ExpertPlaybackApp/resources/Motions/P_09/PC1/Data_PC1_8.csv
Task Time,PC1 Time,PC2 Time,Gaze Calib,s_T_psm1,Tx,Ty,Tz,R00,R01,R02,R10,R11,R12,R20,R21,R22,s_T_psm3,Tx,Ty,Tz,R00,R01,R02,R10,R11,R12,R20,R21,R22,cart_T_ecm,Tx,Ty,Tz,R00,R01,R02,R10,R11,R12,R20,R21,R22,ecm_T_psm1,Tx,Ty,Tz,R00,R01,R02,R10,R11,R12,R20,R21,R22,ecm_T_psm3,Tx,Ty,Tz,R00,R01,R02,R10,R11,R12,R20,R21,R22,psm1_joints,q1,q2,q3,q4,q5,q6,jaw,psm3_joints,q1,q2,q3,q4,q5,q6,jaw,ecm_joints,q1,q2,q3,q4,ecmi_T_ecm,Tx,Ty,Tz,R00,R01,R02,R10,R11,R12,R20,R21,R22,Sample #,Task Duration (s),Collisions (binary),Collisions (increments),Cumulative Collision Time (s),Clutch Press,MTMR Angle,MTML Angle
""
lci_T_si,,,,,-0.0493608,0.027893092,0.20932992,0.98721725,-0.03466899,0.1555641,0.080758385,-0.7326672,-0.6757787,0.13740528,0.6797035,-0.7205019
rci_T_si,,,,,-0.05870397,0.032032646,0.21918625,0.9859643,-0.04950044,0.15944943,0.07462208,-0.7236772,-0.68609244,0.1493518,0.6883611,-0.70982605
ecm_T_lc,,,,,-4.4061628e-05,-0.00034663224,-0.01840835,-0.99912,0.030754527,0.028518902,-0.031987965,-0.99852574,-0.043852776,0.027128186,-0.04472645,0.9986309
ecm_T_rc,,,,,-0.0043358393,0.01870579,-0.007592615,-0.99555075,-0.052743673,-0.078081585,0.04863213,-0.9973746,0.053654674,-0.08070653,0.04961868,0.9955021
cart_T_ecmi,,,,,0.083672695,1.2898984,0.4270709,0.99237174,0.099641204,-0.072594866,0.024204304,-0.7348666,-0.6777796,-0.12088232,0.67085224,-0.7316726
ecmac_T_ecmrep_psm1,,,,,0.023195708,-0.2631036,-0.30022871,0.99664557,0.07921609,0.02055357,-0.078295335,0.99603295,-0.04228661,-0.023821812,0.040535513,0.9988941
ecmac_T_ecmrep_psm3,,,,,0.022281613,-0.4507852,-0.5326207,0.99995744,0.002629678,0.008843231,-0.0032003638,0.99787027,0.06515156,-0.008653069,-0.06517708,0.9978362
""
0,19:58:14.587053,19:56:55.084457,0,,0.12872991,0.006912388,0.019787371,-0.9329459,-0.16093732,-0.32204235,-0.27275777,-0.26787508,0.92403805,-0.2349793,0.94991684,0.206016,,0.094454244,-0.00042040646,0.044594288,0.5183268,0.4044246,0.7535105,-0.85245085,0.17396921,0.49301338,0.068299145,-0.89787275,0.43492502,,0.083716266,1.2899011,0.4270712,0.9923729,0.09960524,-0.072628036,0.024155743,-0.73487145,-0.6777761,-0.12088232,0.67085224,-0.7316726,,-0.119873814,0.25829133,-0.08786146,0.9326411,0.017616458,0.3603752,-0.32757217,0.46004805,0.8252589,-0.15125178,-0.8877192,0.43483037,,-0.0979509,0.44459927,-0.34049037,-0.5474029,-0.22223338,-0.80682236,-0.571166,-0.6054292,0.55427873,-0.61165303,0.7642433,0.20448157,,1.1101196824711506,0.5476962154400022,0.22560501531000002,0.5395322245856812,-0.12652539878279787,1.1168878227074042,-0.4127704551213236,,-1.5046354913509097,0.23645463514300605,0.19194425288000003,-0.3434721274276509,-0.17475808319999833,-1.164111307200851,0.5914688634722252,,-0.07327110366028695,-0.03740458753180348,0.09109008376,-0.10826536583874626,,4.325807e-05,2.5629997e-06,-5.2452087e-06,1.0,-3.580749e-05,-3.283471e-05,3.580749e-05,1.0,-5.90086e-06,3.2827258e-05,5.8710575e-06,1.0,37,0.108,0,0,0.0,False,-0.2602355019347904,0.7689587406292935
0.12849496095441282,19:58:14.617316,19:56:55.152002,0,,0.1289212,0.0069260597,0.020142019,-0.93045896,-0.17878665,-0.31981483,-0.2671761,-0.26622683,0.9261427,-0.2507252,0.9471846,0.19994557,,0.094454974,-0.00042383373,0.044596672,0.51822937,0.40472186,0.75341797,-0.85250247,0.17400289,0.49291232,0.068395495,-0.8977323,0.43519974,,0.083716266,1.2899011,0.4270712,0.9923729,0.09960524,-0.072628036,0.024155743,-0.73487145,-0.6777761,-0.12088232,0.67085224,-0.7316726,,-0.120107435,0.25853735,-0.088079326,0.93261224,0.03574136,0.35910583,-0.3343601,0.45999074,0.8225642,-0.13578579,-0.8872041,0.44094345,,-0.097952165,0.44459867,-0.34049436,-0.547327,-0.22255062,-0.8067865,-0.5711159,-0.605339,0.5544288,-0.61176777,0.76422244,0.20421615,,1.110413146320371,0.5487078934465256,0.22536260908000003,0.5330318363376609,-0.11163202030836485,1.1102157467939118,-0.4126071110551892,,-1.504643214083784,0.23644691241013183,0.1919416603,-0.3434721274276509,-0.17489471969976378,-1.1644082829978575,0.5932656481997021,,-0.07327110366028695,-0.03740458753180348,0.09109008376,-0.10826536583874626,,4.325807e-05,2.5629997e-06,-5.2452087e-06,1.0,-3.580749e-05,-3.283471e-05,3.580749e-05,1.0,-5.90086e-06,3.2827258e-05,5.8710575e-06,1.0,48,0.141,0,0,0.0,False,-0.25910352528289105,0.7705037070542362
0.1587501869071275,19:58:14.652982,19:56:55.152002,0,,0.12896109,0.0069037974,0.020354062,-0.92808074,-0.18616891,-0.32250175,-0.26790327,-0.26771656,0.925503,-0.25863898,0.94534063,0.19858727,,0.09445043,-0.00042681396,0.044600904,0.518057,0.40473548,0.75352913,-0.8525939,0.17373216,0.49284974,0.068561584,-0.89777863,0.43507814,,0.083716266,1.2899011,0.4270712,0.9923729,0.09960524,-0.072628036,0.024155743,-0.73487145,-0.6777761,-0.12088232,0.67085224,-0.7316726,,-0.12017571,0.2586648,-0.088240996,0.93122077,0.04316865,0.36189002,-0.34038427,0.45789638,0.82126087,-0.13025542,-0.88795686,0.44109654,,-0.097948596,0.44460043,-0.34050003,-0.5471919,-0.22256346,-0.8068745,-0.5710307,-0.6055525,0.55428344,-0.61196816,0.76404953,0.20426287,,1.1107375011010885,0.5491635346861049,0.22519279509,0.5267411380331252,-0.10630319681751266,1.1097910280764984,-0.41260711105518943,,-1.5046354913509097,0.23646235787588027,0.19193517885000003,-0.3434721274276509,-0.17516799269929464,-1.1642671259306052,0.593755680398105,,-0.07327110366028695,-0.03740458753180348,0.09109008376,-0.10826536583874626,,4.325807e-05,2.5629997e-06,-5.2452087e-06,1.0,-3.580749e-05,-3.283471e-05,3.580749e-05,1.0,-5.90086e-06,3.2827258e-05,5.8710575e-06,1.0,59,0.174,0,0,0.0,False,-0.2594609915940169,0.7740764419119164
0.19441104400902987,19:58:14.683790,19:56:55.246871,0,,0.12892912,0.0068333745,0.02075842,-0.9252472,-0.19794922,-0.32362583,-0.26730075,-0.2651724,0.9264092,-0.2691986,0.943663,0.19243804,,0.094437115,-0.00043218583,0.044608116,0.5179802,0.4048853,0.7535014,-0.85263586,0.17372304,0.49278027,0.06861898,-0.8977128,0.43520483,,0.083748415,1.2899036,0.427072,0.9923737,0.09957987,-0.07265143,0.02412149,-0.7348749,-0.6777736,-0.12088232,0.67085224,-0.7316726,,-0.12022852,0.25889203,-0.08857757,0.92980486,0.055213414,0.36388785,-0.3472889,0.45900053,0.8177463,-0.12187415,-0.8867187,0.44595593,,-0.09796558,0.4446032,-0.34050557,-0.5471573,-0.22272082,-0.8068546,-0.5709947,-0.60551906,0.5543571,-0.6120327,0.7640302,0.20414177,,1.1116024471830017,0.5497350169187974,0.22484279679000002,0.5194019900111668,-0.0979683703318208,1.1037296446122817,-0.4121170788567866,,-1.504643214083784,0.2364778033416287,0.19192740111,-0.3434721274276509,-0.1753046291990601,-1.1644007442473305,0.5983293142498649,,-0.07327110366028695,-0.03740458753180348,0.09109008376,-0.10826536583874626,,7.5131655e-05,4.351139e-06,-9.894371e-06,1.0,-6.106496e-05,-5.5991113e-05,6.105751e-05,1.0,-1.0073185e-05,5.5983663e-05,1.0043383e-05,1.0,70,0.207,0,0,0.0,False,-0.2594609915940169,0.7814633126311734
0.2252081020269543,19:58:14.718847,19:56:55.246871,0,,0.12887675,0.0067679286,0.021112978,-0.9213083,-0.21056077,-0.32688707,-0.26748472,-0.2669558,0.9258437,-0.28221077,0.9404248,0.18962678,,0.09442114,-0.0004598722,0.044631958,0.51696074,0.40554014,0.75384927,-0.8531954,0.17276442,0.4921484,0.06934765,-0.8976022,0.4353174,,0.083748415,1.2899036,0.427072,0.9923737,0.09957987,-0.07265143,0.02412149,-0.7348749,-0.6777736,-0.12088232,0.67085224,-0.7316726,,-0.120227,0.25908864,-0.08888429,0.92756355,0.067969345,0.3674317,-0.35645786,0.45591706,0.8155228,-0.11208783,-0.8874231,0.44712025,,-0.097955234,0.44460478,-0.34054402,-0.5463111,-0.22341342,-0.80723643,-0.5706921,-0.606145,0.5539844,-0.6130699,0.7633313,0.20364347,,1.1125832342580282,0.5500516489666407,0.22452650203000002,0.5095465626673942,-0.08799390584894365,1.1018854006332661,-0.4119537347906522,,-1.5046354913509097,0.23648552607450293,0.19189110499,-0.34326243748416635,-0.1766709941967145,-1.1645117463124748,0.6048630768952361,,-0.07327110366028695,-0.03740458753180348,0.09109008376,-0.10826536583874626,,7.5131655e-05,4.351139e-06,-9.894371e-06,1.0,-6.106496e-05,-5.5991113e-05,6.105751e-05,1.0,-1.0073185e-05,5.5983663e-05,1.0043383e-05,1.0,81,0.239,0,0,0.0,False,-0.25975888018662197,0.7820909552413062
0.2602652770001441,19:58:14.749753,19:56:55.246871,0,,0.12885462,0.006727934,0.021531165,-0.9139728,-0.23357767,-0.3318058,-0.26698378,-0.26961654,0.92521703,-0.3055704,0.93421,0.18406078,,0.09438002,-0.00048237294,0.04467398,0.51625115,0.40573806,0.754229,-0.8536123,0.17229828,0.49158847,0.069503784,-0.89760244,0.43529218,,0.083748415,1.2899036,0.427072,0.9923737,0.09957987,-0.07265143,0.02412149,-0.7348749,-0.6777736,-0.12088232,0.67085224,-0.7316726,,-0.12026168,0.2593463,-0.089215025,0.92333996,0.09133274,0.37296337,-0.37232143,0.45051393,0.8114271,-0.09391533,-0.8880853,0.44998264,,-0.09792347,0.44462645,-0.34059384,-0.54565656,-0.22362174,-0.80762136,-0.57076126,-0.60647476,0.55355215,-0.6135882,0.76300836,0.2032923,,1.1138420397165267,0.5503837264802324,0.22418039260000003,0.4925616772451477,-0.06954797838060918,1.0981156497736468,-0.4135871754519951,,-1.504612323152287,0.23657819886899362,0.19183017936000002,-0.34284305759719735,-0.17749081319530713,-1.1644966688114207,0.6061698294243103,,-0.07327110366028695,-0.03740458753180348,0.09109008376,-0.10826536583874626,,7.5131655e-05,4.351139e-06,-9.894371e-06,1.0,-6.106496e-05,-5.5991113e-05,6.105751e-05,1.0,-1.0073185e-05,5.5983663e-05,1.0043383e-05,1.0,92,0.272,0,0,0.0,False,-0.25975888018662197,0.7788079015883032
0.29115813900716603,19:58:14.783679,19:56:55.246871,0,,0.12875217,0.006664738,0.022233367,-0.9015219,-0.2640693,-0.3428201,-0.26835108,-0.28033686,0.9216284,-0.3394789,0.9228643,0.18186656,,0.094319776,-0.0004884526,0.044719756,0.51553804,0.40590256,0.7546281,-0.8540313,0.17182106,0.49102738,0.069648296,-0.8976195,0.43523383,,0.083748415,1.2899036,0.427072,0.9923737,0.09957987,-0.07265143,0.02412149,-0.7348749,-0.6777736,-0.12088232,0.67085224,-0.7316726,,-0.12025503,0.25978404,-0.08977707,0.91527116,0.122150384,0.3838724,-0.3969366,0.43598384,0.8076877,-0.068702795,-0.89162624,0.44752938,,-0.09787317,0.44466403,-0.34063652,-0.5449966,-0.2237944,-0.80801904,-0.57084006,-0.6068203,0.553092,-0.61410123,0.7626829,0.20296417,,1.1160739095171777,0.5509397632471765,0.22360354355000003,0.46551167453564407,-0.043996952924471824,1.099333761620368,-0.4135871754519951,,-1.5045350958235448,0.23680215812234615,0.19176406857000003,-0.34242367771022825,-0.17844726869366523,-1.1644518521468108,0.6037196684322963,,-0.07327110366028695,-0.03740458753180348,0.09109008376,-0.10826536583874626,,7.5131655e-05,4.351139e-06,-9.894371e-06,1.0,-6.106496e-05,-5.5991113e-05,6.105751e-05,1.0,-1.0073185e-05,5.5983663e-05,1.0043383e-05,1.0,103,0.305,0,0,0.0,False,-0.25975888018662197,0.7867258545161344
0.32509733689948916,19:58:14.815589,19:56:55.375632,0,,0.12866214,0.006596558,0.022943765,-0.8894827,-0.29213792,-0.35139138,-0.26693127,-0.29196936,0.9184234,-0.37090185,0.91071916,0.18172094,,0.094217785,-0.000465326,0.044777572,0.51418,0.40544966,0.75579727,-0.85489607,0.17130533,0.48970112,0.069077075,-0.8979227,0.43469906,,0.083748415,1.2899036,0.427072,0.9923737,0.09957987,-0.07265143,0.02412149,-0.7348749,-0.6777736,-0.12088232,0.67085224,-0.7316726,,-0.120262094,0.26022336,-0.09034662,0.90749705,0.15060672,0.39213103,-0.4178066,0.42015937,0.8055456,-0.043436933,-0.8948652,0.44421786,,-0.097783275,0.44473487,-0.34067088,-0.5435819,-0.22330824,-0.80910575,-0.57166487,-0.6073283,0.55168074,-0.61458766,0.762421,0.2024752,,1.1182053837904637,0.5515189682127434,0.22302539821000003,0.44202640086537737,-0.018582563968099902,1.10131672129191,-0.4142405517165322,,-1.5043574729674376,0.2372964130262965,0.19168110601000002,-0.3409558481058366,-0.1798136336913196,-1.163991103030971,0.6089466785485929,,-0.07327110366028695,-0.03740458753180348,0.09109008376,-0.10826536583874626,,7.5131655e-05,4.351139e-06,-9.894371e-06,1.0,-6.106496e-05,-5.5991113e-05,6.105751e-05,1.0,-1.0073185e-05,5.5983663e-05,1.0043383e-05,1.0,114,0.338,0,0,0.0,False,-0.25975888018662197,0.7842152840756027
0.35703277005814016,19:58:14.853831,19:56:55.375632,0,,0.12856828,0.006572768,0.023746252,-0.87828577,-0.32001585,-0.35525215,-0.25895494,-0.3062239,0.9160618,-0.401941,0.8965583,0.18608236,,0.09408342,-0.00042968243,0.044822752,0.51086915,0.40406752,0.7587767,-0.8570467,0.1706458,0.4861592,0.06695908,-0.8986709,0.43348253,,0.083748415,1.2899036,0.427072,0.9923737,0.09957987,-0.07265143,0.02412149,-0.7348749,-0.6777736,-0.12088232,0.67085224,-0.7316726,,-0.12027388,0.26075813,-0.09095264,0.9009914,0.17893897,0.39521566,-0.43360773,0.40103906,0.8069399,-0.014103927,-0.89841443,0.43892205,,-0.097658835,0.44480845,-0.3406925,-0.53999734,-0.2218303,-0.81190777,-0.57424456,-0.6081478,0.54808706,-0.6153422,0.76219916,0.20101336,,1.1206998265088381,0.5522757960344173,0.2224174382,0.4233639958952547,0.010794283481469795,1.1049692861646894,-0.4168540567746808,,-1.5040176727209718,0.2379528453206056,0.19159555087000002,-0.3367620492361461,-0.1821364541873321,-1.1631588222899594,0.6081299582179216,,-0.07327110366028695,-0.03740458753180348,0.09109008376,-0.10826536583874626,,7.5131655e-05,4.351139e-06,-9.894371e-06,1.0,-6.106496e-05,-5.5991113e-05,6.105751e-05,1.0,-1.0073185e-05,5.5983663e-05,1.0043383e-05,1.0,125,0.37,0,0,0.0,False,-0.26101001227556386,0.7822840760444243
0.3952632579021156,19:58:14.884390,19:56:55.375632,0,,0.12841785,0.0065353736,0.024651766,-0.86107546,-0.35315657,-0.36582714,-0.2556367,-0.32125223,0.9118371,-0.43954408,0.8786794,0.1863426,,0.09390706,-0.00034364313,0.044848442,0.5095807,0.40365097,0.7598641,-0.85784805,0.17007476,0.48494458,0.06651464,-0.8989664,0.43293804,,0.083748415,1.2899036,0.427072,0.9923737,0.09957987,-0.07265143,0.02412149,-0.7348749,-0.6777736,-0.12088232,0.67085224,-0.7316726,,-0.12024392,0.2613554,-0.091650024,0.8890356,0.21289545,0.4053286,-0.4574983,0.37899163,0.8044008,0.01763712,-0.9005781,0.43433636,,-0.097487986,0.44490573,-0.34066972,-0.538673,-0.2213829,-0.812909,-0.57494193,-0.6086907,0.54675174,-0.6158516,0.76189584,0.2006029,,1.1235958513366724,0.5530094556574687,0.22172910821000003,0.3946364736378748,0.04249395142705198,1.1068094254147702,-0.41440389578266645,,-1.503446190488279,0.23887957326551254,0.19152295863000002,-0.335503909575239,-0.1840493651840483,-1.1629058314804583,0.6068232056888476,,-0.07327110366028695,-0.03740458753180348,0.09109008376,-0.10826536583874626,,7.5131655e-05,4.351139e-06,-9.894371e-06,1.0,-6.106496e-05,-5.5991113e-05,6.105751e-05,1.0,-1.0073185e-05,5.5983663e-05,1.0043383e-05,1.0,136,0.403,0,0,0.0,False,-0.25922268071993226,0.7811736314264968
0.4257514448836446,19:58:14.920384,19:56:55.375632,0,,0.12804511,0.0065219626,0.025932848,-0.8392407,-0.38949576,-0.3794313,-0.25403616,-0.33611223,0.90691465,-0.48077095,0.85750896,0.18313307,,0.093682304,-0.00022589415,0.044844627,0.5080476,0.40313458,0.76116365,-0.85883653,0.16991809,0.48324686,0.06547806,-0.8992277,0.4325533,,0.083748415,1.2899036,0.427072,0.9923737,0.09957987,-0.07265143,0.02412149,-0.7348749,-0.6777736,-0.12088232,0.67085224,-0.7316726,,-0.12004049,0.2622346,-0.09263281,0.8728437,0.25044954,0.41883048,-0.4852773,0.3549247,0.7990835,0.0514768,-0.9007239,0.43133125,,-0.097263075,0.44500762,-0.34061116,-0.5370024,-0.22083148,-0.8141633,-0.57617325,-0.6089245,0.54519296,-0.61615974,0.761869,0.1997567,,1.1282140455954586,0.5540906382598602,0.22077374248000003,0.35919887318899024,0.07624316686911577,1.104691291385469,-0.4135871754519951,,-1.5025889671392403,0.24002253773089777,0.19145814413,-0.3336167000838782,-0.1860989126805299,-1.1631131739482448,0.6043730446968332,,-0.07327110366028695,-0.03740458753180348,0.09109008376,-0.10826536583874626,,7.5131655e-05,4.351139e-06,-9.894371e-06,1.0,-6.106496e-05,-5.5991113e-05,6.105751e-05,1.0,-1.0073185e-05,5.5983663e-05,1.0043383e-05,1.0,147,0.436,0,0,0.0,False,-0.2599971910607066,0.7815115928319529
0.4618263419251889,19:58:14.946365,19:56:55.375632,0,,0.12770483,0.006552696,0.026957393,-0.8217084,-0.4167819,-0.38870063,-0.25014454,-0.34907183,0.90309274,-0.51207715,0.8393103,0.18257952,,0.09343837,-9.011477e-05,0.044819713,0.50743675,0.4031181,0.76157975,-0.85922587,0.16993433,0.4825485,0.0651055,-0.89923203,0.43260047,,0.083748415,1.2899036,0.427072,0.9923737,0.09957987,-0.07265143,0.02412149,-0.7348749,-0.6777736,-0.12088232,0.67085224,-0.7316726,,-0.11983301,0.26296943,-0.09339664,0.8598047,0.2788098,0.4277861,-0.504454,0.33396593,0.7962367,0.079132594,-0.9004065,0.4277922,,-0.097014844,0.44510803,-0.34052837,-0.53634423,-0.22081397,-0.8146018,-0.5766308,-0.60891503,0.5447196,-0.61630493,0.76188165,0.19925994,,1.13218353029281,0.5548938024787795,0.22004393121000002,0.33298763025342465,0.10384373982173474,1.1036663834957596,-0.41309714325359204,,-1.5015772891327168,0.24124272952502523,0.19140499624,-0.33298763025342465,-0.1878751871774806,-1.1637883884438458,0.6050264209613705,,-0.07327110366028695,-0.03740458753180348,0.09109008376,-0.10826536583874626,,7.5131655e-05,4.351139e-06,-9.894371e-06,1.0,-6.106496e-05,-5.5991113e-05,6.105751e-05,1.0,-1.0073185e-05,5.5983663e-05,1.0043383e-05,1.0,158,0.469,0,0,0.0,False,-0.25922268071993226,0.7824771968475424
0.48778341291472316,19:58:14.983592,19:56:55.521992,0,,0.12734547,0.006706409,0.027822167,-0.79358935,-0.44769573,-0.41204914,-0.25680134,-0.36749005,0.89387035,-0.5516059,0.8151808,0.1766673,,0.09308252,3.952533e-05,0.044786215,0.50745845,0.40242964,0.7619293,-0.8592323,0.16977704,0.48259258,0.06485152,-0.89957,0.4319353,,0.083748415,1.2899036,0.427072,0.9923737,0.09957987,-0.07265143,0.02412149,-0.7348749,-0.6777736,-0.12088232,0.67085224,-0.7316726,,-0.11957708,0.26368523,-0.09396475,0.83656955,0.31111443,0.4509536,-0.5373032,0.3050968,0.78627044,0.107035555,-0.90006876,0.4223975,,-0.0966553,0.44521177,-0.34046108,-0.5363179,-0.22007915,-0.81481797,-0.576827,-0.6091853,0.5442094,-0.61614424,0.76187825,0.19976936,,1.1361066785929161,0.5554575619785979,0.21952023005000001,0.2893721220086436,0.13130767627458828,1.1039780746118553,-0.41505727204720366,,-1.5000790789551173,0.24266371237388254,0.19129092272,-0.33298763025342465,-0.18951482517466592,-1.1640032696621598,0.6068232056888474,,-0.07327110366028695,-0.03740458753180348,0.09109008376,-0.10826536583874626,,7.5131655e-05,4.351139e-06,-9.894371e-06,1.0,-6.106496e-05,-5.5991113e-05,6.105751e-05,1.0,-1.0073185e-05,5.5983663e-05,1.0043383e-05,1.0,169,0.502,0,0,0.0,False,-0.25922268071993226,0.776345611348551
0.5250308790709823,19:58:15.017977,19:56:55.521992,0,,0.12676309,0.006939262,0.028883427,-0.7563951,-0.4853565,-0.43851498,-0.26366928,-0.3872818,0.8834542,-0.59861916,0.7838634,0.16496447,,0.09282687,0.000104524195,0.04476577,0.5065552,0.40269953,0.76238763,-0.8597306,0.16893548,0.482,0.06530687,-0.89960766,0.43178824,,0.083748415,1.2899036,0.427072,0.9923737,0.09957987,-0.07265143,0.02412149,-0.7348749,-0.6777736,-0.12088232,0.67085224,-0.7316726,,-0.11911992,0.2646007,-0.09465218,0.8053029,0.3509115,0.47785804,-0.5757358,0.27054098,0.7715801,0.14147615,-0.89647573,0.41989973,,-0.096398555,0.4452706,-0.34043628,-0.5355323,-0.22036238,-0.81525797,-0.5767025,-0.6097977,0.5436552,-0.6169436,0.7613062,0.19948286,,1.1415280370706218,0.555805084957938,0.21890578859,0.23485273670266726,0.16533016471618295,1.0987783488702414,-0.4140772076503978,,-1.4989824508869773,0.24361360851741215,0.19119499726000003,-0.3327779403099402,-0.1918376456706784,-1.1645595275035374,0.6020862277709533,,-0.07327110366028695,-0.03740458753180348,0.09109008376,-0.10826536583874626,,7.5131655e-05,4.351139e-06,-9.894371e-06,1.0,-6.106496e-05,-5.5991113e-05,6.105751e-05,1.0,-1.0073185e-05,5.5983663e-05,1.0043383e-05,1.0,180,0.534,0,0,0.0,False,-0.25952056931253775,0.7606062658944475
0.5593904010020196,19:58:15.046719,19:56:55.521992,0,,0.12632322,0.0070941597,0.029643446,-0.7243198,-0.51475525,-0.45868057,-0.26833642,-0.40234923,0.8752775,-0.63510346,0.7570615,0.15330186,,0.09258765,0.00013745576,0.04474747,0.50550056,0.40297583,0.7629414,-0.8604033,0.16920727,0.48070258,0.06461632,-0.8994329,0.43225613,,0.083748415,1.2899036,0.427072,0.9923737,0.09957987,-0.07265143,0.02412149,-0.7348749,-0.6777736,-0.12088232,0.67085224,-0.7316726,,-0.11877086,0.26524845,-0.09515585,0.7779119,0.382308,0.49869198,-0.605188,0.24223387,0.75833386,0.16911702,-0.89171934,0.41980484,,-0.096159294,0.44530803,-0.34043473,-0.53438705,-0.2206584,-0.8159291,-0.57752794,-0.6095234,0.5430863,-0.61716443,0.76144016,0.19828504,,1.1453662353091112,0.5558205304236864,0.21846893886000002,0.19060815862743263,0.19252082816950558,1.0924518616219228,-0.41571064831174076,,-1.4979630501475798,0.24434726814046348,0.19108999777000002,-0.33151980064903297,-0.19334064716809823,-1.1659476502473747,0.5970225617207907,,-0.07327110366028695,-0.03740458753180348,0.09109008376,-0.10826536583874626,,7.5131655e-05,4.351139e-06,-9.894371e-06,1.0,-6.106496e-05,-5.5991113e-05,6.105751e-05,1.0,-1.0073185e-05,5.5983663e-05,1.0043383e-05,1.0,195,0.579,0,0,0.0,False,-0.26041423509035333,0.7500811821245255
0.588121873093769,19:58:15.085588,19:56:55.521992,0,,0.12573501,0.00722719,0.030627936,-0.6748209,-0.5541053,-0.48742586,-0.2713946,-0.42786726,0.86213374,-0.6862664,0.7140707,0.13835254,,0.092314914,0.00017363578,0.044707477,0.50907487,0.40725482,0.7582785,-0.85794187,0.16933936,0.48503605,0.069126904,-0.8974786,0.43560737,,0.083748415,1.2899036,0.427072,0.9923737,0.09957987,-0.07265143,0.02412149,-0.7348749,-0.6777736,-0.12088232,0.67085224,-0.7316726,,-0.118305475,0.2660389,-0.095856965,0.7352896,0.4248486,0.52806526,-0.64410335,0.19557846,0.7395133,0.210903,-0.883885,0.4174532,,-0.09588294,0.44533548,-0.34042168,-0.53867245,-0.22522335,-0.8118537,-0.57299316,-0.6085069,0.5489974,-0.61766565,0.7609164,0.19873448,,1.1500462114308914,0.5553571664512329,0.21787912691000003,0.12707210575162176,0.23378505109866862,1.0855942814717081,-0.4153839601794722,,-1.49666563102471,0.2450809277635148,0.19098110941000002,-0.33802018889705326,-0.1941604661666909,-1.1698531522730677,0.5793814025782886,,-0.07327110366028695,-0.03740458753180348,0.09109008376,-0.10826536583874626,,7.5131655e-05,4.351139e-06,-9.894371e-06,1.0,-6.106496e-05,-5.5991113e-05,6.105751e-05,1.0,-1.0073185e-05,5.5983663e-05,1.0043383e-05,1.0,206,0.612,0,0,0.0,False,-0.26011634649774784,0.7309622226158599
0.6269864339847118,19:58:15.116433,19:56:55.658719,0,,0.1251173,0.007276401,0.031600624,-0.6264728,-0.5908671,-0.5083383,-0.27132905,-0.44607303,0.85287714,-0.7306931,0.6722313,0.119133204,,0.09196824,0.00017715245,0.044665456,0.515489,0.41204315,0.7513265,-0.85344446,0.1682576,0.49327672,0.07683498,-0.89549416,0.43839085,,0.083748415,1.2899036,0.427072,0.9923737,0.09957987,-0.07265143,0.02412149,-0.7348749,-0.6777736,-0.12088232,0.67085224,-0.7316726,,-0.1178156,0.26676115,-0.09661089,0.6931728,0.46522248,0.55052656,-0.67609555,0.15495048,0.72033685,0.24981254,-0.8715265,0.4219423,,-0.09553462,0.44534916,-0.34044287,-0.54628724,-0.23033066,-0.8053062,-0.5650909,-0.60832566,0.5573259,-0.6182577,0.7595312,0.2021628,,1.1544172782377025,0.5547007341569239,0.21724783368000003,0.06814923163247041,0.2723165440325228,1.07059185939757,-0.4158739923778749,,-1.4950052434567518,0.24579141918794348,0.19081518429000002,-0.3493434458452176,-0.1945703756659872,-1.172949405647882,0.559780114642175,,-0.07327110366028695,-0.03740458753180348,0.09109008376,-0.10826536583874626,,7.5131655e-05,4.351139e-06,-9.894371e-06,1.0,-6.106496e-05,-5.5991113e-05,6.105751e-05,1.0,-1.0073185e-05,5.5983663e-05,1.0043383e-05,1.0,225,0.669,1,1,0.054,False,-0.2596993024681016,0.7118432631071943
0.6578711168840528,19:58:15.178356,19:56:55.658719,0,,0.1242132,0.007264003,0.03289339,-0.55935335,-0.6369203,-0.5305246,-0.26767853,-0.46693647,0.84280396,-0.78452027,0.61343515,0.09069258,,0.091708854,0.00021377951,0.044609427,0.52513874,0.41708875,0.74179935,-0.8468132,0.16957498,0.5041345,0.08447826,-0.8929062,0.44224668,,0.083748415,1.2899036,0.427072,0.9923737,0.09957987,-0.07265143,0.02412149,-0.7348749,-0.6777736,-0.12088232,0.67085224,-0.7316726,,-0.11708806,0.26766726,-0.09767789,0.63396126,0.5167624,0.57536924,-0.7125469,0.10110512,0.6943016,0.30061617,-0.8501378,0.43231416,,-0.09526834,0.4453633,-0.3404173,-0.55700123,-0.23573188,-0.7963543,-0.5562383,-0.6061549,0.56848496,-0.6167241,0.7596096,0.20650591,,1.1600703187016348,0.5534650968970479,0.21636894906,-0.010274807230741693,0.3228720489457358,1.0438243720347735,-0.41505727204720366,,-1.4936923788681336,0.24627795135901961,0.19071925883000002,-0.3631829821151962,-0.19170100917091293,-1.176922756428318,0.5460592130868953,,-0.07327110366028695,-0.03740458753180348,0.09109008376,-0.10826536583874626,,7.5131655e-05,4.351139e-06,-9.894371e-06,1.0,-6.106496e-05,-5.5991113e-05,6.105751e-05,1.0,-1.0073185e-05,5.5983663e-05,1.0043383e-05,1.0,233,0.694,1,1,0.079,False,-0.2607121236829584,0.708125687647176
0.7198001760989428,19:58:15.203086,19:56:55.658719,0,,0.12384718,0.0072185993,0.03343469,-0.5384182,-0.650123,-0.5361399,-0.26007473,-0.47697362,0.8395578,-0.8015404,0.59146965,0.087730706,,0.091578975,0.00023368746,0.04458648,0.53253883,0.4215674,0.73395044,-0.84139496,0.16945726,0.51316535,0.09196061,-0.89082277,0.4449473,,0.083748415,1.2899036,0.427072,0.9923737,0.09957987,-0.07265143,0.02412149,-0.7348749,-0.6777736,-0.12088232,0.67085224,-0.7316726,,-0.116798796,0.26801693,-0.09815021,0.61600024,0.5318931,0.5810624,-0.7193633,0.07921807,0.69010216,0.3210299,-0.84309804,0.43142265,,-0.09513592,0.44537526,-0.34040654,-0.56551343,-0.24052474,-0.78888685,-0.5480228,-0.6052304,0.5773796,-0.61633235,0.7588439,0.21045285,,1.1623562476324052,0.552916782862978,0.21598135835,-0.03250194124010127,0.3437774334098481,1.0384574926093215,-0.4139138635842634,,-1.4930127783752019,0.2465173560781206,0.19066870352,-0.3751353088938141,-0.1901980076734931,-1.1793735344710872,0.5416489233012698,,-0.07327110366028695,-0.03740458753180348,0.09109008376,-0.10826536583874626,,7.5131655e-05,4.351139e-06,-9.894371e-06,1.0,-6.106496e-05,-5.5991113e-05,6.105751e-05,1.0,-1.0073185e-05,5.5983663e-05,1.0043383e-05,1.0,280,0.837,0,1,0.213,False,-0.259580147031059,0.7078842866432788
0.7445289299357682,19:58:15.344307,19:56:55.827192,0,,0.12039133,0.0063189417,0.036924362,-0.33041966,-0.7507713,-0.5719836,-0.22810456,-0.52453583,0.8202624,-0.91585547,0.40150285,0.0020625591,,0.090300515,0.0006011203,0.04431045,0.5464202,0.42192182,0.72346866,-0.8321043,0.17550036,0.5261197,0.0950124,-0.8894839,0.4469799,,0.083748415,1.2899036,0.427072,0.9923737,0.09957987,-0.07265143,0.02412149,-0.7348749,-0.6777736,-0.12088232,0.67085224,-0.7316726,,-0.11389479,0.2698664,-0.10176633,0.42730698,0.6522659,0.62606543,-0.7813665,-0.081936896,0.6186701,0.4548353,-0.7535486,0.4746465,,-0.09381783,0.4455676,-0.34013954,-0.5794339,-0.24094264,-0.7785904,-0.5413738,-0.6003185,0.5886698,-0.60923785,0.7626037,0.21740484,,1.1772765675454069,0.5450859317285144,0.21307637246000002,-0.2658868483383769,0.48123375217388126,0.9269428326717056,-0.41505727204720344,,-1.486965878534684,0.2503941679809813,0.19031092748000003,-0.38939422505076177,-0.18541573018170268,-1.1849067359032732,0.5331550318622875,,-0.07327110366028695,-0.03740458753180348,0.09109008376,-0.10826536583874626,,7.5131655e-05,4.351139e-06,-9.894371e-06,1.0,-6.106496e-05,-5.5991113e-05,6.105751e-05,1.0,-1.0073185e-05,5.5983663e-05,1.0043383e-05,1.0,288,0.862,0,1,0.213,False,-0.260652545964438,0.7051805953996291
0.8857461248990148,19:58:15.370110,19:56:55.827192,0,,NaN,NaN,NaN,NaN,NaN,NaN,NaN,NaN,NaN,NaN,NaN,NaN,,0.09018051,0.0006599501,0.044288635,0.5465827,0.42194548,0.72333205,-0.8319979,0.17562816,0.5262455,0.09500942,-0.8894475,0.44705307,,0.083748415,1.2899036,0.427072,0.9923737,0.09957987,-0.07265143,0.02412149,-0.7348749,-0.6777736,-0.12088232,0.67085224,-0.7316726,,NaN,NaN,NaN,NaN,NaN,NaN,NaN,NaN,NaN,NaN,NaN,NaN,,-0.09369414,0.44560462,-0.34009874,-0.57958966,-0.24096888,-0.7784663,-0.54132634,-0.60021055,0.5888235,-0.6091318,0.76268035,0.21743304,,1.1813155568386264,0.5418192157227174,0.21246063471,-0.3225031330791984,0.5091075981260311,0.8855908275655875,-0.4160373364440091,,-1.4864175645006141,0.25092703654930276,0.19028889055,-0.38960391499424624,-0.18596227618076444,-1.1852778516898932,0.5315215912009446,,-0.07327110366028695,-0.03740458753180348,0.09109008376,-0.10826536583874626,,7.5131655e-05,4.351139e-06,-9.894371e-06,1.0,-6.106496e-05,-5.5991113e-05,6.105751e-05,1.0,-1.0073185e-05,5.5983663e-05,1.0043383e-05,1.0,300,0.898,0,1,0.213,False,-0.260652545964438,0.7049391943957319
0.9115304830484092,19:58:15.400572,19:56:55.827192,0,,0.11833218,0.0058459714,0.037923098,-0.24083376,-0.7858705,-0.5695671,-0.21866614,-0.5278184,0.820727,-0.9456131,0.32220376,-0.04472679,,0.09015572,0.0006755665,0.04429531,0.5468879,0.42205513,0.72303736,-0.83177483,0.17570007,0.52657384,0.095205426,-0.8893813,0.44714314,,0.083748415,1.2899036,0.427072,0.9923737,0.09957987,-0.07265143,0.02412149,-0.7348749,-0.6777736,-0.12088232,0.67085224,-0.7316726,,-0.11202128,0.27027526,-0.103102036,0.34321916,0.69690007,0.629707,-0.7979046,-0.13736965,0.5869223,0.49552885,-0.7038891,0.5089119,,-0.09367061,0.44562292,-0.3400948,-0.5799195,-0.2410868,-0.7781841,-0.5410718,-0.6001276,0.58914196,-0.6090441,0.76270837,0.21758045,,1.1842501953308318,0.5394174457988336,0.21206137739000003,-0.37240933962851525,0.5235910671011678,0.8517272699358149,-0.41244376698905505,,-1.4863789508362428,0.2510351548095419,0.19027722394000002,-0.3900232948812153,-0.18596227618076444,-1.1854412091701745,0.5318482793332133,,-0.07327110366028695,-0.03740458753180348,0.09109008376,-0.10826536583874626,,7.5131655e-05,4.351139e-06,-9.894371e-06,1.0,-6.106496e-05,-5.5991113e-05,6.105751e-05,1.0,-1.0073185e-05,5.5983663e-05,1.0043383e-05,1.0,348,1.045,1,2,0.256,False,-0.2607121236829584,0.70508403499807
0.9419584490824491,19:58:15.555977,19:56:56.098496,0,,0.11411134,0.005009033,0.038955003,-0.043993376,-0.84197253,-0.53772366,-0.21199554,-0.5181191,0.82861966,-0.97627985,0.15044877,-0.15570062,,0.090237305,0.0006215647,0.04433441,0.5468792,0.42309162,0.7224379,-0.83171135,0.17580491,0.5266391,0.09580845,-0.8888679,0.4480342,,0.083748415,1.2899036,0.427072,0.9923737,0.09957987,-0.07265143,0.02412149,-0.7348749,-0.6777736,-0.12088232,0.67085224,-0.7316726,,-0.10804104,0.27051547,-0.105020575,0.15296936,0.7751161,0.61302155,-0.8207468,-0.24586456,0.51567954,0.5504318,-0.5820186,0.59856427,,-0.093759686,0.44560662,-0.34014866,-0.5800229,-0.24219795,-0.77776194,-0.54057944,-0.59980386,0.589923,-0.60938275,0.762611,0.21697271,,1.1961200357585147,0.5277947328231256,0.21070416176,-0.6156496740705635,0.5736000260153189,0.6582907518602139,-0.4129337991874579,,-1.486795978411451,0.2506876318302018,0.19027074249,-0.39044267476818434,-0.185825639680999,-1.1860426995147142,0.5325016555977504,,-0.07327110366028695,-0.03740458753180348,0.09109008376,-0.10826536583874626,,7.5131655e-05,4.351139e-06,-9.894371e-06,1.0,-6.106496e-05,-5.5991113e-05,6.105751e-05,1.0,-1.0073185e-05,5.5983663e-05,1.0043383e-05,1.0,356,1.071,1,2,0.282,False,-0.26101001227556386,0.7045046725887167
1.0974196090828627,19:58:15.586366,19:56:56.098496,0,,0.11331757,0.0048535243,0.03906578,-0.0011373386,-0.8454232,-0.5340958,-0.21030396,-0.5219495,0.8266444,-0.9776354,0.11326262,-0.17720222,,0.09023535,0.00061846524,0.04433334,0.5472401,0.42266434,0.72241473,-0.8314851,0.17583558,0.5269861,0.095712095,-0.88906515,0.44766337,,0.083748415,1.2899036,0.427072,0.9923737,0.09957987,-0.07265143,0.02412149,-0.7348749,-0.6777736,-0.12088232,0.67085224,-0.7316726,,-0.10728171,0.27050504,-0.10532026,0.110883854,0.78301185,0.6120435,-0.82190585,-0.273973,0.49940923,0.5587267,-0.5584186,0.61318284,,-0.093757674,0.44560406,-0.3401506,-0.580352,-0.24174039,-0.77765876,-0.5405476,-0.5998782,0.5898766,-0.60909754,0.7626977,0.21746832,,1.1980738871756935,0.5257713768100788,0.21050194052,-0.6691206096591171,0.5793387590054675,0.6226549573916911,-0.41179039072451784,,-1.4867882556785768,0.25065674089870493,0.19026814991000002,-0.39065236471166886,-0.18541573018170268,-1.1856418445645382,0.5307048708702735,,-0.07327110366028695,-0.03740458753180348,0.09109008376,-0.10826536583874626,,7.5131655e-05,4.351139e-06,-9.894371e-06,1.0,-6.106496e-05,-5.5991113e-05,6.105751e-05,1.0,-1.0073185e-05,5.5983663e-05,1.0043383e-05,1.0,381,1.148,1,3,0.285,False,-0.26148663402373185,0.7087533302573092
1.1278034339193255,19:58:15.654639,19:56:56.098496,0,,0.111439206,0.004430838,0.0395146,0.12525204,-0.84269536,-0.5236187,-0.18689975,-0.53836703,0.82172346,-0.97436154,-0.005058348,-0.22493109,,0.090237096,0.0005809441,0.044352412,0.5465748,0.4240486,0.7221072,-0.8317854,0.17513752,0.5267446,0.096897334,-0.8885436,0.44844317,,0.083748415,1.2899036,0.427072,0.9923737,0.09957987,-0.07265143,0.02412149,-0.7348749,-0.6777736,-0.12088232,0.67085224,-0.7316726,,-0.10551279,0.27056822,-0.10620079,-0.0128036,0.79426587,0.6074354,-0.80693156,-0.3669606,0.46281895,0.59050614,-0.48423308,0.6456166,,-0.09376411,0.44559348,-0.3401909,-0.57993174,-0.24321866,-0.7775113,-0.5397785,-0.600117,0.5903378,-0.61017895,0.76203954,0.21674272,,1.2021514901332842,0.5219022876400924,0.20992120260000002,-0.8270171371029641,0.6037966924634813,0.5224209510718589,-0.4135871754519951,,-1.4868191466100737,0.2505640681042142,0.19023963153,-0.3910717445986379,-0.18664545867959165,-1.186436015714363,0.54050551483833,,-0.07327110366028695,-0.03740458753180348,0.09109008376,-0.10826536583874626,,7.5131655e-05,4.351139e-06,-9.894371e-06,1.0,-6.106496e-05,-5.5991113e-05,6.105751e-05,1.0,-1.0073185e-05,5.5983663e-05,1.0043383e-05,1.0,389,1.173,1,3,0.31,False,-0.26101001227556386,0.7158022395711097
1.1960791980382055,19:58:15.684166,19:56:56.098496,0,,0.11061273,0.0042187124,0.03974557,0.17132261,-0.8347336,-0.5233244,-0.17157367,-0.54833966,0.8184657,-0.97016037,-0.05043301,-0.23716132,,0.09019785,0.00054556876,0.044395506,0.54631627,0.42422733,0.7221978,-0.83192587,0.17482764,0.52662575,0.097148955,-0.8885193,0.44843692,,0.083748415,1.2899036,0.427072,0.9923737,0.09957987,-0.07265143,0.02412149,-0.7348749,-0.6777736,-0.12088232,0.67085224,-0.7316726,,-0.104740694,0.27059987,-0.10663005,-0.05777248,0.7914703,0.60847116,-0.7944645,-0.40553573,0.45206958,0.60455644,-0.45729154,0.6522239,,-0.093734786,0.44560727,-0.34025082,-0.5797298,-0.24340805,-0.7776027,-0.539651,-0.6003238,0.5902441,-0.6104836,0.76181614,0.2166702,,1.2041980143449535,0.5202110091406372,0.20963472251,-0.887407840826507,0.6154107949435438,0.4882834497352133,-0.41456723984880084,,-1.486795978411451,0.25057951356996266,0.19017222445,-0.3910717445986379,-0.18705536817888796,-1.1864284769638358,0.5411588911028671,,-0.07327110366028695,-0.03740458753180348,0.09109008376,-0.10826536583874626,,7.5131655e-05,4.351139e-06,-9.894371e-06,1.0,-6.106496e-05,-5.5991113e-05,6.105751e-05,1.0,-1.0073185e-05,5.5983663e-05,1.0043383e-05,1.0,410,1.238,1,3,0.375,False,-0.2608312791200009,0.7130019879259013
1.225584494881332,19:58:15.752950,19:56:56.098496,0,,0.10835472,0.0035089701,0.040145338,0.27146316,-0.80477804,-0.52786374,-0.13235909,-0.57446444,0.80775714,-0.9533042,-0.1494087,-0.2624657,,0.09010753,0.0005024448,0.044443488,0.5464083,0.42302427,0.72283363,-0.8318792,0.17413804,0.5269277,0.09703043,-0.88922805,0.44705558,,0.083748415,1.2899036,0.427072,0.9923737,0.09957987,-0.07265143,0.02412149,-0.7348749,-0.6777736,-0.12088232,0.67085224,-0.7316726,,-0.10261125,0.2704333,-0.10772546,-0.15607205,0.7725991,0.6154122,-0.7577822,-0.49329525,0.42711344,0.6335674,-0.39968795,0.66245145,,-0.093656495,0.44562593,-0.34032726,-0.5797963,-0.24211425,-0.7779569,-0.5397202,-0.60115564,0.58933353,-0.6103592,0.7615725,0.21787386,,1.2098587775417602,0.5146429187383214,0.20889454092,-1.0268516532437157,0.6383657269041378,0.4143504135791945,-0.41783412117148644,,-1.486587464623847,0.2506644636315791,0.19006852125,-0.3910717445986379,-0.18705536817888796,-1.1850399383814463,0.5318482793332133,,-0.07327110366028695,-0.03740458753180348,0.09109008376,-0.10826536583874626,,7.5131655e-05,4.351139e-06,-9.894371e-06,1.0,-6.106496e-05,-5.5991113e-05,6.105751e-05,1.0,-1.0073185e-05,5.5983663e-05,1.0043383e-05,1.0,439,1.328,1,3,0.465,False,-0.260652545964438,0.7042149913840401
1.2943846751004457,19:58:15.828066,19:56:56.313116,0,,0.10490063,0.002311334,0.03993553,0.36150765,-0.752854,-0.550021,-0.0883497,-0.6149236,0.78362197,-0.9281737,-0.23469111,-0.28881404,,0.08997486,0.00045924634,0.04453492,0.5438492,0.42589393,0.7230784,-0.8331404,0.17080656,0.5260248,0.10052428,-0.88850415,0.4477224,,0.08376661,1.2898986,0.42707106,0.99237376,0.09957857,-0.07265264,0.024119724,-0.7348751,-0.6777734,-0.12088232,0.67085224,-0.7316726,,-0.099274665,0.2695303,-0.10889013,-0.24509296,0.7291852,0.6389197,-0.7116009,-0.58288556,0.39226085,0.65844786,-0.35851547,0.66175,,-0.093562715,0.44567728,-0.34044042,-0.57798344,-0.24516822,-0.77834934,-0.53762484,-0.60315055,0.58921045,-0.61391747,0.75901383,0.2168025,,1.2184619019636462,0.5027344646462671,0.20822176641,-1.1690214349262233,0.6562651083734105,0.3566282934007465,-0.41914087370056063,,-1.4863943963019914,0.2509888184122966,0.18993370709000001,-0.391910504372576,-0.1918376456706784,-1.185550963719662,0.5462225571530297,,-0.07327110366028695,-0.03740458753180348,0.09109008376,-0.10826536583874626,,9.318441e-05,9.298325e-06,-7.1525574e-06,1.0,-6.236136e-05,-5.7190657e-05,6.236136e-05,1.0,-1.0311604e-05,5.7175756e-05,1.0281801e-05,1.0,443,1.34,1,3,0.477,False,-0.2607717014014801,0.7466050076684043
1.3694991439115256,19:58:15.852036,19:56:56.313116,0,,0.10331288,0.0017814785,0.03941503,0.37249944,-0.7532126,-0.54213935,-0.08683506,-0.6099072,0.787701,-0.9239609,-0.24634145,-0.29259536,,0.0899231,0.0004486665,0.044582725,0.54233766,0.4251324,0.7246601,-0.83416593,0.16962093,0.52478164,0.10018417,-0.8890958,0.44662282,,0.08376661,1.2898986,0.42707106,0.99237376,0.09957857,-0.07265264,0.024119724,-0.7348751,-0.6777734,-0.12088232,0.67085224,-0.7316726,,-0.09767687,0.26884243,-0.10910569,-0.2563917,0.731404,0.631911,-0.7079913,-0.58718675,0.39237744,0.6580362,-0.34678516,0.66837746,,-0.09352126,0.44571242,-0.34048653,-0.5764666,-0.24434493,-0.77973187,-0.5383638,-0.6042742,0.58738154,-0.61469555,0.75838524,0.21679746,,1.222377327530878,0.49529747288838893,0.20818676658000002,-1.1918776387660366,0.6536690148778671,0.32983095956121944,-0.42012093809736617,,-1.486348059904746,0.25120505493277484,0.18987018888,-0.39044267476818434,-0.19320401066833282,-1.184355105942557,0.5574932977162952,,-0.07327110366028695,-0.03740458753180348,0.09109008376,-0.10826536583874626,,9.318441e-05,9.298325e-06,-7.1525574e-06,1.0,-6.236136e-05,-5.7190657e-05,6.236136e-05,1.0,-1.0311604e-05,5.7175756e-05,1.0281801e-05,1.0,468,1.418,1,3,0.555,False,-0.2607717014014801,0.7603165846897708
1.3934659441001713,19:58:15.932238,19:56:56.437023,0,,0.0998946,0.00034244359,0.036863357,0.40443224,-0.74580854,-0.5293432,-0.108397245,-0.61380017,0.78198427,-0.90812147,-0.25888026,-0.32908422,,0.08953947,0.00032552332,0.045059383,0.5334251,0.42573416,0.7308954,-0.83896434,0.15628952,0.52126044,0.107687145,-0.89124864,0.44054443,,0.08376661,1.2898986,0.42707106,0.99237376,0.09957857,-0.07265264,0.024119724,-0.7348751,-0.6777734,-0.12088232,0.67085224,-0.7316726,,-0.094075546,0.26616532,-0.108745135,-0.29159734,0.7254008,0.62350994,-0.7139604,-0.598853,0.36281618,0.63657796,-0.33936515,0.6925314,,-0.09323839,0.44603443,-0.34094018,-0.5692797,-0.24493226,-0.7848113,-0.53481305,-0.61468357,0.57977504,-0.6244163,0.7497815,0.2189339,,1.2272117583101425,0.4750948036894176,0.20884268932000002,-1.2415741553718687,0.6240188944287666,0.2882572588501903,-0.42159103469257475,,-1.486278555308878,0.25295811529522383,0.18930371015000003,-0.38960391499424624,-0.20741420664393861,-1.1764431872644545,0.6131936242680842,,-0.07327110366028695,-0.03740458753180348,0.09109008376,-0.10826536583874626,,9.318441e-05,9.298325e-06,-7.1525574e-06,1.0,-6.236136e-05,-5.7190657e-05,6.236136e-05,1.0,-1.0311604e-05,5.7175756e-05,1.0281801e-05,1.0,497,1.508,1,3,0.645,False,-0.2616653671792948,0.8150663323736769
1.4735509150195867,19:58:16.014533,19:56:56.437023,0,,0.098617405,0.0005955696,0.03403175,0.4393549,-0.7327076,-0.51971805,-0.12927487,-0.62409735,0.770578,-0.888963,-0.27137077,-0.36892092,,0.08878958,0.00026168674,0.04597777,0.52893275,0.42874485,0.73239887,-0.8410436,0.14942858,0.51992,0.11347169,-0.89098203,0.43963078,,0.08376661,1.2898986,0.42707106,0.99237376,0.09957857,-0.07265264,0.024119724,-0.7348751,-0.6777734,-0.12088232,0.67085224,-0.7316726,,-0.09243076,0.2644566,-0.10672317,-0.33013472,0.7132838,0.61825347,-0.7172627,-0.61534756,0.32692754,0.61363286,-0.33552,0.7147594,,-0.092677616,0.44676986,-0.34168488,-0.5660249,-0.2481452,-0.7861551,-0.53130776,-0.6193485,0.5780307,-0.6303395,0.74487,0.21872522,,1.2269955217896644,0.4657966333088513,0.21090897558000002,-1.282463694351351,0.5923192264831844,0.26812108180862354,-0.42077431436190327,,-1.4864947918293563,0.25643334508862486,0.18826667815,-0.3910717445986379,-0.21807185362564296,-1.1733884238458325,0.6309981274767207,,-0.07327110366028695,-0.03740458753180348,0.09109008376,-0.10826536583874626,,9.318441e-05,9.298325e-06,-7.1525574e-06,1.0,-6.236136e-05,-5.7190657e-05,6.236136e-05,1.0,-1.0311604e-05,5.7175756e-05,1.0281801e-05,1.0,505,1.534,1,3,0.671,False,-0.26059296824591627,0.8036722049897245
1.5559677320998162,19:58:16.042246,19:56:56.437023,0,,0.098354414,0.0010486767,0.033018798,0.45433375,-0.7286776,-0.51245475,-0.13900432,-0.6261973,0.7671733,-0.87991965,-0.27731922,-0.3857919,,0.08845409,0.00022288412,0.046409726,0.5273386,0.43045586,0.73254466,-0.84189045,0.14842826,0.51883465,0.11460516,-0.890324,0.44066867,,0.08376661,1.2898986,0.42707106,0.99237376,0.09957857,-0.07265264,0.024119724,-0.7348751,-0.6777734,-0.12088232,0.67085224,-0.7316726,,-0.092007324,0.2641029,-0.1057251,-0.34682712,0.70990527,0.6129808,-0.71867865,-0.6210842,0.31265858,0.60267067,-0.33209774,0.7256026,,-0.09243102,0.4471079,-0.34203926,-0.5646997,-0.24997911,-0.786527,-0.5308207,-0.61972374,0.57807595,-0.6319364,0.74394417,0.21726373,,1.2272658174402622,0.4641825821381384,0.21188119308000003,-1.2979807501692058,0.5764693925103933,0.25972740746072165,-0.4212643465603061,,-1.4867033056169603,0.2579315552662244,0.18778186569000002,-0.3908620546551534,-0.22148776611977897,-1.1737067683787634,0.631651503741258,,-0.07327110366028695,-0.03740458753180348,0.09109008376,-0.10826536583874626,,9.318441e-05,9.298325e-06,-7.1525574e-06,1.0,-6.236136e-05,-5.7190657e-05,6.236136e-05,1.0,-1.0311604e-05,5.7175756e-05,1.0281801e-05,1.0,526,1.598,1,3,0.735,False,-0.2617249448978165,0.7840221632724846
1.5836847119498998,19:58:16.106902,19:56:56.609208,0,,0.09679066,0.001781702,0.030443907,0.4901625,-0.7157224,-0.4974759,-0.16216049,-0.63565683,0.75474787,-0.85641384,-0.28927815,-0.427637,,0.087483615,-4.5843422e-05,0.047559857,0.5184344,0.44501385,0.7301974,-0.84670436,0.1476587,0.5111639,0.11965498,-0.88326645,0.45334658,,0.08376661,1.2898986,0.42707106,0.99237376,0.09957857,-0.07265264,0.024119724,-0.7348751,-0.6777734,-0.12088232,0.67085224,-0.7316726,,-0.090076566,0.26292926,-0.10360204,-0.38698626,0.6979261,0.6026116,-0.72069865,-0.63659984,0.27447063,0.5751827,-0.328085,0.7493498,,-0.09170365,0.4479091,-0.343119,-0.55705845,-0.26562402,-0.78684795,-0.52911043,-0.61675894,0.5827955,-0.6401,0.7409806,0.20302634,,1.2305865925761788,0.4560968808188253,0.21410173785000003,-1.338450909261719,0.5361616250795883,0.24072968906190892,-0.4214276906264403,,-1.486765087479954,0.26160757611435526,0.18637668733,-0.3883457753333391,-0.2358345985951502,-1.186266474312386,0.608293302284056,,-0.07327110366028695,-0.03740458753180348,0.09109008376,-0.10826536583874626,,9.318441e-05,9.298325e-06,-7.1525574e-06,1.0,-6.236136e-05,-5.7190657e-05,6.236136e-05,1.0,-1.0311604e-05,5.7175756e-05,1.0281801e-05,1.0,555,1.688,1,3,0.825,False,-0.26112916771260597,0.7110224996939434
1.6483366179745644,19:58:16.193861,19:56:56.732428,0,,0.094518244,0.001848802,0.027530253,0.52798384,-0.707239,-0.47015536,-0.19551224,-0.63996375,0.743116,-0.82644296,-0.30043215,-0.4761644,,0.0868696,-0.0001803115,0.04829353,0.51015043,0.46473286,0.7237195,-0.85122466,0.15234095,0.50220394,0.12313861,-0.87224746,0.4733088,,0.08376661,1.2898986,0.42707106,0.99237376,0.09957857,-0.07265264,0.024119724,-0.7348751,-0.6777734,-0.12088232,0.67085224,-0.7316726,,-0.08745075,0.2610629,-0.101791106,-0.43069854,0.69064736,0.5809518,-0.725794,-0.6476574,0.2318685,0.5363971,-0.3217859,0.7802128,,-0.0912435,0.44844377,-0.34377912,-0.5497214,-0.2869177,-0.78452826,-0.5284521,-0.6079062,0.5926115,-0.64695036,0.74035686,0.18255682,,1.2347800365268826,0.443323480644858,0.21611876509000003,-1.3785016884672632,0.483010026670832,0.2127657134571061,-0.4212643465603062,,-1.4868191466100737,0.26427964168883694,0.18550946932,-0.38499073623758673,-0.24772197407474353,-1.2078560741646327,0.5326649996638846,,-0.07327110366028695,-0.03740458753180348,0.09109008376,-0.10826536583874626,,9.318441e-05,9.298325e-06,-7.1525574e-06,1.0,-6.236136e-05,-5.7190657e-05,6.236136e-05,1.0,-1.0311604e-05,5.7175756e-05,1.0281801e-05,1.0,563,1.714,1,3,0.851,False,-0.2612483231496481,0.6244560996963742
1.7352884139399976,19:58:16.216687,19:56:56.732428,0,,0.09376693,0.0018242598,0.026434094,0.5413002,-0.70254374,-0.46198106,-0.20534816,-0.6432532,0.7376026,-0.8153688,-0.30439746,-0.49245912,,0.08670342,-0.0001726225,0.048495054,0.5063547,0.4732787,0.7208413,-0.85346127,0.1555031,0.49741587,0.12332329,-0.8670791,0.48266482,,0.08376661,1.2898986,0.42707106,0.99237376,0.09957857,-0.07265264,0.024119724,-0.7348751,-0.6777734,-0.12088232,0.67085224,-0.7316726,,-0.086569026,0.2603209,-0.10112877,-0.4460149,0.6862688,0.5745484,-0.72584164,-0.65292704,0.21642604,0.5236646,-0.32050192,0.78933764,,-0.0911182,0.44861957,-0.34392637,-0.5460982,-0.2961859,-0.78361386,-0.5293113,-0.6030347,0.5968071,-0.6493122,0.74069095,0.1725416,,1.2356990417389153,0.43871300911894595,0.21686672442000002,-1.3927606046242107,0.46593046420015194,0.20496640654176912,-0.4235511634861861,,-1.4868732057401932,0.26528359696248616,0.18529817405000001,-0.3822647669722879,-0.25209434206723763,-1.2183394445505238,0.4928090475271205,,-0.07327110366028695,-0.03740458753180348,0.09109008376,-0.10826536583874626,,9.318441e-05,9.298325e-06,-7.1525574e-06,1.0,-6.236136e-05,-5.7190657e-05,6.236136e-05,1.0,-1.0311604e-05,5.7175756e-05,1.0281801e-05,1.0,584,1.778,1,3,0.915,False,-0.26112916771260597,0.6260493463220964
1.7581101849209517,19:58:16.279019,19:56:56.732428,0,,0.092827275,0.002022013,0.024167687,0.5754262,-0.6877796,-0.44254255,-0.22193703,-0.6521143,0.7249075,-0.7871649,-0.31891423,-0.52788734,,0.08645472,-0.00016052276,0.04888773,0.50249064,0.4846259,0.7159894,-0.8557868,0.1609708,0.49164748,0.12301174,-0.8597827,0.49562284,,0.08376661,1.2898986,0.42707106,0.99237376,0.09957857,-0.07265264,0.024119724,-0.7348751,-0.6777734,-0.12088232,0.67085224,-0.7316726,,-0.08533459,0.2589469,-0.09950184,-0.48460674,0.6728727,0.5589263,-0.7198045,-0.669818,0.18227826,0.49702895,-0.3139844,0.8089351,,-0.09094784,0.44895095,-0.34420452,-0.5423169,-0.30853575,-0.7814717,-0.53059036,-0.5954118,0.6032899,-0.65143394,0.7418157,0.1591958,,1.2358226054649029,0.43197106331974794,0.21857134577,-1.4288272749035489,0.4299950647618411,0.18910097191619707,-0.421101002494172,,-1.487344292445521,0.2668590344688279,0.18491836108,-0.37911941782002007,-0.2566033465594972,-1.2325502978193252,0.4514829987951481,,-0.07327110366028695,-0.03740458753180348,0.09109008376,-0.10826536583874626,,9.318441e-05,9.298325e-06,-7.1525574e-06,1.0,-6.236136e-05,-5.7190657e-05,6.236136e-05,1.0,-1.0311604e-05,5.7175756e-05,1.0281801e-05,1.0,592,1.804,1,3,0.941,False,-0.26136747858668974,0.6559830708053611
1.8204499210696667,19:58:16.316910,19:56:56.846070,0,,0.09257989,0.0021532252,0.023295522,0.58670086,-0.6857563,-0.43072075,-0.22916767,-0.65073913,0.72389275,-0.77670085,-0.3260013,-0.53894246,,0.086366326,-0.00019679219,0.049077213,0.5006384,0.48806852,0.7149477,-0.8566302,0.16036683,0.4903744,0.1246824,-0.8579462,0.49838006,,0.08376661,1.2898986,0.42707106,0.99237376,0.09957857,-0.07265264,0.024119724,-0.7348751,-0.6777734,-0.12088232,0.67085224,-0.7316726,,-0.08496845,0.2584544,-0.098821804,-0.49763307,0.6718818,0.54857653,-0.7183013,-0.6737326,0.1735732,0.48621455,-0.30766743,0.81788516,,-0.09089794,0.44907936,-0.34436595,-0.5408397,-0.3122798,-0.7810082,-0.5296686,-0.5948621,0.60464054,-0.6534092,0.74068916,0.15632021,,1.235583200745802,0.42983958904646197,0.21926486092000003,-1.4397311519647442,0.4161947782855316,0.17879099279242722,-0.4214276906264404,,-1.4876454790276157,0.267376457571401,0.18473299161,-0.37911941782002007,-0.25960934955433684,-1.235163185826719,0.4498495581338049,,-0.07327110366028695,-0.03740458753180348,0.09109008376,-0.10826536583874626,,9.318441e-05,9.298325e-06,-7.1525574e-06,1.0,-6.236136e-05,-5.7190657e-05,6.236136e-05,1.0,-1.0311604e-05,5.7175756e-05,1.0281801e-05,1.0,613,1.869,1,3,1.006,False,-0.26101001227556386,0.6542932637780798
1.858298263978213,19:58:16.382758,19:56:56.846070,0,,0.09215479,0.0024442673,0.02147457,0.5957795,-0.6821674,-0.4239038,-0.23875025,-0.6543712,0.71749336,-0.76684093,-0.3262607,-0.5527286,,0.08612768,-0.00039038807,0.049549103,0.4983573,0.49175912,0.71401197,-0.85776806,0.15999016,0.48850495,0.12599188,-0.85590667,0.5015475,,0.08376661,1.2898986,0.42707106,0.99237376,0.09957857,-0.07265264,0.024119724,-0.7348751,-0.6777734,-0.12088232,0.67085224,-0.7316726,,-0.08429311,0.2574355,-0.09737715,-0.50858396,0.6680971,0.54312855,-0.7188501,-0.67667925,0.1592474,0.47391653,-0.3094373,0.8244099,,-0.09075861,0.44933385,-0.3448485,-0.53888214,-0.31629866,-0.780744,-0.5291562,-0.5940427,0.6058935,-0.6554386,0.7396407,0.15274762,,1.234177663362693,0.42542218584240554,0.22078022393000002,-1.4474896798736716,0.402667764808753,0.17560926447391514,-0.42208106689097763,,-1.4883482477191703,0.2680251671328358,0.18419892013000003,-0.3784903479895665,-0.262751989048942,-1.2379096921508377,0.4719010070619327,,-0.07327110366028695,-0.03740458753180348,0.09109008376,-0.10826536583874626,,9.318441e-05,9.298325e-06,-7.1525574e-06,1.0,-6.236136e-05,-5.7190657e-05,6.236136e-05,1.0,-1.0311604e-05,5.7175756e-05,1.0281801e-05,1.0,626,1.91,1,3,1.047,False,-0.26112916771260597,0.6701774498345219
1.9241654449142516,19:58:16.413919,19:56:56.846070,0,,0.09197484,0.002607666,0.02018714,0.5984493,-0.68316114,-0.41850838,-0.25262982,-0.6566418,0.7106334,-0.76028717,-0.31955028,-0.5655537,,0.086066395,-0.00050920993,0.0497483,0.4967667,0.49395236,0.7136063,-0.85843575,0.15865824,0.48776585,0.12771359,-0.85489106,0.5028425,,0.08376661,1.2898986,0.42707106,0.99237376,0.09957857,-0.07265264,0.024119724,-0.7348751,-0.6777734,-0.12088232,0.67085224,-0.7316726,,-0.08393803,0.2566801,-0.09636725,-0.51309055,0.66805196,0.53892916,-0.72457236,-0.67371,0.14529191,0.46014455,-0.31594527,0.8297262,,-0.09073965,0.44941214,-0.34507453,-0.5376661,-0.31868345,-0.7806126,-0.52811366,-0.5944279,0.60642517,-0.65727556,0.7383064,0.15130265,,1.232833907842578,0.4224875473502003,0.22180688561000003,-1.4453927804388265,0.3888674783324435,0.1786129199930569,-0.42257109908938045,,-1.4887652752943783,0.2680715035300812,0.18397855083000003,-0.378700037933051,-0.2650748095449545,-1.2388743436929182,0.4923190153287176,,-0.07327110366028695,-0.03740458753180348,0.09109008376,-0.10826536583874626,,9.318441e-05,9.298325e-06,-7.1525574e-06,1.0,-6.236136e-05,-5.7190657e-05,6.236136e-05,1.0,-1.0311604e-05,5.7175756e-05,1.0281801e-05,1.0,639,1.95,1,3,1.087,False,-0.261427056305211,0.7005939763255804
1.9552810250315815,19:58:16.460490,19:56:57.004987,0,,0.09158352,0.0024898127,0.019261837,0.58546245,-0.6967724,-0.41441768,-0.2733395,-0.65091044,0.708238,-0.7632294,-0.30136994,-0.5715391,,0.08603549,-0.00058240443,0.04987532,0.4961127,0.49552512,0.7129706,-0.85872287,0.15866569,0.48725784,0.12832454,-0.853979,0.50423485,,0.08376661,1.2898986,0.42707106,0.99237376,0.09957857,-0.07265264,0.024119724,-0.7348751,-0.6777734,-0.12088232,0.67085224,-0.7316726,,-0.083441146,0.2559747,-0.09583933,-0.50140065,0.67960685,0.5354736,-0.7412319,-0.6566332,0.13931271,0.4462876,-0.3270586,0.8329826,,-0.0907355,0.4494627,-0.3452155,-0.5371481,-0.32039917,-0.7802668,-0.5277655,-0.5939367,0.607209,-0.65797836,0.7379591,0.14993635,,1.2324014348016215,0.41864162637883645,0.22240188272000003,-1.4233753363729513,0.37807319485097374,0.18390274855903,-0.42208106689097763,,-1.4890819073422215,0.26806378079720694,0.18384244038000003,-0.378700037933051,-0.2658946285435471,-1.2401661260341132,0.5223743234974252,,-0.07327110366028695,-0.03740458753180348,0.09109008376,-0.10826536583874626,,9.318441e-05,9.298325e-06,-7.1525574e-06,1.0,-6.236136e-05,-5.7190657e-05,6.236136e-05,1.0,-1.0311604e-05,5.7175756e-05,1.0281801e-05,1.0,652,1.991,1,3,1.128,False,-0.26017592421626956,0.7086084896549707
2.001912286039442,19:58:16.496863,19:56:57.004987,0,,0.09153813,0.0025326088,0.019006073,0.5750805,-0.7065244,-0.4124387,-0.2843821,-0.6453474,0.7089806,-0.7670783,-0.29043072,-0.57204956,,0.08599433,-0.0006397739,0.049993277,0.49591544,0.49597687,0.7127937,-0.85873544,0.15816352,0.48739886,0.1290006,-0.85380995,0.5043487,,0.08376661,1.2898986,0.42707106,0.99237376,0.09957857,-0.07265264,0.024119724,-0.7348751,-0.6777734,-0.12088232,0.67085224,-0.7316726,,-0.08336031,0.2558325,-0.09563305,-0.4914561,0.6882607,0.5336367,-0.7515563,-0.6447639,0.13943702,0.44003868,-0.33253086,0.83413976,,-0.090719104,0.4495182,-0.3453402,-0.5370825,-0.32088962,-0.7801104,-0.52724534,-0.5941951,0.60740805,-0.6584487,0.7375378,0.14994425,,1.2322933165413823,0.4178384621599171,0.22261058541000003,-1.4074389006681276,0.3741107363577759,0.1872972252465074,-0.42208106689097763,,-1.4893290347941968,0.26812556266020077,0.18371410767000002,-0.37911941782002007,-0.26644117454260885,-1.239965490639749,0.5293981183411991,,-0.07327110366028695,-0.03740458753180348,0.09109008376,-0.10826536583874626,,9.318441e-05,9.298325e-06,-7.1525574e-06,1.0,-6.236136e-05,-5.7190657e-05,6.236136e-05,1.0,-1.0311604e-05,5.7175756e-05,1.0281801e-05,1.0,665,2.032,1,3,1.169,False,-0.26136747858668974,0.7077877262417198
2.038276829989627,19:58:16.538809,19:56:57.004987,0,,0.09220828,0.0030306727,0.019127697,0.56102365,-0.7200391,-0.40840673,-0.29935026,-0.6364439,0.71086466,-0.77177835,-0.2765552,-0.572604,,0.08597006,-0.00069309026,0.05010754,0.49585673,0.49710977,0.71204495,-0.85872316,0.15859136,0.4872815,0.12930822,-0.8530714,0.50551826,,0.08376661,1.2898986,0.42707106,0.99237376,0.09957857,-0.07265264,0.024119724,-0.7348751,-0.6777734,-0.12088232,0.67085224,-0.7316726,,-0.08400185,0.25625572,-0.095284805,-0.4780582,0.70050645,0.5298595,-0.76519775,-0.6283234,0.14029291,0.4311992,-0.3383791,0.8364011,,-0.090718456,0.44957143,-0.34545702,-0.53708255,-0.3221281,-0.7795998,-0.52700067,-0.59350383,0.60829556,-0.65864456,0.73755455,0.14899883,,1.2315364887197084,0.42119785096020473,0.22279725117000002,-1.3841633169413452,0.3680987303680966,0.19489501143378846,-0.42191772282484324,,-1.48964566684204,0.2681410081259492,0.18359873786000003,-0.37932910776350454,-0.2665778110423743,-1.2409975750980204,0.5300514946057362,,-0.07327110366028695,-0.03740458753180348,0.09109008376,-0.10826536583874626,,9.318441e-05,9.298325e-06,-7.1525574e-06,1.0,-6.236136e-05,-5.7190657e-05,6.236136e-05,1.0,-1.0311604e-05,5.7175756e-05,1.0281801e-05,1.0,695,2.127,0,3,1.23,False,-0.26112916771260597,0.7053737162027467
2.0802543859463185,19:58:16.627437,19:56:57.147281,0,,0.096028164,0.005802594,0.020635962,0.5179404,-0.7607491,-0.39115012,-0.33172143,-0.6001048,0.72789776,-0.7884786,-0.24725477,-0.5631753,,0.08604014,-0.00076863915,0.050352514,0.49517828,0.50073063,0.7099769,-0.85890293,0.15920451,0.48676446,0.13070634,-0.8508365,0.50891364,,0.08376661,1.2898986,0.42707106,0.99237376,0.09957857,-0.07265264,0.024119724,-0.7348751,-0.6777734,-0.12088232,0.67085224,-0.7316726,,-0.08776806,0.2591767,-0.093930766,-0.43570194,0.7396994,0.5128436,-0.7987368,-0.5804111,0.15856406,0.41494983,-0.34054038,0.8437114,,-0.090835765,0.44969603,-0.3456604,-0.53668594,-0.3260855,-0.77822644,-0.5259923,-0.59188205,0.61074364,-0.65977293,0.7371186,0.14613634,,1.2277291814127156,0.44270566201492,0.22335465587000003,-1.3145462557044831,0.3586708118842812,0.2136094767078174,-0.4232244753539176,,-1.490850413170419,0.2680946717287039,0.18344059048000003,-0.3799581775939581,-0.2675342665407324,-1.2437298355981898,0.5354418487881674,,-0.07327110366028695,-0.03740458753180348,0.09109008376,-0.10826536583874626,,9.318441e-05,9.298325e-06,-7.1525574e-06,1.0,-6.236136e-05,-5.7190657e-05,6.236136e-05,1.0,-1.0311604e-05,5.7175756e-05,1.0281801e-05,1.0,708,2.168,0,3,1.23,False,-0.26101001227556386,0.7376731705242046
2.1687814579345286,19:58:16.678033,19:56:57.147281,0,,0.09823598,0.0067600086,0.02106756,0.50524014,-0.77246344,-0.3847502,-0.34163406,-0.58845055,0.73281103,-0.7924762,-0.23880175,-0.56120867,,0.08606355,-0.00079829246,0.050394714,0.4951476,0.5032331,0.70822686,-0.8588756,0.16060692,0.48635185,0.13100216,-0.84909475,0.5117388,,0.08376661,1.2898986,0.42707106,0.99237376,0.09957857,-0.07265264,0.024119724,-0.7348751,-0.6777734,-0.12088232,0.67085224,-0.7316726,,-0.08993611,0.26009408,-0.09327099,-0.42336193,0.75106287,0.50662535,-0.80826026,-0.56573665,0.16327085,0.4092432,-0.3403625,0.8465656,,-0.09086761,0.44970515,-0.3457063,-0.5367108,-0.3288282,-0.77705437,-0.52575,-0.5899733,0.61279565,-0.6599458,0.73743033,0.14376365,,1.2227016823115955,0.4526216510254243,0.22362039532000003,-1.2910609820342165,0.356757900887565,0.22284712893278022,-0.4224077550232462,,-1.491097540622394,0.2679711080027163,0.18341077581,-0.38016786753744264,-0.2675342665407324,-1.246833627723531,0.5609235231051148,,-0.07327110366028695,-0.03740458753180348,0.09109008376,-0.10826536583874626,,9.318441e-05,9.298325e-06,-7.1525574e-06,1.0,-6.236136e-05,-5.7190657e-05,6.236136e-05,1.0,-1.0311604e-05,5.7175756e-05,1.0281801e-05,1.0,725,2.221,0,3,1.23,False,-0.25975888018662197,0.7478120126878909
2.2194740150589496,19:58:16.730220,19:56:57.147281,0,,0.10007675,0.006889574,0.021013737,0.48438868,-0.7889238,-0.37810946,-0.3592125,-0.5734389,0.73629767,-0.7977054,-0.22083259,-0.56115866,,0.08597113,-0.00096745044,0.050489187,0.4948331,0.5046484,0.7074391,-0.8590058,0.16102424,0.48598373,0.13133612,-0.8481752,0.513176,,0.08376661,1.2898986,0.42707106,0.99237376,0.09957857,-0.07265264,0.024119724,-0.7348751,-0.6777734,-0.12088232,0.67085224,-0.7316726,,-0.091740154,0.26008877,-0.09287911,-0.4033694,0.7661488,0.50030905,-0.8239336,-0.5419445,0.16561873,0.39802834,-0.3454159,0.8498596,,-0.09079984,0.44967628,-0.34590793,-0.53646916,-0.33037838,-0.7765636,-0.5255475,-0.58918875,0.6137234,-0.6603035,0.7373647,0.14245205,,1.2160601320397624,0.458012118571633,0.22370076530000002,-1.2573009011332081,0.3526588058946018,0.23280564399505826,-0.4225710990893804,,-1.4909816996292808,0.26756180316038236,0.18321114715000003,-0.38016786753744264,-0.26767090304049784,-1.248764178323349,0.5705608230070374,,-0.07327110366028695,-0.03740458753180348,0.09109008376,-0.10826536583874626,,9.318441e-05,9.298325e-06,-7.1525574e-06,1.0,-6.236136e-05,-5.7190657e-05,6.236136e-05,1.0,-1.0311604e-05,5.7175756e-05,1.0281801e-05,1.0,738,2.262,0,3,1.23,False,-0.26041423509035333,0.751191626742453
2.2716295609716326,19:58:16.773380,19:56:57.330594,0,,0.101199314,0.0068721697,0.021066546,0.4740008,-0.7972781,-0.37372565,-0.369505,-0.56536084,0.7374505,-0.799243,-0.21145862,-0.5625797,,0.08585336,-0.0011675134,0.050611258,0.4944992,0.5043242,0.7079037,-0.8591436,0.16021085,0.486009,0.13169226,-0.84852207,0.512511,,0.08376661,1.2898986,0.42707106,0.99237376,0.09957857,-0.07265264,0.024119724,-0.7348751,-0.6777734,-0.12088232,0.67085224,-0.7316726,,-0.092858404,0.26007387,-0.09276729,-0.3936597,0.77380687,0.49624085,-0.83213025,-0.5293609,0.16533698,0.39062938,-0.3478505,0.8522961,,-0.09071334,0.4496508,-0.34615424,-0.53621274,-0.3300192,-0.7768933,-0.525331,-0.5899401,0.6131868,-0.66068393,0.7369247,0.14296404,,1.2119053017534296,0.4613946755705433,0.22362169161000003,-1.2394772559370233,0.34896962040093493,0.23842764707935973,-0.4222444109571119,,-1.490850413170419,0.26711388465367736,0.18296355576,-0.38016786753744264,-0.26780753954026326,-1.2482443667189493,0.572684295866783,,-0.07327110366028695,-0.03740458753180348,0.09109008376,-0.10826536583874626,,9.318441e-05,9.298325e-06,-7.1525574e-06,1.0,-6.236136e-05,-5.7190657e-05,6.236136e-05,1.0,-1.0311604e-05,5.7175756e-05,1.0281801e-05,1.0,751,2.303,0,3,1.23,False,-0.259580147031059,0.7516261485494682
2.3148187899496406,19:58:16.817343,19:56:57.330594,0,,0.10210629,0.0069619194,0.021468818,0.45594487,-0.8102083,-0.36834314,-0.38092038,-0.5516891,0.74198306,-0.8043717,-0.19799393,-0.5601647,,0.08577518,-0.0013593212,0.050732255,0.49394077,0.504324,0.70829356,-0.85926306,0.15851864,0.4863525,0.1330015,-0.8488399,0.51164585,,0.08376661,1.2898986,0.42707106,0.99237376,0.09957857,-0.07265264,0.024119724,-0.7348751,-0.6777734,-0.12088232,0.67085224,-0.7316726,,-0.093800314,0.26038343,-0.09286449,-0.37598914,0.78587973,0.49094316,-0.8433395,-0.50974685,0.1701077,0.38394094,-0.35007313,0.8544227,,-0.09066524,0.44962505,-0.34638786,-0.5359154,-0.33001027,-0.77710223,-0.5243642,-0.59128517,0.6127186,-0.66169244,0.7358499,0.14383326,,1.2098510548088859,0.4649316872269382,0.22337539651000002,-1.2143144627188807,0.3454170714070334,0.2432031235986996,-0.4227344431555148,,-1.4908658586361674,0.2666350752154754,0.18274448275000002,-0.3807969373678962,-0.2686273585388559,-1.2472491443362088,0.5743177365281258,,-0.07327110366028695,-0.03740458753180348,0.09109008376,-0.10826536583874626,,9.318441e-05,9.298325e-06,-7.1525574e-06,1.0,-6.236136e-05,-5.7190657e-05,6.236136e-05,1.0,-1.0311604e-05,5.7175756e-05,1.0281801e-05,1.0,768,2.356,0,3,1.23,False,-0.260652545964438,0.7466050076684043
2.358782162889838,19:58:16.871109,19:56:57.330594,0,,0.10312061,0.0072901696,0.022848248,0.43916556,-0.82015234,-0.3667203,-0.38387758,-0.540356,0.748768,-0.81226325,-0.1880574,-0.5521438,,0.08568984,-0.0014862493,0.050886095,0.4929043,0.5055874,0.708115,-0.85970974,0.15770209,0.48582846,0.1339576,-0.84824026,0.51239043,,0.08376661,1.2898986,0.42707106,0.99237376,0.09957857,-0.07265264,0.024119724,-0.7348751,-0.6777734,-0.12088232,0.67085224,-0.7316726,,-0.09495602,0.26153147,-0.093485564,-0.3586017,0.79527855,0.4888117,-0.85031873,-0.49435222,0.18048257,0.38517904,-0.3509244,0.85351574,,-0.09061434,0.44966716,-0.34659445,-0.53509194,-0.33138818,-0.77708334,-0.52381605,-0.5915284,0.6129526,-0.66279215,0.7350347,0.14293565,,1.2098742230075086,0.47181264221787217,0.22259632622000003,-1.19250670859649,0.34692007290445326,0.2500637219319546,-0.42257109908938034,,-1.491020313293652,0.26657329335248164,0.18253448377,-0.3807969373678962,-0.26999372353651035,-1.2479318975823368,0.5684373501472917,,-0.07327110366028695,-0.03740458753180348,0.09109008376,-0.10826536583874626,,9.318441e-05,9.298325e-06,-7.1525574e-06,1.0,-6.236136e-05,-5.7190657e-05,6.236136e-05,1.0,-1.0311604e-05,5.7175756e-05,1.0281801e-05,1.0,781,2.397,1,4,1.261,False,-0.26059296824591627,0.7378180111265431
2.412547935033217,19:58:16.908196,19:56:57.330594,0,,0.10354254,0.007417269,0.023654312,0.4248331,-0.82735544,-0.36742312,-0.38653946,-0.53279704,0.7528045,-0.81859887,-0.17779267,-0.5461554,,0.08565453,-0.0014936998,0.050937235,0.4922432,0.5066114,0.7078428,-0.8599979,0.15736088,0.48542875,0.13453701,-0.84769243,0.5131446,,0.08376661,1.2898986,0.42707106,0.99237376,0.09957857,-0.07265264,0.024119724,-0.7348751,-0.6777734,-0.12088232,0.67085224,-0.7316726,,-0.09546721,0.26216102,-0.09391717,-0.3438117,0.8016456,0.48903766,-0.85610217,-0.48157695,0.18754403,0.3858531,-0.3541864,0.8518623,,-0.09058956,0.44970474,-0.34663796,-0.5345611,-0.33250704,-0.7769707,-0.52349126,-0.5914695,0.6132868,-0.6634767,0.73457664,0.14211208,,1.2104225370415784,0.47510252642229184,0.22210243973000002,-1.1751024432872745,0.34814980140234225,0.25608533245077525,-0.42224441095711185,,-1.4910512042251487,0.26676636167433726,0.18248003959000003,-0.3807969373678962,-0.2710868155346338,-1.2486741291555767,0.5628836518987261,,-0.07327110366028695,-0.03740458753180348,0.09109008376,-0.10826536583874626,,9.318441e-05,9.298325e-06,-7.1525574e-06,1.0,-6.236136e-05,-5.7190657e-05,6.236136e-05,1.0,-1.0311604e-05,5.7175756e-05,1.0281801e-05,1.0,794,2.438,1,4,1.302,False,-0.2602950796533112,0.7380111319296607
2.4495993149466813,19:58:16.957865,19:56:57.510369,0,,0.10434736,0.007410094,0.025044084,0.39468402,-0.84061897,-0.37092352,-0.39244437,-0.5192508,0.7591877,-0.8307899,-0.15407243,-0.53483623,,0.08557184,-0.0015435964,0.05094987,0.4923576,0.50671655,0.70768803,-0.8599238,0.1574606,0.48552772,0.1345919,-0.84761107,0.51326466,,0.08372839,1.2899033,0.42707717,0.9923732,0.09959455,-0.07263789,0.024141308,-0.73487294,-0.677775,-0.12088232,0.67085224,-0.7316726,,-0.096406095,0.26308075,-0.09480016,-0.31286034,0.8127368,0.49150512,-0.86771935,-0.45501432,0.20006286,0.3862403,-0.36389676,0.84758335,,-0.09047583,0.44969425,-0.34669116,-0.53466356,-0.33262387,-0.7768502,-0.52342266,-0.5913637,0.61344737,-0.6634483,0.73460895,0.14207774,,1.210855010082535,0.48026903471514804,0.22111855562000002,-1.1388260830644517,0.3506092583981202,0.2704972369524926,-0.4227344431555147,,-1.4910434814922746,0.26688992540032486,0.18245670637000003,-0.38100662731138074,-0.2710868155346338,-1.248837486635858,0.5625569637664576,,-0.07327110366028695,-0.03740458753180348,0.09109008376,-0.10826536583874626,,5.4627657e-05,6.1392784e-06,-1.1920929e-05,1.0,-4.644692e-05,-4.259497e-05,4.644692e-05,1.0,-7.688999e-06,4.258752e-05,7.659197e-06,1.0,807,2.479,1,4,1.343,False,-0.26059296824591627,0.7379145715281021
2.499308549100533,19:58:16.989805,19:56:57.510369,0,,0.104984306,0.007359445,0.025983453,0.37017587,-0.8511143,-0.37225577,-0.3961095,-0.507083,0.7654828,-0.840278,-0.13590917,-0.52484447,,0.08557347,-0.0015435666,0.050951242,0.4922506,0.50665814,0.70780426,-0.8600084,0.15749073,0.48536816,0.13444307,-0.8476404,0.51325524,,0.08372839,1.2899033,0.42707717,0.9923732,0.09959455,-0.07263789,0.024141308,-0.73487294,-0.677775,-0.12088232,0.67085224,-0.7316726,,-0.097160175,0.2636646,-0.09541757,-0.2876767,0.8216879,0.4920073,-0.87604195,-0.4333654,0.21152991,0.3870305,-0.3701668,0.84450215,,-0.09047769,0.44969514,-0.3466918,-0.53453296,-0.33256012,-0.77696735,-0.52357584,-0.5913586,0.61332154,-0.66343266,0.7346419,0.14198023,,1.2104302597744527,0.4839450555632789,0.22041985531000002,-1.1094694909766183,0.3537518978927253,0.28026811492869985,-0.421754378758709,,-1.491058926958023,0.26688992540032486,0.18245670637000003,-0.3807969373678962,-0.2710868155346338,-1.248837486635858,0.5625569637664576,,-0.07327110366028695,-0.03740458753180348,0.09109008376,-0.10826536583874626,,5.4627657e-05,6.1392784e-06,-1.1920929e-05,1.0,-4.644692e-05,-4.259497e-05,4.644692e-05,1.0,-7.688999e-06,4.258752e-05,7.659197e-06,1.0,820,2.52,0,4,1.359,False,-0.2602355019347904,0.7380594121304402
2.531247328966856,19:58:17.028068,19:56:57.510369,0,,0.10650922,0.007419236,0.027434945,0.3128565,-0.87275654,-0.3747222,-0.4076436,-0.47972566,0.77697486,-0.85787386,-0.090328455,-0.505859,,0.0855767,-0.0015498549,0.050947607,0.4921329,0.50658643,0.7079374,-0.8600583,0.1572473,0.48535872,0.13455477,-0.84772843,0.5130805,,0.08372839,1.2899033,0.42707717,0.9923732,0.09959455,-0.07263789,0.024141308,-0.73487294,-0.677775,-0.12088232,0.67085224,-0.7316726,,-0.09884993,0.26464885,-0.0961997,-0.22958536,0.8392717,0.49286255,-0.8945224,-0.38151357,0.23297425,0.38356245,-0.38738915,0.83833736,,-0.09048034,0.44968784,-0.34669372,-0.53444004,-0.33248043,-0.7770654,-0.5235107,-0.59157485,0.61316866,-0.6635589,0.73450387,0.14210424,,1.2082524491039215,0.49143610645127667,0.21944374894000002,-1.0406911895136943,0.35607471838873783,0.3051646373319651,-0.4217543787587091,,-1.4910512042251487,0.2668590344688279,0.18245670637000003,-0.3807969373678962,-0.2712234520343993,-1.248644389992021,0.562720307832592,,-0.07327110366028695,-0.03740458753180348,0.09109008376,-0.10826536583874626,,5.4627657e-05,6.1392784e-06,-1.1920929e-05,1.0,-4.644692e-05,-4.259497e-05,4.644692e-05,1.0,-7.688999e-06,4.258752e-05,7.659197e-06,1.0,837,2.573,0,4,1.359,False,-0.2596993024681016,0.7379145715281021
2.5694788959808648,19:58:17.082854,19:56:57.510369,0,,0.10869255,0.007737763,0.029008806,0.25772208,-0.8865897,-0.38410676,-0.41504502,-0.46057326,0.784608,-0.87253475,-0.04278922,-0.4866747,,0.08555211,-0.0015454143,0.050966263,0.4919103,0.50626963,0.70831865,-0.86023337,0.15717292,0.4850724,0.13424891,-0.8479315,0.5128251,,0.08372839,1.2899033,0.42707717,0.9923732,0.09959455,-0.07263789,0.024141308,-0.73487294,-0.677775,-0.12088232,0.67085224,-0.7316726,,-0.10118741,0.26588282,-0.096798785,-0.1737257,0.8482749,0.500249,-0.90805876,-0.3345679,0.25197932,0.38111502,-0.4104802,0.8284065,,-0.09045961,0.44970772,-0.3467059,-0.5341691,-0.33213344,-0.7774,-0.523826,-0.59173596,0.61274374,-0.6635282,0.7345311,0.14210692,,1.2043756372010608,0.5020548641533353,0.21859208641000002,-0.9735904075986466,0.3577143563859231,0.34148152169240725,-0.4214276906264405,,-1.491028036026526,0.2669748754619413,0.18243466944000003,-0.3803775574809272,-0.2713600885341647,-1.2483696146080434,0.5630469959648605,,-0.07327110366028695,-0.03740458753180348,0.09109008376,-0.10826536583874626,,5.4627657e-05,6.1392784e-06,-1.1920929e-05,1.0,-4.644692e-05,-4.259497e-05,4.644692e-05,1.0,-7.688999e-06,4.258752e-05,7.659197e-06,1.0,850,2.614,0,4,1.359,False,-0.26053339052739544,0.738542214138235
2.624265037011355,19:58:17.123452,19:56:57.667194,0,,0.1108513,0.008110963,0.030007541,0.19702423,-0.8997788,-0.38933212,-0.4296725,-0.43619442,0.79064274,-0.8812282,0.011509597,-0.4725512,,0.08551115,-0.001556173,0.05099827,0.49161953,0.5061318,0.70861894,-0.8603609,0.15662685,0.4850228,0.13449669,-0.8481147,0.51245695,,0.08372839,1.2899033,0.42707717,0.9923732,0.09959455,-0.07263789,0.024141308,-0.73487294,-0.677775,-0.12088232,0.67085224,-0.7316726,,-0.103422835,0.2667641,-0.09695116,-0.11366272,0.856161,0.5040527,-0.9225886,-0.27921233,0.26621577,0.36866128,-0.43477443,0.8216204,,-0.09042576,0.4497296,-0.34674045,-0.5339343,-0.3319801,-0.77762675,-0.5236889,-0.59221315,0.61239976,-0.66382533,0.73421574,0.1423486,,1.1998269475381425,0.5115461028557573,0.21818505135000002,-0.9008279972095167,0.34896962040093493,0.3770364690978938,-0.42142769062644037,,-1.4909662541635322,0.2671061619208031,0.18238670671,-0.3803775574809272,-0.2719066345332265,-1.2479239429932578,0.5630469959648605,,-0.07327110366028695,-0.03740458753180348,0.09109008376,-0.10826536583874626,,5.4627657e-05,6.1392784e-06,-1.1920929e-05,1.0,-4.644692e-05,-4.259497e-05,4.644692e-05,1.0,-7.688999e-06,4.258752e-05,7.659197e-06,1.0,863,2.655,1,5,1.384,False,-0.2602950796533112,0.7394112577522653
2.664894066983834,19:58:17.162923,19:56:57.667194,0,,0.11314642,0.00833942,0.030629277,0.13970539,-0.9041774,-0.40366527,-0.44220954,-0.42172334,0.79158074,-0.8859645,0.06791654,-0.45875293,,0.08543587,-0.0015899986,0.05105579,0.49097484,0.5062227,0.70900095,-0.86067927,0.15591669,0.48468667,0.13481426,-0.8481914,0.5122466,,0.08372839,1.2899033,0.42707717,0.9923732,0.09959455,-0.07263789,0.024141308,-0.73487294,-0.677775,-0.12088232,0.67085224,-0.7316726,,-0.105755486,0.26727736,-0.09691171,-0.0572943,0.85435086,0.5165288,-0.9330041,-0.2299349,0.27682728,0.35527563,-0.46606284,0.81028676,,-0.090363756,0.44975963,-0.34681377,-0.53337103,-0.33207628,-0.77797216,-0.52358115,-0.59274656,0.6119757,-0.66436297,0.7337417,0.14228497,,1.191656296157213,0.5221803060235645,0.21793227480000002,-0.8175810896461604,0.3358525164234526,0.4321658224892161,-0.4224077550232462,,-1.4908426904375447,0.26727606204403603,0.18229207754,-0.38016786753744264,-0.2728630900315846,-1.2477157688483667,0.5638637162955318,,-0.07327110366028695,-0.03740458753180348,0.09109008376,-0.10826536583874626,,5.4627657e-05,6.1392784e-06,-1.1920929e-05,1.0,-4.644692e-05,-4.259497e-05,4.644692e-05,1.0,-7.688999e-06,4.258752e-05,7.659197e-06,1.0,876,2.696,1,5,1.425,False,-0.26011634649774784,0.7368524071109537
2.7043450518976897,19:58:17.210077,19:56:57.667194,0,,0.11537649,0.008258186,0.030811638,0.07559157,-0.908756,-0.41042462,-0.4623763,-0.39662096,0.79303217,-0.8834558,0.1298241,-0.4501685,,0.085351996,-0.0016092807,0.051116943,0.49038082,0.5065219,0.7091983,-0.8610158,0.15568495,0.48416322,0.13482776,-0.84805524,0.5124683,,0.08372839,1.2899033,0.42707717,0.9923732,0.09959455,-0.07263789,0.024141308,-0.73487294,-0.677775,-0.12088232,0.67085224,-0.7316726,,-0.10799039,0.26726666,-0.09677696,0.0043017752,0.8527995,0.52222073,-0.9437913,-0.1691421,0.28398773,0.3305141,-0.49408904,0.8041371,,-0.09029356,0.44980294,-0.34687966,-0.5328007,-0.33240265,-0.7782236,-0.52371824,-0.5928337,0.61177397,-0.6647125,0.7335234,0.14177687,,1.1857484055084313,0.5272386960561815,0.21784412708000003,-0.7571903859226174,0.31877295395277255,0.4603868399758672,-0.4219177228248433,,-1.490680513047186,0.26763903048912463,0.18218578176000003,-0.37953879770698906,-0.2740928185294736,-1.2482649037777696,0.5584733621131008,,-0.07327110366028695,-0.03740458753180348,0.09109008376,-0.10826536583874626,,5.4627657e-05,6.1392784e-06,-1.1920929e-05,1.0,-4.644692e-05,-4.259497e-05,4.644692e-05,1.0,-7.688999e-06,4.258752e-05,7.659197e-06,1.0,919,2.831,1,5,1.56,False,-0.259282258438454,0.7325071890408026
2.7514891689643264,19:58:17.334922,19:56:57.790815,0,,0.12162109,0.007568985,0.030146003,-0.11012693,-0.8853029,-0.4517863,-0.5413236,-0.3277948,0.77428627,-0.83357114,0.3298324,-0.44313642,,0.08524969,-0.001551345,0.051180303,0.48886266,0.5086092,0.7087524,-0.86171585,0.1550082,0.48313373,0.13586378,-0.8469293,0.51405436,,0.08372839,1.2899033,0.42707717,0.9923732,0.09959455,-0.07263789,0.024141308,-0.73487294,-0.677775,-0.12088232,0.67085224,-0.7316726,,-0.11413189,0.26609567,-0.09586927,0.17574726,0.8090556,0.5608403,-0.96084833,0.01701359,0.276552,0.21420404,-0.5874858,0.7803699,,-0.09020335,0.44990075,-0.34689134,-0.5315273,-0.33468437,-0.77811635,-0.5232171,-0.5926945,0.6123374,-0.66612506,0.7325978,0.13992073,,1.1611051649067807,0.5447847451464196,0.21802949655000003,-0.5523233111382371,0.21001030013948196,0.5835439196575359,-0.42289778722164906,,-1.4905183356568272,0.26831090824918213,0.18213522645000002,-0.37953879770698906,-0.27641563902548605,-1.2497196277606935,0.5439357402271499,,-0.07327110366028695,-0.03740458753180348,0.09109008376,-0.10826536583874626,,5.4627657e-05,6.1392784e-06,-1.1920929e-05,1.0,-4.644692e-05,-4.259497e-05,4.644692e-05,1.0,-7.688999e-06,4.258752e-05,7.659197e-06,1.0,945,2.913,1,5,1.642,False,-0.26106958999408425,0.7193266942280103
2.8763675088994205,19:58:17.415034,19:56:57.938047,0,,0.124034226,0.008026153,0.029466271,-0.1527804,-0.8621306,-0.4831035,-0.5993002,-0.30787623,0.738953,-0.7858101,0.4024216,-0.4696376,,0.085243896,-0.0015562624,0.051181436,0.4888638,0.50847566,0.70884746,-0.8617153,0.1549182,0.48316354,0.13586345,-0.84702593,0.5138953,,0.08372839,1.2899033,0.42707717,0.9923732,0.09959455,-0.07263789,0.024141308,-0.73487294,-0.677775,-0.12088232,0.67085224,-0.7316726,,-0.11639755,0.26588136,-0.09472249,0.20752446,0.7783065,0.59259814,-0.9689682,0.08038644,0.23374914,0.13429162,-0.62271744,0.7708364,,-0.090198025,0.44989905,-0.34689665,-0.5315283,-0.3345378,-0.77817875,-0.5232171,-0.592809,0.61222655,-0.6661243,0.73257214,0.14005885,,1.1529499589915997,0.5540983609927344,0.21893041810000002,-0.5116434621022394,0.12611548928350153,0.6291661440279217,-0.4230611312877832,,-1.4904951674582045,0.26830318551630794,0.182128745,-0.37953879770698906,-0.27641563902548605,-1.2495562702804124,0.5442624283594184,,-0.07327110366028695,-0.03740458753180348,0.09109008376,-0.10826536583874626,,5.4627657e-05,6.1392784e-06,-1.1920929e-05,1.0,-4.644692e-05,-4.259497e-05,4.644692e-05,1.0,-7.688999e-06,4.258752e-05,7.659197e-06,1.0,958,2.954,1,5,1.683,False,-0.2598184579051428,0.7199060566373641
2.956456173909828,19:58:17.463586,19:56:57.938047,0,,0.1247038,0.008501485,0.028862476,-0.15606804,-0.8573715,-0.49046594,-0.6133809,-0.30508083,0.7284844,-0.77421343,0.41453564,-0.47828203,,0.08523618,-0.0015572459,0.05118203,0.48888075,0.5082154,0.7090224,-0.8617085,0.15477031,0.48322314,0.13584575,-0.8472091,0.51359785,,0.08372839,1.2899033,0.42707717,0.9923732,0.09959455,-0.07263789,0.024141308,-0.73487294,-0.677775,-0.12088232,0.67085224,-0.7316726,,-0.11694724,0.26579183,-0.09386886,0.20824882,0.77225375,0.60021377,-0.9711842,0.09054664,0.22045979,0.115903564,-0.62882864,0.7688569,,-0.09019059,0.44989985,-0.34689888,-0.53154135,-0.33425227,-0.7782925,-0.52322793,-0.59301037,0.6120223,-0.66610533,0.7325395,0.14031944,,1.1505945254649612,0.556253003464643,0.21973671048,-0.5089174928369407,0.10671310631680898,0.6381264721810064,-0.42240775502324623,,-1.4904642765267078,0.2683186309820564,0.18212355984,-0.37953879770698906,-0.27641563902548605,-1.2492295553198502,0.546875933417567,,-0.07327110366028695,-0.03740458753180348,0.09109008376,-0.10826536583874626,,5.4627657e-05,6.1392784e-06,-1.1920929e-05,1.0,-4.644692e-05,-4.259497e-05,4.644692e-05,1.0,-7.688999e-06,4.258752e-05,7.659197e-06,1.0,971,2.995,1,5,1.724,False,-0.26053339052739544,0.7213061824599682
3.0050079200882465,19:58:17.501793,19:56:57.938047,0,,0.12481107,0.008824617,0.02845797,-0.15924889,-0.8545439,-0.49436262,-0.62115043,-0.30248642,0.722962,-0.76734084,0.42220452,-0.48262972,,0.08522247,-0.0015606731,0.05118555,0.4889062,0.5081146,0.70907706,-0.86169827,0.15474582,0.48324925,0.1358192,-0.84727407,0.5134977,,0.08372839,1.2899033,0.42707717,0.9923732,0.09959455,-0.07263789,0.024141308,-0.73487294,-0.677775,-0.12088232,0.67085224,-0.7316726,,-0.116977595,0.26574695,-0.093342915,0.20993954,0.7686661,0.6042167,-0.97203606,0.09758597,0.21359517,0.10522029,-0.6321625,0.7676583,,-0.09017789,0.44990188,-0.3469057,-0.531561,-0.33414176,-0.7783265,-0.52324414,-0.5930624,0.61195797,-0.6660769,0.73254776,0.14041114,,1.150447793540351,0.5566236946426057,0.22025004132000003,-0.5068205934020954,0.09578218633557375,0.6418124651077242,-0.4220810668909776,,-1.4904179401294624,0.268341799180679,0.18211189323000002,-0.37953879770698906,-0.27641563902548605,-1.2491478765797095,0.5470392774837014,,-0.07327110366028695,-0.03740458753180348,0.09109008376,-0.10826536583874626,,5.4627657e-05,6.1392784e-06,-1.1920929e-05,1.0,-4.644692e-05,-4.259497e-05,4.644692e-05,1.0,-7.688999e-06,4.258752e-05,7.659197e-06,1.0,984,3.036,1,5,1.765,False,-0.25910352528289105,0.7224649072786753
3.0431585509795696,19:58:17.544118,19:56:58.063740,0,,0.12452196,0.00924588,0.026960969,-0.16471896,-0.86538786,-0.4732563,-0.6495902,-0.265881,0.7122779,-0.74222654,0.42474836,-0.5183519,,0.08521248,-0.001573965,0.051190436,0.48889512,0.50826865,0.7089743,-0.8617024,0.1548298,0.4832149,0.13583267,-0.8471663,0.51367193,,0.08372839,1.2899033,0.42707717,0.9923732,0.09959455,-0.07263789,0.024141308,-0.73487294,-0.677775,-0.12088232,0.67085224,-0.7316726,,-0.11646866,0.26503986,-0.09202267,0.21002838,0.78177017,0.58713156,-0.97539455,0.12637046,0.18065436,0.067034096,-0.6106275,0.78907573,,-0.090169415,0.44989803,-0.34692034,-0.53155285,-0.33431083,-0.7782595,-0.52323544,-0.59294605,0.6120781,-0.66609025,0.7325648,0.1402589,,1.1505559118005901,0.5540056881982437,0.22155151648000002,-0.5057721436846727,0.059710150397497476,0.6102944515387199,-0.42224441095711185,,-1.4903870491979654,0.26831090824918213,0.18209633775000003,-0.37953879770698906,-0.27641563902548605,-1.2493929128001313,0.5472026215498353,,-0.07327110366028695,-0.03740458753180348,0.09109008376,-0.10826536583874626,,5.4627657e-05,6.1392784e-06,-1.1920929e-05,1.0,-4.644692e-05,-4.259497e-05,4.644692e-05,1.0,-7.688999e-06,4.258752e-05,7.659197e-06,1.0,997,3.077,0,5,1.771,False,-0.26059296824591627,0.721885544869322
3.0855622629169375,19:58:17.585952,19:56:58.063740,0,,0.12426374,0.00921797,0.026667982,-0.16758627,-0.8683281,-0.46682027,-0.6577607,-0.254231,0.70902574,-0.7343471,0.42587903,-0.5285465,,0.085201785,-0.0015794486,0.051194847,0.48890743,0.50829947,0.7089437,-0.8616974,0.15487182,0.48321044,0.13582009,-0.8471402,0.51371837,,0.08372839,1.2899033,0.42707717,0.9923732,0.09959455,-0.07263789,0.024141308,-0.73487294,-0.677775,-0.12088232,0.67085224,-0.7316726,,-0.1161778,0.26482794,-0.091868445,0.21125032,0.78539413,0.58183277,-0.9758607,0.13573352,0.17109141,0.055399988,-0.60393083,0.79510903,,-0.090159915,0.44989908,-0.34692886,-0.5315624,-0.3343447,-0.7782384,-0.52324307,-0.59290284,0.61211354,-0.66607666,0.73258436,0.1402213,,1.1512200668277734,0.5527854964041162,0.22170966386000002,-0.5045140040237656,0.04891586691602768,0.6002286769582673,-0.44609264461271664,,-1.4903561582664686,0.2683186309820564,0.18208467114000002,-0.37953879770698906,-0.27641563902548605,-1.2494745915402719,0.5463859012191641,,-0.07327110366028695,-0.03740458753180348,0.09109008376,-0.10826536583874626,,5.4627657e-05,6.1392784e-06,-1.1920929e-05,1.0,-4.644692e-05,-4.259497e-05,4.644692e-05,1.0,-7.688999e-06,4.258752e-05,7.659197e-06,1.0,1011,3.122,0,5,1.771,False,-0.259282258438454,0.7258928015340169
3.1273969169706106,19:58:17.627914,19:56:58.063740,0,,0.123721816,0.00952851,0.026345879,-0.16102552,-0.8653975,-0.47450808,-0.65416235,-0.2664181,0.7078792,-0.73901445,0.424392,-0.5232104,,0.08518064,-0.0016081184,0.051187158,0.48757702,0.50798136,0.71008706,-0.8619858,0.15083677,0.4839719,0.13874146,-0.8480585,0.51141727,,0.08372839,1.2899033,0.42707717,0.9923732,0.09959455,-0.07263789,0.024141308,-0.73487294,-0.677775,-0.12088232,0.67085224,-0.7316726,,-0.11557759,0.26485243,-0.09150372,0.20562598,0.78178567,0.5886673,-0.9766554,0.12573564,0.1741687,0.06214614,-0.6107387,0.78938967,,-0.09013858,0.44987717,-0.34694868,-0.5308166,-0.33398107,-0.7789033,-0.5210896,-0.59619075,0.61075544,-0.6683557,0.73007756,0.14243388,,1.1534905502927955,0.5508161995211889,0.2221063286,-0.511853152045724,0.056157601403596026,0.6064936603433008,-0.43416852778491416,,-1.4901399217459903,0.26834952191355327,0.18207041195,-0.38100662731138074,-0.2795582785200912,-1.246585264794692,0.5501428147402525,,-0.07327110366028695,-0.03740458753180348,0.09109008376,-0.10826536583874626,,5.4627657e-05,6.1392784e-06,-1.1920929e-05,1.0,-4.644692e-05,-4.259497e-05,4.644692e-05,1.0,-7.688999e-06,4.258752e-05,7.659197e-06,1.0,1044,3.226,0,5,1.771,False,-0.2599971910607066,0.7247823569160894
3.169319490902126,19:58:17.732458,19:56:58.227526,0,,0.122191705,0.010101803,0.02537033,-0.15589762,-0.8619001,-0.4825186,-0.66166055,-0.271582,0.6988909,-0.7334175,0.42821902,-0.52794635,,0.08511928,-0.0016407222,0.05123335,0.4868276,0.50990987,0.70921844,-0.86226314,0.15072966,0.48351097,0.13964668,-0.8469194,0.51305586,,0.08372839,1.2899033,0.42707717,0.9923732,0.09959455,-0.07263789,0.024141308,-0.73487294,-0.677775,-0.12088232,0.67085224,-0.7316726,,-0.11389691,0.26465523,-0.090633065,0.19928294,0.77745456,0.5965323,-0.9784663,0.12447089,0.16465358,0.053759776,-0.61649936,0.78551793,,-0.090088055,0.44989786,-0.3470118,-0.53026026,-0.33609223,-0.77837396,-0.5205039,-0.5956491,0.6117825,-0.6692531,0.7295506,0.14091177,,1.1595451728661874,0.5453562273791122,0.22305780546000004,-0.5214988894460121,0.04959904941485488,0.6062875653911708,-0.4348219040494513,,-1.4900163580200028,0.2684885311052893,0.18199263455,-0.38121631725486527,-0.2807880070179801,-1.2485229383064842,0.5511228791370582,,-0.07327110366028695,-0.03740458753180348,0.09109008376,-0.10826536583874626,,5.4627657e-05,6.1392784e-06,-1.1920929e-05,1.0,-4.644692e-05,-4.259497e-05,4.644692e-05,1.0,-7.688999e-06,4.258752e-05,7.659197e-06,1.0,1063,3.287,0,5,1.771,False,-0.2607121236829584,0.7263756035418112
3.27384798694402,19:58:17.801425,19:56:58.227526,0,,0.12236718,0.010410324,0.024159938,-0.15130459,-0.8613613,-0.4849367,-0.66696644,-0.27312028,0.69322515,-0.7295633,0.42832473,-0.5331748,,0.08508025,-0.0016389936,0.05127877,0.48703873,0.51030695,0.70878774,-0.8621388,0.15112013,0.48361075,0.13967776,-0.8466106,0.5135569,,0.08372839,1.2899033,0.42707717,0.9923732,0.09959455,-0.07263789,0.024141308,-0.73487294,-0.677775,-0.12088232,0.67085224,-0.7316726,,-0.11389251,0.26404613,-0.08952852,0.19385429,0.77679443,0.5991752,-0.9798534,0.12340386,0.15703145,0.048040625,-0.61754507,0.785067,,-0.09005827,0.44993764,-0.34704524,-0.53046966,-0.3365285,-0.77804273,-0.5204253,-0.5952121,0.61227447,-0.66914827,0.72970617,0.14060402,,1.1571202347436809,0.5435027714892983,0.22415835567000003,-0.525482998372218,0.04604650042095343,0.6083676434858721,-0.4361286565785257,,-1.4900318034857511,0.2686738766942707,0.18194207924000003,-0.3814260071983498,-0.2807880070179801,-1.2490130107473276,0.5509595350709238,,-0.07327110366028695,-0.03740458753180348,0.09109008376,-0.10826536583874626,,5.4627657e-05,6.1392784e-06,-1.1920929e-05,1.0,-4.644692e-05,-4.259497e-05,4.644692e-05,1.0,-7.688999e-06,4.258752e-05,7.659197e-06,1.0,1096,3.392,0,5,1.771,False,-0.2607121236829584,0.7268584055496059
3.3428669748827815,19:58:17.898202,19:56:58.395496,0,,0.12327032,0.010176204,0.022935212,-0.14934604,-0.86167645,-0.48498392,-0.6780835,-0.26772985,0.6844878,-0.7196517,0.43108517,-0.54430425,,0.08508902,-0.0016425103,0.05128795,0.48691526,0.51035166,0.7088405,-0.8621901,0.15095049,0.4835723,0.13979208,-0.84661394,0.51352024,,0.08372839,1.2899033,0.42707717,0.9923732,0.09959455,-0.07263789,0.024141308,-0.73487294,-0.677775,-0.12088232,0.67085224,-0.7316726,,-0.11464603,0.26300696,-0.08867841,0.1898252,0.77715075,0.6000026,-0.9812416,0.12923071,0.1430538,0.03363561,-0.6159027,0.7871039,,-0.09006871,0.44994107,-0.34705245,-0.53037155,-0.33657685,-0.77808875,-0.52035844,-0.5953312,0.6122155,-0.6692781,0.7295867,0.14060609,,1.150517298136219,0.5426764390717563,0.22494001854,-0.5252733084287334,0.03511558043971819,0.6102567041294975,-0.4353119362478542,,-1.4901013080816192,0.26865843122852223,0.18193948666,-0.3814260071983498,-0.28092464351774554,-1.2489015928436316,0.5545531045258782,,-0.07327110366028695,-0.03740458753180348,0.09109008376,-0.10826536583874626,,5.4627657e-05,6.1392784e-06,-1.1920929e-05,1.0,-4.644692e-05,-4.259497e-05,4.644692e-05,1.0,-7.688999e-06,4.258752e-05,7.659197e-06,1.0,1115,3.453,0,5,1.771,False,-0.2599971910607066,0.7292241353877995
3.4396418700926006,19:58:17.961407,19:56:58.395496,0,,0.123883404,0.0097682625,0.022641927,-0.1476745,-0.8648118,-0.47988817,-0.6797077,-0.26372752,0.6844306,-0.7184634,0.4272567,-0.54887354,,0.08509657,-0.0016352385,0.051300526,0.48682514,0.5103973,0.70886946,-0.8622285,0.1508426,0.48353735,0.13986835,-0.84660566,0.51351315,,0.08372839,1.2899033,0.42707717,0.9923732,0.09959455,-0.07263789,0.024141308,-0.73487294,-0.677775,-0.12088232,0.67085224,-0.7316726,,-0.11524493,0.26248813,-0.08865726,0.18789972,0.7810381,0.5955444,-0.9816695,0.12963566,0.13971256,0.03191704,-0.6108797,0.7910798,,-0.09007828,0.44995433,-0.34705392,-0.5302987,-0.3366265,-0.7781169,-0.52031565,-0.5954013,0.61218375,-0.66936904,0.7295066,0.14058849,,1.1462775177882698,0.5426764390717563,0.22492575935000003,-0.5248539285417645,0.03511558043971819,0.606989554523875,-0.43416852778491416,,-1.4901862581432357,0.2687047676257676,0.18193948666,-0.3814260071983498,-0.281061280017511,-1.2487901749399348,0.5578199858485637,,-0.07327110366028695,-0.03740458753180348,0.09109008376,-0.10826536583874626,,5.4627657e-05,6.1392784e-06,-1.1920929e-05,1.0,-4.644692e-05,-4.259497e-05,4.644692e-05,1.0,-7.688999e-06,4.258752e-05,7.659197e-06,1.0,1148,3.557,0,5,1.771,False,-0.26041423509035333,0.745929084857492
3.5027947549242526,19:58:18.070245,19:56:58.615258,0,,0.12333852,0.0100585595,0.022995412,-0.15282215,-0.8647342,-0.47841424,-0.6777602,-0.26060817,0.6875496,-0.71922624,0.429323,-0.54625577,,0.085114464,-0.0016240142,0.05131048,0.48622528,0.51051366,0.70919716,-0.86247444,0.14993656,0.48338065,0.14043772,-0.8466965,0.51320803,,0.08370297,1.2898995,0.427067,0.9923726,0.099615335,-0.07261872,0.024169376,-0.73487014,-0.67777705,-0.12088232,0.67085224,-0.7316726,,-0.11470957,0.26296455,-0.08880498,0.19325212,0.7809358,0.5939637,-0.9805923,0.13333762,0.14373508,0.03305017,-0.61021334,0.7915475,,-0.09007602,0.44997272,-0.34706116,-0.5298013,-0.33675247,-0.77840114,-0.51998687,-0.5960861,0.6117966,-0.6700181,0.728889,0.14070034,,1.149482451931073,0.542908121057983,0.22481168583000002,-0.5212891995025276,0.03497894393995275,0.60399718030223,-0.4354752803139884,,-1.4901785354103614,0.2687124903586418,0.18189930167,-0.3814260071983498,-0.28201773551586906,-1.248336964574622,0.5793814025782884,,-0.07327110366028695,-0.03740458753180348,0.09109008376,-0.10826536583874626,,3.053993e-05,-4.172325e-07,-1.1920929e-07,1.0,-2.5749207e-05,-2.361089e-05,2.5756657e-05,1.0,-4.2915344e-06,2.361089e-05,4.23193e-06,1.0,1167,3.618,0,5,1.771,False,-0.2608312791200009,0.7597855024811966
3.6116895640734583,19:58:18.135309,19:56:58.615258,0,,0.12333487,0.009855896,0.023136884,-0.15702084,-0.86316574,-0.4798848,-0.6756176,-0.2605325,0.68968374,-0.7203369,0.43251336,-0.54226094,,0.08504778,-0.0016989373,0.05143833,0.485594,0.51096135,0.7093073,-0.86257845,0.14828458,0.48370463,0.14197499,-0.84671736,0.51275045,,0.08370297,1.2898995,0.427067,0.9923726,0.099615335,-0.07261872,0.024169376,-0.73487014,-0.67777705,-0.12088232,0.67085224,-0.7316726,,-0.11473907,0.26291376,-0.0890451,0.19770524,0.7789813,0.5950637,-0.9796471,0.1355213,0.1480729,0.03470222,-0.6122272,0.78992003,,-0.09003698,0.45002726,-0.3472092,-0.52947503,-0.33723783,-0.77841306,-0.5188309,-0.5972386,0.611654,-0.6711712,0.7277202,0.14125352,,1.1491967108147265,0.5427073300032532,0.22457057589,-0.5166760207458679,0.037165127936199804,0.6067068245508183,-0.4359653125123913,,-1.4903252673349716,0.2688128858860067,0.18174374687000003,-0.3822647669722879,-0.28352073701328895,-1.2474380825945235,0.5829749720332427,,-0.07327110366028695,-0.03740458753180348,0.09109008376,-0.10826536583874626,,3.053993e-05,-4.172325e-07,-1.1920929e-07,1.0,-2.5749207e-05,-2.361089e-05,2.5756657e-05,1.0,-4.2915344e-06,2.361089e-05,4.23193e-06,1.0,1186,3.679,0,5,1.771,False,-0.2596993024681016,0.7387353349413526
3.6767473840154707,19:58:18.201315,19:56:58.755146,0,,0.12336433,0.009589858,0.02335754,-0.1686991,-0.854203,-0.49181083,-0.6690017,-0.26720265,0.6935701,-0.72386277,0.44602692,-0.5263864,,0.08497689,-0.0017332695,0.051526785,0.48365113,0.5142335,0.70826924,-0.8633865,0.14745826,0.48251402,0.14368466,-0.84487873,0.51530075,,0.08370297,1.2898995,0.427067,0.9923726,0.099615335,-0.07261872,0.024169376,-0.73487014,-0.67777705,-0.12088232,0.67085224,-0.7316726,,-0.11481614,0.26286983,-0.089380465,0.21019574,0.7678923,0.6051109,-0.97683835,0.1395975,0.16217095,0.04005786,-0.62518317,0.7794494,,-0.089985125,0.45007947,-0.347302,-0.52791506,-0.34082165,-0.7779115,-0.51784575,-0.596812,0.61290395,-0.6731579,0.72639936,0.13857299,,1.1486792877121537,0.5424988162156491,0.22423354049000002,-0.503884934193312,0.043587043425175505,0.6236868003953193,-0.4346585599833171,,-1.490302099136349,0.26912179520097573,0.1816361548,-0.3822647669722879,-0.2865267400081286,-1.2502143280821985,0.5493260944095812,,-0.07327110366028695,-0.03740458753180348,0.09109008376,-0.10826536583874626,,3.053993e-05,-4.172325e-07,-1.1920929e-07,1.0,-2.5749207e-05,-2.361089e-05,2.5756657e-05,1.0,-4.2915344e-06,2.361089e-05,4.23193e-06,1.0,1219,3.785,0,5,1.771,False,-0.25588632848275505,0.6400988847489191
3.7427558719646186,19:58:18.294742,19:56:58.755146,0,,0.12312171,0.009343043,0.02348885,-0.22846097,-0.8340346,-0.502187,-0.66387564,-0.24383219,0.70697594,-0.71209174,0.49490616,-0.49798918,,0.08491386,-0.0016944371,0.05156684,0.48296735,0.5152421,0.7080028,-0.8637987,0.14783126,0.4816614,0.14350727,-0.8441988,0.5164633,,0.08370297,1.2898995,0.427067,0.9923726,0.099615335,-0.07261872,0.024169376,-0.73487014,-0.67777705,-0.12088232,0.67085224,-0.7316726,,-0.11461124,0.2627881,-0.089677714,0.26816994,0.7434075,0.6127236,-0.9630073,0.18937042,0.19171813,0.026492959,-0.6414703,0.76669025,,-0.08992963,0.4501425,-0.34730744,-0.5272229,-0.34192875,-0.7778951,-0.5181636,-0.5961851,0.6132453,-0.67345566,0.7263939,0.13714735,,1.149621461122809,0.5418964430514597,0.22394317153,-0.44412330030022257,0.03333930594276747,0.6437232030126514,-0.4286148295363488,,-1.4902094263418584,0.2695851591734292,0.18159726610000002,-0.3816356971418343,-0.2874831955064867,-1.251558049999978,0.4715743189296644,,-0.07327110366028695,-0.03740458753180348,0.09109008376,-0.10826536583874626,,3.053993e-05,-4.172325e-07,-1.1920929e-07,1.0,-2.5749207e-05,-2.361089e-05,2.5756657e-05,1.0,-4.2915344e-06,2.361089e-05,4.23193e-06,1.0,1238,3.847,0,5,1.771,False,-0.0840046105495742,0.6664115941737236
3.8361482799518853,19:58:18.361141,19:56:58.755146,0,,0.12256524,0.008931316,0.023536593,-0.23473218,-0.8314946,-0.50350523,-0.6657801,-0.23988605,0.70653486,-0.70826375,0.5010702,-0.4972837,,0.08490772,-0.0016739629,0.051533103,0.48020402,0.51640177,0.70903677,-0.86513245,0.14544705,0.4799906,0.14474064,-0.84390426,0.5166003,,0.08370297,1.2898995,0.427067,0.9923726,0.099615335,-0.07261872,0.024169376,-0.73487014,-0.67777705,-0.12088232,0.67085224,-0.7316726,,-0.11409744,0.26253977,-0.09007242,0.2737408,0.7403969,0.61390424,-0.96156216,0.19637522,0.19192436,0.021544633,-0.6428446,0.7656936,,-0.089916624,0.4501315,-0.34727132,-0.52478355,-0.34319457,-0.77898633,-0.5177767,-0.5976697,0.61212593,-0.6756548,0.7245746,0.13594909,,1.1509961075744208,0.5395410095248211,0.22357372888000002,-0.4388810517131095,0.030333302947927777,0.6433973197291936,-0.3704643419925453,,-1.4900086352871285,0.2698013956939075,0.18163485851000002,-0.38058724742441175,-0.2908991080006227,-1.2517947157927685,0.4831717476251982,,-0.07327110366028695,-0.03740458753180348,0.09109008376,-0.10826536583874626,,3.053993e-05,-4.172325e-07,-1.1920929e-07,1.0,-2.5749207e-05,-2.361089e-05,2.5756657e-05,1.0,-4.2915344e-06,2.361089e-05,4.23193e-06,1.0,1271,3.953,0,5,1.771,False,0.4495734365247994,0.6741847064992168
3.902532409876585,19:58:18.462596,19:56:58.755146,0,,0.122083485,0.008610494,0.023602396,-0.23846763,-0.83294255,-0.4993394,-0.6664362,-0.23364405,0.7080065,-0.7063964,0.5016145,-0.49938658,,0.08479005,-0.0013655387,0.051190555,0.4924094,0.4814986,0.72504616,-0.862694,0.15966159,0.47986162,0.11529061,-0.8617816,0.49400488,,0.08370297,1.2898995,0.427067,0.9923726,0.099615335,-0.07261872,0.024169376,-0.73487014,-0.67777705,-0.12088232,0.67085224,-0.7316726,,-0.11365313,0.2623675,-0.09040745,0.27714732,0.74222034,0.6101625,-0.9606352,0.20134544,0.19141585,0.0192193,-0.639194,0.7688053,,-0.089727156,0.45009258,-0.34683672,-0.5311313,-0.30513144,-0.7904393,-0.539644,-0.5973898,0.5932198,-0.6532104,0.7416335,0.1526301,,1.1522935266972907,0.5375794353747682,0.22326261928000002,-0.4359453925043261,0.029513483949335135,0.636796419278862,-0.16759101185377057,,-1.4890510164107247,0.2697241683651652,0.18188633877000002,-0.3650701916065569,-0.26288862554870746,-1.2297120789732254,0.500159530503163,,-0.07327110366028695,-0.03740458753180348,0.09109008376,-0.10826536583874626,,3.053993e-05,-4.172325e-07,-1.1920929e-07,1.0,-2.5749207e-05,-2.361089e-05,2.5756657e-05,1.0,-4.2915344e-06,2.361089e-05,4.23193e-06,1.0,1290,4.015,0,5,1.771,False,0.6784114533640881,0.673557063889084
4.0040139860939234,19:58:18.528049,19:56:59.036556,0,,0.12143202,0.008458659,0.023704857,-0.24574211,-0.83147484,-0.4982574,-0.6667539,-0.2281116,0.7095099,-0.70359784,0.50657153,-0.4983325,,0.08457243,-0.0011475645,0.05092275,0.50643915,0.4182907,0.75402397,-0.8582824,0.16047564,0.48744112,0.08288953,-0.89402497,0.44028282,,0.08370297,1.2898995,0.427067,0.9923726,0.099615335,-0.07261872,0.024169376,-0.73487014,-0.67777705,-0.12088232,0.67085224,-0.7316726,,-0.113033175,0.26234922,-0.090678185,0.28395957,0.7405422,0.6090684,-0.95870364,0.20871723,0.19319534,0.01594623,-0.63877577,0.7692277,,-0.08945642,0.45006242,-0.34653276,-0.5386532,-0.23697835,-0.80851346,-0.5626445,-0.6131085,0.55455315,-0.62712353,0.7536174,0.19691828,,1.1548574740115332,0.5356719203548347,0.22302799079000002,-0.43007407408675946,0.027463936452853527,0.6334852846857341,-0.010127332100325237,,-1.4879543883425848,0.26936892265295087,0.18198615310000002,-0.3493434458452176,-0.23077904810382893,-1.1732364013196355,0.500159530503163,,-0.07327110366028695,-0.03740458753180348,0.09109008376,-0.10826536583874626,,3.053993e-05,-4.172325e-07,-1.1920929e-07,1.0,-2.5749207e-05,-2.361089e-05,2.5756657e-05,1.0,-4.2915344e-06,2.361089e-05,4.23193e-06,1.0,1309,4.076,0,5,1.771,False,0.701765919024333,0.6727363004758331
4.069486096967012,19:58:18.591320,19:56:59.036556,0,,0.12038407,0.008003451,0.023462296,-0.25084513,-0.8325817,-0.49384657,-0.678567,-0.21260086,0.70309865,-0.69037926,0.5114769,-0.5116326,,0.084273286,-0.0010959767,0.050485015,0.5138065,0.37516743,0.77152586,-0.85558796,0.15801749,0.4929499,0.0630241,-0.91338927,0.4021792,,0.08370297,1.2898995,0.427067,0.9923726,0.099615335,-0.07261872,0.024169376,-0.73487014,-0.67777705,-0.12088232,0.67085224,-0.7316726,,-0.11199931,0.26188746,-0.09096476,0.2864394,0.74215406,0.6059371,-0.95809555,0.22341272,0.17927541,-0.0023240934,-0.6318972,0.77504873,,-0.08907862,0.44980672,-0.3462578,-0.5420536,-0.19106932,-0.8183339,-0.57660097,-0.6238421,0.52759105,-0.61131763,0.75783473,0.2279851,,1.1577921125037385,0.5314630309383823,0.22280114004,-0.4279771746519142,0.0121606484791242,0.6204803229758779,0.19437943869979235,,-1.4853904410283423,0.2686893221600191,0.18210022662000003,-0.3392783285579604,-0.21205984763596358,-1.1358178667353827,0.49901612204022294,,-0.07327110366028695,-0.03740458753180348,0.09109008376,-0.10826536583874626,,3.053993e-05,-4.172325e-07,-1.1920929e-07,1.0,-2.5749207e-05,-2.361089e-05,2.5756657e-05,1.0,-4.2915344e-06,2.361089e-05,4.23193e-06,1.0,1323,4.121,0,5,1.771,False,0.6887779763867479,0.6693084062204915
4.132762179942802,19:58:18.640455,19:56:59.185035,0,,0.11897904,0.0072031617,0.0226928,-0.2513759,-0.8359656,-0.4878234,-0.6912838,-0.19770047,0.6950116,-0.67744875,0.5119336,-0.5281924,,0.083552815,-0.000940796,0.04979825,0.5293416,0.3195852,0.78591526,-0.84787214,0.16632822,0.5034359,0.030170739,-0.93284535,0.3590119,,0.08370297,1.2898995,0.427067,0.9923726,0.099615335,-0.07261872,0.024169376,-0.73487014,-0.67777705,-0.12088232,0.67085224,-0.7316726,,-0.11057024,0.26082602,-0.09115926,0.28436738,0.74654305,0.60150534,-0.9584995,0.23469855,0.16184966,-0.020344678,-0.6225673,0.7823018,,-0.0882371,0.44948497,-0.345807,-0.5508679,-0.13258867,-0.8239932,-0.59796053,-0.6260567,0.500496,-0.5822265,0.7684226,0.26559174,,1.1600934869002575,0.5238484163243969,0.22270132571,-0.43007407408675946,0.00013663649976544044,0.6036578292153396,0.35772350483407156,,-1.4803552191943479,0.26835724464642746,0.18218318918,-0.3262775520619199,-0.17858390519343065,-1.0966287586665882,0.49640261698207466,,-0.07327110366028695,-0.03740458753180348,0.09109008376,-0.10826536583874626,,3.053993e-05,-4.172325e-07,-1.1920929e-07,1.0,-2.5749207e-05,-2.361089e-05,2.5756657e-05,1.0,-4.2915344e-06,2.361089e-05,4.23193e-06,1.0,1342,4.183,0,5,1.771,False,0.6884800877941428,0.6707085320430957
